; G-Code generated by Simplify3D(R) Version 3.1.1
; Apr 7, 2017 at 2:44:44 PM
; Settings Summary
;   processName,Process1
;   applyToModels,acme_screw_spacer_2mm,acme_screw_spacer_2mm(2)
;   profileName,LulzBot Taz 5 ABS
;   profileVersion,2017-04-07 13:22:35
;   baseProfile,LulzBot TAZ 5
;   printMaterial,ABS
;   printQuality,Medium
;   printExtruders,
;   extruderName,Primary Extruder
;   extruderToolheadNumber,0
;   extruderDiameter,0.5
;   extruderAutoWidth,1
;   extruderWidth,0.6
;   extrusionMultiplier,0.9
;   extruderUseRetract,1
;   extruderRetractionDistance,2
;   extruderExtraRestartDistance,0
;   extruderRetractionZLift,0
;   extruderRetractionSpeed,480
;   extruderUseCoasting,0
;   extruderCoastingDistance,0.2
;   extruderUseWipe,0
;   extruderWipeDistance,5
;   primaryExtruder,0
;   layerHeight,0.35
;   topSolidLayers,2
;   bottomSolidLayers,2
;   perimeterOutlines,2
;   printPerimetersInsideOut,1
;   startPointOption,1
;   startPointOriginX,0
;   startPointOriginY,0
;   startPointOriginZ,300
;   sequentialIslands,0
;   spiralVaseMode,0
;   firstLayerHeightPercentage,105
;   firstLayerWidthPercentage,105
;   firstLayerUnderspeed,0.5
;   useRaft,0
;   raftExtruder,0
;   raftLayers,3
;   raftOffset,3
;   raftSeparationDistance,0.14
;   raftInfill,85
;   disableRaftBaseLayers,0
;   useSkirt,1
;   skirtExtruder,0
;   skirtLayers,1
;   skirtOutlines,1
;   skirtOffset,5
;   usePrimePillar,0
;   primePillarExtruder,999
;   primePillarWidth,12
;   primePillarLocation,7
;   primePillarSpeedMultiplier,1
;   useOozeShield,0
;   oozeShieldExtruder,999
;   oozeShieldOffset,2
;   oozeShieldOutlines,1
;   oozeShieldSidewallShape,1
;   oozeShieldSidewallAngle,30
;   oozeShieldSpeedMultiplier,1
;   infillExtruder,0
;   internalInfillPattern,Rectilinear
;   externalInfillPattern,Rectilinear
;   infillPercentage,20
;   outlineOverlapPercentage,40
;   infillExtrusionWidthPercentage,220
;   minInfillLength,5
;   infillLayerInterval,1
;   infillAngles,45,-45
;   overlapInfillAngles,0
;   generateSupport,0
;   supportExtruder,0
;   supportInfillPercentage,15
;   supportExtraInflation,0
;   denseSupportLayers,0
;   denseSupportInfillPercentage,70
;   supportLayerInterval,1
;   supportHorizontalPartOffset,0.35
;   supportUpperSeparationLayers,1
;   supportLowerSeparationLayers,1
;   supportType,1
;   supportGridSpacing,4
;   maxOverhangAngle,15
;   supportAngles,0,45
;   temperatureName,Primary Extruder,Heated Bed
;   temperatureNumber,0,1
;   temperatureSetpointCount,1,1
;   temperatureSetpointLayers,1,1
;   temperatureSetpointTemperatures,240,110
;   temperatureStabilizeAtStartup,1,1
;   temperatureHeatedBed,0,1
;   temperatureRelayBetweenLayers,0,0
;   temperatureRelayBetweenLoops,0,0
;   fanLayers,1
;   fanSpeeds,0
;   blipFanToFullPower,0
;   adjustSpeedForCooling,1
;   minSpeedLayerTime,15
;   minCoolingSpeedSlowdown,20
;   increaseFanForCooling,0
;   minFanLayerTime,45
;   maxCoolingFanSpeed,100
;   increaseFanForBridging,0
;   bridgingFanSpeed,100
;   use5D,1
;   relativeEdistances,0
;   allowEaxisZeroing,1
;   independentExtruderAxes,0
;   includeM10123,0
;   stickySupport,1
;   applyToolheadOffsets,0
;   gcodeXoffset,0
;   gcodeYoffset,0
;   gcodeZoffset,0
;   overrideMachineDefinition,1
;   machineTypeOverride,0
;   strokeXoverride,298
;   strokeYoverride,275
;   strokeZoverride,250
;   originOffsetXoverride,0
;   originOffsetYoverride,0
;   originOffsetZoverride,0
;   homeXdirOverride,-1
;   homeYdirOverride,-1
;   homeZdirOverride,-1
;   flipXoverride,1
;   flipYoverride,-1
;   flipZoverride,1
;   toolheadOffsets,0,0|0,0|0,0|0,0|0,0|0,0
;   overrideFirmwareConfiguration,1
;   firmwareTypeOverride,RepRap (Marlin/Repetier/Sprinter)
;   GPXconfigOverride,r2
;   baudRateOverride,115200
;   overridePrinterModels,1
;   printerModelsOverride,LulzBot_TAZ3.stl
;   startingGcode,G28 ; home all axes,G1 X240 E20 F1500 ;,,
;   layerChangeGcode,
;   retractionGcode,
;   toolChangeGcode,
;   endingGcode,M104 S0 ; turn off extruder,M140 S0 ; turn off bed,G28 X0 ; home X axis,M84 ; disable motors,M106 S0;
;   exportFileFormat,gcode
;   celebration,0
;   celebrationSong,Random Song
;   postProcessing,
;   defaultSpeed,3300
;   outlineUnderspeed,0.8
;   solidInfillUnderspeed,0.75
;   supportUnderspeed,0.75
;   rapidXYspeed,4800
;   rapidZspeed,1002
;   minBridgingArea,50
;   bridgingExtraInflation,0
;   bridgingExtrusionMultiplier,1
;   bridgingSpeedMultiplier,1
;   filamentDiameter,2.85
;   filamentPricePerKg,53.33
;   filamentDensity,1.25
;   useMinPrintHeight,0
;   minPrintHeight,0
;   useMaxPrintHeight,0
;   maxPrintHeight,0
;   useDiaphragm,0
;   diaphragmLayerInterval,20
;   robustSlicing,1
;   mergeAllIntoSolid,0
;   onlyRetractWhenCrossingOutline,1
;   retractBetweenLayers,1
;   useRetractionMinTravel,0
;   retractionMinTravel,3
;   retractWhileWiping,0
;   onlyWipeOutlines,1
;   avoidCrossingOutline,0
;   maxMovementDetourFactor,3
;   toolChangeRetractionDistance,12
;   toolChangeExtraRestartDistance,-0.5
;   toolChangeRetractionSpeed,600
;   allowThinWallGapFill,1
;   thinWallAllowedOverlapPercentage,10
;   horizontalSizeCompensation,0
G90
M82
M106 S0
M140 S110
M190 S110
M104 S240 T0
M109 S240 T0
G28 ; home all axes
G1 X240 E20 F1500 ;
G92 E0
G1 E-2.0000 F480
G1 Z0.368 F1002
; layer 1, Z = 0.3675
T0
; tool H0.368 W0.630
; skirt
G1 X128.521 Y111.633 F4800
G1 E0.0000 F144
G92 E0
G1 X128.533 Y111.620 E0.0006 F1650
G1 X128.979 Y111.208 E0.0204
G1 X128.993 Y111.197 E0.0210
G1 X129.806 Y110.606 E0.0538
G1 X129.821 Y110.597 E0.0544
G1 X130.351 Y110.300 E0.0742
G1 X130.367 Y110.292 E0.0748
G1 X131.112 Y109.983 E0.1011
G1 X131.129 Y109.978 E0.1017
G1 X131.713 Y109.813 E0.1216
G1 X131.730 Y109.809 E0.1221
G1 X132.623 Y109.668 E0.1517
G1 X132.634 Y109.666 E0.1520
G1 X133.038 Y109.634 E0.1653
G1 X133.050 Y109.634 E0.1656
G1 X164.849 Y109.634 E1.2043
G1 X164.855 Y109.634 E1.2045
G1 X165.057 Y109.642 E1.2111
G1 X165.063 Y109.642 E1.2113
G1 X165.665 Y109.690 E1.2310
G1 X165.683 Y109.692 E1.2316
G1 X166.278 Y109.811 E1.2515
G1 X166.296 Y109.815 E1.2520
G1 X167.348 Y110.157 E1.2882
G1 X167.369 Y110.166 E1.2889
G1 X168.092 Y110.534 E1.3154
G1 X168.112 Y110.546 E1.3162
G1 X169.007 Y111.197 E1.3523
G1 X169.021 Y111.208 E1.3529
G1 X169.467 Y111.620 E1.3727
G1 X169.479 Y111.633 E1.3733
G1 X170.003 Y112.246 E1.3997
G1 X170.014 Y112.261 E1.4003
G1 X170.351 Y112.766 E1.4201
G1 X170.360 Y112.781 E1.4207
G1 X170.862 Y113.767 E1.4568
G1 X170.871 Y113.788 E1.4576
G1 X171.122 Y114.559 E1.4841
G1 X171.127 Y114.582 E1.4848
G1 X171.284 Y115.575 E1.5176
G1 X171.286 Y115.587 E1.5180
G1 X171.318 Y115.990 E1.5312
G1 X171.318 Y116.002 E1.5316
G1 X171.318 Y133.932 E2.1173
G1 X171.318 Y133.944 E2.1177
G1 X171.286 Y134.347 E2.1309
G1 X171.284 Y134.359 E2.1313
G1 X171.127 Y135.352 E2.1641
G1 X171.122 Y135.375 E2.1649
G1 X170.871 Y136.146 E2.1914
G1 X170.862 Y136.167 E2.1921
G1 X170.360 Y137.153 E2.2283
G1 X170.351 Y137.168 E2.2289
G1 X170.129 Y137.500 E2.2419
G1 X170.351 Y137.831 E2.2549
G1 X170.360 Y137.847 E2.2555
G1 X170.862 Y138.833 E2.2916
G1 X170.871 Y138.854 E2.2924
G1 X171.122 Y139.625 E2.3189
G1 X171.127 Y139.648 E2.3196
G1 X171.284 Y140.641 E2.3525
G1 X171.286 Y140.653 E2.3528
G1 X171.318 Y141.056 E2.3661
G1 X171.318 Y141.068 E2.3664
G1 X171.318 Y158.998 E2.9521
G1 X171.318 Y159.010 E2.9525
G1 X171.286 Y159.413 E2.9657
G1 X171.284 Y159.425 E2.9661
G1 X171.127 Y160.418 E2.9989
G1 X171.122 Y160.441 E2.9997
G1 X170.871 Y161.212 E3.0262
G1 X170.862 Y161.234 E3.0270
G1 X170.360 Y162.219 E3.0631
G1 X170.351 Y162.235 E3.0637
G1 X170.014 Y162.739 E3.0835
G1 X170.003 Y162.754 E3.0841
G1 X169.479 Y163.367 E3.1104
G1 X169.467 Y163.380 E3.1110
G1 X169.021 Y163.792 E3.1309
G1 X169.007 Y163.803 E3.1314
G1 X168.194 Y164.394 E3.1642
G1 X168.179 Y164.403 E3.1648
G1 X167.649 Y164.700 E3.1847
G1 X167.633 Y164.708 E3.1852
G1 X166.888 Y165.017 E3.2116
G1 X166.871 Y165.022 E3.2122
G1 X166.287 Y165.187 E3.2320
G1 X166.269 Y165.191 E3.2326
G1 X165.377 Y165.332 E3.2621
G1 X165.366 Y165.334 E3.2625
G1 X164.962 Y165.366 E3.2757
G1 X164.950 Y165.366 E3.2761
G1 X133.050 Y165.366 E4.3181
G1 X133.038 Y165.366 E4.3185
G1 X132.634 Y165.334 E4.3317
G1 X132.623 Y165.332 E4.3321
G1 X131.630 Y165.175 E4.3649
G1 X131.607 Y165.170 E4.3656
G1 X130.836 Y164.919 E4.3921
G1 X130.815 Y164.910 E4.3929
G1 X129.738 Y164.362 E4.4323
G1 X129.718 Y164.349 E4.4331
G1 X129.062 Y163.873 E4.4596
G1 X129.044 Y163.858 E4.4604
G1 X128.262 Y163.075 E4.4965
G1 X128.250 Y163.062 E4.4971
G1 X127.874 Y162.585 E4.5169
G1 X127.864 Y162.570 E4.5175
G1 X127.443 Y161.883 E4.5439
G1 X127.434 Y161.867 E4.5444
G1 X127.180 Y161.316 E4.5643
G1 X127.174 Y161.299 E4.5648
G1 X126.863 Y160.344 E4.5977
G1 X126.859 Y160.327 E4.5982
G1 X126.740 Y159.731 E4.6181
G1 X126.738 Y159.713 E4.6187
G1 X126.690 Y159.111 E4.6384
G1 X126.690 Y159.105 E4.6386
G1 X126.682 Y158.903 E4.6452
G1 X126.682 Y158.897 E4.6454
G1 X126.682 Y141.068 E5.2278
G1 X126.682 Y141.056 E5.2281
G1 X126.714 Y140.652 E5.2414
G1 X126.716 Y140.641 E5.2417
G1 X126.873 Y139.648 E5.2746
G1 X126.878 Y139.625 E5.2753
G1 X127.129 Y138.855 E5.3018
G1 X127.138 Y138.833 E5.3026
G1 X127.686 Y137.756 E5.3420
G1 X127.698 Y137.736 E5.3428
G1 X127.865 Y137.506 E5.3521
G1 X127.864 Y137.504 E5.3522
G1 X127.442 Y136.816 E5.3785
G1 X127.434 Y136.801 E5.3791
G1 X127.180 Y136.250 E5.3989
G1 X127.174 Y136.233 E5.3995
G1 X126.863 Y135.278 E5.4323
G1 X126.859 Y135.261 E5.4329
G1 X126.740 Y134.665 E5.4527
G1 X126.738 Y134.647 E5.4533
G1 X126.690 Y134.045 E5.4730
G1 X126.690 Y134.039 E5.4732
G1 X126.682 Y133.837 E5.4798
G1 X126.682 Y133.831 E5.4800
G1 X126.682 Y116.002 E6.0624
G1 X126.682 Y115.990 E6.0628
G1 X126.714 Y115.586 E6.0760
G1 X126.716 Y115.575 E6.0764
G1 X126.873 Y114.582 E6.1092
G1 X126.878 Y114.559 E6.1100
G1 X127.129 Y113.788 E6.1365
G1 X127.138 Y113.767 E6.1372
G1 X127.640 Y112.781 E6.1734
G1 X127.649 Y112.766 E6.1739
G1 X127.987 Y112.260 E6.1938
G1 X127.997 Y112.246 E6.1944
G1 X128.521 Y111.633 E6.2207
G92 E0
G1 E-2.0000 F480
; inner perimeter
G1 X132.927 Y133.693 F4800
G1 E0.0000 F480
G92 E0
G1 X132.927 Y116.241 E0.5700 F1485
G1 X132.934 Y116.153 E0.5729
G1 X132.946 Y116.104 E0.5746
G1 X132.965 Y116.058 E0.5762
G1 X132.991 Y116.015 E0.5779
G1 X133.024 Y115.976 E0.5795
G1 X133.063 Y115.943 E0.5812
G1 X133.106 Y115.917 E0.5828
G1 X133.153 Y115.898 E0.5845
G1 X133.202 Y115.886 E0.5861
G1 X133.289 Y115.879 E0.5890
G1 X164.711 Y115.879 E1.6153
G1 X164.798 Y115.886 E1.6182
G1 X164.848 Y115.898 E1.6198
G1 X164.894 Y115.917 E1.6215
G1 X164.937 Y115.943 E1.6231
G1 X164.976 Y115.976 E1.6248
G1 X165.009 Y116.015 E1.6264
G1 X165.035 Y116.058 E1.6281
G1 X165.054 Y116.104 E1.6297
G1 X165.066 Y116.154 E1.6314
G1 X165.073 Y116.241 E1.6343
G1 X165.073 Y133.693 E2.2043
G1 X165.066 Y133.780 E2.2072
G1 X165.054 Y133.830 E2.2088
G1 X165.035 Y133.876 E2.2105
G1 X165.009 Y133.919 E2.2121
G1 X164.976 Y133.958 E2.2138
G1 X164.937 Y133.990 E2.2154
G1 X164.894 Y134.017 E2.2171
G1 X164.847 Y134.036 E2.2187
G1 X164.798 Y134.048 E2.2204
G1 X164.711 Y134.055 E2.2232
G1 X133.289 Y134.055 E3.2496
G1 X133.202 Y134.048 E3.2524
G1 X133.152 Y134.036 E3.2541
G1 X133.106 Y134.017 E3.2557
G1 X133.063 Y133.991 E3.2574
G1 X133.024 Y133.958 E3.2590
G1 X132.991 Y133.919 E3.2607
G1 X132.965 Y133.876 E3.2623
G1 X132.946 Y133.829 E3.2640
G1 X132.934 Y133.780 E3.2656
G1 X132.927 Y133.693 E3.2685
; outer perimeter
G1 X132.297 Y133.718 F4800
G92 E0
G1 X132.297 Y116.216 E0.5716 F1320
G1 X132.310 Y116.055 E0.5769
G1 X132.345 Y115.909 E0.5818
G1 X132.402 Y115.771 E0.5867
G1 X132.480 Y115.643 E0.5916
G1 X132.577 Y115.529 E0.5965
G1 X132.691 Y115.432 E0.6014
G1 X132.819 Y115.354 E0.6063
G1 X132.957 Y115.297 E0.6112
G1 X133.103 Y115.262 E0.6161
G1 X133.264 Y115.249 E0.6214
G1 X164.736 Y115.249 E1.6493
G1 X164.897 Y115.262 E1.6546
G1 X165.043 Y115.297 E1.6595
G1 X165.181 Y115.354 E1.6644
G1 X165.309 Y115.432 E1.6693
G1 X165.423 Y115.529 E1.6742
G1 X165.520 Y115.643 E1.6791
G1 X165.598 Y115.771 E1.6839
G1 X165.655 Y115.909 E1.6888
G1 X165.690 Y116.055 E1.6937
G1 X165.703 Y116.216 E1.6990
G1 X165.703 Y133.718 E2.2707
G1 X165.690 Y133.879 E2.2760
G1 X165.655 Y134.025 E2.2809
G1 X165.598 Y134.163 E2.2857
G1 X165.520 Y134.291 E2.2906
G1 X165.423 Y134.405 E2.2955
G1 X165.309 Y134.502 E2.3004
G1 X165.181 Y134.580 E2.3053
G1 X165.043 Y134.637 E2.3102
G1 X164.897 Y134.672 E2.3151
G1 X164.736 Y134.685 E2.3204
G1 X133.264 Y134.685 E3.3483
G1 X133.103 Y134.672 E3.3536
G1 X132.957 Y134.637 E3.3585
G1 X132.819 Y134.580 E3.3634
G1 X132.691 Y134.502 E3.3683
G1 X132.577 Y134.405 E3.3732
G1 X132.480 Y134.291 E3.3781
G1 X132.402 Y134.163 E3.3830
G1 X132.345 Y134.025 E3.3879
G1 X132.310 Y133.879 E3.3928
G1 X132.297 Y133.718 E3.3980
; inner perimeter
G1 X136.808 Y127.870 F4800
G92 E0
G1 X137.324 Y128.231 E0.0206 F1485
G1 X137.895 Y128.498 E0.0412
G1 X138.504 Y128.661 E0.0618
G1 X139.132 Y128.716 E0.0823
G1 X139.760 Y128.661 E0.1029
G1 X140.369 Y128.498 E0.1235
G1 X140.940 Y128.231 E0.1441
G1 X141.456 Y127.870 E0.1647
G1 X141.902 Y127.424 E0.1853
G1 X142.263 Y126.908 E0.2059
G1 X142.530 Y126.337 E0.2264
G1 X142.693 Y125.728 E0.2470
G1 X142.748 Y125.100 E0.2676
G1 X142.693 Y124.472 E0.2882
G1 X142.530 Y123.863 E0.3088
G1 X142.263 Y123.292 E0.3294
G1 X141.902 Y122.776 E0.3500
G1 X141.456 Y122.330 E0.3705
G1 X140.940 Y121.969 E0.3911
G1 X140.369 Y121.702 E0.4117
G1 X139.760 Y121.539 E0.4323
G1 X139.132 Y121.484 E0.4529
G1 X138.504 Y121.539 E0.4735
G1 X137.895 Y121.702 E0.4941
G1 X137.324 Y121.969 E0.5146
G1 X136.808 Y122.330 E0.5352
G1 X136.362 Y122.776 E0.5558
G1 X136.001 Y123.292 E0.5764
G1 X135.734 Y123.863 E0.5970
G1 X135.571 Y124.472 E0.6176
G1 X135.516 Y125.100 E0.6382
G1 X135.571 Y125.728 E0.6587
G1 X135.734 Y126.337 E0.6793
G1 X136.001 Y126.908 E0.6999
G1 X136.362 Y127.424 E0.7205
G1 X136.808 Y127.870 E0.7411
; outer perimeter
G1 X137.214 Y127.385 F4800
G92 E0
G1 X137.640 Y127.684 E0.0170 F1320
G1 X138.112 Y127.903 E0.0340
G1 X138.614 Y128.038 E0.0510
G1 X139.132 Y128.083 E0.0679
G1 X139.650 Y128.038 E0.0849
G1 X140.152 Y127.903 E0.1019
G1 X140.624 Y127.684 E0.1189
G1 X141.050 Y127.385 E0.1359
G1 X141.417 Y127.018 E0.1529
G1 X141.716 Y126.592 E0.1699
G1 X141.935 Y126.120 E0.1868
G1 X142.070 Y125.618 E0.2038
G1 X142.115 Y125.100 E0.2208
G1 X142.070 Y124.582 E0.2378
G1 X141.935 Y124.080 E0.2548
G1 X141.716 Y123.608 E0.2718
G1 X141.417 Y123.182 E0.2887
G1 X141.050 Y122.815 E0.3057
G1 X140.624 Y122.516 E0.3227
G1 X140.152 Y122.297 E0.3397
G1 X139.650 Y122.162 E0.3567
G1 X139.132 Y122.117 E0.3737
G1 X138.614 Y122.162 E0.3907
G1 X138.112 Y122.297 E0.4076
G1 X137.640 Y122.516 E0.4246
G1 X137.214 Y122.815 E0.4416
G1 X136.847 Y123.182 E0.4586
G1 X136.548 Y123.608 E0.4756
G1 X136.329 Y124.080 E0.4926
G1 X136.194 Y124.582 E0.5096
G1 X136.149 Y125.100 E0.5265
G1 X136.194 Y125.618 E0.5435
G1 X136.329 Y126.120 E0.5605
G1 X136.548 Y126.592 E0.5775
G1 X136.847 Y127.018 E0.5945
G1 X137.214 Y127.385 E0.6115
G92 E0
G1 E-2.0000 F480
; inner perimeter
G1 X155.470 Y126.337 F4800
G1 E0.0000 F480
G92 E0
G1 X155.737 Y126.908 E0.0206 F1485
G1 X156.098 Y127.424 E0.0412
G1 X156.544 Y127.870 E0.0618
G1 X157.060 Y128.231 E0.0823
G1 X157.631 Y128.498 E0.1029
G1 X158.240 Y128.661 E0.1235
G1 X158.868 Y128.716 E0.1441
G1 X159.496 Y128.661 E0.1647
G1 X160.105 Y128.498 E0.1853
G1 X160.676 Y128.231 E0.2059
G1 X161.192 Y127.870 E0.2264
G1 X161.638 Y127.424 E0.2470
G1 X161.999 Y126.908 E0.2676
G1 X162.266 Y126.337 E0.2882
G1 X162.429 Y125.728 E0.3088
G1 X162.484 Y125.100 E0.3294
G1 X162.429 Y124.472 E0.3500
G1 X162.266 Y123.863 E0.3705
G1 X161.999 Y123.292 E0.3911
G1 X161.638 Y122.776 E0.4117
G1 X161.192 Y122.330 E0.4323
G1 X160.676 Y121.969 E0.4529
G1 X160.105 Y121.702 E0.4735
G1 X159.496 Y121.539 E0.4941
G1 X158.868 Y121.484 E0.5146
G1 X158.240 Y121.539 E0.5352
G1 X157.631 Y121.702 E0.5558
G1 X157.060 Y121.969 E0.5764
G1 X156.544 Y122.330 E0.5970
G1 X156.098 Y122.776 E0.6176
G1 X155.737 Y123.292 E0.6382
G1 X155.470 Y123.863 E0.6587
G1 X155.307 Y124.472 E0.6793
G1 X155.252 Y125.100 E0.6999
G1 X155.307 Y125.728 E0.7205
G1 X155.470 Y126.337 E0.7411
