; G-Code generated by Simplify3D(R) Version 3.1.1
; Apr 29, 2017 at 10:11:27 AM
; Settings Summary
;   processName,Process1
;   applyToModels,Cable_Carrier_Link_Rev_C(2),Cable_Carrier_Link_Rev_C(3),Cable_Carrier_Link_Rev_C(4),Cable_Carrier_Link_Rev_C(3)(2),Cable_Carrier_Link_Rev_C(3)(4),Cable_Carrier_Link_Rev_C(3)(2)(2),Cable_Carrier_Link_Rev_C(3)(3)(2),Cable_Carrier_Link_Rev_C(3)(5),Cable_Carrier_Link_Rev_C(3)(3)(3)
;   profileName,LulzBot TAZ 5
;   profileVersion,2017-04-24 18:21:25
;   baseProfile,
;   printMaterial,PLA
;   printQuality,Medium
;   printExtruders,
;   extruderName,Primary Extruder
;   extruderToolheadNumber,0
;   extruderDiameter,0.35
;   extruderAutoWidth,1
;   extruderWidth,0.42
;   extrusionMultiplier,0.9
;   extruderUseRetract,1
;   extruderRetractionDistance,1.7
;   extruderExtraRestartDistance,0
;   extruderRetractionZLift,0
;   extruderRetractionSpeed,1800
;   extruderUseCoasting,0
;   extruderCoastingDistance,0.2
;   extruderUseWipe,0
;   extruderWipeDistance,5
;   primaryExtruder,0
;   layerHeight,0.3
;   topSolidLayers,3
;   bottomSolidLayers,2
;   perimeterOutlines,2
;   printPerimetersInsideOut,1
;   startPointOption,2
;   startPointOriginX,0
;   startPointOriginY,0
;   startPointOriginZ,300
;   sequentialIslands,0
;   spiralVaseMode,0
;   firstLayerHeightPercentage,90
;   firstLayerWidthPercentage,100
;   firstLayerUnderspeed,0.5
;   useRaft,0
;   raftExtruder,0
;   raftLayers,3
;   raftOffset,3
;   raftSeparationDistance,0.14
;   raftInfill,85
;   disableRaftBaseLayers,0
;   useSkirt,1
;   skirtExtruder,0
;   skirtLayers,1
;   skirtOutlines,2
;   skirtOffset,6
;   usePrimePillar,0
;   primePillarExtruder,999
;   primePillarWidth,12
;   primePillarLocation,7
;   primePillarSpeedMultiplier,1
;   useOozeShield,0
;   oozeShieldExtruder,999
;   oozeShieldOffset,2
;   oozeShieldOutlines,1
;   oozeShieldSidewallShape,1
;   oozeShieldSidewallAngle,30
;   oozeShieldSpeedMultiplier,1
;   infillExtruder,0
;   internalInfillPattern,Rectilinear
;   externalInfillPattern,Rectilinear
;   infillPercentage,20
;   outlineOverlapPercentage,15
;   infillExtrusionWidthPercentage,200
;   minInfillLength,5
;   infillLayerInterval,1
;   infillAngles,45,-45
;   overlapInfillAngles,0
;   generateSupport,0
;   supportExtruder,0
;   supportInfillPercentage,30
;   supportExtraInflation,0
;   denseSupportLayers,0
;   denseSupportInfillPercentage,70
;   supportLayerInterval,1
;   supportHorizontalPartOffset,0.3
;   supportUpperSeparationLayers,1
;   supportLowerSeparationLayers,1
;   supportType,0
;   supportGridSpacing,4
;   maxOverhangAngle,45
;   supportAngles,0
;   temperatureName,Primary Extruder,Heated Bed
;   temperatureNumber,0,1
;   temperatureSetpointCount,1,1
;   temperatureSetpointLayers,1,1
;   temperatureSetpointTemperatures,210,65
;   temperatureStabilizeAtStartup,1,1
;   temperatureHeatedBed,0,1
;   temperatureRelayBetweenLayers,0,0
;   temperatureRelayBetweenLoops,0,0
;   fanLayers,1,2
;   fanSpeeds,0,100
;   blipFanToFullPower,1
;   adjustSpeedForCooling,1
;   minSpeedLayerTime,15
;   minCoolingSpeedSlowdown,20
;   increaseFanForCooling,0
;   minFanLayerTime,45
;   maxCoolingFanSpeed,100
;   increaseFanForBridging,0
;   bridgingFanSpeed,100
;   use5D,1
;   relativeEdistances,0
;   allowEaxisZeroing,1
;   independentExtruderAxes,0
;   includeM10123,0
;   stickySupport,1
;   applyToolheadOffsets,0
;   gcodeXoffset,0
;   gcodeYoffset,0
;   gcodeZoffset,0
;   overrideMachineDefinition,1
;   machineTypeOverride,0
;   strokeXoverride,298
;   strokeYoverride,275
;   strokeZoverride,250
;   originOffsetXoverride,0
;   originOffsetYoverride,0
;   originOffsetZoverride,0
;   homeXdirOverride,-1
;   homeYdirOverride,-1
;   homeZdirOverride,-1
;   flipXoverride,1
;   flipYoverride,-1
;   flipZoverride,1
;   toolheadOffsets,0,0|0,0|0,0|0,0|0,0|0,0
;   overrideFirmwareConfiguration,1
;   firmwareTypeOverride,RepRap (Marlin/Repetier/Sprinter)
;   GPXconfigOverride,r2
;   baudRateOverride,115200
;   overridePrinterModels,1
;   printerModelsOverride,LulzBot_TAZ3.stl
;   startingGcode,G28 ; home all axes
;   layerChangeGcode,
;   retractionGcode,
;   toolChangeGcode,
;   endingGcode,M104 S0 ; turn off extruder,M140 S0 ; turn off bed,G28 X0 ; home X axis,M84 ; disable motors
;   exportFileFormat,gcode
;   celebration,0
;   celebrationSong,Random Song
;   postProcessing,
;   defaultSpeed,3600
;   outlineUnderspeed,0.75
;   solidInfillUnderspeed,0.8
;   supportUnderspeed,0.8
;   rapidXYspeed,4800
;   rapidZspeed,1002
;   minBridgingArea,50
;   bridgingExtraInflation,0
;   bridgingExtrusionMultiplier,1
;   bridgingSpeedMultiplier,1
;   filamentDiameter,3
;   filamentPricePerKg,46
;   filamentDensity,1.25
;   useMinPrintHeight,0
;   minPrintHeight,0
;   useMaxPrintHeight,0
;   maxPrintHeight,0
;   useDiaphragm,0
;   diaphragmLayerInterval,20
;   robustSlicing,1
;   mergeAllIntoSolid,0
;   onlyRetractWhenCrossingOutline,1
;   retractBetweenLayers,1
;   useRetractionMinTravel,0
;   retractionMinTravel,3
;   retractWhileWiping,0
;   onlyWipeOutlines,1
;   avoidCrossingOutline,0
;   maxMovementDetourFactor,3
;   toolChangeRetractionDistance,12
;   toolChangeExtraRestartDistance,-0.5
;   toolChangeRetractionSpeed,600
;   allowThinWallGapFill,1
;   thinWallAllowedOverlapPercentage,10
;   horizontalSizeCompensation,0
G90
M82
M106 S0
M140 S65
M190 S65
M104 S210 T0
M109 S210 T0
G28 ; home all axes
G92 E0
G1 E-1.7000 F1800
G1 Z0.270 F1002
; layer 1, Z = 0.27
T0
; tool H0.300 W0.420
; skirt
G1 X106.031 Y85.233 F4800
G1 E0.0000 F540
G92 E0
G1 X109.723 Y81.541 E0.0838 F1800
G1 X109.955 Y81.445 E0.0878
G1 X127.851 Y81.445 E0.3749
G1 X128.082 Y81.541 E0.3789
G1 X130.094 Y83.554 E0.4246
G1 X132.149 Y83.554 E0.4575
G1 X132.380 Y83.650 E0.4615
G1 X132.976 Y84.245 E0.4750
G1 X135.680 Y81.541 E0.5364
G1 X135.911 Y81.445 E0.5404
G1 X153.807 Y81.445 E0.8275
G1 X154.039 Y81.541 E0.8315
G1 X156.051 Y83.554 E0.8772
G1 X158.105 Y83.554 E0.9101
G1 X158.337 Y83.650 E0.9142
G1 X158.932 Y84.245 E0.9277
G1 X161.636 Y81.541 E0.9890
G1 X161.868 Y81.445 E0.9930
G1 X179.763 Y81.445 E1.2801
G1 X179.995 Y81.541 E1.2842
G1 X182.007 Y83.554 E1.3298
G1 X184.061 Y83.554 E1.3628
G1 X184.293 Y83.650 E1.3668
G1 X187.985 Y87.341 E1.4506
G1 X188.081 Y87.573 E1.4546
G1 X188.081 Y93.694 E1.5528
G1 X187.985 Y93.926 E1.5568
G1 X186.983 Y94.928 E1.5795
G1 X186.983 Y110.840 E1.8348
G1 X187.985 Y111.841 E1.8575
G1 X188.081 Y112.073 E1.8615
G1 X188.081 Y118.194 E1.9598
G1 X187.985 Y118.426 E1.9638
G1 X186.219 Y120.192 E2.0038
G1 X187.985 Y121.958 E2.0439
G1 X188.081 Y122.189 E2.0479
G1 X188.081 Y128.311 E2.1461
G1 X187.985 Y128.542 E2.1502
G1 X186.983 Y129.544 E2.1729
G1 X186.983 Y145.456 E2.4282
G1 X187.985 Y146.458 E2.4509
G1 X188.081 Y146.689 E2.4549
G1 X188.081 Y152.811 E2.5531
G1 X187.985 Y153.042 E2.5571
G1 X186.219 Y154.808 E2.5972
G1 X187.985 Y156.574 E2.6373
G1 X188.081 Y156.806 E2.6413
G1 X188.081 Y162.927 E2.7395
G1 X187.985 Y163.159 E2.7435
G1 X186.983 Y164.160 E2.7662
G1 X186.983 Y180.072 E3.0215
G1 X187.985 Y181.074 E3.0442
G1 X188.081 Y181.306 E3.0483
G1 X188.081 Y187.427 E3.1465
G1 X187.985 Y187.659 E3.1505
G1 X184.293 Y191.350 E3.2342
G1 X184.061 Y191.446 E3.2383
G1 X182.007 Y191.446 E3.2712
G1 X179.995 Y193.459 E3.3169
G1 X179.763 Y193.555 E3.3209
G1 X161.868 Y193.555 E3.6080
G1 X161.636 Y193.459 E3.6120
G1 X158.932 Y190.755 E3.6734
G1 X158.337 Y191.350 E3.6869
G1 X158.105 Y191.446 E3.6909
G1 X156.051 Y191.446 E3.7238
G1 X154.039 Y193.459 E3.7695
G1 X153.807 Y193.555 E3.7735
G1 X135.911 Y193.555 E4.0606
G1 X135.680 Y193.459 E4.0646
G1 X132.976 Y190.755 E4.1260
G1 X132.380 Y191.350 E4.1395
G1 X132.149 Y191.446 E4.1435
G1 X130.094 Y191.446 E4.1765
G1 X128.082 Y193.459 E4.2221
G1 X127.851 Y193.555 E4.2262
G1 X109.955 Y193.555 E4.5133
G1 X109.723 Y193.459 E4.5173
G1 X106.031 Y189.767 E4.6010
G1 X105.935 Y189.535 E4.6051
G1 X105.935 Y182.206 E4.7226
G1 X106.031 Y181.974 E4.7267
G1 X109.723 Y178.282 E4.8104
G1 X109.955 Y178.186 E4.8144
G1 X113.410 Y178.186 E4.8699
G1 X113.410 Y166.046 E5.0646
G1 X109.955 Y166.046 E5.1201
G1 X109.723 Y165.950 E5.1241
G1 X106.031 Y162.259 E5.2078
G1 X105.935 Y162.027 E5.2119
G1 X105.935 Y147.589 E5.4435
G1 X106.031 Y147.358 E5.4475
G1 X109.723 Y143.666 E5.5313
G1 X109.955 Y143.570 E5.5353
G1 X113.410 Y143.570 E5.5907
G1 X113.410 Y131.430 E5.7855
G1 X109.955 Y131.430 E5.8409
G1 X109.723 Y131.334 E5.8449
G1 X106.031 Y127.642 E5.9287
G1 X105.935 Y127.411 E5.9327
G1 X105.935 Y112.973 E6.1643
G1 X106.031 Y112.741 E6.1683
G1 X109.723 Y109.050 E6.2521
G1 X109.955 Y108.954 E6.2561
G1 X113.410 Y108.954 E6.3116
G1 X113.410 Y96.814 E6.5063
G1 X109.955 Y96.814 E6.5617
G1 X109.723 Y96.718 E6.5658
G1 X106.031 Y93.026 E6.6495
G1 X105.935 Y92.794 E6.6535
G1 X105.935 Y85.465 E6.7711
G1 X106.031 Y85.233 E6.7752
G1 X106.387 Y85.471 F4800
G92 E0
G1 X109.961 Y81.897 E0.0811 F1800
G1 X110.038 Y81.865 E0.0824
G1 X127.767 Y81.865 E0.3668
G1 X127.844 Y81.897 E0.3682
G1 X129.921 Y83.974 E0.4153
G1 X132.065 Y83.974 E0.4497
G1 X132.142 Y84.006 E0.4510
G1 X132.976 Y84.839 E0.4699
G1 X135.918 Y81.897 E0.5367
G1 X135.995 Y81.865 E0.5380
G1 X153.723 Y81.865 E0.8224
G1 X153.801 Y81.897 E0.8238
G1 X155.877 Y83.974 E0.8709
G1 X158.022 Y83.974 E0.9053
G1 X158.099 Y84.006 E0.9066
G1 X158.932 Y84.839 E0.9255
G1 X161.874 Y81.897 E0.9923
G1 X161.951 Y81.865 E0.9936
G1 X179.680 Y81.865 E1.2780
G1 X179.757 Y81.897 E1.2794
G1 X181.833 Y83.974 E1.3265
G1 X183.978 Y83.974 E1.3609
G1 X184.055 Y84.006 E1.3622
G1 X187.629 Y87.579 E1.4433
G1 X187.661 Y87.657 E1.4447
G1 X187.661 Y93.611 E1.5402
G1 X187.629 Y93.688 E1.5415
G1 X186.563 Y94.754 E1.5657
G1 X186.563 Y111.014 E1.8266
G1 X187.629 Y112.079 E1.8507
G1 X187.661 Y112.157 E1.8521
G1 X187.661 Y118.111 E1.9476
G1 X187.629 Y118.188 E1.9489
G1 X185.625 Y120.192 E1.9944
G1 X187.629 Y122.196 E2.0399
G1 X187.661 Y122.273 E2.0412
G1 X187.661 Y128.227 E2.1367
G1 X187.629 Y128.304 E2.1381
G1 X186.563 Y129.370 E2.1623
G1 X186.563 Y145.630 E2.4231
G1 X187.629 Y146.696 E2.4473
G1 X187.661 Y146.773 E2.4486
G1 X187.661 Y152.727 E2.5441
G1 X187.629 Y152.804 E2.5455
G1 X185.625 Y154.808 E2.5910
G1 X187.629 Y156.812 E2.6364
G1 X187.661 Y156.889 E2.6378
G1 X187.661 Y162.843 E2.7333
G1 X187.629 Y162.921 E2.7346
G1 X186.563 Y163.986 E2.7588
G1 X186.563 Y180.246 E3.0197
G1 X187.629 Y181.312 E3.0438
G1 X187.661 Y181.389 E3.0452
G1 X187.661 Y187.343 E3.1407
G1 X187.629 Y187.421 E3.1420
G1 X184.055 Y190.994 E3.2231
G1 X183.978 Y191.026 E3.2245
G1 X181.833 Y191.026 E3.2589
G1 X179.757 Y193.103 E3.3060
G1 X179.680 Y193.135 E3.3073
G1 X161.951 Y193.135 E3.5917
G1 X161.874 Y193.103 E3.5931
G1 X158.932 Y190.161 E3.6598
G1 X158.099 Y190.994 E3.6787
G1 X158.022 Y191.026 E3.6801
G1 X155.877 Y191.026 E3.7145
G1 X153.801 Y193.103 E3.7616
G1 X153.723 Y193.135 E3.7629
G1 X135.995 Y193.135 E4.0473
G1 X135.918 Y193.103 E4.0487
G1 X132.976 Y190.161 E4.1154
G1 X132.142 Y190.994 E4.1343
G1 X132.065 Y191.026 E4.1357
G1 X129.921 Y191.026 E4.1701
G1 X127.844 Y193.103 E4.2172
G1 X127.767 Y193.135 E4.2185
G1 X110.038 Y193.135 E4.5029
G1 X109.961 Y193.103 E4.5043
G1 X106.387 Y189.529 E4.5854
G1 X106.355 Y189.452 E4.5867
G1 X106.355 Y182.289 E4.7016
G1 X106.387 Y182.212 E4.7029
G1 X109.961 Y178.638 E4.7840
G1 X110.038 Y178.606 E4.7854
G1 X113.830 Y178.606 E4.8462
G1 X113.830 Y165.626 E5.0544
G1 X110.038 Y165.626 E5.1153
G1 X109.961 Y165.594 E5.1166
G1 X106.387 Y162.021 E5.1977
G1 X106.355 Y161.943 E5.1990
G1 X106.355 Y147.673 E5.4280
G1 X106.387 Y147.596 E5.4293
G1 X109.961 Y144.022 E5.5104
G1 X110.038 Y143.990 E5.5117
G1 X113.830 Y143.990 E5.5725
G1 X113.830 Y131.010 E5.7808
G1 X110.038 Y131.010 E5.8416
G1 X109.961 Y130.978 E5.8429
G1 X106.387 Y127.404 E5.9240
G1 X106.355 Y127.327 E5.9254
G1 X106.355 Y113.057 E6.1543
G1 X106.387 Y112.979 E6.1556
G1 X109.961 Y109.406 E6.2367
G1 X110.038 Y109.374 E6.2381
G1 X113.830 Y109.374 E6.2989
G1 X113.830 Y96.394 E6.5071
G1 X110.038 Y96.394 E6.5680
G1 X109.961 Y96.362 E6.5693
G1 X106.387 Y92.788 E6.6504
G1 X106.355 Y92.711 E6.6517
G1 X106.355 Y85.548 E6.7666
G1 X106.387 Y85.471 E6.7680
G92 E0
G1 E-1.7000 F1800
; inner perimeter
G1 X113.195 Y88.705 F4800
G1 E0.0000 F1800
G92 E0
G1 X124.610 Y88.705 E0.1831 F1575
G1 X124.610 Y90.814 E0.2169
G1 X127.810 Y90.814 E0.2683
G1 X127.810 Y114.954 E0.6556
G1 X124.610 Y114.954 E0.7069
G1 X124.610 Y117.062 E0.7407
G1 X113.195 Y117.062 E0.9238
G1 X113.195 Y116.214 E0.9375
G1 X120.670 Y116.214 E1.0574
G1 X120.670 Y89.554 E1.4851
G1 X113.195 Y89.554 E1.6050
G1 X113.195 Y88.705 E1.6186
; outer perimeter
G1 X112.775 Y88.285 F4800
G92 E0
G1 X125.030 Y88.285 E0.1966 F1350
G1 X125.030 Y90.394 E0.2304
G1 X129.328 Y90.394 E0.2994
G1 X129.328 Y90.874 E0.3071
G1 X128.230 Y90.874 E0.3247
G1 X128.230 Y114.894 E0.7100
G1 X129.328 Y114.894 E0.7276
G1 X129.328 Y115.374 E0.7353
G1 X125.030 Y115.374 E0.8043
G1 X125.030 Y117.482 E0.8381
G1 X112.775 Y117.482 E1.0347
G1 X112.775 Y115.794 E1.0618
G1 X120.250 Y115.794 E1.1817
G1 X120.250 Y89.974 E1.5959
G1 X112.775 Y89.974 E1.7158
G1 X112.775 Y88.285 E1.7429
; solid layer
G1 X113.630 Y89.062 F4800
G92 E0
G1 X113.764 Y89.197 E0.0030 F1440
G1 X114.358 Y89.197 E0.0126
G1 X114.224 Y89.062 E0.0156
G1 X114.818 Y89.062 E0.0251
G1 X114.952 Y89.197 E0.0282
G1 X115.546 Y89.197 E0.0377
G1 X115.412 Y89.062 E0.0408
G1 X116.006 Y89.062 E0.0503
G1 X116.140 Y89.197 E0.0533
G1 X116.734 Y89.197 E0.0629
G1 X116.600 Y89.062 E0.0659
G1 X117.194 Y89.062 E0.0754
G1 X117.328 Y89.197 E0.0785
G1 X117.922 Y89.197 E0.0880
G1 X117.788 Y89.062 E0.0911
G1 X118.382 Y89.062 E0.1006
G1 X118.516 Y89.197 E0.1036
G1 X119.110 Y89.197 E0.1132
G1 X118.975 Y89.062 E0.1162
G1 X119.569 Y89.062 E0.1257
G1 X119.704 Y89.197 E0.1288
G1 X120.298 Y89.197 E0.1383
G1 X120.163 Y89.062 E0.1414
G1 X120.757 Y89.062 E0.1509
G1 X120.892 Y89.197 E0.1539
G1 X121.027 Y89.197 E0.1561
G1 X121.027 Y89.332 E0.1583
G1 X127.453 Y95.758 E0.3041
G1 X127.453 Y95.165 E0.3136
G1 X121.351 Y89.062 E0.4520
G1 X121.027 Y89.926 F4800
G92 E0
G1 X127.453 Y96.352 E0.1458 F1440
G1 X127.453 Y96.946 E0.1553
G1 X121.027 Y90.520 E0.3011
G1 X121.027 Y91.114 E0.3107
G1 X127.453 Y97.540 E0.4565
G1 X127.453 Y98.134 E0.4660
G1 X121.027 Y91.708 E0.6118
G1 X121.027 Y92.302 E0.6213
G1 X127.453 Y98.728 E0.7671
G1 X127.453 Y99.322 E0.7767
G1 X121.027 Y92.896 E0.9225
G1 X121.027 Y93.490 E0.9320
G1 X127.453 Y99.916 E1.0778
G1 X127.453 Y100.510 E1.0873
G1 X121.027 Y94.084 E1.2332
G1 X121.027 Y94.678 E1.2427
G1 X127.453 Y101.104 E1.3885
G1 X127.453 Y101.698 E1.3980
G1 X121.027 Y95.272 E1.5438
G1 X121.027 Y95.866 E1.5534
G1 X127.453 Y102.292 E1.6992
G1 X127.453 Y102.886 E1.7087
G1 X121.027 Y96.459 E1.8545
G1 X121.027 Y97.053 E1.8640
G1 X127.453 Y103.480 E2.0098
G1 X127.453 Y104.074 E2.0194
G1 X121.027 Y97.647 E2.1652
G1 X121.027 Y98.241 E2.1747
G1 X127.453 Y104.668 E2.3205
G1 X127.453 Y105.262 E2.3300
G1 X121.027 Y98.835 E2.4758
G1 X121.027 Y99.429 E2.4854
G1 X127.453 Y105.856 E2.6312
G1 X127.453 Y106.450 E2.6407
G1 X121.027 Y100.023 E2.7865
G1 X121.027 Y100.617 E2.7960
G1 X127.453 Y107.044 E2.9418
G1 X127.453 Y107.638 E2.9514
G1 X121.027 Y101.211 E3.0972
G1 X121.027 Y101.805 E3.1067
G1 X127.453 Y108.232 E3.2525
G1 X127.453 Y108.826 E3.2620
G1 X121.027 Y102.399 E3.4079
G1 X121.027 Y102.993 E3.4174
G1 X127.453 Y109.420 E3.5632
G1 X127.453 Y110.014 E3.5727
G1 X121.027 Y103.587 E3.7185
G1 X121.027 Y104.181 E3.7281
G1 X127.453 Y110.608 E3.8739
G1 X127.453 Y111.202 E3.8834
G1 X121.027 Y104.775 E4.0292
G1 X121.027 Y105.369 E4.0387
G1 X127.453 Y111.796 E4.1845
G1 X127.453 Y112.390 E4.1941
G1 X121.027 Y105.963 E4.3399
G1 X121.027 Y106.557 E4.3494
G1 X127.453 Y112.984 E4.4952
G1 X127.453 Y113.578 E4.5047
G1 X121.027 Y107.151 E4.6505
G1 X121.027 Y107.745 E4.6601
G1 X127.453 Y114.172 E4.8059
G1 X127.453 Y114.597 E4.8127
G1 X127.285 Y114.597 E4.8154
G1 X121.027 Y108.339 E4.9574
G1 X121.027 Y108.933 E4.9669
G1 X126.691 Y114.597 E5.0954
G1 X126.097 Y114.597 E5.1049
G1 X121.027 Y109.527 E5.2200
G1 X121.027 Y110.121 E5.2295
G1 X125.503 Y114.597 E5.3310
G1 X124.909 Y114.597 E5.3406
G1 X121.027 Y110.715 E5.4286
G1 X121.027 Y111.309 E5.4382
