; G-Code generated by Simplify3D(R) Version 3.1.1
; Apr 29, 2017 at 10:09:41 AM
; Settings Summary
;   processName,Process1
;   applyToModels,Cable_Carrier_Link_Rev_C End
;   profileName,LulzBot TAZ 5
;   profileVersion,2017-04-24 18:21:25
;   baseProfile,
;   printMaterial,PLA
;   printQuality,Medium
;   printExtruders,
;   extruderName,Primary Extruder
;   extruderToolheadNumber,0
;   extruderDiameter,0.35
;   extruderAutoWidth,1
;   extruderWidth,0.42
;   extrusionMultiplier,0.9
;   extruderUseRetract,1
;   extruderRetractionDistance,1.7
;   extruderExtraRestartDistance,0
;   extruderRetractionZLift,0
;   extruderRetractionSpeed,1800
;   extruderUseCoasting,0
;   extruderCoastingDistance,0.2
;   extruderUseWipe,0
;   extruderWipeDistance,5
;   primaryExtruder,0
;   layerHeight,0.3
;   topSolidLayers,3
;   bottomSolidLayers,2
;   perimeterOutlines,2
;   printPerimetersInsideOut,1
;   startPointOption,2
;   startPointOriginX,0
;   startPointOriginY,0
;   startPointOriginZ,300
;   sequentialIslands,0
;   spiralVaseMode,0
;   firstLayerHeightPercentage,90
;   firstLayerWidthPercentage,100
;   firstLayerUnderspeed,0.5
;   useRaft,0
;   raftExtruder,0
;   raftLayers,3
;   raftOffset,3
;   raftSeparationDistance,0.14
;   raftInfill,85
;   disableRaftBaseLayers,0
;   useSkirt,1
;   skirtExtruder,0
;   skirtLayers,1
;   skirtOutlines,2
;   skirtOffset,6
;   usePrimePillar,0
;   primePillarExtruder,999
;   primePillarWidth,12
;   primePillarLocation,7
;   primePillarSpeedMultiplier,1
;   useOozeShield,0
;   oozeShieldExtruder,999
;   oozeShieldOffset,2
;   oozeShieldOutlines,1
;   oozeShieldSidewallShape,1
;   oozeShieldSidewallAngle,30
;   oozeShieldSpeedMultiplier,1
;   infillExtruder,0
;   internalInfillPattern,Rectilinear
;   externalInfillPattern,Rectilinear
;   infillPercentage,20
;   outlineOverlapPercentage,15
;   infillExtrusionWidthPercentage,200
;   minInfillLength,5
;   infillLayerInterval,1
;   infillAngles,45,-45
;   overlapInfillAngles,0
;   generateSupport,0
;   supportExtruder,0
;   supportInfillPercentage,30
;   supportExtraInflation,0
;   denseSupportLayers,0
;   denseSupportInfillPercentage,70
;   supportLayerInterval,1
;   supportHorizontalPartOffset,0.3
;   supportUpperSeparationLayers,1
;   supportLowerSeparationLayers,1
;   supportType,0
;   supportGridSpacing,4
;   maxOverhangAngle,45
;   supportAngles,0
;   temperatureName,Primary Extruder,Heated Bed
;   temperatureNumber,0,1
;   temperatureSetpointCount,1,1
;   temperatureSetpointLayers,1,1
;   temperatureSetpointTemperatures,210,65
;   temperatureStabilizeAtStartup,1,1
;   temperatureHeatedBed,0,1
;   temperatureRelayBetweenLayers,0,0
;   temperatureRelayBetweenLoops,0,0
;   fanLayers,1,2
;   fanSpeeds,0,100
;   blipFanToFullPower,1
;   adjustSpeedForCooling,1
;   minSpeedLayerTime,15
;   minCoolingSpeedSlowdown,20
;   increaseFanForCooling,0
;   minFanLayerTime,45
;   maxCoolingFanSpeed,100
;   increaseFanForBridging,0
;   bridgingFanSpeed,100
;   use5D,1
;   relativeEdistances,0
;   allowEaxisZeroing,1
;   independentExtruderAxes,0
;   includeM10123,0
;   stickySupport,1
;   applyToolheadOffsets,0
;   gcodeXoffset,0
;   gcodeYoffset,0
;   gcodeZoffset,0
;   overrideMachineDefinition,1
;   machineTypeOverride,0
;   strokeXoverride,298
;   strokeYoverride,275
;   strokeZoverride,250
;   originOffsetXoverride,0
;   originOffsetYoverride,0
;   originOffsetZoverride,0
;   homeXdirOverride,-1
;   homeYdirOverride,-1
;   homeZdirOverride,-1
;   flipXoverride,1
;   flipYoverride,-1
;   flipZoverride,1
;   toolheadOffsets,0,0|0,0|0,0|0,0|0,0|0,0
;   overrideFirmwareConfiguration,1
;   firmwareTypeOverride,RepRap (Marlin/Repetier/Sprinter)
;   GPXconfigOverride,r2
;   baudRateOverride,115200
;   overridePrinterModels,1
;   printerModelsOverride,LulzBot_TAZ3.stl
;   startingGcode,G28 ; home all axes
;   layerChangeGcode,
;   retractionGcode,
;   toolChangeGcode,
;   endingGcode,M104 S0 ; turn off extruder,M140 S0 ; turn off bed,G28 X0 ; home X axis,M84 ; disable motors
;   exportFileFormat,gcode
;   celebration,0
;   celebrationSong,Random Song
;   postProcessing,
;   defaultSpeed,3600
;   outlineUnderspeed,0.75
;   solidInfillUnderspeed,0.8
;   supportUnderspeed,0.8
;   rapidXYspeed,4800
;   rapidZspeed,1002
;   minBridgingArea,50
;   bridgingExtraInflation,0
;   bridgingExtrusionMultiplier,1
;   bridgingSpeedMultiplier,1
;   filamentDiameter,3
;   filamentPricePerKg,46
;   filamentDensity,1.25
;   useMinPrintHeight,0
;   minPrintHeight,0
;   useMaxPrintHeight,0
;   maxPrintHeight,0
;   useDiaphragm,0
;   diaphragmLayerInterval,20
;   robustSlicing,1
;   mergeAllIntoSolid,0
;   onlyRetractWhenCrossingOutline,1
;   retractBetweenLayers,1
;   useRetractionMinTravel,0
;   retractionMinTravel,3
;   retractWhileWiping,0
;   onlyWipeOutlines,1
;   avoidCrossingOutline,0
;   maxMovementDetourFactor,3
;   toolChangeRetractionDistance,12
;   toolChangeExtraRestartDistance,-0.5
;   toolChangeRetractionSpeed,600
;   allowThinWallGapFill,1
;   thinWallAllowedOverlapPercentage,10
;   horizontalSizeCompensation,0
G90
M82
M106 S0
M140 S65
M190 S65
M104 S210 T0
M109 S210 T0
G28 ; home all axes
G92 E0
G1 E-1.7000 F1800
G1 Z0.270 F1002
; layer 1, Z = 0.27
T0
; tool H0.300 W0.420
; skirt
G1 X119.665 Y119.850 F4800
G1 E0.0000 F540
G92 E0
G1 X123.357 Y116.158 E0.0838 F1800
G1 X123.589 Y116.062 E0.0878
G1 X135.939 Y116.062 E0.2859
G1 X136.809 Y115.587 E0.3018
G1 X136.832 Y115.576 E0.3022
G1 X137.314 Y115.363 E0.3107
G1 X137.338 Y115.353 E0.3111
G1 X138.834 Y114.836 E0.3365
G1 X138.859 Y114.828 E0.3369
G1 X139.369 Y114.698 E0.3453
G1 X139.394 Y114.693 E0.3458
G1 X140.955 Y114.430 E0.3712
G1 X140.981 Y114.427 E0.3716
G1 X141.506 Y114.383 E0.3800
G1 X141.532 Y114.382 E0.3804
G1 X143.114 Y114.382 E0.4058
G1 X143.141 Y114.383 E0.4063
G1 X143.665 Y114.427 E0.4147
G1 X143.691 Y114.430 E0.4151
G1 X145.252 Y114.693 E0.4405
G1 X145.278 Y114.698 E0.4409
G1 X145.787 Y114.828 E0.4494
G1 X145.813 Y114.836 E0.4498
G1 X147.308 Y115.353 E0.4752
G1 X147.333 Y115.363 E0.4756
G1 X147.814 Y115.576 E0.4840
G1 X147.837 Y115.587 E0.4845
G1 X148.707 Y116.062 E0.5004
G1 X166.498 Y116.062 E0.7858
G1 X166.730 Y116.158 E0.7898
G1 X168.742 Y118.170 E0.8355
G1 X170.799 Y118.170 E0.8685
G1 X171.030 Y118.266 E0.8725
G1 X174.722 Y121.958 E0.9562
G1 X174.818 Y122.189 E0.9603
G1 X174.818 Y128.311 E1.0585
G1 X174.722 Y128.542 E1.0625
G1 X173.718 Y129.546 E1.0853
G1 X173.718 Y145.454 E1.3405
G1 X174.722 Y146.458 E1.3632
G1 X174.818 Y146.689 E1.3673
G1 X174.818 Y152.811 E1.4655
G1 X174.722 Y153.042 E1.4695
G1 X171.030 Y156.734 E1.5533
G1 X170.799 Y156.830 E1.5573
G1 X168.742 Y156.830 E1.5903
G1 X166.730 Y158.842 E1.6359
G1 X166.498 Y158.938 E1.6399
G1 X148.707 Y158.938 E1.9254
G1 X147.837 Y159.413 E1.9413
G1 X147.814 Y159.424 E1.9417
G1 X147.333 Y159.637 E1.9501
G1 X147.308 Y159.647 E1.9505
G1 X145.813 Y160.164 E1.9759
G1 X145.787 Y160.172 E1.9764
G1 X145.278 Y160.302 E1.9848
G1 X145.252 Y160.307 E1.9852
G1 X143.691 Y160.570 E2.0106
G1 X143.665 Y160.573 E2.0110
G1 X143.141 Y160.617 E2.0195
G1 X143.114 Y160.618 E2.0199
G1 X141.532 Y160.618 E2.0453
G1 X141.506 Y160.617 E2.0457
G1 X140.981 Y160.573 E2.0541
G1 X140.955 Y160.570 E2.0546
G1 X139.394 Y160.307 E2.0800
G1 X139.369 Y160.302 E2.0804
G1 X138.859 Y160.172 E2.0888
G1 X138.834 Y160.164 E2.0892
G1 X137.338 Y159.647 E2.1146
G1 X137.314 Y159.637 E2.1151
G1 X136.832 Y159.424 E2.1235
G1 X136.809 Y159.413 E2.1239
G1 X135.939 Y158.938 E2.1398
G1 X123.589 Y158.938 E2.3379
G1 X123.357 Y158.842 E2.3420
G1 X119.665 Y155.150 E2.4257
G1 X119.569 Y154.919 E2.4297
G1 X119.569 Y120.081 E2.9886
G1 X119.665 Y119.850 E2.9927
G1 X120.021 Y120.088 F4800
G92 E0
G1 X123.595 Y116.514 E0.0811 F1800
G1 X123.672 Y116.482 E0.0824
G1 X136.047 Y116.482 E0.2809
G1 X137.002 Y115.960 E0.2984
G1 X137.010 Y115.956 E0.2985
G1 X137.475 Y115.750 E0.3067
G1 X137.484 Y115.747 E0.3068
G1 X138.963 Y115.235 E0.3320
G1 X138.971 Y115.233 E0.3321
G1 X139.464 Y115.107 E0.3403
G1 X139.473 Y115.105 E0.3404
G1 X141.016 Y114.846 E0.3655
G1 X141.025 Y114.845 E0.3657
G1 X141.532 Y114.802 E0.3738
G1 X141.541 Y114.802 E0.3740
G1 X143.106 Y114.802 E0.3991
G1 X143.114 Y114.802 E0.3992
G1 X143.621 Y114.845 E0.4074
G1 X143.630 Y114.846 E0.4075
G1 X145.174 Y115.105 E0.4326
G1 X145.182 Y115.107 E0.4328
G1 X145.675 Y115.233 E0.4409
G1 X145.683 Y115.235 E0.4411
G1 X147.163 Y115.747 E0.4662
G1 X147.171 Y115.750 E0.4663
G1 X147.636 Y115.956 E0.4745
G1 X147.644 Y115.960 E0.4746
G1 X148.600 Y116.482 E0.4921
G1 X166.415 Y116.482 E0.7779
G1 X166.492 Y116.514 E0.7792
G1 X168.568 Y118.590 E0.8263
G1 X170.715 Y118.590 E0.8608
G1 X170.792 Y118.622 E0.8621
G1 X174.366 Y122.196 E0.9432
G1 X174.398 Y122.273 E0.9445
G1 X174.398 Y128.227 E1.0401
G1 X174.366 Y128.304 E1.0414
G1 X173.298 Y129.372 E1.0656
G1 X173.298 Y145.628 E1.3264
G1 X174.366 Y146.696 E1.3506
G1 X174.398 Y146.773 E1.3520
G1 X174.398 Y152.727 E1.4475
G1 X174.366 Y152.804 E1.4489
G1 X170.792 Y156.378 E1.5299
G1 X170.715 Y156.410 E1.5313
G1 X168.568 Y156.410 E1.5657
G1 X166.492 Y158.486 E1.6128
G1 X166.415 Y158.518 E1.6142
G1 X148.600 Y158.518 E1.9000
G1 X147.644 Y159.040 E1.9174
G1 X147.636 Y159.044 E1.9176
G1 X147.171 Y159.250 E1.9257
G1 X147.163 Y159.253 E1.9259
G1 X145.683 Y159.765 E1.9510
G1 X145.675 Y159.767 E1.9511
G1 X145.182 Y159.893 E1.9593
G1 X145.174 Y159.895 E1.9594
G1 X143.630 Y160.154 E1.9845
G1 X143.621 Y160.155 E1.9847
G1 X143.114 Y160.198 E1.9928
G1 X143.106 Y160.198 E1.9930
G1 X141.541 Y160.198 E2.0181
G1 X141.532 Y160.198 E2.0182
G1 X141.025 Y160.155 E2.0264
G1 X141.016 Y160.154 E2.0265
G1 X139.473 Y159.895 E2.0516
G1 X139.464 Y159.893 E2.0518
G1 X138.971 Y159.767 E2.0599
G1 X138.963 Y159.765 E2.0601
G1 X137.484 Y159.253 E2.0852
G1 X137.475 Y159.250 E2.0853
G1 X137.010 Y159.044 E2.0935
G1 X137.002 Y159.040 E2.0936
G1 X136.047 Y158.518 E2.1111
G1 X123.672 Y158.518 E2.3096
G1 X123.595 Y158.486 E2.3110
G1 X120.021 Y154.912 E2.3920
G1 X119.989 Y154.835 E2.3934
G1 X119.989 Y120.165 E2.9496
G1 X120.021 Y120.088 E2.9509
G92 E0
G1 E-1.7000 F1800
; inner perimeter
G1 X126.829 Y123.322 F4800
G1 E0.0000 F1800
G92 E0
G1 X138.215 Y123.322 E0.1827 F1575
G1 X139.175 Y122.567 E0.2023
G1 X140.010 Y122.111 E0.2175
G1 X140.909 Y121.800 E0.2328
G1 X141.847 Y121.642 E0.2480
G1 X142.799 Y121.642 E0.2633
G1 X143.737 Y121.800 E0.2786
G1 X144.636 Y122.111 E0.2938
G1 X145.471 Y122.567 E0.3091
G1 X146.431 Y123.322 E0.3287
G1 X163.258 Y123.322 E0.5986
G1 X163.258 Y125.430 E0.6325
G1 X166.458 Y125.430 E0.6838
G1 X166.458 Y149.570 E1.0711
G1 X163.258 Y149.570 E1.1224
G1 X163.258 Y151.678 E1.1562
G1 X146.431 Y151.678 E1.4262
G1 X145.471 Y152.433 E1.4458
G1 X144.636 Y152.889 E1.4610
G1 X143.737 Y153.200 E1.4763
G1 X142.799 Y153.358 E1.4916
G1 X141.847 Y153.358 E1.5068
G1 X140.909 Y153.200 E1.5221
G1 X140.010 Y152.889 E1.5373
G1 X139.175 Y152.433 E1.5526
G1 X138.215 Y151.678 E1.5722
G1 X126.829 Y151.678 E1.7549
G1 X126.829 Y123.322 E2.2098
; outer perimeter
G1 X126.409 Y122.902 F4800
G92 E0
G1 X138.069 Y122.902 E0.1871 F1350
G1 X138.943 Y122.215 E0.2049
G1 X139.840 Y121.725 E0.2213
G1 X140.805 Y121.391 E0.2377
G1 X141.812 Y121.222 E0.2541
G1 X142.834 Y121.222 E0.2704
G1 X143.841 Y121.391 E0.2868
G1 X144.806 Y121.725 E0.3032
G1 X145.703 Y122.215 E0.3196
G1 X146.577 Y122.902 E0.3374
G1 X163.678 Y122.902 E0.6118
G1 X163.678 Y125.010 E0.6456
G1 X167.978 Y125.010 E0.7146
G1 X167.978 Y125.490 E0.7223
G1 X166.878 Y125.490 E0.7399
G1 X166.878 Y149.510 E1.1253
G1 X167.978 Y149.510 E1.1429
G1 X167.978 Y149.990 E1.1506
G1 X163.678 Y149.990 E1.2196
G1 X163.678 Y152.098 E1.2535
G1 X146.577 Y152.098 E1.5278
G1 X145.703 Y152.785 E1.5456
G1 X144.806 Y153.275 E1.5620
G1 X143.841 Y153.609 E1.5784
G1 X142.834 Y153.778 E1.5948
G1 X141.812 Y153.778 E1.6112
G1 X140.805 Y153.609 E1.6276
G1 X139.840 Y153.275 E1.6440
G1 X138.943 Y152.785 E1.6603
G1 X138.069 Y152.098 E1.6782
G1 X126.409 Y152.098 E1.8652
G1 X126.409 Y122.902 E2.3336
; inner perimeter
G1 X139.103 Y126.168 F4800
G92 E0
G1 X138.949 Y126.745 E0.0096 F1575
G1 X138.897 Y127.340 E0.0192
G1 X138.949 Y127.935 E0.0287
G1 X139.103 Y128.512 E0.0383
G1 X139.356 Y129.053 E0.0479
G1 X139.698 Y129.542 E0.0575
G1 X140.121 Y129.965 E0.0671
G1 X140.610 Y130.307 E0.0767
G1 X141.151 Y130.560 E0.0862
G1 X141.728 Y130.714 E0.0958
G1 X142.323 Y130.766 E0.1054
G1 X142.918 Y130.714 E0.1150
G1 X143.495 Y130.560 E0.1246
G1 X144.036 Y130.307 E0.1341
G1 X144.526 Y129.965 E0.1437
G1 X144.948 Y129.542 E0.1533
G1 X145.290 Y129.053 E0.1629
G1 X145.543 Y128.512 E0.1725
G1 X145.697 Y127.935 E0.1821
G1 X145.750 Y127.340 E0.1916
G1 X145.697 Y126.745 E0.2012
G1 X145.543 Y126.168 E0.2108
G1 X145.290 Y125.627 E0.2204
G1 X144.948 Y125.138 E0.2300
G1 X144.526 Y124.715 E0.2395
G1 X144.036 Y124.373 E0.2491
G1 X143.495 Y124.120 E0.2587
G1 X142.918 Y123.966 E0.2683
G1 X142.323 Y123.914 E0.2779
G1 X141.728 Y123.966 E0.2875
G1 X141.151 Y124.120 E0.2970
G1 X140.610 Y124.373 E0.3066
G1 X140.121 Y124.715 E0.3162
G1 X139.698 Y125.138 E0.3258
G1 X139.356 Y125.627 E0.3354
G1 X139.103 Y126.168 E0.3449
; outer perimeter
G1 X139.500 Y126.312 F4800
G92 E0
G1 X139.364 Y126.818 E0.0084 F1350
G1 X139.318 Y127.340 E0.0168
G1 X139.364 Y127.862 E0.0252
G1 X139.500 Y128.368 E0.0336
G1 X139.721 Y128.842 E0.0420
G1 X140.021 Y129.271 E0.0504
G1 X140.392 Y129.642 E0.0588
G1 X140.821 Y129.942 E0.0672
G1 X141.295 Y130.164 E0.0756
G1 X141.801 Y130.299 E0.0840
G1 X142.323 Y130.345 E0.0924
G1 X142.845 Y130.299 E0.1008
G1 X143.351 Y130.164 E0.1092
G1 X143.826 Y129.942 E0.1176
G1 X144.255 Y129.642 E0.1260
G1 X144.625 Y129.271 E0.1344
G1 X144.925 Y128.842 E0.1428
G1 X145.147 Y128.368 E0.1512
G1 X145.282 Y127.862 E0.1597
G1 X145.328 Y127.340 E0.1681
G1 X145.282 Y126.818 E0.1765
G1 X145.147 Y126.312 E0.1849
G1 X144.925 Y125.838 E0.1933
G1 X144.625 Y125.409 E0.2017
G1 X144.255 Y125.038 E0.2101
G1 X143.826 Y124.738 E0.2185
G1 X143.351 Y124.516 E0.2269
G1 X142.845 Y124.381 E0.2353
G1 X142.323 Y124.335 E0.2437
G1 X141.801 Y124.381 E0.2521
G1 X141.295 Y124.516 E0.2605
G1 X140.821 Y124.738 E0.2689
G1 X140.392 Y125.038 E0.2773
G1 X140.021 Y125.409 E0.2857
G1 X139.721 Y125.838 E0.2941
G1 X139.500 Y126.312 E0.3025
G92 E0
G1 E-1.7000 F1800
; inner perimeter
G1 X140.121 Y145.035 F4800
G1 E0.0000 F1800
G92 E0
G1 X139.698 Y145.458 E0.0096 F1575
G1 X139.356 Y145.947 E0.0192
G1 X139.103 Y146.488 E0.0287
G1 X138.949 Y147.065 E0.0383
G1 X138.897 Y147.660 E0.0479
G1 X138.949 Y148.255 E0.0575
G1 X139.103 Y148.832 E0.0671
G1 X139.356 Y149.373 E0.0767
G1 X139.698 Y149.862 E0.0862
G1 X140.121 Y150.285 E0.0958
G1 X140.610 Y150.627 E0.1054
G1 X141.151 Y150.880 E0.1150
G1 X141.728 Y151.034 E0.1246
G1 X142.323 Y151.086 E0.1341
G1 X142.918 Y151.034 E0.1437
G1 X143.495 Y150.880 E0.1533
G1 X144.036 Y150.627 E0.1629
G1 X144.526 Y150.285 E0.1725
G1 X144.948 Y149.862 E0.1821
G1 X145.290 Y149.373 E0.1916
G1 X145.543 Y148.832 E0.2012
G1 X145.697 Y148.255 E0.2108
G1 X145.750 Y147.660 E0.2204
G1 X145.697 Y147.065 E0.2300
G1 X145.543 Y146.488 E0.2395
G1 X145.290 Y145.947 E0.2491
G1 X144.948 Y145.458 E0.2587
G1 X144.526 Y145.035 E0.2683
G1 X144.036 Y144.693 E0.2779
G1 X143.495 Y144.440 E0.2875
G1 X142.918 Y144.286 E0.2970
G1 X142.323 Y144.234 E0.3066
G1 X141.728 Y144.286 E0.3162
G1 X141.151 Y144.440 E0.3258
G1 X140.610 Y144.693 E0.3354
G1 X140.121 Y145.035 E0.3449
; outer perimeter
G1 X140.392 Y145.358 F4800
G92 E0
G1 X140.021 Y145.729 E0.0084 F1350
G1 X139.721 Y146.158 E0.0168
G1 X139.500 Y146.632 E0.0252
G1 X139.364 Y147.138 E0.0336
G1 X139.318 Y147.660 E0.0420
G1 X139.364 Y148.182 E0.0504
G1 X139.500 Y148.688 E0.0588
G1 X139.721 Y149.162 E0.0672
G1 X140.021 Y149.591 E0.0756
G1 X140.392 Y149.962 E0.0840
G1 X140.821 Y150.262 E0.0924
G1 X141.295 Y150.484 E0.1008
G1 X141.801 Y150.619 E0.1092
G1 X142.323 Y150.665 E0.1176
G1 X142.845 Y150.619 E0.1260
G1 X143.351 Y150.484 E0.1344
G1 X143.826 Y150.262 E0.1428
G1 X144.255 Y149.962 E0.1513
G1 X144.625 Y149.591 E0.1597
G1 X144.925 Y149.162 E0.1681
G1 X145.147 Y148.688 E0.1765
G1 X145.282 Y148.182 E0.1849
G1 X145.328 Y147.660 E0.1933
G1 X145.282 Y147.138 E0.2017
G1 X145.147 Y146.632 E0.2101
