; G-Code generated by Simplify3D(R) Version 3.1.1
; Apr 29, 2017 at 9:49:43 AM
; Settings Summary
;   processName,Process1
;   applyToModels,Cable_Carrier_Link_Rev_C,Cable_Carrier_Link_Rev_C(2)
;   profileName,LulzBot TAZ 5
;   profileVersion,2017-04-24 18:21:25
;   baseProfile,
;   printMaterial,PLA
;   printQuality,Medium
;   printExtruders,
;   extruderName,Primary Extruder
;   extruderToolheadNumber,0
;   extruderDiameter,0.35
;   extruderAutoWidth,1
;   extruderWidth,0.42
;   extrusionMultiplier,0.9
;   extruderUseRetract,1
;   extruderRetractionDistance,1.7
;   extruderExtraRestartDistance,0
;   extruderRetractionZLift,0
;   extruderRetractionSpeed,1800
;   extruderUseCoasting,0
;   extruderCoastingDistance,0.2
;   extruderUseWipe,0
;   extruderWipeDistance,5
;   primaryExtruder,0
;   layerHeight,0.3
;   topSolidLayers,3
;   bottomSolidLayers,2
;   perimeterOutlines,2
;   printPerimetersInsideOut,1
;   startPointOption,2
;   startPointOriginX,0
;   startPointOriginY,0
;   startPointOriginZ,300
;   sequentialIslands,0
;   spiralVaseMode,0
;   firstLayerHeightPercentage,90
;   firstLayerWidthPercentage,100
;   firstLayerUnderspeed,0.5
;   useRaft,0
;   raftExtruder,0
;   raftLayers,3
;   raftOffset,3
;   raftSeparationDistance,0.14
;   raftInfill,85
;   disableRaftBaseLayers,0
;   useSkirt,1
;   skirtExtruder,0
;   skirtLayers,1
;   skirtOutlines,2
;   skirtOffset,6
;   usePrimePillar,0
;   primePillarExtruder,999
;   primePillarWidth,12
;   primePillarLocation,7
;   primePillarSpeedMultiplier,1
;   useOozeShield,0
;   oozeShieldExtruder,999
;   oozeShieldOffset,2
;   oozeShieldOutlines,1
;   oozeShieldSidewallShape,1
;   oozeShieldSidewallAngle,30
;   oozeShieldSpeedMultiplier,1
;   infillExtruder,0
;   internalInfillPattern,Rectilinear
;   externalInfillPattern,Rectilinear
;   infillPercentage,20
;   outlineOverlapPercentage,15
;   infillExtrusionWidthPercentage,200
;   minInfillLength,5
;   infillLayerInterval,1
;   infillAngles,45,-45
;   overlapInfillAngles,0
;   generateSupport,0
;   supportExtruder,0
;   supportInfillPercentage,30
;   supportExtraInflation,0
;   denseSupportLayers,0
;   denseSupportInfillPercentage,70
;   supportLayerInterval,1
;   supportHorizontalPartOffset,0.3
;   supportUpperSeparationLayers,1
;   supportLowerSeparationLayers,1
;   supportType,0
;   supportGridSpacing,4
;   maxOverhangAngle,45
;   supportAngles,0
;   temperatureName,Primary Extruder,Heated Bed
;   temperatureNumber,0,1
;   temperatureSetpointCount,1,1
;   temperatureSetpointLayers,1,1
;   temperatureSetpointTemperatures,210,65
;   temperatureStabilizeAtStartup,1,1
;   temperatureHeatedBed,0,1
;   temperatureRelayBetweenLayers,0,0
;   temperatureRelayBetweenLoops,0,0
;   fanLayers,1,2
;   fanSpeeds,0,100
;   blipFanToFullPower,1
;   adjustSpeedForCooling,1
;   minSpeedLayerTime,15
;   minCoolingSpeedSlowdown,20
;   increaseFanForCooling,0
;   minFanLayerTime,45
;   maxCoolingFanSpeed,100
;   increaseFanForBridging,0
;   bridgingFanSpeed,100
;   use5D,1
;   relativeEdistances,0
;   allowEaxisZeroing,1
;   independentExtruderAxes,0
;   includeM10123,0
;   stickySupport,1
;   applyToolheadOffsets,0
;   gcodeXoffset,0
;   gcodeYoffset,0
;   gcodeZoffset,0
;   overrideMachineDefinition,1
;   machineTypeOverride,0
;   strokeXoverride,298
;   strokeYoverride,275
;   strokeZoverride,250
;   originOffsetXoverride,0
;   originOffsetYoverride,0
;   originOffsetZoverride,0
;   homeXdirOverride,-1
;   homeYdirOverride,-1
;   homeZdirOverride,-1
;   flipXoverride,1
;   flipYoverride,-1
;   flipZoverride,1
;   toolheadOffsets,0,0|0,0|0,0|0,0|0,0|0,0
;   overrideFirmwareConfiguration,1
;   firmwareTypeOverride,RepRap (Marlin/Repetier/Sprinter)
;   GPXconfigOverride,r2
;   baudRateOverride,115200
;   overridePrinterModels,1
;   printerModelsOverride,LulzBot_TAZ3.stl
;   startingGcode,G28 ; home all axes
;   layerChangeGcode,
;   retractionGcode,
;   toolChangeGcode,
;   endingGcode,M104 S0 ; turn off extruder,M140 S0 ; turn off bed,G28 X0 ; home X axis,M84 ; disable motors
;   exportFileFormat,gcode
;   celebration,0
;   celebrationSong,Random Song
;   postProcessing,
;   defaultSpeed,3600
;   outlineUnderspeed,0.75
;   solidInfillUnderspeed,0.8
;   supportUnderspeed,0.8
;   rapidXYspeed,4800
;   rapidZspeed,1002
;   minBridgingArea,50
;   bridgingExtraInflation,0
;   bridgingExtrusionMultiplier,1
;   bridgingSpeedMultiplier,1
;   filamentDiameter,3
;   filamentPricePerKg,46
;   filamentDensity,1.25
;   useMinPrintHeight,0
;   minPrintHeight,0
;   useMaxPrintHeight,0
;   maxPrintHeight,0
;   useDiaphragm,0
;   diaphragmLayerInterval,20
;   robustSlicing,1
;   mergeAllIntoSolid,0
;   onlyRetractWhenCrossingOutline,1
;   retractBetweenLayers,1
;   useRetractionMinTravel,0
;   retractionMinTravel,3
;   retractWhileWiping,0
;   onlyWipeOutlines,1
;   avoidCrossingOutline,0
;   maxMovementDetourFactor,3
;   toolChangeRetractionDistance,12
;   toolChangeExtraRestartDistance,-0.5
;   toolChangeRetractionSpeed,600
;   allowThinWallGapFill,1
;   thinWallAllowedOverlapPercentage,10
;   horizontalSizeCompensation,0
G90
M82
M106 S0
M140 S65
M190 S65
M104 S210 T0
M109 S210 T0
G28 ; home all axes
G92 E0
G1 E-1.7000 F1800
G1 Z0.270 F1002
; layer 1, Z = 0.27
T0
; tool H0.300 W0.420
; skirt
G1 X131.988 Y102.541 F4800
G1 E0.0000 F540
G92 E0
G1 X135.680 Y98.850 E0.0838 F1800
G1 X135.911 Y98.754 E0.0878
G1 X153.807 Y98.754 E0.3749
G1 X154.039 Y98.850 E0.3789
G1 X156.051 Y100.862 E0.4246
G1 X158.105 Y100.862 E0.4575
G1 X158.337 Y100.958 E0.4615
G1 X162.029 Y104.650 E0.5453
G1 X162.125 Y104.881 E0.5493
G1 X162.125 Y111.002 E0.6475
G1 X162.029 Y111.234 E0.6515
G1 X161.027 Y112.236 E0.6743
G1 X161.027 Y128.148 E0.9295
G1 X162.029 Y129.150 E0.9523
G1 X162.125 Y129.381 E0.9563
G1 X162.125 Y135.502 E1.0545
G1 X162.029 Y135.734 E1.0585
G1 X160.263 Y137.500 E1.0986
G1 X162.029 Y139.266 E1.1387
G1 X162.125 Y139.498 E1.1427
G1 X162.125 Y145.619 E1.2409
G1 X162.029 Y145.850 E1.2449
G1 X161.027 Y146.852 E1.2676
G1 X161.027 Y162.764 E1.5229
G1 X162.029 Y163.766 E1.5456
G1 X162.125 Y163.998 E1.5496
G1 X162.125 Y170.119 E1.6478
G1 X162.029 Y170.350 E1.6519
G1 X158.337 Y174.042 E1.7356
G1 X158.105 Y174.138 E1.7397
G1 X156.051 Y174.138 E1.7726
G1 X154.039 Y176.150 E1.8183
G1 X153.807 Y176.246 E1.8223
G1 X135.911 Y176.246 E2.1094
G1 X135.680 Y176.150 E2.1134
G1 X131.988 Y172.459 E2.1972
G1 X131.892 Y172.227 E2.2012
G1 X131.892 Y164.898 E2.3188
G1 X131.988 Y164.666 E2.3228
G1 X135.680 Y160.974 E2.4066
G1 X135.911 Y160.878 E2.4106
G1 X139.366 Y160.878 E2.4660
G1 X139.366 Y148.738 E2.6608
G1 X135.911 Y148.738 E2.7162
G1 X135.680 Y148.642 E2.7202
G1 X131.988 Y144.950 E2.8040
G1 X131.892 Y144.719 E2.8080
G1 X131.892 Y130.281 E3.0396
G1 X131.988 Y130.050 E3.0436
G1 X135.680 Y126.358 E3.1274
G1 X135.911 Y126.262 E3.1314
G1 X139.366 Y126.262 E3.1868
G1 X139.366 Y114.122 E3.3816
G1 X135.911 Y114.122 E3.4370
G1 X135.680 Y114.026 E3.4411
G1 X131.988 Y110.334 E3.5248
G1 X131.892 Y110.102 E3.5288
G1 X131.892 Y102.773 E3.6464
G1 X131.988 Y102.541 E3.6504
G1 X132.344 Y102.779 F4800
G92 E0
G1 X135.918 Y99.206 E0.0811 F1800
G1 X135.995 Y99.174 E0.0824
G1 X153.723 Y99.174 E0.3668
G1 X153.801 Y99.206 E0.3682
G1 X155.877 Y101.282 E0.4153
G1 X158.022 Y101.282 E0.4497
G1 X158.099 Y101.314 E0.4510
G1 X161.673 Y104.888 E0.5321
G1 X161.705 Y104.965 E0.5335
G1 X161.705 Y110.919 E0.6290
G1 X161.673 Y110.996 E0.6303
G1 X160.607 Y112.062 E0.6545
G1 X160.607 Y128.322 E0.9154
G1 X161.673 Y129.388 E0.9395
G1 X161.705 Y129.465 E0.9409
G1 X161.705 Y135.419 E1.0364
G1 X161.673 Y135.496 E1.0377
G1 X159.669 Y137.500 E1.0832
G1 X161.673 Y139.504 E1.1287
G1 X161.705 Y139.581 E1.1300
G1 X161.705 Y145.535 E1.2255
G1 X161.673 Y145.612 E1.2269
G1 X160.607 Y146.678 E1.2510
G1 X160.607 Y162.938 E1.5119
G1 X161.673 Y164.004 E1.5361
G1 X161.705 Y164.081 E1.5374
G1 X161.705 Y170.035 E1.6329
G1 X161.673 Y170.112 E1.6343
G1 X158.099 Y173.686 E1.7154
G1 X158.022 Y173.718 E1.7167
G1 X155.877 Y173.718 E1.7511
G1 X153.801 Y175.794 E1.7982
G1 X153.723 Y175.826 E1.7996
G1 X135.995 Y175.826 E2.0840
G1 X135.918 Y175.794 E2.0853
G1 X132.344 Y172.221 E2.1664
G1 X132.312 Y172.143 E2.1677
G1 X132.312 Y164.981 E2.2826
G1 X132.344 Y164.904 E2.2840
G1 X135.918 Y161.330 E2.3651
G1 X135.995 Y161.298 E2.3664
G1 X139.786 Y161.298 E2.4272
G1 X139.786 Y148.318 E2.6355
G1 X135.995 Y148.318 E2.6963
G1 X135.918 Y148.286 E2.6976
G1 X132.344 Y144.712 E2.7787
G1 X132.312 Y144.635 E2.7801
G1 X132.312 Y130.365 E3.0090
G1 X132.344 Y130.288 E3.0103
G1 X135.918 Y126.714 E3.0914
G1 X135.995 Y126.682 E3.0928
G1 X139.786 Y126.682 E3.1536
G1 X139.786 Y113.702 E3.3618
G1 X135.995 Y113.702 E3.4226
G1 X135.918 Y113.670 E3.4240
G1 X132.344 Y110.096 E3.5051
G1 X132.312 Y110.019 E3.5064
G1 X132.312 Y102.857 E3.6213
G1 X132.344 Y102.779 E3.6227
G92 E0
G1 E-1.7000 F1800
; inner perimeter
G1 X139.152 Y106.014 F4800
G1 E0.0000 F1800
G92 E0
G1 X150.566 Y106.014 E0.1831 F1575
G1 X150.566 Y108.122 E0.2169
G1 X153.767 Y108.122 E0.2683
G1 X153.767 Y132.262 E0.6556
G1 X150.566 Y132.262 E0.7069
G1 X150.566 Y134.370 E0.7407
G1 X139.152 Y134.370 E0.9238
G1 X139.152 Y133.522 E0.9375
G1 X146.626 Y133.522 E1.0574
G1 X146.626 Y106.862 E1.4851
G1 X139.152 Y106.862 E1.6050
G1 X139.152 Y106.014 E1.6186
; outer perimeter
G1 X138.732 Y105.594 F4800
G92 E0
G1 X150.986 Y105.594 E0.1966 F1350
G1 X150.986 Y107.702 E0.2304
G1 X155.285 Y107.702 E0.2994
G1 X155.285 Y108.182 E0.3071
G1 X154.187 Y108.182 E0.3247
G1 X154.187 Y132.202 E0.7100
G1 X155.285 Y132.202 E0.7276
G1 X155.285 Y132.682 E0.7353
G1 X150.986 Y132.682 E0.8043
G1 X150.986 Y134.790 E0.8381
G1 X138.732 Y134.790 E1.0347
G1 X138.732 Y133.102 E1.0618
G1 X146.206 Y133.102 E1.1817
G1 X146.206 Y107.282 E1.5959
G1 X138.732 Y107.282 E1.7158
G1 X138.732 Y105.594 E1.7429
; solid layer
G1 X139.847 Y106.371 F4800
G92 E0
G1 X139.982 Y106.505 E0.0030 F1440
G1 X140.576 Y106.505 E0.0126
G1 X140.441 Y106.371 E0.0156
G1 X141.035 Y106.371 E0.0251
G1 X141.170 Y106.505 E0.0282
G1 X141.764 Y106.505 E0.0377
G1 X141.629 Y106.371 E0.0408
G1 X142.223 Y106.371 E0.0503
G1 X142.358 Y106.505 E0.0533
G1 X142.952 Y106.505 E0.0629
G1 X142.817 Y106.371 E0.0659
G1 X143.411 Y106.371 E0.0754
G1 X143.545 Y106.505 E0.0785
G1 X144.139 Y106.505 E0.0880
G1 X144.005 Y106.371 E0.0911
G1 X144.599 Y106.371 E0.1006
G1 X144.733 Y106.505 E0.1036
G1 X145.327 Y106.505 E0.1132
G1 X145.193 Y106.371 E0.1162
G1 X145.787 Y106.371 E0.1257
G1 X145.921 Y106.505 E0.1288
G1 X146.515 Y106.505 E0.1383
G1 X146.381 Y106.371 E0.1414
G1 X146.975 Y106.371 E0.1509
G1 X153.410 Y112.805 E0.2969
G1 X153.410 Y112.211 E0.3064
G1 X147.569 Y106.371 E0.4389
G1 X146.983 Y106.973 F4800
G92 E0
G1 X153.410 Y113.399 E0.1458 F1440
G1 X153.410 Y113.993 E0.1553
G1 X146.983 Y107.567 E0.3011
G1 X146.983 Y108.161 E0.3107
G1 X153.410 Y114.587 E0.4565
G1 X153.410 Y115.181 E0.4660
G1 X146.983 Y108.755 E0.6118
G1 X146.983 Y109.349 E0.6213
G1 X153.410 Y115.775 E0.7672
G1 X153.410 Y116.369 E0.7767
G1 X146.983 Y109.942 E0.9225
G1 X146.983 Y110.536 E0.9320
G1 X153.410 Y116.963 E1.0778
G1 X153.410 Y117.557 E1.0874
G1 X146.983 Y111.130 E1.2332
G1 X146.983 Y111.724 E1.2427
G1 X153.410 Y118.151 E1.3885
G1 X153.410 Y118.745 E1.3980
G1 X146.983 Y112.318 E1.5438
G1 X146.983 Y112.912 E1.5534
G1 X153.410 Y119.339 E1.6992
G1 X153.410 Y119.933 E1.7087
G1 X146.983 Y113.506 E1.8545
G1 X146.983 Y114.100 E1.8640
G1 X153.410 Y120.527 E2.0098
G1 X153.410 Y121.121 E2.0194
G1 X146.983 Y114.694 E2.1652
G1 X146.983 Y115.288 E2.1747
G1 X153.410 Y121.715 E2.3205
G1 X153.410 Y122.309 E2.3300
G1 X146.983 Y115.882 E2.4758
G1 X146.983 Y116.476 E2.4854
G1 X153.410 Y122.903 E2.6312
G1 X153.410 Y123.497 E2.6407
G1 X146.983 Y117.070 E2.7865
G1 X146.983 Y117.664 E2.7961
G1 X153.410 Y124.091 E2.9419
G1 X153.410 Y124.685 E2.9514
G1 X146.983 Y118.258 E3.0972
G1 X146.983 Y118.852 E3.1067
G1 X153.410 Y125.279 E3.2525
G1 X153.410 Y125.873 E3.2621
G1 X146.983 Y119.446 E3.4079
G1 X146.983 Y120.040 E3.4174
G1 X153.410 Y126.467 E3.5632
G1 X153.410 Y127.061 E3.5727
G1 X146.983 Y120.634 E3.7185
G1 X146.983 Y121.228 E3.7281
G1 X153.410 Y127.655 E3.8739
G1 X153.410 Y128.249 E3.8834
G1 X146.983 Y121.822 E4.0292
G1 X146.983 Y122.416 E4.0387
G1 X153.410 Y128.842 E4.1845
G1 X153.410 Y129.436 E4.1941
G1 X146.983 Y123.010 E4.3399
G1 X146.983 Y123.604 E4.3494
G1 X153.410 Y130.030 E4.4952
G1 X153.410 Y130.624 E4.5047
G1 X146.983 Y124.198 E4.6506
G1 X146.983 Y124.792 E4.6601
G1 X153.410 Y131.218 E4.8059
G1 X153.410 Y131.812 E4.8154
G1 X146.983 Y125.386 E4.9612
G1 X146.983 Y125.980 E4.9708
G1 X152.908 Y131.905 E5.1052
G1 X152.314 Y131.905 E5.1147
G1 X146.983 Y126.574 E5.2357
G1 X146.983 Y127.168 E5.2452
G1 X151.720 Y131.905 E5.3527
G1 X151.126 Y131.905 E5.3622
G1 X146.983 Y127.762 E5.4562
G1 X146.983 Y128.356 E5.4657
G1 X150.532 Y131.905 E5.5463
G1 X150.209 Y131.905 E5.5514
G1 X150.209 Y132.176 E5.5558
G1 X146.983 Y128.950 E5.6290
G1 X146.983 Y129.543 E5.6385
G1 X150.209 Y132.770 E5.7117
G1 X150.209 Y133.364 E5.7212
G1 X146.983 Y130.137 E5.7944
G1 X146.983 Y130.731 E5.8040
G1 X150.209 Y133.958 E5.8772
G1 X150.209 Y134.013 E5.8780
G1 X149.671 Y134.013 E5.8867
G1 X146.983 Y131.325 E5.9477
G1 X146.983 Y131.919 E5.9572
G1 X149.077 Y134.013 E6.0047
G1 X148.483 Y134.013 E6.0142
G1 X146.983 Y132.513 E6.0482
G1 X146.983 Y133.107 E6.0578
G1 X147.889 Y134.013 E6.0783
G1 X147.295 Y134.013 E6.0879
G1 X146.983 Y133.701 E6.0949
G1 X146.983 Y133.879 E6.0978
G1 X146.567 Y133.879 E6.1045
G1 X146.701 Y134.013 E6.1075
G1 X146.107 Y134.013 E6.1170
G1 X145.973 Y133.879 E6.1201
G1 X145.379 Y133.879 E6.1296
G1 X145.513 Y134.013 E6.1326
G1 X144.919 Y134.013 E6.1422
G1 X144.785 Y133.879 E6.1452
G1 X144.191 Y133.879 E6.1548
G1 X144.325 Y134.013 E6.1578
G1 X143.731 Y134.013 E6.1673
G1 X143.597 Y133.879 E6.1704
G1 X143.003 Y133.879 E6.1799
G1 X143.137 Y134.013 E6.1829
G1 X142.543 Y134.013 E6.1925
G1 X142.409 Y133.879 E6.1955
G1 X141.815 Y133.879 E6.2050
G1 X141.949 Y134.013 E6.2081
G1 X141.355 Y134.013 E6.2176
G1 X141.221 Y133.879 E6.2207
G1 X140.627 Y133.879 E6.2302
G1 X140.761 Y134.013 E6.2332
G1 X140.167 Y134.013 E6.2428
G1 X140.033 Y133.879 E6.2458
G1 X139.509 Y133.879 E6.2542
G1 X139.509 Y133.949 E6.2553
G1 X139.573 Y134.013 E6.2568
G92 E0
G1 E-1.7000 F1800
G1 X153.241 Y108.479 F4800
G1 E0.0000 F1800
G92 E0
G1 X153.410 Y108.648 E0.0038 F1440
G1 X153.410 Y109.241 E0.0134
G1 X152.647 Y108.479 E0.0307
G1 X152.053 Y108.479 E0.0402
G1 X153.410 Y109.835 E0.0710
G1 X153.410 Y110.429 E0.0805
G1 X151.459 Y108.479 E0.1248
G1 X150.865 Y108.479 E0.1343
G1 X153.410 Y111.023 E0.1920
G1 X153.410 Y111.617 E0.2015
G1 X150.271 Y108.479 E0.2728
G1 X150.209 Y108.479 E0.2737
G1 X150.209 Y108.417 E0.2747
G1 X148.163 Y106.371 E0.3212
G1 X148.757 Y106.371 E0.3307
G1 X150.209 Y107.823 E0.3636
G1 X150.209 Y107.229 E0.3732
G1 X149.351 Y106.371 E0.3926
G1 X149.945 Y106.371 E0.4022
G1 X150.209 Y106.635 E0.4082
G92 E0
G1 E-1.7000 F1800
; inner perimeter
G1 X150.566 Y140.630 F4800
G1 E0.0000 F1800
G92 E0
G1 X150.566 Y142.738 E0.0338 F1575
G1 X153.767 Y142.738 E0.0852
G1 X153.767 Y166.878 E0.4724
G1 X150.566 Y166.878 E0.5238
G1 X150.566 Y168.986 E0.5576
G1 X139.152 Y168.986 E0.7407
G1 X139.152 Y168.138 E0.7543
G1 X146.626 Y168.138 E0.8742
G1 X146.626 Y141.478 E1.3019
G1 X139.152 Y141.478 E1.4219
G1 X139.152 Y140.630 E1.4355
G1 X150.566 Y140.630 E1.6186
; outer perimeter
G1 X150.986 Y140.210 F4800
G92 E0
G1 X150.986 Y142.318 E0.0338 F1350
G1 X155.285 Y142.318 E0.1028
G1 X155.285 Y142.798 E0.1105
G1 X154.187 Y142.798 E0.1281
G1 X154.187 Y166.818 E0.5134
G1 X155.285 Y166.818 E0.5310
G1 X155.285 Y167.298 E0.5387
G1 X150.986 Y167.298 E0.6077
G1 X150.986 Y169.406 E0.6415
G1 X138.732 Y169.406 E0.8381
G1 X138.732 Y167.718 E0.8652
G1 X146.206 Y167.718 E0.9851
G1 X146.206 Y141.898 E1.3993
G1 X138.732 Y141.898 E1.5192
G1 X138.732 Y140.210 E1.5463
G1 X150.986 Y140.210 E1.7429
; solid layer
G1 X150.209 Y141.085 F4800
G92 E0
G1 X150.111 Y140.987 E0.0022 F1440
G1 X149.517 Y140.987 E0.0118
G1 X150.209 Y141.679 E0.0275
G1 X150.209 Y142.273 E0.0370
G1 X148.923 Y140.987 E0.0662
G1 X148.329 Y140.987 E0.0757
