; G-Code generated by Simplify3D(R) Version 3.1.1
; Apr 30, 2017 at 8:45:24 AM
; Settings Summary
;   processName,Process1
;   applyToModels,Cable_Carrier_Link_Rev_C x-axis
;   profileName,LulzBot TAZ 5
;   profileVersion,2017-04-24 18:21:25
;   baseProfile,
;   printMaterial,PLA
;   printQuality,Medium
;   printExtruders,
;   extruderName,Primary Extruder
;   extruderToolheadNumber,0
;   extruderDiameter,0.35
;   extruderAutoWidth,1
;   extruderWidth,0.42
;   extrusionMultiplier,0.9
;   extruderUseRetract,1
;   extruderRetractionDistance,1.7
;   extruderExtraRestartDistance,0
;   extruderRetractionZLift,0
;   extruderRetractionSpeed,1800
;   extruderUseCoasting,0
;   extruderCoastingDistance,0.2
;   extruderUseWipe,0
;   extruderWipeDistance,5
;   primaryExtruder,0
;   layerHeight,0.3
;   topSolidLayers,3
;   bottomSolidLayers,2
;   perimeterOutlines,2
;   printPerimetersInsideOut,1
;   startPointOption,2
;   startPointOriginX,0
;   startPointOriginY,0
;   startPointOriginZ,300
;   sequentialIslands,0
;   spiralVaseMode,0
;   firstLayerHeightPercentage,90
;   firstLayerWidthPercentage,100
;   firstLayerUnderspeed,0.5
;   useRaft,0
;   raftExtruder,0
;   raftLayers,3
;   raftOffset,3
;   raftSeparationDistance,0.14
;   raftInfill,85
;   disableRaftBaseLayers,0
;   useSkirt,1
;   skirtExtruder,0
;   skirtLayers,1
;   skirtOutlines,2
;   skirtOffset,6
;   usePrimePillar,0
;   primePillarExtruder,999
;   primePillarWidth,12
;   primePillarLocation,7
;   primePillarSpeedMultiplier,1
;   useOozeShield,0
;   oozeShieldExtruder,999
;   oozeShieldOffset,2
;   oozeShieldOutlines,1
;   oozeShieldSidewallShape,1
;   oozeShieldSidewallAngle,30
;   oozeShieldSpeedMultiplier,1
;   infillExtruder,0
;   internalInfillPattern,Rectilinear
;   externalInfillPattern,Rectilinear
;   infillPercentage,20
;   outlineOverlapPercentage,15
;   infillExtrusionWidthPercentage,200
;   minInfillLength,5
;   infillLayerInterval,1
;   infillAngles,45,-45
;   overlapInfillAngles,0
;   generateSupport,0
;   supportExtruder,0
;   supportInfillPercentage,30
;   supportExtraInflation,0
;   denseSupportLayers,0
;   denseSupportInfillPercentage,70
;   supportLayerInterval,1
;   supportHorizontalPartOffset,0.3
;   supportUpperSeparationLayers,1
;   supportLowerSeparationLayers,1
;   supportType,0
;   supportGridSpacing,4
;   maxOverhangAngle,45
;   supportAngles,0
;   temperatureName,Primary Extruder,Heated Bed
;   temperatureNumber,0,1
;   temperatureSetpointCount,1,1
;   temperatureSetpointLayers,1,1
;   temperatureSetpointTemperatures,210,65
;   temperatureStabilizeAtStartup,1,1
;   temperatureHeatedBed,0,1
;   temperatureRelayBetweenLayers,0,0
;   temperatureRelayBetweenLoops,0,0
;   fanLayers,1,2
;   fanSpeeds,0,100
;   blipFanToFullPower,1
;   adjustSpeedForCooling,1
;   minSpeedLayerTime,15
;   minCoolingSpeedSlowdown,20
;   increaseFanForCooling,0
;   minFanLayerTime,45
;   maxCoolingFanSpeed,100
;   increaseFanForBridging,0
;   bridgingFanSpeed,100
;   use5D,1
;   relativeEdistances,0
;   allowEaxisZeroing,1
;   independentExtruderAxes,0
;   includeM10123,0
;   stickySupport,1
;   applyToolheadOffsets,0
;   gcodeXoffset,0
;   gcodeYoffset,0
;   gcodeZoffset,0
;   overrideMachineDefinition,1
;   machineTypeOverride,0
;   strokeXoverride,298
;   strokeYoverride,275
;   strokeZoverride,250
;   originOffsetXoverride,0
;   originOffsetYoverride,0
;   originOffsetZoverride,0
;   homeXdirOverride,-1
;   homeYdirOverride,-1
;   homeZdirOverride,-1
;   flipXoverride,1
;   flipYoverride,-1
;   flipZoverride,1
;   toolheadOffsets,0,0|0,0|0,0|0,0|0,0|0,0
;   overrideFirmwareConfiguration,1
;   firmwareTypeOverride,RepRap (Marlin/Repetier/Sprinter)
;   GPXconfigOverride,r2
;   baudRateOverride,115200
;   overridePrinterModels,1
;   printerModelsOverride,LulzBot_TAZ3.stl
;   startingGcode,G28 ; home all axes
;   layerChangeGcode,
;   retractionGcode,
;   toolChangeGcode,
;   endingGcode,M104 S0 ; turn off extruder,M140 S0 ; turn off bed,G28 X0 ; home X axis,M84 ; disable motors
;   exportFileFormat,gcode
;   celebration,0
;   celebrationSong,Random Song
;   postProcessing,
;   defaultSpeed,3600
;   outlineUnderspeed,0.75
;   solidInfillUnderspeed,0.8
;   supportUnderspeed,0.8
;   rapidXYspeed,4800
;   rapidZspeed,1002
;   minBridgingArea,50
;   bridgingExtraInflation,0
;   bridgingExtrusionMultiplier,1
;   bridgingSpeedMultiplier,1
;   filamentDiameter,3
;   filamentPricePerKg,46
;   filamentDensity,1.25
;   useMinPrintHeight,0
;   minPrintHeight,0
;   useMaxPrintHeight,0
;   maxPrintHeight,0
;   useDiaphragm,0
;   diaphragmLayerInterval,20
;   robustSlicing,1
;   mergeAllIntoSolid,0
;   onlyRetractWhenCrossingOutline,1
;   retractBetweenLayers,1
;   useRetractionMinTravel,0
;   retractionMinTravel,3
;   retractWhileWiping,0
;   onlyWipeOutlines,1
;   avoidCrossingOutline,0
;   maxMovementDetourFactor,3
;   toolChangeRetractionDistance,12
;   toolChangeExtraRestartDistance,-0.5
;   toolChangeRetractionSpeed,600
;   allowThinWallGapFill,1
;   thinWallAllowedOverlapPercentage,10
;   horizontalSizeCompensation,0
G90
M82
M106 S0
M140 S65
M190 S65
M104 S210 T0
M109 S210 T0
G28 ; home all axes
G92 E0
G1 E-1.7000 F1800
G1 Z0.270 F1002
; layer 1, Z = 0.27
T0
; tool H0.300 W0.420
; skirt
G1 X117.079 Y120.485 F4800
G1 E0.0000 F540
G92 E0
G1 X120.771 Y116.793 E0.0838 F1800
G1 X121.002 Y116.697 E0.0878
G1 X140.868 Y116.697 E0.4065
G1 X142.078 Y116.182 E0.4276
G1 X142.102 Y116.173 E0.4280
G1 X142.584 Y116.013 E0.4361
G1 X142.608 Y116.005 E0.4365
G1 X144.093 Y115.640 E0.4611
G1 X144.117 Y115.635 E0.4615
G1 X144.619 Y115.554 E0.4696
G1 X144.644 Y115.551 E0.4700
G1 X146.168 Y115.428 E0.4946
G1 X146.193 Y115.427 E0.4950
G1 X146.701 Y115.427 E0.5031
G1 X146.727 Y115.428 E0.5035
G1 X148.250 Y115.551 E0.5281
G1 X148.276 Y115.554 E0.5285
G1 X148.777 Y115.635 E0.5366
G1 X148.802 Y115.640 E0.5370
G1 X150.287 Y116.005 E0.5615
G1 X150.311 Y116.013 E0.5620
G1 X150.793 Y116.173 E0.5701
G1 X150.817 Y116.182 E0.5705
G1 X152.026 Y116.697 E0.5916
G1 X161.188 Y116.697 E0.7386
G1 X162.398 Y116.182 E0.7597
G1 X162.422 Y116.173 E0.7601
G1 X162.904 Y116.013 E0.7682
G1 X162.928 Y116.005 E0.7686
G1 X164.413 Y115.640 E0.7932
G1 X164.437 Y115.635 E0.7936
G1 X164.939 Y115.554 E0.8017
G1 X164.964 Y115.551 E0.8021
G1 X166.488 Y115.428 E0.8267
G1 X166.513 Y115.427 E0.8271
G1 X167.021 Y115.427 E0.8352
G1 X167.047 Y115.428 E0.8356
G1 X168.570 Y115.551 E0.8601
G1 X168.596 Y115.554 E0.8606
G1 X169.097 Y115.635 E0.8687
G1 X169.122 Y115.640 E0.8691
G1 X170.606 Y116.005 E0.8936
G1 X170.631 Y116.013 E0.8940
G1 X171.113 Y116.173 E0.9022
G1 X171.137 Y116.182 E0.9026
G1 X172.346 Y116.697 E0.9237
G1 X176.998 Y116.697 E0.9983
G1 X177.229 Y116.793 E1.0023
G1 X180.921 Y120.485 E1.0861
G1 X181.017 Y120.716 E1.0901
G1 X181.017 Y155.554 E1.6490
G1 X180.921 Y155.785 E1.6530
G1 X177.229 Y159.477 E1.7368
G1 X176.998 Y159.573 E1.7408
G1 X121.002 Y159.573 E2.6391
G1 X120.771 Y159.477 E2.6432
G1 X117.079 Y155.785 E2.7269
G1 X116.983 Y155.554 E2.7310
G1 X116.983 Y148.224 E2.8485
G1 X117.079 Y147.993 E2.8526
G1 X120.771 Y144.301 E2.9363
G1 X121.002 Y144.205 E2.9403
G1 X124.457 Y144.205 E2.9958
G1 X124.457 Y132.065 E3.1905
G1 X121.002 Y132.065 E3.2460
G1 X120.771 Y131.969 E3.2500
G1 X117.079 Y128.277 E3.3337
G1 X116.983 Y128.046 E3.3378
G1 X116.983 Y120.716 E3.4553
G1 X117.079 Y120.485 E3.4594
G1 X117.435 Y120.723 F4800
G92 E0
G1 X121.008 Y117.149 E0.0811 F1800
G1 X121.086 Y117.117 E0.0824
G1 X140.954 Y117.117 E0.4012
G1 X142.234 Y116.572 E0.4235
G1 X142.242 Y116.569 E0.4236
G1 X142.709 Y116.414 E0.4315
G1 X142.717 Y116.411 E0.4316
G1 X144.185 Y116.050 E0.4559
G1 X144.193 Y116.048 E0.4560
G1 X144.678 Y115.970 E0.4639
G1 X144.686 Y115.969 E0.4641
G1 X146.193 Y115.847 E0.4883
G1 X146.202 Y115.847 E0.4884
G1 X146.693 Y115.847 E0.4963
G1 X146.701 Y115.847 E0.4965
G1 X148.208 Y115.969 E0.5207
G1 X148.217 Y115.970 E0.5208
G1 X148.702 Y116.048 E0.5287
G1 X148.710 Y116.050 E0.5289
G1 X150.178 Y116.411 E0.5531
G1 X150.186 Y116.414 E0.5533
G1 X150.652 Y116.569 E0.5611
G1 X150.660 Y116.572 E0.5613
G1 X151.941 Y117.117 E0.5836
G1 X161.274 Y117.117 E0.7333
G1 X162.554 Y116.572 E0.7557
G1 X162.562 Y116.569 E0.7558
G1 X163.029 Y116.414 E0.7637
G1 X163.037 Y116.411 E0.7638
G1 X164.505 Y116.050 E0.7881
G1 X164.513 Y116.048 E0.7882
G1 X164.998 Y115.970 E0.7961
G1 X165.006 Y115.969 E0.7962
G1 X166.513 Y115.847 E0.8205
G1 X166.522 Y115.847 E0.8206
G1 X167.013 Y115.847 E0.8285
G1 X167.021 Y115.847 E0.8286
G1 X168.528 Y115.969 E0.8529
G1 X168.537 Y115.970 E0.8530
G1 X169.022 Y116.048 E0.8609
G1 X169.030 Y116.050 E0.8610
G1 X170.498 Y116.411 E0.8853
G1 X170.506 Y116.414 E0.8854
G1 X170.972 Y116.569 E0.8933
G1 X170.980 Y116.572 E0.8934
G1 X172.261 Y117.117 E0.9158
G1 X176.914 Y117.117 E0.9904
G1 X176.992 Y117.149 E0.9918
G1 X180.565 Y120.723 E1.0728
G1 X180.597 Y120.800 E1.0742
G1 X180.597 Y155.470 E1.6304
G1 X180.565 Y155.547 E1.6317
G1 X176.992 Y159.121 E1.7128
G1 X176.914 Y159.153 E1.7142
G1 X121.086 Y159.153 E2.6098
G1 X121.008 Y159.121 E2.6111
G1 X117.435 Y155.547 E2.6922
G1 X117.403 Y155.470 E2.6936
G1 X117.403 Y148.308 E2.8085
G1 X117.435 Y148.231 E2.8098
G1 X121.008 Y144.657 E2.8909
G1 X121.086 Y144.625 E2.8922
G1 X124.877 Y144.625 E2.9531
G1 X124.877 Y131.645 E3.1613
G1 X121.086 Y131.645 E3.2221
G1 X121.008 Y131.613 E3.2235
G1 X117.435 Y128.039 E3.3045
G1 X117.403 Y127.962 E3.3059
G1 X117.403 Y120.800 E3.4208
G1 X117.435 Y120.723 E3.4221
G92 E0
G1 E-1.7000 F1800
; inner perimeter
G1 X124.243 Y123.957 F4800
G1 E0.0000 F1800
G92 E0
G1 X142.819 Y123.957 E0.2980 F1575
G1 X143.794 Y123.342 E0.3165
G1 X144.639 Y122.982 E0.3312
G1 X145.531 Y122.763 E0.3460
G1 X146.447 Y122.689 E0.3607
G1 X147.363 Y122.763 E0.3755
G1 X148.256 Y122.982 E0.3902
G1 X149.101 Y123.342 E0.4050
G1 X150.075 Y123.957 E0.4234
G1 X163.139 Y123.957 E0.6330
G1 X164.114 Y123.342 E0.6515
G1 X164.959 Y122.982 E0.6662
G1 X165.851 Y122.763 E0.6810
G1 X166.767 Y122.689 E0.6957
G1 X167.683 Y122.763 E0.7105
G1 X168.575 Y122.982 E0.7252
G1 X169.421 Y123.342 E0.7400
G1 X170.395 Y123.957 E0.7584
G1 X173.757 Y123.957 E0.8124
G1 X173.757 Y152.313 E1.2673
G1 X124.243 Y152.313 E2.0616
G1 X124.243 Y151.465 E2.0752
G1 X131.717 Y151.465 E2.1952
G1 X131.717 Y124.805 E2.6229
G1 X124.243 Y124.805 E2.7428
G1 X124.243 Y123.957 E2.7564
; outer perimeter
G1 X123.823 Y123.537 F4800
G92 E0
G1 X142.698 Y123.537 E0.3028 F1350
G1 X143.598 Y122.969 E0.3199
G1 X144.506 Y122.583 E0.3357
G1 X145.464 Y122.347 E0.3515
G1 X146.447 Y122.267 E0.3674
G1 X147.431 Y122.347 E0.3832
G1 X148.389 Y122.583 E0.3990
G1 X149.297 Y122.969 E0.4149
G1 X150.197 Y123.537 E0.4319
G1 X163.018 Y123.537 E0.6376
G1 X163.918 Y122.969 E0.6547
G1 X164.826 Y122.583 E0.6705
G1 X165.784 Y122.347 E0.6864
G1 X166.767 Y122.267 E0.7022
G1 X167.751 Y122.347 E0.7180
G1 X168.709 Y122.583 E0.7338
G1 X169.617 Y122.969 E0.7497
G1 X170.517 Y123.537 E0.7667
G1 X174.177 Y123.537 E0.8255
G1 X174.177 Y152.733 E1.2939
G1 X123.823 Y152.733 E2.1017
G1 X123.823 Y151.045 E2.1288
G1 X131.297 Y151.045 E2.2487
G1 X131.297 Y125.225 E2.6629
G1 X123.823 Y125.225 E2.7828
G1 X123.823 Y123.537 E2.8099
; inner perimeter
G1 X143.073 Y127.812 F4800
G92 E0
G1 X143.021 Y128.407 E0.0096 F1575
G1 X143.073 Y129.002 E0.0192
G1 X143.228 Y129.579 E0.0287
G1 X143.480 Y130.120 E0.0383
G1 X143.823 Y130.609 E0.0479
G1 X144.245 Y131.032 E0.0575
G1 X144.734 Y131.374 E0.0671
G1 X145.275 Y131.627 E0.0767
G1 X145.852 Y131.781 E0.0862
G1 X146.447 Y131.833 E0.0958
G1 X147.042 Y131.781 E0.1054
G1 X147.619 Y131.627 E0.1150
G1 X148.161 Y131.374 E0.1246
G1 X148.650 Y131.032 E0.1341
G1 X149.072 Y130.609 E0.1437
G1 X149.415 Y130.120 E0.1533
G1 X149.667 Y129.579 E0.1629
G1 X149.822 Y129.002 E0.1725
G1 X149.874 Y128.407 E0.1821
G1 X149.822 Y127.812 E0.1916
G1 X149.667 Y127.235 E0.2012
G1 X149.415 Y126.694 E0.2108
G1 X149.072 Y126.204 E0.2204
G1 X148.650 Y125.782 E0.2300
G1 X148.160 Y125.439 E0.2395
G1 X147.619 Y125.187 E0.2491
G1 X147.042 Y125.032 E0.2587
G1 X146.447 Y124.980 E0.2683
G1 X145.852 Y125.032 E0.2779
G1 X145.275 Y125.187 E0.2875
G1 X144.734 Y125.439 E0.2970
G1 X144.245 Y125.782 E0.3066
G1 X143.823 Y126.204 E0.3162
G1 X143.480 Y126.694 E0.3258
G1 X143.228 Y127.235 E0.3354
G1 X143.073 Y127.812 E0.3449
; outer perimeter
G1 X143.488 Y127.885 F4800
G92 E0
G1 X143.442 Y128.407 E0.0084 F1350
G1 X143.488 Y128.929 E0.0168
G1 X143.624 Y129.434 E0.0252
G1 X143.845 Y129.909 E0.0336
G1 X144.145 Y130.338 E0.0420
G1 X144.516 Y130.709 E0.0504
G1 X144.945 Y131.009 E0.0588
G1 X145.420 Y131.230 E0.0672
G1 X145.926 Y131.366 E0.0756
G1 X146.447 Y131.412 E0.0840
G1 X146.969 Y131.366 E0.0924
G1 X147.475 Y131.230 E0.1008
G1 X147.950 Y131.009 E0.1092
G1 X148.379 Y130.709 E0.1176
G1 X148.749 Y130.338 E0.1260
G1 X149.050 Y129.909 E0.1344
G1 X149.271 Y129.434 E0.1428
G1 X149.406 Y128.929 E0.1512
G1 X149.452 Y128.407 E0.1597
G1 X149.406 Y127.885 E0.1681
G1 X149.271 Y127.379 E0.1765
G1 X149.050 Y126.904 E0.1849
G1 X148.749 Y126.475 E0.1933
G1 X148.379 Y126.105 E0.2017
G1 X147.950 Y125.805 E0.2101
G1 X147.475 Y125.583 E0.2185
G1 X146.969 Y125.448 E0.2269
G1 X146.447 Y125.402 E0.2353
G1 X145.926 Y125.448 E0.2437
G1 X145.420 Y125.583 E0.2521
G1 X144.945 Y125.805 E0.2605
G1 X144.516 Y126.105 E0.2689
G1 X144.145 Y126.475 E0.2773
G1 X143.845 Y126.904 E0.2857
G1 X143.624 Y127.379 E0.2941
G1 X143.488 Y127.885 E0.3025
G92 E0
G1 E-1.7000 F1800
; inner perimeter
G1 X163.393 Y127.812 F4800
G1 E0.0000 F1800
G92 E0
G1 X163.341 Y128.407 E0.0096 F1575
G1 X163.393 Y129.002 E0.0192
G1 X163.548 Y129.579 E0.0287
G1 X163.800 Y130.120 E0.0383
G1 X164.143 Y130.609 E0.0479
G1 X164.565 Y131.032 E0.0575
G1 X165.054 Y131.374 E0.0671
G1 X165.595 Y131.627 E0.0767
G1 X166.172 Y131.781 E0.0862
G1 X166.767 Y131.833 E0.0958
G1 X167.362 Y131.781 E0.1054
G1 X167.939 Y131.627 E0.1150
G1 X168.481 Y131.374 E0.1246
G1 X168.970 Y131.032 E0.1341
G1 X169.392 Y130.609 E0.1437
G1 X169.735 Y130.120 E0.1533
G1 X169.987 Y129.579 E0.1629
G1 X170.142 Y129.002 E0.1725
G1 X170.194 Y128.407 E0.1821
G1 X170.142 Y127.812 E0.1916
G1 X169.987 Y127.235 E0.2012
G1 X169.735 Y126.694 E0.2108
G1 X169.392 Y126.204 E0.2204
G1 X168.970 Y125.782 E0.2300
G1 X168.480 Y125.439 E0.2395
G1 X167.939 Y125.187 E0.2491
G1 X167.362 Y125.032 E0.2587
G1 X166.767 Y124.980 E0.2683
G1 X166.172 Y125.032 E0.2779
G1 X165.595 Y125.187 E0.2875
G1 X165.054 Y125.439 E0.2970
G1 X164.565 Y125.782 E0.3066
G1 X164.143 Y126.204 E0.3162
G1 X163.800 Y126.694 E0.3258
G1 X163.548 Y127.235 E0.3354
G1 X163.393 Y127.812 E0.3449
; outer perimeter
G1 X163.808 Y127.885 F4800
G92 E0
G1 X163.762 Y128.407 E0.0084 F1350
G1 X163.808 Y128.929 E0.0168
G1 X163.944 Y129.434 E0.0252
G1 X164.165 Y129.909 E0.0336
G1 X164.465 Y130.338 E0.0420
G1 X164.836 Y130.709 E0.0504
G1 X165.265 Y131.009 E0.0588
G1 X165.740 Y131.230 E0.0672
G1 X166.246 Y131.366 E0.0756
G1 X166.767 Y131.412 E0.0840
G1 X167.289 Y131.366 E0.0924
G1 X167.795 Y131.230 E0.1008
G1 X168.270 Y131.009 E0.1092
G1 X168.699 Y130.709 E0.1176
G1 X169.069 Y130.338 E0.1260
G1 X169.370 Y129.909 E0.1344
G1 X169.591 Y129.434 E0.1428
G1 X169.726 Y128.929 E0.1512
G1 X169.772 Y128.407 E0.1597
G1 X169.726 Y127.885 E0.1681
G1 X169.591 Y127.379 E0.1765
G1 X169.370 Y126.904 E0.1849
G1 X169.069 Y126.475 E0.1933
G1 X168.699 Y126.105 E0.2017
G1 X168.270 Y125.805 E0.2101
G1 X167.795 Y125.583 E0.2185
G1 X167.289 Y125.448 E0.2269
G1 X166.767 Y125.402 E0.2353
G1 X166.246 Y125.448 E0.2437
G1 X165.740 Y125.583 E0.2521
G1 X165.265 Y125.805 E0.2605
G1 X164.836 Y126.105 E0.2689
G1 X164.465 Y126.475 E0.2773
G1 X164.165 Y126.904 E0.2857
G1 X163.944 Y127.379 E0.2941
G1 X163.808 Y127.885 E0.3025
G92 E0
G1 E-1.7000 F1800
; solid layer
G1 X166.214 Y132.143 F4800
G1 E0.0000 F1800
G92 E0
G1 X173.400 Y139.329 E0.1630 F1440
G1 X173.400 Y138.735 E0.1726
G1 X166.849 Y132.184 E0.3212
G1 X167.395 Y132.137 E0.3300
G1 X173.400 Y138.141 E0.4662
G1 X173.400 Y137.548 E0.4758
G1 X167.868 Y132.015 E0.6013
G1 X168.062 Y131.963 E0.6045
G1 X168.299 Y131.853 E0.6087
G1 X173.400 Y136.954 E0.7244
G1 X173.400 Y136.360 E0.7340
G1 X168.698 Y131.658 E0.8406
G1 X169.048 Y131.413 E0.8475
