; G-Code generated by Simplify3D(R) Version 3.1.1
; May 3, 2017 at 8:15:29 AM
; Settings Summary
;   processName,Process1
;   applyToModels,Collet,Collet(2),Collet(3)
;   profileName,LulzBot Taz 5 ABS (modified)
;   profileVersion,2017-04-20 17:44:04
;   baseProfile,LulzBot TAZ 5
;   printMaterial,ABS
;   printQuality,Medium
;   printExtruders,
;   extruderName,Primary Extruder
;   extruderToolheadNumber,0
;   extruderDiameter,0.5
;   extruderAutoWidth,1
;   extruderWidth,0.6
;   extrusionMultiplier,0.9
;   extruderUseRetract,1
;   extruderRetractionDistance,2
;   extruderExtraRestartDistance,0
;   extruderRetractionZLift,0
;   extruderRetractionSpeed,480
;   extruderUseCoasting,0
;   extruderCoastingDistance,0.2
;   extruderUseWipe,0
;   extruderWipeDistance,5
;   primaryExtruder,0
;   layerHeight,0.4
;   topSolidLayers,3
;   bottomSolidLayers,2
;   perimeterOutlines,2
;   printPerimetersInsideOut,1
;   startPointOption,1
;   startPointOriginX,0
;   startPointOriginY,0
;   startPointOriginZ,300
;   sequentialIslands,0
;   spiralVaseMode,0
;   firstLayerHeightPercentage,105
;   firstLayerWidthPercentage,105
;   firstLayerUnderspeed,0.5
;   useRaft,0
;   raftExtruder,0
;   raftLayers,3
;   raftOffset,3
;   raftSeparationDistance,0.14
;   raftInfill,85
;   disableRaftBaseLayers,0
;   useSkirt,1
;   skirtExtruder,0
;   skirtLayers,1
;   skirtOutlines,2
;   skirtOffset,5
;   usePrimePillar,0
;   primePillarExtruder,999
;   primePillarWidth,12
;   primePillarLocation,7
;   primePillarSpeedMultiplier,1
;   useOozeShield,0
;   oozeShieldExtruder,999
;   oozeShieldOffset,2
;   oozeShieldOutlines,1
;   oozeShieldSidewallShape,1
;   oozeShieldSidewallAngle,30
;   oozeShieldSpeedMultiplier,1
;   infillExtruder,0
;   internalInfillPattern,Fast Honeycomb
;   externalInfillPattern,Rectilinear
;   infillPercentage,35
;   outlineOverlapPercentage,40
;   infillExtrusionWidthPercentage,220
;   minInfillLength,5
;   infillLayerInterval,1
;   infillAngles,0
;   overlapInfillAngles,0
;   generateSupport,0
;   supportExtruder,0
;   supportInfillPercentage,15
;   supportExtraInflation,0
;   denseSupportLayers,0
;   denseSupportInfillPercentage,70
;   supportLayerInterval,1
;   supportHorizontalPartOffset,0.35
;   supportUpperSeparationLayers,1
;   supportLowerSeparationLayers,1
;   supportType,1
;   supportGridSpacing,4
;   maxOverhangAngle,15
;   supportAngles,0,45
;   temperatureName,Primary Extruder,Heated Bed
;   temperatureNumber,0,1
;   temperatureSetpointCount,1,1
;   temperatureSetpointLayers,1,1
;   temperatureSetpointTemperatures,240,110
;   temperatureStabilizeAtStartup,1,1
;   temperatureHeatedBed,0,1
;   temperatureRelayBetweenLayers,0,0
;   temperatureRelayBetweenLoops,0,0
;   fanLayers,1
;   fanSpeeds,0
;   blipFanToFullPower,0
;   adjustSpeedForCooling,1
;   minSpeedLayerTime,15
;   minCoolingSpeedSlowdown,20
;   increaseFanForCooling,0
;   minFanLayerTime,45
;   maxCoolingFanSpeed,100
;   increaseFanForBridging,0
;   bridgingFanSpeed,100
;   use5D,1
;   relativeEdistances,0
;   allowEaxisZeroing,1
;   independentExtruderAxes,0
;   includeM10123,0
;   stickySupport,1
;   applyToolheadOffsets,0
;   gcodeXoffset,0
;   gcodeYoffset,0
;   gcodeZoffset,0
;   overrideMachineDefinition,1
;   machineTypeOverride,0
;   strokeXoverride,298
;   strokeYoverride,275
;   strokeZoverride,250
;   originOffsetXoverride,0
;   originOffsetYoverride,0
;   originOffsetZoverride,0
;   homeXdirOverride,-1
;   homeYdirOverride,-1
;   homeZdirOverride,-1
;   flipXoverride,1
;   flipYoverride,-1
;   flipZoverride,1
;   toolheadOffsets,0,0|0,0|0,0|0,0|0,0|0,0
;   overrideFirmwareConfiguration,1
;   firmwareTypeOverride,RepRap (Marlin/Repetier/Sprinter)
;   GPXconfigOverride,r2
;   baudRateOverride,115200
;   overridePrinterModels,1
;   printerModelsOverride,LulzBot_TAZ3.stl
;   startingGcode,G28 ; home all axes,G1 X240 E20 F1500 ;,,
;   layerChangeGcode,
;   retractionGcode,
;   toolChangeGcode,
;   endingGcode,M104 S0 ; turn off extruder,M140 S0 ; turn off bed,G28 X0 ; home X axis,M84 ; disable motors,M106 S0;
;   exportFileFormat,gcode
;   celebration,0
;   celebrationSong,Random Song
;   postProcessing,
;   defaultSpeed,3300
;   outlineUnderspeed,0.8
;   solidInfillUnderspeed,0.75
;   supportUnderspeed,0.75
;   rapidXYspeed,4800
;   rapidZspeed,1002
;   minBridgingArea,50
;   bridgingExtraInflation,0
;   bridgingExtrusionMultiplier,1
;   bridgingSpeedMultiplier,1
;   filamentDiameter,2.85
;   filamentPricePerKg,53.33
;   filamentDensity,1.25
;   useMinPrintHeight,0
;   minPrintHeight,0
;   useMaxPrintHeight,0
;   maxPrintHeight,0
;   useDiaphragm,0
;   diaphragmLayerInterval,20
;   robustSlicing,1
;   mergeAllIntoSolid,0
;   onlyRetractWhenCrossingOutline,1
;   retractBetweenLayers,1
;   useRetractionMinTravel,0
;   retractionMinTravel,3
;   retractWhileWiping,0
;   onlyWipeOutlines,1
;   avoidCrossingOutline,0
;   maxMovementDetourFactor,3
;   toolChangeRetractionDistance,12
;   toolChangeExtraRestartDistance,-0.5
;   toolChangeRetractionSpeed,600
;   allowThinWallGapFill,1
;   thinWallAllowedOverlapPercentage,10
;   horizontalSizeCompensation,0
G90
M82
M106 S0
M140 S110
M190 S110
M104 S240 T0
M109 S240 T0
G28 ; home all axes
G1 X240 E20 F1500 ;
G92 E0
G1 E-2.0000 F480
G1 Z0.420 F1002
; layer 1, Z = 0.42
T0
; tool H0.420 W0.630
; skirt
G1 X135.797 Y101.620 F4800
G1 E0.0000 F144
G92 E0
G1 X136.671 Y100.541 E0.0518 F1650
G1 X136.686 Y100.523 E0.0527
G1 X136.877 Y100.311 E0.0634
G1 X136.894 Y100.294 E0.0643
G1 X137.876 Y99.312 E0.1161
G1 X137.893 Y99.295 E0.1170
G1 X138.105 Y99.104 E0.1276
G1 X138.123 Y99.089 E0.1285
G1 X139.202 Y98.215 E0.1804
G1 X139.221 Y98.201 E0.1812
G1 X139.452 Y98.033 E0.1919
G1 X139.471 Y98.020 E0.1928
G1 X140.636 Y97.263 E0.2446
G1 X140.656 Y97.251 E0.2455
G1 X140.903 Y97.108 E0.2561
G1 X140.924 Y97.097 E0.2570
G1 X142.161 Y96.467 E0.3089
G1 X142.182 Y96.456 E0.3097
G1 X142.443 Y96.340 E0.3204
G1 X142.465 Y96.331 E0.3213
G1 X143.762 Y95.834 E0.3731
G1 X143.784 Y95.826 E0.3740
G1 X144.055 Y95.738 E0.3847
G1 X144.078 Y95.731 E0.3855
G1 X145.419 Y95.371 E0.4374
G1 X145.442 Y95.366 E0.4383
G1 X145.721 Y95.307 E0.4489
G1 X145.744 Y95.302 E0.4498
G1 X147.116 Y95.085 E0.5016
G1 X147.139 Y95.082 E0.5025
G1 X147.423 Y95.052 E0.5132
G1 X147.447 Y95.050 E0.5140
G1 X148.834 Y94.978 E0.5659
G1 X148.857 Y94.977 E0.5668
G1 X149.143 Y94.977 E0.5774
G1 X149.166 Y94.978 E0.5783
G1 X150.553 Y95.050 E0.6301
G1 X150.577 Y95.052 E0.6310
G1 X150.860 Y95.082 E0.6417
G1 X150.884 Y95.085 E0.6426
G1 X152.255 Y95.302 E0.6944
G1 X152.279 Y95.307 E0.6953
G1 X152.558 Y95.366 E0.7059
G1 X152.581 Y95.371 E0.7068
G1 X153.922 Y95.731 E0.7587
G1 X153.945 Y95.738 E0.7595
G1 X154.216 Y95.826 E0.7702
G1 X154.238 Y95.834 E0.7711
G1 X155.535 Y96.331 E0.8229
G1 X155.557 Y96.340 E0.8238
G1 X155.818 Y96.456 E0.8344
G1 X155.839 Y96.467 E0.8353
G1 X157.076 Y97.097 E0.8872
G1 X157.097 Y97.108 E0.8881
G1 X157.344 Y97.251 E0.8987
G1 X157.364 Y97.263 E0.8996
G1 X158.529 Y98.020 E0.9514
G1 X158.548 Y98.033 E0.9523
G1 X158.779 Y98.201 E0.9630
G1 X158.798 Y98.215 E0.9638
G1 X159.877 Y99.089 E1.0157
G1 X159.895 Y99.104 E1.0166
G1 X160.107 Y99.295 E1.0272
G1 X160.124 Y99.312 E1.0281
G1 X161.106 Y100.294 E1.0799
G1 X161.123 Y100.311 E1.0808
G1 X161.314 Y100.523 E1.0915
G1 X161.329 Y100.541 E1.0924
G1 X162.203 Y101.620 E1.1442
G1 X162.217 Y101.639 E1.1451
G1 X162.385 Y101.870 E1.1557
G1 X162.398 Y101.889 E1.1566
G1 X163.155 Y103.054 E1.2084
G1 X163.167 Y103.074 E1.2093
G1 X163.310 Y103.321 E1.2200
G1 X163.321 Y103.342 E1.2209
G1 X163.953 Y104.582 E1.2728
G1 X163.963 Y104.603 E1.2737
G1 X164.081 Y104.870 E1.2846
G1 X164.090 Y104.892 E1.2855
G1 X164.598 Y106.221 E1.3386
G1 X164.605 Y106.243 E1.3395
G1 X164.692 Y106.512 E1.3500
G1 X164.699 Y106.534 E1.3509
G1 X165.048 Y107.842 E1.4014
G1 X165.053 Y107.865 E1.4023
G1 X165.112 Y108.144 E1.4129
G1 X165.116 Y108.167 E1.4138
G1 X165.336 Y109.558 E1.4663
G1 X165.339 Y109.582 E1.4673
G1 X165.369 Y109.876 E1.4783
G1 X165.371 Y109.900 E1.4792
G1 X165.440 Y111.349 E1.5334
G1 X165.441 Y111.373 E1.5343
G1 X165.439 Y111.660 E1.5450
G1 X165.439 Y111.683 E1.5458
G1 X165.361 Y113.038 E1.5965
G1 X165.359 Y113.061 E1.5973
G1 X165.329 Y113.338 E1.6077
G1 X165.326 Y113.361 E1.6086
G1 X165.110 Y114.699 E1.6592
G1 X165.106 Y114.722 E1.6601
G1 X165.047 Y114.996 E1.6706
G1 X165.042 Y115.019 E1.6714
G1 X164.686 Y116.343 E1.7226
G1 X164.680 Y116.365 E1.7235
G1 X164.592 Y116.635 E1.7341
G1 X164.584 Y116.657 E1.7349
G1 X164.087 Y117.953 E1.7867
G1 X164.078 Y117.975 E1.7876
G1 X163.962 Y118.236 E1.7983
G1 X163.951 Y118.257 E1.7992
G1 X163.321 Y119.494 E1.8510
G1 X163.310 Y119.515 E1.8519
G1 X163.167 Y119.762 E1.8625
G1 X163.155 Y119.782 E1.8634
G1 X162.398 Y120.947 E1.9153
G1 X162.385 Y120.966 E1.9161
G1 X162.217 Y121.197 E1.9268
G1 X162.203 Y121.216 E1.9277
G1 X161.329 Y122.295 E1.9795
G1 X161.314 Y122.313 E1.9804
G1 X161.123 Y122.525 E1.9910
G1 X161.106 Y122.542 E1.9919
G1 X160.124 Y123.524 E2.0438
G1 X160.107 Y123.541 E2.0447
G1 X159.895 Y123.732 E2.0553
G1 X159.877 Y123.747 E2.0562
G1 X158.998 Y124.459 E2.0984
G1 X159.877 Y125.171 E2.1407
G1 X159.895 Y125.186 E2.1416
G1 X160.107 Y125.377 E2.1522
G1 X160.124 Y125.394 E2.1531
G1 X161.106 Y126.376 E2.2049
G1 X161.123 Y126.393 E2.2058
G1 X161.314 Y126.605 E2.2165
G1 X161.329 Y126.623 E2.2173
G1 X162.203 Y127.702 E2.2692
G1 X162.217 Y127.721 E2.2701
G1 X162.385 Y127.952 E2.2807
G1 X162.398 Y127.971 E2.2816
G1 X163.155 Y129.136 E2.3334
G1 X163.167 Y129.156 E2.3343
G1 X163.310 Y129.403 E2.3450
G1 X163.321 Y129.424 E2.3459
G1 X163.953 Y130.664 E2.3978
G1 X163.963 Y130.685 E2.3987
G1 X164.081 Y130.952 E2.4096
G1 X164.090 Y130.974 E2.4105
G1 X164.598 Y132.303 E2.4636
G1 X164.605 Y132.325 E2.4645
G1 X164.692 Y132.594 E2.4750
G1 X164.699 Y132.616 E2.4759
G1 X165.048 Y133.924 E2.5264
G1 X165.053 Y133.947 E2.5273
G1 X165.112 Y134.226 E2.5379
G1 X165.116 Y134.249 E2.5388
G1 X165.336 Y135.639 E2.5913
G1 X165.339 Y135.664 E2.5923
G1 X165.369 Y135.958 E2.6033
G1 X165.371 Y135.982 E2.6042
G1 X165.440 Y137.431 E2.6584
G1 X165.441 Y137.455 E2.6592
G1 X165.439 Y137.742 E2.6699
G1 X165.439 Y137.765 E2.6708
G1 X165.361 Y139.120 E2.7215
G1 X165.359 Y139.143 E2.7223
G1 X165.329 Y139.420 E2.7327
G1 X165.326 Y139.443 E2.7336
G1 X165.110 Y140.781 E2.7842
G1 X165.106 Y140.804 E2.7851
G1 X165.047 Y141.078 E2.7955
G1 X165.042 Y141.101 E2.7964
G1 X164.686 Y142.425 E2.8476
G1 X164.680 Y142.447 E2.8485
G1 X164.592 Y142.717 E2.8591
G1 X164.584 Y142.739 E2.8599
G1 X164.087 Y144.035 E2.9117
G1 X164.078 Y144.057 E2.9126
G1 X163.962 Y144.318 E2.9233
G1 X163.951 Y144.339 E2.9242
G1 X163.321 Y145.576 E2.9760
G1 X163.310 Y145.597 E2.9769
G1 X163.167 Y145.844 E2.9875
G1 X163.155 Y145.864 E2.9884
G1 X162.398 Y147.029 E3.0402
G1 X162.385 Y147.048 E3.0411
G1 X162.217 Y147.279 E3.0518
G1 X162.203 Y147.298 E3.0527
G1 X161.329 Y148.377 E3.1045
G1 X161.314 Y148.395 E3.1054
G1 X161.123 Y148.607 E3.1160
G1 X161.106 Y148.624 E3.1169
G1 X160.124 Y149.606 E3.1688
G1 X160.107 Y149.623 E3.1696
G1 X159.895 Y149.814 E3.1803
G1 X159.877 Y149.829 E3.1812
G1 X158.998 Y150.541 E3.2234
G1 X159.877 Y151.253 E3.2657
G1 X159.895 Y151.268 E3.2665
G1 X160.107 Y151.459 E3.2772
G1 X160.124 Y151.476 E3.2781
G1 X161.106 Y152.458 E3.3299
G1 X161.123 Y152.475 E3.3308
G1 X161.314 Y152.687 E3.3415
G1 X161.329 Y152.705 E3.3423
G1 X162.203 Y153.784 E3.3942
G1 X162.217 Y153.803 E3.3951
G1 X162.385 Y154.034 E3.4057
G1 X162.398 Y154.053 E3.4066
G1 X163.155 Y155.218 E3.4584
G1 X163.167 Y155.238 E3.4593
G1 X163.310 Y155.485 E3.4700
G1 X163.321 Y155.506 E3.4708
G1 X163.953 Y156.746 E3.5228
G1 X163.963 Y156.767 E3.5237
G1 X164.081 Y157.034 E3.5346
G1 X164.090 Y157.056 E3.5355
G1 X164.598 Y158.385 E3.5886
G1 X164.605 Y158.407 E3.5895
G1 X164.692 Y158.676 E3.6000
G1 X164.699 Y158.698 E3.6009
G1 X165.048 Y160.006 E3.6514
G1 X165.053 Y160.029 E3.6523
G1 X165.112 Y160.308 E3.6629
G1 X165.116 Y160.331 E3.6638
G1 X165.336 Y161.722 E3.7163
G1 X165.339 Y161.746 E3.7172
G1 X165.369 Y162.040 E3.7283
G1 X165.371 Y162.064 E3.7292
G1 X165.440 Y163.513 E3.7834
G1 X165.441 Y163.537 E3.7842
G1 X165.439 Y163.824 E3.7949
G1 X165.439 Y163.847 E3.7958
G1 X165.361 Y165.202 E3.8465
G1 X165.359 Y165.225 E3.8473
G1 X165.329 Y165.502 E3.8577
G1 X165.326 Y165.525 E3.8586
G1 X165.110 Y166.863 E3.9092
G1 X165.106 Y166.886 E3.9101
G1 X165.047 Y167.160 E3.9205
G1 X165.042 Y167.183 E3.9214
G1 X164.686 Y168.507 E3.9726
G1 X164.680 Y168.529 E3.9735
G1 X164.592 Y168.799 E3.9840
G1 X164.584 Y168.821 E3.9849
G1 X164.087 Y170.117 E4.0367
G1 X164.078 Y170.139 E4.0376
G1 X163.962 Y170.400 E4.0483
G1 X163.951 Y170.421 E4.0491
G1 X163.321 Y171.658 E4.1010
G1 X163.310 Y171.679 E4.1019
G1 X163.167 Y171.926 E4.1125
G1 X163.155 Y171.946 E4.1134
G1 X162.398 Y173.111 E4.1652
G1 X162.385 Y173.130 E4.1661
G1 X162.217 Y173.361 E4.1768
G1 X162.203 Y173.380 E4.1777
G1 X161.329 Y174.459 E4.2295
G1 X161.314 Y174.477 E4.2304
G1 X161.123 Y174.689 E4.2410
G1 X161.106 Y174.706 E4.2419
G1 X160.124 Y175.688 E4.2938
G1 X160.107 Y175.705 E4.2946
G1 X159.895 Y175.896 E4.3053
G1 X159.877 Y175.911 E4.3062
G1 X158.798 Y176.785 E4.3580
G1 X158.779 Y176.799 E4.3589
G1 X158.548 Y176.967 E4.3695
G1 X158.529 Y176.980 E4.3704
G1 X157.364 Y177.737 E4.4223
G1 X157.344 Y177.749 E4.4231
G1 X157.097 Y177.892 E4.4338
G1 X157.076 Y177.903 E4.4347
G1 X155.839 Y178.533 E4.4865
G1 X155.818 Y178.544 E4.4874
G1 X155.557 Y178.660 E4.4981
G1 X155.535 Y178.669 E4.4989
G1 X154.238 Y179.166 E4.5508
G1 X154.216 Y179.174 E4.5517
G1 X153.945 Y179.262 E4.5623
G1 X153.922 Y179.269 E4.5632
G1 X152.581 Y179.629 E4.6150
G1 X152.558 Y179.634 E4.6159
G1 X152.279 Y179.693 E4.6266
G1 X152.256 Y179.698 E4.6274
G1 X150.884 Y179.915 E4.6793
G1 X150.861 Y179.918 E4.6802
G1 X150.577 Y179.948 E4.6908
G1 X150.553 Y179.950 E4.6917
G1 X149.166 Y180.022 E4.7435
G1 X149.143 Y180.023 E4.7444
G1 X148.857 Y180.023 E4.7551
G1 X148.834 Y180.022 E4.7560
G1 X147.447 Y179.950 E4.8078
G1 X147.423 Y179.948 E4.8087
G1 X147.139 Y179.918 E4.8193
G1 X147.116 Y179.915 E4.8202
G1 X145.744 Y179.698 E4.8721
G1 X145.721 Y179.693 E4.8729
G1 X145.442 Y179.634 E4.8836
G1 X145.419 Y179.629 E4.8845
G1 X144.078 Y179.269 E4.9363
G1 X144.055 Y179.262 E4.9372
G1 X143.784 Y179.174 E4.9478
G1 X143.762 Y179.166 E4.9487
G1 X142.465 Y178.669 E5.0006
G1 X142.443 Y178.660 E5.0014
G1 X142.182 Y178.544 E5.0121
G1 X142.161 Y178.533 E5.0130
G1 X140.924 Y177.903 E5.0648
G1 X140.903 Y177.892 E5.0657
G1 X140.656 Y177.749 E5.0764
G1 X140.636 Y177.737 E5.0772
G1 X139.471 Y176.980 E5.1291
G1 X139.452 Y176.967 E5.1300
G1 X139.221 Y176.799 E5.1406
G1 X139.202 Y176.785 E5.1415
G1 X138.123 Y175.911 E5.1933
G1 X138.105 Y175.896 E5.1942
G1 X137.893 Y175.705 E5.2049
G1 X137.876 Y175.688 E5.2057
G1 X136.894 Y174.706 E5.2576
G1 X136.877 Y174.689 E5.2585
G1 X136.686 Y174.477 E5.2691
G1 X136.671 Y174.459 E5.2700
G1 X135.797 Y173.380 E5.3218
G1 X135.783 Y173.361 E5.3227
G1 X135.615 Y173.130 E5.3334
G1 X135.602 Y173.111 E5.3343
G1 X134.845 Y171.946 E5.3861
G1 X134.833 Y171.926 E5.3870
G1 X134.690 Y171.679 E5.3976
G1 X134.679 Y171.658 E5.3985
G1 X134.049 Y170.421 E5.4504
G1 X134.038 Y170.400 E5.4512
G1 X133.922 Y170.139 E5.4619
G1 X133.913 Y170.117 E5.4628
G1 X133.416 Y168.820 E5.5146
G1 X133.408 Y168.798 E5.5155
G1 X133.320 Y168.527 E5.5261
G1 X133.313 Y168.504 E5.5270
G1 X132.953 Y167.163 E5.5789
G1 X132.948 Y167.140 E5.5797
G1 X132.889 Y166.861 E5.5904
G1 X132.884 Y166.838 E5.5913
G1 X132.667 Y165.466 E5.6431
G1 X132.664 Y165.442 E5.6440
G1 X132.634 Y165.159 E5.6547
G1 X132.632 Y165.135 E5.6555
G1 X132.560 Y163.748 E5.7074
G1 X132.559 Y163.725 E5.7083
G1 X132.559 Y163.439 E5.7189
G1 X132.560 Y163.416 E5.7198
G1 X132.632 Y162.029 E5.7716
G1 X132.634 Y162.005 E5.7725
G1 X132.664 Y161.722 E5.7832
G1 X132.667 Y161.698 E5.7841
G1 X132.884 Y160.326 E5.8359
G1 X132.889 Y160.303 E5.8368
G1 X132.948 Y160.024 E5.8474
G1 X132.953 Y160.001 E5.8483
G1 X133.313 Y158.660 E5.9002
G1 X133.320 Y158.637 E5.9010
G1 X133.408 Y158.366 E5.9117
G1 X133.416 Y158.344 E5.9126
G1 X133.913 Y157.047 E5.9644
G1 X133.922 Y157.025 E5.9653
