; G-Code generated by Simplify3D(R) Version 3.1.1
; Mar 14, 2017 at 8:25:12 PM
; Settings Summary
;   processName,Process1
;   applyToModels,Feet
;   profileName,LulzBot TAZ 5 NIJAFLEX (modified)
;   profileVersion,2017-03-14 17:59:10
;   baseProfile,LulzBot TAZ 5
;   printMaterial,NijaFlex
;   printQuality,Medium
;   printExtruders,
;   extruderName,Primary Extruder
;   extruderToolheadNumber,0
;   extruderDiameter,0.5
;   extruderAutoWidth,1
;   extruderWidth,0.6
;   extrusionMultiplier,1
;   extruderUseRetract,1
;   extruderRetractionDistance,3
;   extruderExtraRestartDistance,0
;   extruderRetractionZLift,0
;   extruderRetractionSpeed,498
;   extruderUseCoasting,0
;   extruderCoastingDistance,0.2
;   extruderUseWipe,0
;   extruderWipeDistance,5
;   primaryExtruder,0
;   layerHeight,0.35
;   topSolidLayers,3
;   bottomSolidLayers,3
;   perimeterOutlines,3
;   printPerimetersInsideOut,1
;   startPointOption,2
;   startPointOriginX,0
;   startPointOriginY,0
;   startPointOriginZ,300
;   sequentialIslands,0
;   spiralVaseMode,0
;   firstLayerHeightPercentage,105
;   firstLayerWidthPercentage,105
;   firstLayerUnderspeed,0.5
;   useRaft,0
;   raftExtruder,0
;   raftLayers,3
;   raftOffset,3
;   raftSeparationDistance,0.14
;   raftInfill,85
;   disableRaftBaseLayers,0
;   useSkirt,1
;   skirtExtruder,0
;   skirtLayers,1
;   skirtOutlines,1
;   skirtOffset,5
;   usePrimePillar,0
;   primePillarExtruder,999
;   primePillarWidth,12
;   primePillarLocation,7
;   primePillarSpeedMultiplier,1
;   useOozeShield,0
;   oozeShieldExtruder,999
;   oozeShieldOffset,2
;   oozeShieldOutlines,1
;   oozeShieldSidewallShape,1
;   oozeShieldSidewallAngle,30
;   oozeShieldSpeedMultiplier,1
;   infillExtruder,0
;   internalInfillPattern,Rectilinear
;   externalInfillPattern,Rectilinear
;   infillPercentage,20
;   outlineOverlapPercentage,40
;   infillExtrusionWidthPercentage,220
;   minInfillLength,5
;   infillLayerInterval,1
;   infillAngles,45,-45
;   overlapInfillAngles,0
;   generateSupport,0
;   supportExtruder,0
;   supportInfillPercentage,15
;   supportExtraInflation,0
;   denseSupportLayers,0
;   denseSupportInfillPercentage,70
;   supportLayerInterval,1
;   supportHorizontalPartOffset,0.45
;   supportUpperSeparationLayers,1
;   supportLowerSeparationLayers,1
;   supportType,1
;   supportGridSpacing,4
;   maxOverhangAngle,15
;   supportAngles,0,45
;   temperatureName,Primary Extruder,Heated Bed
;   temperatureNumber,0,1
;   temperatureSetpointCount,1,1
;   temperatureSetpointLayers,1,1
;   temperatureSetpointTemperatures,230,40
;   temperatureStabilizeAtStartup,1,1
;   temperatureHeatedBed,0,1
;   temperatureRelayBetweenLayers,0,0
;   temperatureRelayBetweenLoops,0,0
;   fanLayers,1,2
;   fanSpeeds,0,100
;   blipFanToFullPower,0
;   adjustSpeedForCooling,1
;   minSpeedLayerTime,15
;   minCoolingSpeedSlowdown,20
;   increaseFanForCooling,0
;   minFanLayerTime,45
;   maxCoolingFanSpeed,100
;   increaseFanForBridging,0
;   bridgingFanSpeed,100
;   use5D,1
;   relativeEdistances,0
;   allowEaxisZeroing,1
;   independentExtruderAxes,0
;   includeM10123,0
;   stickySupport,1
;   applyToolheadOffsets,0
;   gcodeXoffset,0
;   gcodeYoffset,0
;   gcodeZoffset,0
;   overrideMachineDefinition,1
;   machineTypeOverride,0
;   strokeXoverride,298
;   strokeYoverride,275
;   strokeZoverride,250
;   originOffsetXoverride,0
;   originOffsetYoverride,0
;   originOffsetZoverride,0
;   homeXdirOverride,-1
;   homeYdirOverride,-1
;   homeZdirOverride,-1
;   flipXoverride,1
;   flipYoverride,-1
;   flipZoverride,1
;   toolheadOffsets,0,0|0,0|0,0|0,0|0,0|0,0
;   overrideFirmwareConfiguration,1
;   firmwareTypeOverride,RepRap (Marlin/Repetier/Sprinter)
;   GPXconfigOverride,r2
;   baudRateOverride,115200
;   overridePrinterModels,1
;   printerModelsOverride,LulzBot_TAZ3.stl
;   startingGcode,G28 ; home all axes,G1 X240 E20 F1500 ;,,
;   layerChangeGcode,
;   retractionGcode,
;   toolChangeGcode,
;   endingGcode,M104 S0 ; turn off extruder,M140 S0 ; turn off bed,G28 X0 ; home X axis,M84 ; disable motors,M106 S0;
;   exportFileFormat,gcode
;   celebration,0
;   celebrationSong,Random Song
;   postProcessing,
;   defaultSpeed,2400
;   outlineUnderspeed,0.75
;   solidInfillUnderspeed,0.75
;   supportUnderspeed,0.75
;   rapidXYspeed,4800
;   rapidZspeed,1002
;   minBridgingArea,50
;   bridgingExtraInflation,0
;   bridgingExtrusionMultiplier,1
;   bridgingSpeedMultiplier,1
;   filamentDiameter,2.85
;   filamentPricePerKg,53.33
;   filamentDensity,1.25
;   useMinPrintHeight,0
;   minPrintHeight,0
;   useMaxPrintHeight,0
;   maxPrintHeight,0
;   useDiaphragm,0
;   diaphragmLayerInterval,20
;   robustSlicing,1
;   mergeAllIntoSolid,0
;   onlyRetractWhenCrossingOutline,1
;   retractBetweenLayers,1
;   useRetractionMinTravel,0
;   retractionMinTravel,3
;   retractWhileWiping,0
;   onlyWipeOutlines,1
;   avoidCrossingOutline,1
;   maxMovementDetourFactor,3
;   toolChangeRetractionDistance,12
;   toolChangeExtraRestartDistance,-0.5
;   toolChangeRetractionSpeed,600
;   allowThinWallGapFill,1
;   thinWallAllowedOverlapPercentage,10
;   horizontalSizeCompensation,0
G90
M82
M106 S0
M140 S40
M190 S40
M104 S230 T0
M109 S230 T0
G28 ; home all axes
G1 X240 E20 F1500 ;
G92 E0
G1 E-3.0000 F498
G1 Z0.368 F1002
; layer 1, Z = 0.3675
T0
; tool H0.368 W0.630
; skirt
G1 X131.078 Y122.591 F4800
G1 E0.0000 F149
G92 E0
G1 X134.091 Y119.578 E0.1547 F1200
G1 X134.202 Y119.532 E0.1590
G1 X163.798 Y119.532 E1.2331
G1 X163.909 Y119.578 E1.2375
G1 X166.922 Y122.591 E1.3921
G1 X166.968 Y122.702 E1.3965
G1 X166.968 Y152.298 E2.4706
G1 X166.922 Y152.409 E2.4749
G1 X163.909 Y155.422 E2.6296
G1 X163.798 Y155.468 E2.6339
G1 X134.202 Y155.468 E3.7081
G1 X134.091 Y155.422 E3.7124
G1 X131.078 Y152.409 E3.8671
G1 X131.032 Y152.298 E3.8714
G1 X131.032 Y122.702 E4.9455
G1 X131.078 Y122.591 E4.9499
; inner perimeter
G1 X137.907 Y126.407 F4800
G92 E0
G1 X160.093 Y126.407 E0.8052 F1100
G1 X160.093 Y148.593 E1.6103
G1 X137.907 Y148.593 E2.4155
G1 X137.907 Y126.407 E3.2206
; inner perimeter
G1 X137.277 Y125.777 F4800
G92 E0
G1 X160.723 Y125.777 E0.8509 F1000
G1 X160.723 Y149.223 E1.7018
G1 X137.277 Y149.223 E2.5527
G1 X137.277 Y125.777 E3.4035
; outer perimeter
G1 X136.647 Y125.147 F4800
G92 E0
G1 X161.353 Y125.147 E0.8966 F900
G1 X161.353 Y149.853 E1.7932
G1 X136.647 Y149.853 E2.6898
G1 X136.647 Y125.147 E3.5865
; solid layer
G1 X159.668 Y126.785 F4800
G92 E0
G1 X159.715 Y126.832 E0.0024 F900
G1 X159.715 Y127.723 E0.0347
G1 X158.777 Y126.785 E0.0828
G1 X157.886 Y126.785 E0.1151
G1 X159.715 Y128.614 E0.2090
G1 X159.715 Y129.505 E0.2413
G1 X156.995 Y126.785 E0.3809
G1 X156.105 Y126.785 E0.4132
G1 X159.715 Y130.395 E0.5985
G1 X159.715 Y131.286 E0.6308
G1 X155.214 Y126.785 E0.8618
G1 X154.323 Y126.785 E0.8942
G1 X159.715 Y132.177 E1.1709
G1 X159.715 Y133.068 E1.2033
G1 X153.432 Y126.785 E1.5257
G1 X152.541 Y126.785 E1.5581
G1 X159.715 Y133.959 E1.9263
G1 X159.715 Y134.850 E1.9586
G1 X151.650 Y126.785 E2.3725
G1 X150.759 Y126.785 E2.4049
G1 X159.715 Y135.741 E2.8645
G1 X159.715 Y136.632 E2.8969
G1 X149.868 Y126.785 E3.4023
G1 X148.977 Y126.785 E3.4346
G1 X159.715 Y137.523 E3.9857
G1 X159.715 Y138.414 E4.0181
G1 X148.086 Y126.785 E4.6149
G1 X147.195 Y126.785 E4.6472
G1 X159.715 Y139.305 E5.2898
G1 X159.715 Y140.196 E5.3221
G1 X146.304 Y126.785 E6.0105
G1 X145.413 Y126.785 E6.0428
G1 X159.715 Y141.087 E6.7768
G1 X159.715 Y141.978 E6.8092
G1 X144.522 Y126.785 E7.5889
G1 X143.631 Y126.785 E7.6213
G1 X159.715 Y142.869 E8.4467
G1 X159.715 Y143.760 E8.4791
G1 X142.740 Y126.785 E9.3503
G1 X141.849 Y126.785 E9.3826
G1 X159.715 Y144.651 E10.2996
G1 X159.715 Y145.542 E10.3319
G1 X140.958 Y126.785 E11.2946
G1 X140.067 Y126.785 E11.3269
G1 X159.715 Y146.433 E12.3353
G1 X159.715 Y147.324 E12.3677
G1 X139.176 Y126.785 E13.4218
G1 X138.285 Y126.785 E13.4541
G1 X159.715 Y148.215 E14.5540
G1 X158.824 Y148.215 E14.5863
G1 X138.285 Y127.676 E15.6405
G1 X138.285 Y128.567 E15.6728
G1 X157.933 Y148.215 E16.6812
G1 X157.042 Y148.215 E16.7135
G1 X138.285 Y129.458 E17.6762
G1 X138.285 Y130.349 E17.7086
G1 X156.151 Y148.215 E18.6255
G1 X155.260 Y148.215 E18.6578
G1 X138.285 Y131.240 E19.5291
G1 X138.285 Y132.131 E19.5614
G1 X154.369 Y148.215 E20.3869
G1 X153.478 Y148.215 E20.4192
G1 X138.285 Y133.022 E21.1990
G1 X138.285 Y133.913 E21.2313
G1 X152.587 Y148.215 E21.9654
G1 X151.696 Y148.215 E21.9977
G1 X138.285 Y134.804 E22.6860
G1 X138.285 Y135.695 E22.7183
G1 X150.805 Y148.215 E23.3609
G1 X149.914 Y148.215 E23.3933
G1 X138.285 Y136.586 E23.9901
G1 X138.285 Y137.477 E24.0224
G1 X149.023 Y148.215 E24.5736
G1 X148.132 Y148.215 E24.6059
G1 X138.285 Y138.368 E25.1113
G1 X138.285 Y139.259 E25.1436
G1 X147.241 Y148.215 E25.6033
G1 X146.350 Y148.215 E25.6356
G1 X138.285 Y140.150 E26.0496
G1 X138.285 Y141.041 E26.0819
G1 X145.459 Y148.215 E26.4501
G1 X144.568 Y148.215 E26.4824
G1 X138.285 Y141.932 E26.8049
G1 X138.285 Y142.823 E26.8372
G1 X143.677 Y148.215 E27.1140
G1 X142.786 Y148.215 E27.1463
G1 X138.285 Y143.714 E27.3773
G1 X138.285 Y144.604 E27.4097
G1 X141.896 Y148.215 E27.5950
G1 X141.005 Y148.215 E27.6273
G1 X138.285 Y145.495 E27.7669
G1 X138.285 Y146.386 E27.7992
G1 X140.114 Y148.215 E27.8930
G1 X139.223 Y148.215 E27.9254
G1 X138.285 Y147.277 E27.9735
G1 X138.285 Y148.168 E28.0058
G1 X138.332 Y148.215 E28.0082
G92 E0
G1 E-3.0000 F498
; layer 2, Z = 0.7175
M106 S255
; tool H0.350 W0.600
; inner perimeter
G1 X137.896 Y148.604 F4800
G1 Z0.717 F1002
G1 E0.0000 F498
G92 E0
G1 X137.896 Y126.396 E0.7311 F2200
G1 X160.104 Y126.396 E1.4622
G1 X160.104 Y148.604 E2.1932
G1 X137.896 Y148.604 E2.9243
; inner perimeter
G1 X137.296 Y149.204 F4800
G92 E0
G1 X137.296 Y125.796 E0.7706 F2000
G1 X160.704 Y125.796 E1.5412
G1 X160.704 Y149.204 E2.3117
G1 X137.296 Y149.204 E3.0823
; outer perimeter
G1 X136.696 Y149.804 F4800
G92 E0
G1 X136.696 Y125.196 E0.8101 F1800
G1 X161.304 Y125.196 E1.6202
G1 X161.304 Y149.804 E2.4302
G1 X136.696 Y149.804 E3.2403
; solid layer
G1 X138.256 Y127.031 F4800
G92 E0
G1 X138.531 Y126.756 E0.0128 F1800
G1 X139.380 Y126.756 E0.0408
G1 X138.256 Y127.880 E0.0931
G1 X138.256 Y128.728 E0.1210
G1 X140.228 Y126.756 E0.2129
G1 X141.077 Y126.756 E0.2408
G1 X138.256 Y129.577 E0.3721
G1 X138.256 Y130.425 E0.4000
G1 X141.925 Y126.756 E0.5709
G1 X142.774 Y126.756 E0.5988
G1 X138.256 Y131.274 E0.8092
G1 X138.256 Y132.122 E0.8371
G1 X143.622 Y126.756 E1.0869
G1 X144.471 Y126.756 E1.1149
G1 X138.256 Y132.971 E1.4042
G1 X138.256 Y133.819 E1.4321
G1 X145.319 Y126.756 E1.7610
G1 X146.168 Y126.756 E1.7889
G1 X138.256 Y134.668 E2.1573
G1 X138.256 Y135.516 E2.1852
G1 X147.016 Y126.756 E2.5930
G1 X147.865 Y126.756 E2.6210
G1 X138.256 Y136.365 E3.0683
G1 X138.256 Y137.214 E3.0963
G1 X148.714 Y126.756 E3.5831
G1 X149.562 Y126.756 E3.6110
G1 X138.256 Y138.062 E4.1374
G1 X138.256 Y138.911 E4.1653
G1 X150.411 Y126.756 E4.7312
G1 X151.259 Y126.756 E4.7591
G1 X138.256 Y139.759 E5.3645
G1 X138.256 Y140.608 E5.3924
G1 X152.108 Y126.756 E6.0373
G1 X152.956 Y126.756 E6.0652
G1 X138.256 Y141.456 E6.7496
G1 X138.256 Y142.305 E6.7775
G1 X153.805 Y126.756 E7.5014
G1 X154.653 Y126.756 E7.5293
G1 X138.256 Y143.153 E8.2927
G1 X138.256 Y144.002 E8.3206
G1 X155.502 Y126.756 E9.1235
G1 X156.350 Y126.756 E9.1514
G1 X138.256 Y144.850 E9.9938
G1 X138.256 Y145.699 E10.0217
G1 X157.199 Y126.756 E10.9036
G1 X158.047 Y126.756 E10.9315
G1 X138.256 Y146.547 E11.8529
G1 X138.256 Y147.396 E11.8808
G1 X158.896 Y126.756 E12.8417
G1 X159.744 Y126.756 E12.8696
G1 X138.256 Y148.244 E13.8700
G1 X139.104 Y148.244 E13.8979
G1 X159.744 Y127.604 E14.8588
G1 X159.744 Y128.453 E14.8867
G1 X139.953 Y148.244 E15.8081
G1 X140.801 Y148.244 E15.8360
G1 X159.744 Y129.301 E16.7179
G1 X159.744 Y130.150 E16.7458
G1 X141.650 Y148.244 E17.5882
G1 X142.498 Y148.244 E17.6161
G1 X159.744 Y130.998 E18.4190
G1 X159.744 Y131.847 E18.4469
G1 X143.347 Y148.244 E19.2103
G1 X144.195 Y148.244 E19.2382
G1 X159.744 Y132.695 E19.9621
G1 X159.744 Y133.544 E19.9900
G1 X145.044 Y148.244 E20.6744
G1 X145.892 Y148.244 E20.7023
G1 X159.744 Y134.392 E21.3472
G1 X159.744 Y135.241 E21.3751
G1 X146.741 Y148.244 E21.9805
G1 X147.590 Y148.244 E22.0084
G1 X159.744 Y136.090 E22.5743
G1 X159.744 Y136.938 E22.6022
G1 X148.438 Y148.244 E23.1285
G1 X149.287 Y148.244 E23.1565
G1 X159.744 Y137.787 E23.6433
G1 X159.744 Y138.635 E23.6712
G1 X150.135 Y148.244 E24.1186
G1 X150.984 Y148.244 E24.1465
G1 X159.744 Y139.484 E24.5544
G1 X159.744 Y140.332 E24.5823
G1 X151.832 Y148.244 E24.9506
G1 X152.681 Y148.244 E24.9786
G1 X159.744 Y141.181 E25.3074
G1 X159.744 Y142.029 E25.3353
G1 X153.529 Y148.244 E25.6247
G1 X154.378 Y148.244 E25.6526
G1 X159.744 Y142.878 E25.9025
G1 X159.744 Y143.726 E25.9304
G1 X155.226 Y148.244 E26.1407
G1 X156.075 Y148.244 E26.1687
G1 X159.744 Y144.575 E26.3395
G1 X159.744 Y145.423 E26.3674
G1 X156.923 Y148.244 E26.4987
G1 X157.772 Y148.244 E26.5267
G1 X159.744 Y146.272 E26.6185
G1 X159.744 Y147.120 E26.6464
G1 X158.620 Y148.244 E26.6988
G1 X159.469 Y148.244 E26.7267
G1 X159.744 Y147.969 E26.7395
G92 E0
G1 E-3.0000 F498
; layer 3, Z = 1.0675
; inner perimeter
G1 X160.043 Y148.543 F4800
G1 Z1.067 F1002
G1 E0.0000 F498
G92 E0
G1 X137.957 Y148.543 E0.7270 F2200
G1 X137.957 Y126.457 E1.4540
G1 X160.043 Y126.457 E2.1810
G1 X160.043 Y148.543 E2.9081
; inner perimeter
G1 X160.643 Y149.143 F4800
G92 E0
G1 X137.357 Y149.143 E0.7665 F2000
G1 X137.357 Y125.857 E1.5330
G1 X160.643 Y125.857 E2.2995
G1 X160.643 Y149.143 E3.0661
; outer perimeter
G1 X161.243 Y149.743 F4800
G92 E0
G1 X136.757 Y149.743 E0.8060 F1800
G1 X136.757 Y125.257 E1.6120
G1 X161.243 Y125.257 E2.4181
G1 X161.243 Y149.743 E3.2241
; solid layer
G1 X138.469 Y148.183 F4800
G92 E0
G1 X138.317 Y148.031 E0.0071 F1800
G1 X138.317 Y147.182 E0.0350
G1 X139.318 Y148.183 E0.0816
G1 X140.166 Y148.183 E0.1095
G1 X138.317 Y146.334 E0.1956
G1 X138.317 Y145.485 E0.2235
G1 X141.015 Y148.183 E0.3491
G1 X141.864 Y148.183 E0.3771
G1 X138.317 Y144.636 E0.5421
G1 X138.317 Y143.788 E0.5701
G1 X142.712 Y148.183 E0.7747
G1 X143.561 Y148.183 E0.8026
G1 X138.317 Y142.939 E1.0467
G1 X138.317 Y142.091 E1.0746
G1 X144.409 Y148.183 E1.3582
G1 X145.258 Y148.183 E1.3862
G1 X138.317 Y141.242 E1.7092
G1 X138.317 Y140.394 E1.7372
G1 X146.106 Y148.183 E2.0998
G1 X146.955 Y148.183 E2.1277
G1 X138.317 Y139.545 E2.5298
G1 X138.317 Y138.697 E2.5577
G1 X147.803 Y148.183 E2.9993
G1 X148.652 Y148.183 E3.0273
G1 X138.317 Y137.848 E3.5084
G1 X138.317 Y137.000 E3.5363
G1 X149.500 Y148.183 E4.0569
G1 X150.349 Y148.183 E4.0849
G1 X138.317 Y136.151 E4.6450
G1 X138.317 Y135.303 E4.6729
G1 X151.197 Y148.183 E5.2725
G1 X152.046 Y148.183 E5.3004
G1 X138.317 Y134.454 E5.9396
G1 X138.317 Y133.606 E5.9675
G1 X152.894 Y148.183 E6.6461
G1 X153.743 Y148.183 E6.6740
G1 X138.317 Y132.757 E7.3922
G1 X138.317 Y131.909 E7.4201
G1 X154.591 Y148.183 E8.1777
G1 X155.440 Y148.183 E8.2056
G1 X138.317 Y131.060 E9.0028
G1 X138.317 Y130.211 E9.0307
G1 X156.289 Y148.183 E9.8673
G1 X157.137 Y148.183 E9.8952
G1 X138.317 Y129.363 E10.7714
G1 X138.317 Y128.514 E10.7993
G1 X157.986 Y148.183 E11.7149
G1 X158.834 Y148.183 E11.7429
G1 X138.317 Y127.666 E12.6980
G1 X138.317 Y126.817 E12.7259
G1 X159.683 Y148.183 E13.7206
G1 X159.683 Y147.334 E13.7485
G1 X139.166 Y126.817 E14.7036
G1 X140.014 Y126.817 E14.7316
G1 X159.683 Y146.486 E15.6472
G1 X159.683 Y145.637 E15.6751
G1 X140.863 Y126.817 E16.5512
G1 X141.711 Y126.817 E16.5792
G1 X159.683 Y144.789 E17.4158
G1 X159.683 Y143.940 E17.4437
G1 X142.560 Y126.817 E18.2409
G1 X143.409 Y126.817 E18.2688
G1 X159.683 Y143.091 E19.0264
G1 X159.683 Y142.243 E19.0543
G1 X144.257 Y126.817 E19.7725
G1 X145.106 Y126.817 E19.8004
G1 X159.683 Y141.394 E20.4790
G1 X159.683 Y140.546 E20.5069
G1 X145.954 Y126.817 E21.1460
G1 X146.803 Y126.817 E21.1740
G1 X159.683 Y139.697 E21.7736
G1 X159.683 Y138.849 E21.8015
G1 X147.651 Y126.817 E22.3616
G1 X148.500 Y126.817 E22.3896
G1 X159.683 Y138.000 E22.9102
G1 X159.683 Y137.152 E22.9381
G1 X149.348 Y126.817 E23.4192
G1 X150.197 Y126.817 E23.4471
G1 X159.683 Y136.303 E23.8887
G1 X159.683 Y135.455 E23.9167
G1 X151.045 Y126.817 E24.3188
