; G-Code generated by Simplify3D(R) Version 3.1.1
; Mar 31, 2017 at 2:27:21 PM
; Settings Summary
;   processName,Process1
;   applyToModels,Motor Spacer(2),Motor Spacer(2)(2)
;   profileName,LulzBot Taz 5 ABS
;   profileVersion,2017-03-27 10:00:37
;   baseProfile,LulzBot TAZ 5
;   printMaterial,ABS
;   printQuality,Medium
;   printExtruders,
;   extruderName,Primary Extruder
;   extruderToolheadNumber,0
;   extruderDiameter,0.5
;   extruderAutoWidth,1
;   extruderWidth,0.6
;   extrusionMultiplier,0.9
;   extruderUseRetract,1
;   extruderRetractionDistance,2
;   extruderExtraRestartDistance,0
;   extruderRetractionZLift,0
;   extruderRetractionSpeed,480
;   extruderUseCoasting,0
;   extruderCoastingDistance,0.2
;   extruderUseWipe,0
;   extruderWipeDistance,5
;   primaryExtruder,0
;   layerHeight,0.5
;   topSolidLayers,3
;   bottomSolidLayers,2
;   perimeterOutlines,2
;   printPerimetersInsideOut,1
;   startPointOption,1
;   startPointOriginX,0
;   startPointOriginY,0
;   startPointOriginZ,300
;   sequentialIslands,0
;   spiralVaseMode,0
;   firstLayerHeightPercentage,105
;   firstLayerWidthPercentage,105
;   firstLayerUnderspeed,0.5
;   useRaft,0
;   raftExtruder,0
;   raftLayers,3
;   raftOffset,3
;   raftSeparationDistance,0.14
;   raftInfill,85
;   disableRaftBaseLayers,0
;   useSkirt,1
;   skirtExtruder,0
;   skirtLayers,1
;   skirtOutlines,1
;   skirtOffset,5
;   usePrimePillar,0
;   primePillarExtruder,999
;   primePillarWidth,12
;   primePillarLocation,7
;   primePillarSpeedMultiplier,1
;   useOozeShield,0
;   oozeShieldExtruder,999
;   oozeShieldOffset,2
;   oozeShieldOutlines,1
;   oozeShieldSidewallShape,1
;   oozeShieldSidewallAngle,30
;   oozeShieldSpeedMultiplier,1
;   infillExtruder,0
;   internalInfillPattern,Rectilinear
;   externalInfillPattern,Rectilinear
;   infillPercentage,20
;   outlineOverlapPercentage,40
;   infillExtrusionWidthPercentage,220
;   minInfillLength,5
;   infillLayerInterval,1
;   infillAngles,45,-45
;   overlapInfillAngles,0
;   generateSupport,0
;   supportExtruder,0
;   supportInfillPercentage,15
;   supportExtraInflation,0
;   denseSupportLayers,0
;   denseSupportInfillPercentage,70
;   supportLayerInterval,1
;   supportHorizontalPartOffset,0.35
;   supportUpperSeparationLayers,1
;   supportLowerSeparationLayers,1
;   supportType,1
;   supportGridSpacing,4
;   maxOverhangAngle,15
;   supportAngles,0,45
;   temperatureName,Primary Extruder,Heated Bed
;   temperatureNumber,0,1
;   temperatureSetpointCount,1,1
;   temperatureSetpointLayers,1,1
;   temperatureSetpointTemperatures,240,110
;   temperatureStabilizeAtStartup,1,1
;   temperatureHeatedBed,0,1
;   temperatureRelayBetweenLayers,0,0
;   temperatureRelayBetweenLoops,0,0
;   fanLayers,1
;   fanSpeeds,0
;   blipFanToFullPower,0
;   adjustSpeedForCooling,1
;   minSpeedLayerTime,15
;   minCoolingSpeedSlowdown,20
;   increaseFanForCooling,0
;   minFanLayerTime,45
;   maxCoolingFanSpeed,100
;   increaseFanForBridging,0
;   bridgingFanSpeed,100
;   use5D,1
;   relativeEdistances,0
;   allowEaxisZeroing,1
;   independentExtruderAxes,0
;   includeM10123,0
;   stickySupport,1
;   applyToolheadOffsets,0
;   gcodeXoffset,0
;   gcodeYoffset,0
;   gcodeZoffset,0
;   overrideMachineDefinition,1
;   machineTypeOverride,0
;   strokeXoverride,298
;   strokeYoverride,275
;   strokeZoverride,250
;   originOffsetXoverride,0
;   originOffsetYoverride,0
;   originOffsetZoverride,0
;   homeXdirOverride,-1
;   homeYdirOverride,-1
;   homeZdirOverride,-1
;   flipXoverride,1
;   flipYoverride,-1
;   flipZoverride,1
;   toolheadOffsets,0,0|0,0|0,0|0,0|0,0|0,0
;   overrideFirmwareConfiguration,1
;   firmwareTypeOverride,RepRap (Marlin/Repetier/Sprinter)
;   GPXconfigOverride,r2
;   baudRateOverride,115200
;   overridePrinterModels,1
;   printerModelsOverride,LulzBot_TAZ3.stl
;   startingGcode,G28 ; home all axes,G1 X240 E20 F1500 ;,,
;   layerChangeGcode,
;   retractionGcode,
;   toolChangeGcode,
;   endingGcode,M104 S0 ; turn off extruder,M140 S0 ; turn off bed,G28 X0 ; home X axis,M84 ; disable motors,M106 S0;
;   exportFileFormat,gcode
;   celebration,0
;   celebrationSong,Random Song
;   postProcessing,
;   defaultSpeed,3300
;   outlineUnderspeed,0.8
;   solidInfillUnderspeed,0.75
;   supportUnderspeed,0.75
;   rapidXYspeed,4800
;   rapidZspeed,1002
;   minBridgingArea,50
;   bridgingExtraInflation,0
;   bridgingExtrusionMultiplier,1
;   bridgingSpeedMultiplier,1
;   filamentDiameter,2.85
;   filamentPricePerKg,53.33
;   filamentDensity,1.25
;   useMinPrintHeight,0
;   minPrintHeight,0
;   useMaxPrintHeight,0
;   maxPrintHeight,0
;   useDiaphragm,0
;   diaphragmLayerInterval,20
;   robustSlicing,1
;   mergeAllIntoSolid,0
;   onlyRetractWhenCrossingOutline,1
;   retractBetweenLayers,1
;   useRetractionMinTravel,0
;   retractionMinTravel,3
;   retractWhileWiping,0
;   onlyWipeOutlines,1
;   avoidCrossingOutline,0
;   maxMovementDetourFactor,3
;   toolChangeRetractionDistance,12
;   toolChangeExtraRestartDistance,-0.5
;   toolChangeRetractionSpeed,600
;   allowThinWallGapFill,1
;   thinWallAllowedOverlapPercentage,10
;   horizontalSizeCompensation,0
G90
M82
M106 S0
M140 S110
M190 S110
M104 S240 T0
M109 S240 T0
G28 ; home all axes
G1 X240 E20 F1500 ;
G92 E0
G1 E-2.0000 F480
G1 Z0.525 F1002
; layer 1, Z = 0.525
T0
; tool H0.525 W0.630
; skirt
G1 X118.618 Y117.828 F4800
G1 E0.0000 F144
G92 E0
G1 X118.667 Y117.795 E0.0028 F1650
G1 X120.559 Y117.012 E0.0983
G1 X120.617 Y117.000 E0.1011
G1 X140.298 Y117.000 E1.0194
G1 X140.329 Y117.003 E1.0209
G1 X141.373 Y117.222 E1.0707
G1 X141.403 Y117.231 E1.0721
G1 X143.799 Y118.281 E1.1942
G1 X145.492 Y118.795 E1.2767
G1 X147.234 Y119.106 E1.3593
G1 X149.000 Y119.211 E1.4419
G1 X150.766 Y119.106 E1.5244
G1 X152.508 Y118.795 E1.6070
G1 X154.201 Y118.281 E1.6896
G1 X156.597 Y117.231 E1.8116
G1 X156.627 Y117.222 E1.8131
G1 X157.671 Y117.003 E1.8629
G1 X157.702 Y117.000 E1.8643
G1 X177.383 Y117.000 E2.7827
G1 X177.441 Y117.012 E2.7854
G1 X179.333 Y117.795 E2.8810
G1 X179.382 Y117.828 E2.8838
G1 X187.963 Y126.409 E3.4500
G1 X188.009 Y126.519 E3.4556
G1 X188.009 Y130.781 E3.6544
G1 X187.963 Y130.891 E3.6600
G1 X181.354 Y137.500 E4.0961
G1 X187.963 Y144.109 E4.5322
G1 X188.009 Y144.219 E4.5378
G1 X188.009 Y148.481 E4.7367
G1 X187.963 Y148.591 E4.7422
G1 X179.382 Y157.172 E5.3085
G1 X179.333 Y157.205 E5.3112
G1 X177.441 Y157.988 E5.4068
G1 X177.383 Y158.000 E5.4096
G1 X120.617 Y158.000 E8.0584
G1 X120.559 Y157.988 E8.0611
G1 X118.667 Y157.205 E8.1567
G1 X118.618 Y157.172 E8.1595
G1 X110.037 Y148.591 E8.7257
G1 X109.991 Y148.481 E8.7313
G1 X109.991 Y144.219 E8.9301
G1 X110.037 Y144.109 E8.9357
G1 X116.646 Y137.500 E9.3718
G1 X110.037 Y130.891 E9.8079
G1 X109.991 Y130.781 E9.8135
G1 X109.991 Y126.519 E10.0124
G1 X110.037 Y126.409 E10.0179
G1 X118.618 Y117.828 E10.5842
G92 E0
G1 E-2.0000 F480
; inner perimeter
G1 X122.033 Y134.055 F4800
G1 E0.0000 F480
G92 E0
G1 X116.628 Y128.650 E0.3567 F1485
G1 X122.033 Y123.245 E0.7134
G1 X139.567 Y123.245 E1.5315
G1 X141.631 Y124.149 E1.6367
G1 X144.030 Y124.878 E1.7537
G1 X146.497 Y125.319 E1.8706
G1 X149.000 Y125.467 E1.9876
G1 X151.503 Y125.319 E2.1046
G1 X153.970 Y124.878 E2.2216
G1 X156.369 Y124.149 E2.3386
G1 X158.433 Y123.245 E2.4437
G1 X175.967 Y123.245 E3.2619
G1 X181.372 Y128.650 E3.6186
G1 X175.967 Y134.055 E3.9752
G1 X122.033 Y134.055 E6.4919
; outer perimeter
G1 X121.772 Y134.685 F4800
G92 E0
G1 X115.737 Y128.650 E0.3982 F1320
G1 X121.772 Y122.615 E0.7965
G1 X139.699 Y122.615 E1.6330
G1 X141.850 Y123.557 E1.7426
G1 X144.177 Y124.264 E1.8561
G1 X146.572 Y124.692 E1.9696
G1 X149.000 Y124.835 E2.0831
G1 X151.428 Y124.692 E2.1966
G1 X153.823 Y124.264 E2.3101
G1 X156.150 Y123.557 E2.4236
G1 X158.301 Y122.615 E2.5332
G1 X176.228 Y122.615 E3.3697
G1 X182.263 Y128.650 E3.7679
G1 X176.228 Y134.685 E4.1662
G1 X121.772 Y134.685 E6.7073
; inner perimeter
G1 X123.447 Y132.223 F4800
G92 E0
G1 X124.099 Y132.526 E0.0335 F1485
G1 X124.794 Y132.711 E0.0671
G1 X125.510 Y132.773 E0.1006
G1 X126.226 Y132.710 E0.1341
G1 X126.920 Y132.523 E0.1677
G1 X127.571 Y132.219 E0.2012
G1 X128.159 Y131.806 E0.2348
G1 X128.667 Y131.297 E0.2683
G1 X129.078 Y130.708 E0.3018
G1 X129.381 Y130.056 E0.3354
G1 X129.566 Y129.361 E0.3689
G1 X129.628 Y128.645 E0.4025
G1 X129.565 Y127.929 E0.4360
G1 X129.378 Y127.235 E0.4695
G1 X129.074 Y126.584 E0.5031
G1 X128.661 Y125.996 E0.5366
G1 X128.152 Y125.488 E0.5701
G1 X127.563 Y125.077 E0.6037
G1 X126.911 Y124.774 E0.6372
G1 X126.216 Y124.589 E0.6707
G1 X125.500 Y124.527 E0.7043
G1 X124.784 Y124.590 E0.7378
G1 X124.090 Y124.777 E0.7714
G1 X123.439 Y125.081 E0.8049
G1 X122.851 Y125.494 E0.8384
G1 X122.344 Y126.003 E0.8720
G1 X121.934 Y126.589 E0.9053
G1 X121.629 Y127.244 E0.9391
G1 X121.444 Y127.939 E0.9726
G1 X121.382 Y128.655 E1.0061
G1 X121.445 Y129.371 E1.0397
G1 X121.632 Y130.065 E1.0732
G1 X121.936 Y130.716 E1.1067
G1 X122.349 Y131.304 E1.1403
G1 X122.858 Y131.812 E1.1738
G1 X123.447 Y132.223 E1.2074
; outer perimeter
G1 X123.763 Y131.675 F4800
G92 E0
G1 X124.315 Y131.932 E0.0284 F1320
G1 X124.903 Y132.089 E0.0568
G1 X125.509 Y132.141 E0.0852
G1 X126.115 Y132.087 E0.1136
G1 X126.703 Y131.929 E0.1420
G1 X127.254 Y131.671 E0.1704
G1 X127.752 Y131.322 E0.1988
G1 X128.182 Y130.891 E0.2272
G1 X128.530 Y130.392 E0.2555
G1 X128.787 Y129.840 E0.2839
G1 X128.944 Y129.252 E0.3123
G1 X128.996 Y128.646 E0.3407
G1 X128.942 Y128.040 E0.3691
G1 X128.784 Y127.452 E0.3975
G1 X128.526 Y126.901 E0.4259
G1 X128.177 Y126.403 E0.4543
G1 X127.746 Y125.973 E0.4827
G1 X127.247 Y125.625 E0.5111
G1 X126.695 Y125.368 E0.5395
G1 X126.107 Y125.211 E0.5679
G1 X125.501 Y125.159 E0.5963
G1 X124.895 Y125.213 E0.6247
G1 X124.307 Y125.371 E0.6531
G1 X123.756 Y125.629 E0.6815
G1 X123.258 Y125.978 E0.7098
G1 X122.828 Y126.409 E0.7382
G1 X122.481 Y126.905 E0.7665
G1 X122.223 Y127.460 E0.7950
G1 X122.066 Y128.048 E0.8234
G1 X122.014 Y128.654 E0.8518
G1 X122.068 Y129.260 E0.8802
G1 X122.226 Y129.848 E0.9086
G1 X122.484 Y130.399 E0.9370
G1 X122.833 Y130.897 E0.9654
G1 X123.264 Y131.327 E0.9938
G1 X123.763 Y131.675 E1.0222
G92 E0
G1 E-2.0000 F480
; inner perimeter
G1 X168.435 Y129.371 F4800
G1 E0.0000 F480
G92 E0
G1 X168.622 Y130.065 E0.0335 F1485
G1 X168.926 Y130.716 E0.0671
G1 X169.339 Y131.304 E0.1006
G1 X169.848 Y131.812 E0.1342
G1 X170.437 Y132.223 E0.1677
G1 X171.089 Y132.526 E0.2012
G1 X171.784 Y132.711 E0.2348
G1 X172.500 Y132.773 E0.2683
G1 X173.216 Y132.710 E0.3018
G1 X173.910 Y132.523 E0.3354
G1 X174.561 Y132.219 E0.3689
G1 X175.149 Y131.806 E0.4025
G1 X175.657 Y131.297 E0.4360
G1 X176.068 Y130.708 E0.4695
G1 X176.371 Y130.056 E0.5031
G1 X176.556 Y129.361 E0.5366
G1 X176.618 Y128.645 E0.5701
G1 X176.555 Y127.929 E0.6037
G1 X176.368 Y127.235 E0.6372
G1 X176.064 Y126.584 E0.6708
G1 X175.651 Y125.996 E0.7043
G1 X175.142 Y125.488 E0.7378
G1 X174.553 Y125.077 E0.7714
G1 X173.901 Y124.774 E0.8049
G1 X173.211 Y124.589 E0.8382
G1 X172.490 Y124.527 E0.8720
G1 X171.774 Y124.590 E0.9055
G1 X171.080 Y124.777 E0.9391
G1 X170.429 Y125.081 E0.9726
G1 X169.841 Y125.494 E1.0061
G1 X169.333 Y126.003 E1.0397
G1 X168.922 Y126.592 E1.0732
G1 X168.619 Y127.244 E1.1067
G1 X168.434 Y127.939 E1.1403
G1 X168.372 Y128.655 E1.1738
G1 X168.435 Y129.371 E1.2074
; outer perimeter
G1 X169.058 Y129.260 F4800
G92 E0
G1 X169.216 Y129.848 E0.0284 F1320
G1 X169.474 Y130.399 E0.0568
G1 X169.823 Y130.897 E0.0852
G1 X170.254 Y131.327 E0.1136
G1 X170.753 Y131.675 E0.1420
G1 X171.305 Y131.932 E0.1704
G1 X171.893 Y132.089 E0.1988
G1 X172.499 Y132.141 E0.2272
G1 X173.105 Y132.087 E0.2555
G1 X173.693 Y131.929 E0.2839
G1 X174.244 Y131.671 E0.3123
G1 X174.742 Y131.322 E0.3407
G1 X175.172 Y130.891 E0.3691
G1 X175.520 Y130.392 E0.3975
G1 X175.777 Y129.840 E0.4259
G1 X175.934 Y129.252 E0.4543
G1 X175.986 Y128.646 E0.4827
G1 X175.932 Y128.040 E0.5111
G1 X175.774 Y127.452 E0.5395
G1 X175.516 Y126.901 E0.5679
G1 X175.167 Y126.403 E0.5963
G1 X174.736 Y125.973 E0.6247
G1 X174.237 Y125.625 E0.6531
G1 X173.685 Y125.368 E0.6814
G1 X173.101 Y125.212 E0.7097
G1 X172.491 Y125.159 E0.7382
G1 X171.885 Y125.213 E0.7666
G1 X171.297 Y125.371 E0.7950
G1 X170.746 Y125.629 E0.8234
G1 X170.248 Y125.978 E0.8518
G1 X169.818 Y126.409 E0.8802
G1 X169.470 Y126.908 E0.9086
G1 X169.213 Y127.460 E0.9370
G1 X169.056 Y128.048 E0.9654
G1 X169.004 Y128.654 E0.9938
G1 X169.058 Y129.260 E1.0222
; solid layer
G1 X171.167 Y132.938 F4800
G92 E0
G1 X171.906 Y133.677 E0.0488 F1237
G1 X172.797 Y133.677 E0.0903
G1 X172.251 Y133.131 E0.1263
G1 X172.500 Y133.153 E0.1380
G1 X173.109 Y133.099 E0.1666
G1 X173.688 Y133.677 E0.2047
G1 X174.579 Y133.677 E0.2463
G1 X173.836 Y132.934 E0.2953
G1 X174.040 Y132.879 E0.3052
G1 X174.470 Y132.678 E0.3273
G1 X175.469 Y133.677 E0.3933
G1 X175.811 Y133.677 E0.4092
G1 X176.086 Y133.402 E0.4273
G1 X175.033 Y132.349 E0.4968
G1 X175.393 Y132.096 E0.5174
G1 X175.532 Y131.957 E0.5265
G1 X176.531 Y132.957 E0.5925
G1 X176.977 Y132.511 E0.6219
G1 X175.971 Y131.506 E0.6882
G1 X176.338 Y130.982 E0.7181
G1 X177.422 Y132.066 E0.7896
G1 X177.868 Y131.620 E0.8190
G1 X176.634 Y130.387 E0.9004
G1 X176.728 Y130.185 E0.9108
G1 X176.853 Y129.715 E0.9335
G1 X178.313 Y131.175 E1.0298
G1 X178.758 Y130.729 E1.0592
G1 X176.972 Y128.943 E1.1771
G1 X176.998 Y128.645 E1.1910
G1 X176.943 Y128.022 E1.2202
G1 X179.204 Y130.284 E1.3694
G1 X179.649 Y129.838 E1.3988
G1 X176.556 Y126.745 E1.6030
G1 X175.216 Y123.623 F4800
G92 E0
G1 X180.540 Y128.947 E0.3514 F1237
G1 X180.095 Y129.393 E0.3808
G1 X174.325 Y123.623 E0.7615
G1 X173.434 Y123.623 E0.8031
G1 X174.400 Y124.589 E0.8668
G1 X174.031 Y124.417 E0.8858
G1 X173.276 Y124.215 E0.9223
G1 X173.122 Y124.202 E0.9295
G1 X172.543 Y123.623 E0.9677
G1 X171.652 Y123.623 E1.0093
G1 X172.202 Y124.173 E1.0456
G1 X171.708 Y124.217 E1.0687
G1 X171.430 Y124.291 E1.0822
G1 X170.761 Y123.623 E1.1263
G1 X169.870 Y123.623 E1.1678
G1 X170.758 Y124.511 E1.2264
G1 X170.239 Y124.753 E1.2531
G1 X170.163 Y124.807 E1.2575
G1 X168.979 Y123.623 E1.3356
G1 X168.088 Y123.623 E1.3772
G1 X169.639 Y125.174 E1.4795
G1 X169.597 Y125.204 E1.4819
G1 X169.188 Y125.614 E1.5089
G1 X167.197 Y123.623 E1.6403
G1 X166.306 Y123.623 E1.6819
G1 X168.796 Y126.112 E1.8462
G1 X168.593 Y126.403 E1.8627
G1 X168.467 Y126.674 E1.8767
G1 X165.415 Y123.623 E2.0780
G1 X164.525 Y123.623 E2.1196
G1 X168.210 Y127.309 E2.3628
G1 X168.060 Y127.873 E2.3901
G1 X168.046 Y128.035 E2.3977
G1 X163.634 Y123.623 E2.6888
G1 X162.743 Y123.623 E2.7304
G1 X168.013 Y128.894 E3.0782
G1 X168.062 Y129.437 E3.1037
G1 X168.207 Y129.979 E3.1298
G1 X161.852 Y123.623 E3.5493
G1 X160.961 Y123.623 E3.5908
G1 X171.015 Y133.677 E4.2543
G1 X170.124 Y133.677 E4.2959
G1 X160.070 Y123.623 E4.9593
G1 X159.179 Y123.623 E5.0009
G1 X169.233 Y133.677 E5.6644
G1 X168.342 Y133.677 E5.7059
G1 X158.356 Y123.691 E6.3649
G1 X157.737 Y123.963 E6.3964
G1 X167.451 Y133.677 E7.0375
G1 X166.560 Y133.677 E7.0791
G1 X157.117 Y124.234 E7.7022
G1 X156.500 Y124.504 E7.7336
G1 X156.497 Y124.505 E7.7338
G1 X165.669 Y133.677 E8.3390
G1 X164.778 Y133.677 E8.3806
G1 X155.814 Y124.713 E8.9721
G1 X155.130 Y124.920 E9.0055
G1 X163.887 Y133.677 E9.5833
G1 X162.996 Y133.677 E9.6249
G1 X154.447 Y125.128 E10.1891
G1 X154.059 Y125.246 E10.2080
G1 X153.732 Y125.304 E10.2235
G1 X162.105 Y133.677 E10.7760
G1 X161.214 Y133.677 E10.8176
G1 X152.976 Y125.439 E11.3612
G1 X152.221 Y125.574 E11.3970
G1 X160.323 Y133.677 E11.9317
G1 X159.432 Y133.677 E11.9732
G1 X151.456 Y125.700 E12.4996
G1 X150.614 Y125.750 E12.5390
G1 X158.541 Y133.677 E13.0621
G1 X157.650 Y133.677 E13.1036
G1 X149.773 Y125.800 E13.6235
G1 X149.000 Y125.845 E13.6596
G1 X148.923 Y125.841 E13.6632
G1 X156.759 Y133.677 E14.1803
G1 X155.868 Y133.677 E14.2219
G1 X147.976 Y125.785 E14.7427
G1 X147.029 Y125.729 E14.7869
G1 X154.978 Y133.677 E15.3114
G1 X154.087 Y133.677 E15.3530
G1 X146.029 Y125.619 E15.8848
G1 X144.944 Y125.425 E15.9362
G1 X153.196 Y133.677 E16.4807
G1 X152.305 Y133.677 E16.5223
G1 X143.844 Y125.216 E17.0806
G1 X142.564 Y124.828 E17.1430
G1 X151.414 Y133.677 E17.7270
G1 X150.523 Y133.677 E17.7686
G1 X141.233 Y124.388 E18.3816
G1 X139.648 Y123.693 E18.4624
