; G-Code generated by Simplify3D(R) Version 3.1.1
; Mar 31, 2017 at 11:45:08 AM
; Settings Summary
;   processName,Process1
;   applyToModels,Motor Spacer(2)
;   profileName,LulzBot Taz 5 ABS (modified)
;   profileVersion,2017-03-27 10:00:37
;   baseProfile,LulzBot TAZ 5
;   printMaterial,ABS
;   printQuality,Medium
;   printExtruders,
;   extruderName,Primary Extruder
;   extruderToolheadNumber,0
;   extruderDiameter,0.5
;   extruderAutoWidth,1
;   extruderWidth,0.6
;   extrusionMultiplier,0.9
;   extruderUseRetract,1
;   extruderRetractionDistance,1.85
;   extruderExtraRestartDistance,0
;   extruderRetractionZLift,0
;   extruderRetractionSpeed,450
;   extruderUseCoasting,0
;   extruderCoastingDistance,0.2
;   extruderUseWipe,0
;   extruderWipeDistance,5
;   primaryExtruder,0
;   layerHeight,0.5
;   topSolidLayers,3
;   bottomSolidLayers,2
;   perimeterOutlines,3
;   printPerimetersInsideOut,1
;   startPointOption,2
;   startPointOriginX,0
;   startPointOriginY,0
;   startPointOriginZ,300
;   sequentialIslands,0
;   spiralVaseMode,0
;   firstLayerHeightPercentage,105
;   firstLayerWidthPercentage,105
;   firstLayerUnderspeed,0.5
;   useRaft,0
;   raftExtruder,0
;   raftLayers,3
;   raftOffset,3
;   raftSeparationDistance,0.14
;   raftInfill,85
;   disableRaftBaseLayers,0
;   useSkirt,1
;   skirtExtruder,0
;   skirtLayers,1
;   skirtOutlines,1
;   skirtOffset,5
;   usePrimePillar,0
;   primePillarExtruder,999
;   primePillarWidth,12
;   primePillarLocation,7
;   primePillarSpeedMultiplier,1
;   useOozeShield,0
;   oozeShieldExtruder,999
;   oozeShieldOffset,2
;   oozeShieldOutlines,1
;   oozeShieldSidewallShape,1
;   oozeShieldSidewallAngle,30
;   oozeShieldSpeedMultiplier,1
;   infillExtruder,0
;   internalInfillPattern,Rectilinear
;   externalInfillPattern,Rectilinear
;   infillPercentage,20
;   outlineOverlapPercentage,40
;   infillExtrusionWidthPercentage,220
;   minInfillLength,5
;   infillLayerInterval,1
;   infillAngles,45,-45
;   overlapInfillAngles,0
;   generateSupport,0
;   supportExtruder,0
;   supportInfillPercentage,15
;   supportExtraInflation,0
;   denseSupportLayers,0
;   denseSupportInfillPercentage,70
;   supportLayerInterval,1
;   supportHorizontalPartOffset,0.35
;   supportUpperSeparationLayers,1
;   supportLowerSeparationLayers,1
;   supportType,1
;   supportGridSpacing,4
;   maxOverhangAngle,15
;   supportAngles,0,45
;   temperatureName,Primary Extruder,Heated Bed
;   temperatureNumber,0,1
;   temperatureSetpointCount,1,1
;   temperatureSetpointLayers,1,1
;   temperatureSetpointTemperatures,245,110
;   temperatureStabilizeAtStartup,1,1
;   temperatureHeatedBed,0,1
;   temperatureRelayBetweenLayers,0,0
;   temperatureRelayBetweenLoops,0,0
;   fanLayers,1
;   fanSpeeds,0
;   blipFanToFullPower,0
;   adjustSpeedForCooling,1
;   minSpeedLayerTime,15
;   minCoolingSpeedSlowdown,20
;   increaseFanForCooling,0
;   minFanLayerTime,45
;   maxCoolingFanSpeed,100
;   increaseFanForBridging,0
;   bridgingFanSpeed,100
;   use5D,1
;   relativeEdistances,0
;   allowEaxisZeroing,1
;   independentExtruderAxes,0
;   includeM10123,0
;   stickySupport,1
;   applyToolheadOffsets,0
;   gcodeXoffset,0
;   gcodeYoffset,0
;   gcodeZoffset,0
;   overrideMachineDefinition,1
;   machineTypeOverride,0
;   strokeXoverride,298
;   strokeYoverride,275
;   strokeZoverride,250
;   originOffsetXoverride,0
;   originOffsetYoverride,0
;   originOffsetZoverride,0
;   homeXdirOverride,-1
;   homeYdirOverride,-1
;   homeZdirOverride,-1
;   flipXoverride,1
;   flipYoverride,-1
;   flipZoverride,1
;   toolheadOffsets,0,0|0,0|0,0|0,0|0,0|0,0
;   overrideFirmwareConfiguration,1
;   firmwareTypeOverride,RepRap (Marlin/Repetier/Sprinter)
;   GPXconfigOverride,r2
;   baudRateOverride,115200
;   overridePrinterModels,1
;   printerModelsOverride,LulzBot_TAZ3.stl
;   startingGcode,G28 ; home all axes,G1 X240 E20 F1500 ;,,
;   layerChangeGcode,
;   retractionGcode,
;   toolChangeGcode,
;   endingGcode,M104 S0 ; turn off extruder,M140 S0 ; turn off bed,G28 X0 ; home X axis,M84 ; disable motors,M106 S0;
;   exportFileFormat,gcode
;   celebration,0
;   celebrationSong,Random Song
;   postProcessing,
;   defaultSpeed,3600
;   outlineUnderspeed,0.8
;   solidInfillUnderspeed,0.75
;   supportUnderspeed,0.75
;   rapidXYspeed,4800
;   rapidZspeed,1002
;   minBridgingArea,50
;   bridgingExtraInflation,0
;   bridgingExtrusionMultiplier,1
;   bridgingSpeedMultiplier,1
;   filamentDiameter,2.85
;   filamentPricePerKg,53.33
;   filamentDensity,1.25
;   useMinPrintHeight,0
;   minPrintHeight,0
;   useMaxPrintHeight,0
;   maxPrintHeight,0
;   useDiaphragm,0
;   diaphragmLayerInterval,20
;   robustSlicing,1
;   mergeAllIntoSolid,0
;   onlyRetractWhenCrossingOutline,1
;   retractBetweenLayers,1
;   useRetractionMinTravel,0
;   retractionMinTravel,3
;   retractWhileWiping,0
;   onlyWipeOutlines,1
;   avoidCrossingOutline,0
;   maxMovementDetourFactor,3
;   toolChangeRetractionDistance,12
;   toolChangeExtraRestartDistance,-0.5
;   toolChangeRetractionSpeed,600
;   allowThinWallGapFill,1
;   thinWallAllowedOverlapPercentage,10
;   horizontalSizeCompensation,0
G90
M82
M106 S0
M140 S110
M190 S110
M104 S245 T0
M109 S245 T0
G28 ; home all axes
G1 X240 E20 F1500 ;
G92 E0
G1 E-1.8500 F450
G1 Z0.525 F1002
; layer 1, Z = 0.525
T0
; tool H0.525 W0.630
; skirt
G1 X118.618 Y126.678 F4800
G1 E0.0000 F135
G92 E0
G1 X118.667 Y126.645 E0.0028 F1800
G1 X120.559 Y125.862 E0.0983
G1 X120.617 Y125.850 E0.1011
G1 X140.298 Y125.850 E1.0194
G1 X140.329 Y125.853 E1.0209
G1 X141.373 Y126.072 E1.0707
G1 X141.402 Y126.081 E1.0721
G1 X143.799 Y127.131 E1.1942
G1 X145.492 Y127.645 E1.2767
G1 X147.234 Y127.956 E1.3593
G1 X149.000 Y128.061 E1.4419
G1 X150.766 Y127.956 E1.5244
G1 X152.508 Y127.645 E1.6070
G1 X154.201 Y127.131 E1.6896
G1 X156.598 Y126.081 E1.8116
G1 X156.627 Y126.072 E1.8131
G1 X157.671 Y125.853 E1.8629
G1 X157.702 Y125.850 E1.8643
G1 X177.383 Y125.850 E2.7827
G1 X177.441 Y125.862 E2.7854
G1 X179.333 Y126.645 E2.8810
G1 X179.382 Y126.678 E2.8838
G1 X187.963 Y135.259 E3.4500
G1 X188.009 Y135.369 E3.4556
G1 X188.009 Y139.631 E3.6544
G1 X187.963 Y139.741 E3.6600
G1 X179.382 Y148.322 E4.2262
G1 X179.333 Y148.355 E4.2290
G1 X177.441 Y149.138 E4.3246
G1 X177.383 Y149.150 E4.3273
G1 X120.617 Y149.150 E6.9761
G1 X120.559 Y149.138 E6.9789
G1 X118.667 Y148.355 E7.0745
G1 X118.618 Y148.322 E7.0772
G1 X110.037 Y139.741 E7.6435
G1 X109.991 Y139.631 E7.6490
G1 X109.991 Y135.369 E7.8479
G1 X110.037 Y135.259 E7.8535
G1 X118.618 Y126.678 E8.4197
G92 E0
G1 E-1.8500 F450
; inner perimeter
G1 X122.294 Y132.725 F4800
G1 E0.0000 F450
G92 E0
G1 X123.600 Y132.725 E0.0610 F1680
G1 X123.688 Y133.120 E0.0798
G1 X123.122 Y133.384 E0.1090
G1 X122.444 Y133.860 E0.1477
G1 X121.859 Y134.447 E0.1863
G1 X121.386 Y135.123 E0.2248
G1 X121.034 Y135.879 E0.2637
G1 X120.821 Y136.679 E0.3024
G1 X120.749 Y137.505 E0.3411
G1 X120.822 Y138.331 E0.3797
G1 X121.038 Y139.132 E0.4184
G1 X121.389 Y139.883 E0.4571
G1 X121.865 Y140.561 E0.4958
G1 X122.452 Y141.147 E0.5345
G1 X123.132 Y141.621 E0.5732
G1 X123.688 Y141.880 E0.6018
G1 X123.601 Y142.275 E0.6207
G1 X122.294 Y142.275 E0.6816
G1 X117.519 Y137.500 E0.9967
G1 X122.294 Y132.725 E1.3118
G1 X127.322 Y133.120 F4800
G92 E0
G1 X127.409 Y132.725 E0.0189 F1680
G1 X139.435 Y132.725 E0.5800
G1 X141.412 Y133.591 E0.6807
G1 X143.882 Y134.341 E0.8012
G1 X146.423 Y134.796 E0.9216
G1 X149.000 Y134.948 E1.0421
G1 X151.577 Y134.796 E1.1625
G1 X154.118 Y134.341 E1.2830
G1 X156.588 Y133.591 E1.4034
G1 X158.565 Y132.725 E1.5042
G1 X170.590 Y132.725 E2.0653
G1 X170.678 Y133.120 E2.0842
G1 X170.112 Y133.384 E2.1133
G1 X169.434 Y133.860 E2.1520
G1 X168.848 Y134.447 E2.1907
G1 X168.374 Y135.127 E2.2293
G1 X168.024 Y135.879 E2.2680
G1 X167.811 Y136.680 E2.3067
G1 X167.739 Y137.505 E2.3454
G1 X167.812 Y138.331 E2.3841
G1 X168.028 Y139.132 E2.4227
G1 X168.379 Y139.883 E2.4614
G1 X168.855 Y140.561 E2.5001
G1 X169.442 Y141.147 E2.5388
G1 X170.122 Y141.621 E2.5775
G1 X170.678 Y141.880 E2.6061
G1 X170.591 Y142.275 E2.6250
G1 X127.410 Y142.275 E4.6399
G1 X127.322 Y141.880 E4.6587
G1 X127.888 Y141.616 E4.6879
G1 X128.566 Y141.140 E4.7266
G1 X129.152 Y140.553 E4.7652
G1 X129.626 Y139.873 E4.8039
G1 X129.976 Y139.121 E4.8426
G1 X130.189 Y138.321 E4.8813
G1 X130.261 Y137.495 E4.9200
G1 X130.187 Y136.669 E4.9586
G1 X129.972 Y135.868 E4.9973
G1 X129.621 Y135.117 E5.0360
G1 X129.145 Y134.439 E5.0747
G1 X128.558 Y133.853 E5.1134
G1 X127.878 Y133.379 E5.1520
G1 X127.322 Y133.120 E5.1807
G92 E0
G1 E-1.8500 F450
G1 X174.312 Y133.120 F4800
G1 E0.0000 F450
G92 E0
G1 X174.399 Y132.725 E0.0189 F1680
G1 X175.706 Y132.725 E0.0799
G1 X180.481 Y137.500 E0.3950
G1 X175.706 Y142.275 E0.7101
G1 X174.400 Y142.275 E0.7711
G1 X174.312 Y141.880 E0.7899
G1 X174.878 Y141.616 E0.8191
G1 X175.556 Y141.140 E0.8577
G1 X176.142 Y140.553 E0.8964
G1 X176.616 Y139.873 E0.9351
G1 X176.966 Y139.121 E0.9738
G1 X177.179 Y138.321 E1.0125
G1 X177.251 Y137.495 E1.0511
G1 X177.178 Y136.669 E1.0898
G1 X176.962 Y135.868 E1.1285
G1 X176.611 Y135.117 E1.1672
G1 X176.135 Y134.439 E1.2059
G1 X175.548 Y133.853 E1.2446
G1 X174.868 Y133.379 E1.2832
G1 X174.312 Y133.120 E1.3118
G92 E0
G1 E-1.8500 F450
; inner perimeter
G1 X122.033 Y132.095 F4800
G1 E0.0000 F450
G92 E0
G1 X139.567 Y132.095 E0.8182 F1560
G1 X141.631 Y132.999 E0.9233
G1 X144.030 Y133.728 E1.0403
G1 X146.497 Y134.169 E1.1573
G1 X149.000 Y134.317 E1.2743
G1 X151.503 Y134.169 E1.3912
G1 X153.970 Y133.728 E1.5082
G1 X156.369 Y132.999 E1.6252
G1 X158.433 Y132.095 E1.7303
G1 X175.967 Y132.095 E2.5485
G1 X181.372 Y137.500 E2.9052
G1 X175.967 Y142.905 E3.2619
G1 X122.033 Y142.905 E5.7786
G1 X116.628 Y137.500 E6.1353
G1 X122.033 Y132.095 E6.4919
; outer perimeter
G1 X121.772 Y131.465 F4800
G92 E0
G1 X139.699 Y131.465 E0.8365 F1440
G1 X141.850 Y132.407 E0.9461
G1 X144.177 Y133.114 E1.0596
G1 X146.572 Y133.542 E1.1731
G1 X149.000 Y133.685 E1.2866
G1 X151.428 Y133.542 E1.4001
G1 X153.823 Y133.114 E1.5136
G1 X156.150 Y132.407 E1.6271
G1 X158.301 Y131.465 E1.7367
G1 X176.228 Y131.465 E2.5732
G1 X182.263 Y137.500 E2.9715
G1 X176.228 Y143.535 E3.3697
G1 X121.772 Y143.535 E5.9108
G1 X115.737 Y137.500 E6.3090
G1 X121.772 Y131.465 E6.7073
; inner perimeter
; inner perimeter
G1 X123.439 Y133.931 F4800
G92 E0
G1 X122.851 Y134.344 E0.0335 F1560
G1 X122.344 Y134.853 E0.0670
G1 X121.934 Y135.439 E0.1004
G1 X121.629 Y136.094 E0.1342
G1 X121.444 Y136.789 E0.1677
G1 X121.382 Y137.505 E0.2012
G1 X121.445 Y138.221 E0.2348
G1 X121.632 Y138.915 E0.2683
G1 X121.936 Y139.566 E0.3018
G1 X122.349 Y140.154 E0.3354
G1 X122.858 Y140.662 E0.3689
G1 X123.447 Y141.073 E0.4025
G1 X124.099 Y141.376 E0.4360
G1 X124.794 Y141.561 E0.4695
G1 X125.510 Y141.623 E0.5031
G1 X126.226 Y141.560 E0.5366
G1 X126.920 Y141.373 E0.5701
G1 X127.571 Y141.069 E0.6037
G1 X128.159 Y140.656 E0.6372
G1 X128.667 Y140.147 E0.6708
G1 X129.078 Y139.558 E0.7043
G1 X129.381 Y138.906 E0.7378
G1 X129.566 Y138.211 E0.7714
G1 X129.628 Y137.495 E0.8049
G1 X129.565 Y136.779 E0.8384
G1 X129.378 Y136.085 E0.8720
G1 X129.074 Y135.434 E0.9055
G1 X128.661 Y134.846 E0.9391
G1 X128.152 Y134.338 E0.9726
G1 X127.563 Y133.927 E1.0061
G1 X126.911 Y133.624 E1.0397
G1 X126.216 Y133.439 E1.0732
G1 X125.500 Y133.377 E1.1067
G1 X124.784 Y133.440 E1.1403
G1 X124.090 Y133.627 E1.1738
G1 X123.439 Y133.931 E1.2074
; outer perimeter
G1 X123.756 Y134.479 F4800
G92 E0
G1 X123.258 Y134.828 E0.0284 F1440
G1 X122.828 Y135.259 E0.0568
G1 X122.481 Y135.755 E0.0850
G1 X122.223 Y136.310 E0.1136
G1 X122.066 Y136.898 E0.1420
G1 X122.014 Y137.504 E0.1704
G1 X122.068 Y138.110 E0.1988
G1 X122.226 Y138.698 E0.2272
G1 X122.484 Y139.249 E0.2555
G1 X122.833 Y139.747 E0.2839
G1 X123.264 Y140.177 E0.3123
G1 X123.763 Y140.525 E0.3407
G1 X124.315 Y140.782 E0.3691
G1 X124.903 Y140.939 E0.3975
G1 X125.509 Y140.991 E0.4259
G1 X126.115 Y140.937 E0.4543
G1 X126.703 Y140.779 E0.4827
G1 X127.254 Y140.521 E0.5111
G1 X127.752 Y140.172 E0.5395
G1 X128.182 Y139.741 E0.5679
G1 X128.530 Y139.242 E0.5963
G1 X128.787 Y138.690 E0.6247
G1 X128.944 Y138.102 E0.6531
G1 X128.996 Y137.496 E0.6815
G1 X128.942 Y136.890 E0.7099
G1 X128.784 Y136.302 E0.7382
G1 X128.526 Y135.751 E0.7666
G1 X128.177 Y135.253 E0.7950
G1 X127.746 Y134.823 E0.8234
G1 X127.247 Y134.475 E0.8518
G1 X126.695 Y134.218 E0.8802
G1 X126.107 Y134.061 E0.9086
G1 X125.501 Y134.009 E0.9370
G1 X124.895 Y134.063 E0.9654
G1 X124.307 Y134.221 E0.9938
G1 X123.756 Y134.479 E1.0222
G92 E0
G1 E-1.8500 F450
; inner perimeter
; inner perimeter
G1 X168.434 Y136.789 F4800
G1 E0.0000 F450
G92 E0
G1 X168.372 Y137.505 E0.0335 F1560
G1 X168.435 Y138.221 E0.0671
G1 X168.622 Y138.915 E0.1006
G1 X168.926 Y139.566 E0.1342
G1 X169.339 Y140.154 E0.1677
G1 X169.848 Y140.662 E0.2012
G1 X170.437 Y141.073 E0.2348
G1 X171.089 Y141.376 E0.2683
G1 X171.784 Y141.561 E0.3018
G1 X172.500 Y141.623 E0.3354
G1 X173.216 Y141.560 E0.3689
G1 X173.910 Y141.373 E0.4025
G1 X174.561 Y141.069 E0.4360
G1 X175.149 Y140.656 E0.4695
G1 X175.657 Y140.147 E0.5031
G1 X176.068 Y139.558 E0.5366
G1 X176.371 Y138.906 E0.5701
G1 X176.556 Y138.211 E0.6037
G1 X176.618 Y137.495 E0.6372
G1 X176.555 Y136.779 E0.6708
G1 X176.368 Y136.085 E0.7043
G1 X176.063 Y135.434 E0.7378
G1 X175.651 Y134.846 E0.7714
G1 X175.142 Y134.338 E0.8049
G1 X174.553 Y133.927 E0.8384
G1 X173.901 Y133.624 E0.8720
G1 X173.211 Y133.439 E0.9053
G1 X172.490 Y133.377 E0.9391
G1 X171.774 Y133.440 E0.9726
G1 X171.080 Y133.627 E1.0061
G1 X170.429 Y133.931 E1.0397
G1 X169.841 Y134.344 E1.0732
G1 X169.333 Y134.853 E1.1067
G1 X168.922 Y135.442 E1.1403
G1 X168.619 Y136.094 E1.1738
G1 X168.434 Y136.789 E1.2074
; outer perimeter
G1 X169.056 Y136.898 F4800
G92 E0
G1 X169.004 Y137.504 E0.0284 F1440
G1 X169.058 Y138.110 E0.0568
G1 X169.216 Y138.698 E0.0852
G1 X169.474 Y139.249 E0.1136
G1 X169.823 Y139.747 E0.1420
G1 X170.254 Y140.177 E0.1704
G1 X170.753 Y140.525 E0.1988
G1 X171.305 Y140.782 E0.2272
G1 X171.893 Y140.939 E0.2555
G1 X172.499 Y140.991 E0.2839
G1 X173.105 Y140.937 E0.3123
G1 X173.693 Y140.779 E0.3407
G1 X174.244 Y140.521 E0.3691
G1 X174.742 Y140.172 E0.3975
G1 X175.172 Y139.741 E0.4259
G1 X175.520 Y139.242 E0.4543
G1 X175.777 Y138.690 E0.4827
G1 X175.934 Y138.102 E0.5111
G1 X175.986 Y137.496 E0.5395
G1 X175.932 Y136.890 E0.5679
G1 X175.774 Y136.302 E0.5963
G1 X175.516 Y135.751 E0.6247
G1 X175.167 Y135.253 E0.6531
G1 X174.736 Y134.823 E0.6815
G1 X174.237 Y134.475 E0.7098
G1 X173.685 Y134.218 E0.7382
G1 X173.101 Y134.062 E0.7665
G1 X172.491 Y134.009 E0.7950
G1 X171.885 Y134.063 E0.8234
G1 X171.297 Y134.221 E0.8518
G1 X170.746 Y134.479 E0.8802
G1 X170.248 Y134.828 E0.9086
G1 X169.818 Y135.259 E0.9370
G1 X169.470 Y135.758 E0.9654
G1 X169.213 Y136.310 E0.9938
G1 X169.056 Y136.898 E1.0222
; gap fill
G1 X170.984 Y132.756 F4800
G92 E0
G1 X171.378 Y133.149 E0.0260 F1350
G1 X171.707 Y133.060 E0.0419
G1 X172.141 Y133.022 E0.0622
G1 X171.599 Y132.479 E0.0980
G1 X172.490 Y132.479 E0.1396
G1 X173.050 Y133.039 E0.1765
G1 X173.277 Y133.059 E0.1872
G1 X173.901 Y133.226 E0.2174
G1 X173.942 Y133.041 E0.2262
G1 X173.381 Y132.479 E0.2633
G92 E0
G1 E-1.8500 F450
G1 X173.794 Y141.802 F4800
G1 E0.0000 F450
G92 E0
G1 X173.940 Y141.948 E0.0096 F1350
G1 X174.067 Y142.521 E0.0370
G1 X173.622 Y142.521 E0.0578
G1 X173.060 Y141.959 E0.0948
G1 X172.500 Y142.009 E0.1211
G1 X172.193 Y141.982 E0.1355
G1 X172.731 Y142.521 E0.1710
G1 X171.840 Y142.521 E0.2126
G1 X171.094 Y141.775 E0.2617
G1 X171.089 Y141.774 E0.2620
G1 X170.928 Y142.500 E0.2967
G1 X170.949 Y142.521 E0.2981
G1 X126.622 Y141.851 F4800
G92 E0
G1 X127.016 Y142.244 E0.0260 F1350
G1 X127.077 Y142.521 E0.0392
G1 X126.401 Y142.521 E0.0707
G1 X125.859 Y141.978 E0.1065
G1 X125.510 Y142.009 E0.1228
G1 X124.950 Y141.961 E0.1491
G1 X125.510 Y142.521 E0.1860
G1 X124.619 Y142.521 E0.2276
G1 X124.058 Y141.959 E0.2646
G92 E0
G1 E-1.8500 F450
G1 X124.206 Y133.198 F4800
G1 E0.0000 F450
G92 E0
G1 X124.060 Y133.052 E0.0096 F1350
G1 X123.933 Y132.479 E0.0370
G1 X124.378 Y132.479 E0.0578
G1 X124.940 Y133.041 E0.0948
G1 X125.500 Y132.991 E0.1211
G1 X125.807 Y133.017 E0.1355
G1 X125.269 Y132.479 E0.1710
