; G-Code generated by Simplify3D(R) Version 3.1.1
; May 29, 2017 at 12:02:45 PM
; Settings Summary
;   processName,Process1
;   applyToModels,Motor Mount V2
;   profileName,LulzBot TAZ 5 910 (modified)
;   profileVersion,2017-04-30 08:45:22
;   baseProfile,LulzBot TAZ 5
;   printMaterial,Bridge
;   printQuality,Medium
;   printExtruders,
;   extruderName,Primary Extruder
;   extruderToolheadNumber,0
;   extruderDiameter,0.5
;   extruderAutoWidth,1
;   extruderWidth,0.6
;   extrusionMultiplier,1
;   extruderUseRetract,1
;   extruderRetractionDistance,3
;   extruderExtraRestartDistance,0
;   extruderRetractionZLift,0
;   extruderRetractionSpeed,498
;   extruderUseCoasting,0
;   extruderCoastingDistance,0.2
;   extruderUseWipe,0
;   extruderWipeDistance,5
;   primaryExtruder,0
;   layerHeight,0.3
;   topSolidLayers,3
;   bottomSolidLayers,3
;   perimeterOutlines,3
;   printPerimetersInsideOut,1
;   startPointOption,2
;   startPointOriginX,0
;   startPointOriginY,0
;   startPointOriginZ,300
;   sequentialIslands,0
;   spiralVaseMode,0
;   firstLayerHeightPercentage,105
;   firstLayerWidthPercentage,105
;   firstLayerUnderspeed,0.5
;   useRaft,0
;   raftExtruder,0
;   raftLayers,3
;   raftOffset,3
;   raftSeparationDistance,0.14
;   raftInfill,85
;   disableRaftBaseLayers,0
;   useSkirt,1
;   skirtExtruder,0
;   skirtLayers,1
;   skirtOutlines,1
;   skirtOffset,5
;   usePrimePillar,0
;   primePillarExtruder,999
;   primePillarWidth,12
;   primePillarLocation,7
;   primePillarSpeedMultiplier,1
;   useOozeShield,0
;   oozeShieldExtruder,999
;   oozeShieldOffset,2
;   oozeShieldOutlines,1
;   oozeShieldSidewallShape,1
;   oozeShieldSidewallAngle,30
;   oozeShieldSpeedMultiplier,1
;   infillExtruder,0
;   internalInfillPattern,Fast Honeycomb
;   externalInfillPattern,Rectilinear
;   infillPercentage,50
;   outlineOverlapPercentage,45
;   infillExtrusionWidthPercentage,230
;   minInfillLength,5
;   infillLayerInterval,1
;   infillAngles,0
;   overlapInfillAngles,0
;   generateSupport,0
;   supportExtruder,0
;   supportInfillPercentage,15
;   supportExtraInflation,0
;   denseSupportLayers,0
;   denseSupportInfillPercentage,70
;   supportLayerInterval,1
;   supportHorizontalPartOffset,0.35
;   supportUpperSeparationLayers,1
;   supportLowerSeparationLayers,1
;   supportType,1
;   supportGridSpacing,4
;   maxOverhangAngle,15
;   supportAngles,0,45
;   temperatureName,Primary Extruder,Heated Bed
;   temperatureNumber,0,1
;   temperatureSetpointCount,1,1
;   temperatureSetpointLayers,1,1
;   temperatureSetpointTemperatures,250,45
;   temperatureStabilizeAtStartup,1,1
;   temperatureHeatedBed,0,1
;   temperatureRelayBetweenLayers,0,0
;   temperatureRelayBetweenLoops,0,0
;   fanLayers,1
;   fanSpeeds,0
;   blipFanToFullPower,0
;   adjustSpeedForCooling,1
;   minSpeedLayerTime,15
;   minCoolingSpeedSlowdown,20
;   increaseFanForCooling,0
;   minFanLayerTime,45
;   maxCoolingFanSpeed,100
;   increaseFanForBridging,0
;   bridgingFanSpeed,100
;   use5D,1
;   relativeEdistances,0
;   allowEaxisZeroing,1
;   independentExtruderAxes,0
;   includeM10123,0
;   stickySupport,1
;   applyToolheadOffsets,0
;   gcodeXoffset,0
;   gcodeYoffset,0
;   gcodeZoffset,0
;   overrideMachineDefinition,1
;   machineTypeOverride,0
;   strokeXoverride,298
;   strokeYoverride,275
;   strokeZoverride,250
;   originOffsetXoverride,0
;   originOffsetYoverride,0
;   originOffsetZoverride,0
;   homeXdirOverride,-1
;   homeYdirOverride,-1
;   homeZdirOverride,-1
;   flipXoverride,1
;   flipYoverride,-1
;   flipZoverride,1
;   toolheadOffsets,0,0|0,0|0,0|0,0|0,0|0,0
;   overrideFirmwareConfiguration,1
;   firmwareTypeOverride,RepRap (Marlin/Repetier/Sprinter)
;   GPXconfigOverride,r2
;   baudRateOverride,115200
;   overridePrinterModels,1
;   printerModelsOverride,LulzBot_TAZ3.stl
;   startingGcode,G28 ; home all axes,G1 X240 E20 F1500 ;,,
;   layerChangeGcode,
;   retractionGcode,
;   toolChangeGcode,
;   endingGcode,M104 S0 ; turn off extruder,M140 S0 ; turn off bed,G28 X0 ; home X axis,M84 ; disable motors,M106 S0;
;   exportFileFormat,gcode
;   celebration,0
;   celebrationSong,Random Song
;   postProcessing,
;   defaultSpeed,3300
;   outlineUnderspeed,0.75
;   solidInfillUnderspeed,0.75
;   supportUnderspeed,0.75
;   rapidXYspeed,4800
;   rapidZspeed,1002
;   minBridgingArea,50
;   bridgingExtraInflation,0
;   bridgingExtrusionMultiplier,1
;   bridgingSpeedMultiplier,1
;   filamentDiameter,2.85
;   filamentPricePerKg,53.33
;   filamentDensity,1.25
;   useMinPrintHeight,0
;   minPrintHeight,0
;   useMaxPrintHeight,0
;   maxPrintHeight,0
;   useDiaphragm,0
;   diaphragmLayerInterval,20
;   robustSlicing,1
;   mergeAllIntoSolid,0
;   onlyRetractWhenCrossingOutline,1
;   retractBetweenLayers,1
;   useRetractionMinTravel,0
;   retractionMinTravel,3
;   retractWhileWiping,0
;   onlyWipeOutlines,1
;   avoidCrossingOutline,0
;   maxMovementDetourFactor,3
;   toolChangeRetractionDistance,12
;   toolChangeExtraRestartDistance,-0.5
;   toolChangeRetractionSpeed,600
;   allowThinWallGapFill,1
;   thinWallAllowedOverlapPercentage,10
;   horizontalSizeCompensation,0
G90
M82
M106 S0
M140 S45
M190 S45
M104 S250 T0
M109 S250 T0
G28 ; home all axes
G1 X240 E20 F1500 ;
G92 E0
G1 E-3.0000 F498
G1 Z0.315 F1002
; layer 1, Z = 0.315
T0
; tool H0.315 W0.630
; skirt
G1 X101.775 Y96.276 F4800
G1 E0.0000 F149
G92 E0
G1 X102.061 Y95.990 E0.0126 F1650
G1 X102.070 Y95.982 E0.0130
G1 X102.832 Y95.331 E0.0441
G1 X102.842 Y95.324 E0.0445
G1 X103.169 Y95.086 E0.0571
G1 X103.179 Y95.079 E0.0575
G1 X104.034 Y94.556 E0.0887
G1 X104.044 Y94.550 E0.0890
G1 X104.404 Y94.366 E0.1016
G1 X104.415 Y94.361 E0.1020
G1 X105.341 Y93.977 E0.1332
G1 X105.352 Y93.973 E0.1335
G1 X105.737 Y93.848 E0.1461
G1 X105.749 Y93.845 E0.1465
G1 X106.723 Y93.611 E0.1777
G1 X106.735 Y93.609 E0.1780
G1 X107.135 Y93.545 E0.1906
G1 X107.147 Y93.544 E0.1910
G1 X108.045 Y93.473 E0.2190
G1 X108.051 Y93.473 E0.2192
G1 X108.253 Y93.465 E0.2255
G1 X108.259 Y93.465 E0.2257
G1 X189.752 Y93.465 E2.7608
G1 X189.759 Y93.465 E2.7610
G1 X189.983 Y93.475 E2.7680
G1 X189.990 Y93.475 E2.7682
G1 X190.987 Y93.563 E2.7993
G1 X191.000 Y93.564 E2.7997
G1 X191.443 Y93.642 E2.8137
G1 X191.456 Y93.645 E2.8141
G1 X192.532 Y93.934 E2.8488
G1 X192.545 Y93.938 E2.8492
G1 X192.967 Y94.091 E2.8632
G1 X192.979 Y94.096 E2.8636
G1 X193.989 Y94.567 E2.8982
G1 X194.000 Y94.573 E2.8986
G1 X194.390 Y94.798 E2.9126
G1 X194.401 Y94.805 E2.9130
G1 X195.313 Y95.444 E2.9477
G1 X195.323 Y95.452 E2.9481
G1 X195.668 Y95.741 E2.9621
G1 X195.678 Y95.750 E2.9625
G1 X196.465 Y96.537 E2.9971
G1 X196.474 Y96.547 E2.9976
G1 X196.763 Y96.891 E3.0115
G1 X196.771 Y96.902 E3.0119
G1 X197.410 Y97.814 E3.0466
G1 X197.417 Y97.825 E3.0470
G1 X197.642 Y98.215 E3.0610
G1 X197.648 Y98.226 E3.0614
G1 X198.119 Y99.236 E3.0960
G1 X198.124 Y99.248 E3.0965
G1 X198.278 Y99.670 E3.1104
G1 X198.281 Y99.683 E3.1109
G1 X198.570 Y100.759 E3.1455
G1 X198.573 Y100.772 E3.1459
G1 X198.651 Y101.214 E3.1599
G1 X198.652 Y101.227 E3.1603
G1 X198.740 Y102.225 E3.1915
G1 X198.740 Y102.231 E3.1917
G1 X198.750 Y102.456 E3.1987
G1 X198.750 Y102.463 E3.1989
G1 X198.750 Y172.526 E5.3784
G1 X198.750 Y172.532 E5.3786
G1 X198.742 Y172.734 E5.3849
G1 X198.742 Y172.740 E5.3850
G1 X198.671 Y173.639 E5.4131
G1 X198.669 Y173.650 E5.4135
G1 X198.606 Y174.050 E5.4260
G1 X198.604 Y174.062 E5.4264
G1 X198.370 Y175.036 E5.4576
G1 X198.367 Y175.048 E5.4580
G1 X198.242 Y175.433 E5.4706
G1 X198.238 Y175.444 E5.4709
G1 X197.854 Y176.370 E5.5021
G1 X197.849 Y176.381 E5.5025
G1 X197.665 Y176.741 E5.5151
G1 X197.659 Y176.751 E5.5154
G1 X197.136 Y177.606 E5.5466
G1 X197.129 Y177.616 E5.5470
G1 X196.891 Y177.943 E5.5596
G1 X196.884 Y177.953 E5.5599
G1 X196.233 Y178.715 E5.5911
G1 X196.225 Y178.724 E5.5915
G1 X195.939 Y179.010 E5.6041
G1 X195.930 Y179.018 E5.6044
G1 X195.168 Y179.669 E5.6356
G1 X195.158 Y179.676 E5.6360
G1 X194.831 Y179.914 E5.6486
G1 X194.821 Y179.921 E5.6489
G1 X193.967 Y180.444 E5.6801
G1 X193.956 Y180.450 E5.6805
G1 X193.596 Y180.634 E5.6931
G1 X193.585 Y180.639 E5.6935
G1 X192.659 Y181.023 E5.7246
G1 X192.648 Y181.027 E5.7250
G1 X192.263 Y181.152 E5.7376
G1 X192.251 Y181.155 E5.7380
G1 X191.277 Y181.389 E5.7692
G1 X191.265 Y181.391 E5.7695
G1 X190.865 Y181.454 E5.7821
G1 X190.854 Y181.456 E5.7825
G1 X189.955 Y181.527 E5.8105
G1 X189.949 Y181.527 E5.8107
G1 X189.747 Y181.535 E5.8170
G1 X189.741 Y181.535 E5.8172
G1 X108.248 Y181.535 E8.3523
G1 X108.241 Y181.535 E8.3525
G1 X108.017 Y181.525 E8.3595
G1 X108.010 Y181.525 E8.3597
G1 X107.012 Y181.437 E8.3908
G1 X107.000 Y181.436 E8.3912
G1 X106.557 Y181.358 E8.4052
G1 X106.544 Y181.355 E8.4056
G1 X105.468 Y181.066 E8.4403
G1 X105.455 Y181.062 E8.4407
G1 X105.033 Y180.909 E8.4547
G1 X105.021 Y180.904 E8.4551
G1 X104.011 Y180.433 E8.4897
G1 X104.000 Y180.427 E8.4901
G1 X103.610 Y180.202 E8.5041
G1 X103.599 Y180.195 E8.5045
G1 X102.687 Y179.556 E8.5392
G1 X102.676 Y179.548 E8.5396
G1 X102.332 Y179.259 E8.5536
G1 X102.322 Y179.250 E8.5540
G1 X101.535 Y178.463 E8.5886
G1 X101.526 Y178.453 E8.5890
G1 X101.237 Y178.109 E8.6030
G1 X101.229 Y178.098 E8.6034
G1 X100.590 Y177.186 E8.6381
G1 X100.583 Y177.175 E8.6385
G1 X100.358 Y176.785 E8.6525
G1 X100.352 Y176.774 E8.6529
G1 X99.881 Y175.764 E8.6875
G1 X99.876 Y175.752 E8.6879
G1 X99.722 Y175.330 E8.7019
G1 X99.719 Y175.317 E8.7023
G1 X99.430 Y174.241 E8.7370
G1 X99.427 Y174.228 E8.7374
G1 X99.349 Y173.785 E8.7514
G1 X99.348 Y173.773 E8.7518
G1 X99.260 Y172.775 E8.7829
G1 X99.260 Y172.768 E8.7831
G1 X99.250 Y172.544 E8.7901
G1 X99.250 Y172.537 E8.7903
G1 X99.250 Y102.474 E10.9699
G1 X99.250 Y102.468 E10.9701
G1 X99.258 Y102.266 E10.9763
G1 X99.258 Y102.260 E10.9765
G1 X99.329 Y101.361 E11.0046
G1 X99.330 Y101.350 E11.0049
G1 X99.394 Y100.950 E11.0175
G1 X99.396 Y100.938 E11.0179
G1 X99.630 Y99.964 E11.0491
G1 X99.633 Y99.952 E11.0494
G1 X99.758 Y99.567 E11.0620
G1 X99.763 Y99.556 E11.0624
G1 X100.146 Y98.630 E11.0936
G1 X100.151 Y98.619 E11.0940
G1 X100.335 Y98.259 E11.1065
G1 X100.341 Y98.249 E11.1069
G1 X100.864 Y97.394 E11.1381
G1 X100.871 Y97.384 E11.1385
G1 X101.109 Y97.057 E11.1511
G1 X101.116 Y97.047 E11.1514
G1 X101.767 Y96.285 E11.1826
G1 X101.775 Y96.276 E11.1830
G92 E0
G1 E-3.0000 F498
; inner perimeter
G1 X106.783 Y100.998 F4800
G1 E0.0000 F498
G92 E0
G1 X107.049 Y100.771 E0.0109 F1513
G1 X107.348 Y100.588 E0.0218
G1 X107.671 Y100.454 E0.0327
G1 X108.011 Y100.372 E0.0435
G1 X108.422 Y100.340 E0.0564
G1 X189.571 Y100.340 E2.5808
G1 X190.027 Y100.380 E2.5950
G1 X190.402 Y100.480 E2.6071
G1 X190.754 Y100.645 E2.6192
G1 X191.073 Y100.868 E2.6312
G1 X191.348 Y101.142 E2.6433
G1 X191.570 Y101.461 E2.6554
G1 X191.735 Y101.813 E2.6675
G1 X191.835 Y102.188 E2.6796
G1 X191.875 Y102.644 E2.6938
G1 X191.875 Y172.363 E4.8627
G1 X191.843 Y172.774 E4.8755
G1 X191.761 Y173.114 E4.8864
G1 X191.627 Y173.437 E4.8972
G1 X191.444 Y173.736 E4.9081
G1 X191.217 Y174.002 E4.9190
G1 X190.951 Y174.229 E4.9299
G1 X190.652 Y174.412 E4.9408
G1 X190.329 Y174.546 E4.9517
G1 X189.989 Y174.628 E4.9626
G1 X189.578 Y174.660 E4.9754
G1 X108.429 Y174.660 E7.4998
G1 X107.973 Y174.620 E7.5140
G1 X107.598 Y174.520 E7.5261
G1 X107.246 Y174.355 E7.5382
G1 X106.927 Y174.132 E7.5503
G1 X106.653 Y173.858 E7.5623
G1 X106.430 Y173.539 E7.5744
G1 X106.265 Y173.187 E7.5865
G1 X106.165 Y172.812 E7.5986
G1 X106.125 Y172.356 E7.6128
G1 X106.125 Y102.637 E9.7817
G1 X106.157 Y102.226 E9.7945
G1 X106.239 Y101.886 E9.8054
G1 X106.373 Y101.563 E9.8163
G1 X106.556 Y101.264 E9.8271
G1 X106.783 Y100.998 E9.8380
; inner perimeter
G1 X106.336 Y100.551 F4800
G92 E0
G1 X106.678 Y100.260 E0.0140 F1375
G1 X107.061 Y100.025 E0.0279
G1 X107.476 Y99.853 E0.0419
G1 X107.912 Y99.748 E0.0559
G1 X108.397 Y99.710 E0.0710
G1 X189.599 Y99.710 E2.5970
G1 X190.137 Y99.757 E2.6138
G1 X190.619 Y99.886 E2.6293
G1 X191.071 Y100.097 E2.6449
G1 X191.479 Y100.383 E2.6604
G1 X191.832 Y100.736 E2.6759
G1 X192.118 Y101.144 E2.6914
G1 X192.329 Y101.596 E2.7069
G1 X192.458 Y102.078 E2.7224
G1 X192.505 Y102.616 E2.7392
G1 X192.505 Y172.388 E4.9097
G1 X192.467 Y172.873 E4.9248
G1 X192.362 Y173.309 E4.9388
G1 X192.190 Y173.724 E4.9528
G1 X191.955 Y174.107 E4.9667
G1 X191.664 Y174.449 E4.9807
G1 X191.322 Y174.740 E4.9947
G1 X190.939 Y174.975 E5.0087
G1 X190.524 Y175.147 E5.0226
G1 X190.088 Y175.252 E5.0366
G1 X189.603 Y175.290 E5.0517
G1 X108.401 Y175.290 E7.5777
G1 X107.863 Y175.243 E7.5945
G1 X107.381 Y175.114 E7.6101
G1 X106.929 Y174.903 E7.6256
G1 X106.521 Y174.617 E7.6411
G1 X106.168 Y174.264 E7.6566
G1 X105.882 Y173.856 E7.6721
G1 X105.671 Y173.404 E7.6876
G1 X105.542 Y172.922 E7.7032
G1 X105.495 Y172.384 E7.7200
G1 X105.495 Y102.612 E9.8904
G1 X105.533 Y102.127 E9.9055
G1 X105.638 Y101.691 E9.9195
G1 X105.810 Y101.276 E9.9335
G1 X106.045 Y100.893 E9.9475
G1 X106.336 Y100.551 E9.9614
; outer perimeter
G1 X105.889 Y100.104 F4800
G92 E0
G1 X106.306 Y99.748 E0.0171 F1237
G1 X106.774 Y99.462 E0.0341
G1 X107.280 Y99.252 E0.0512
G1 X107.813 Y99.124 E0.0682
G1 X108.372 Y99.080 E0.0857
G1 X189.626 Y99.080 E2.6133
G1 X190.247 Y99.134 E2.6327
G1 X190.835 Y99.292 E2.6516
G1 X191.387 Y99.549 E2.6706
G1 X191.886 Y99.899 E2.6895
G1 X192.316 Y100.329 E2.7085
G1 X192.666 Y100.828 E2.7274
G1 X192.923 Y101.380 E2.7464
G1 X193.081 Y101.968 E2.7653
G1 X193.135 Y102.589 E2.7847
G1 X193.135 Y172.413 E4.9567
G1 X193.091 Y172.972 E4.9742
G1 X192.963 Y173.505 E4.9912
G1 X192.753 Y174.011 E5.0083
G1 X192.467 Y174.479 E5.0254
G1 X192.111 Y174.896 E5.0424
G1 X191.694 Y175.252 E5.0595
G1 X191.226 Y175.538 E5.0765
G1 X190.720 Y175.748 E5.0936
G1 X190.187 Y175.876 E5.1106
G1 X189.628 Y175.920 E5.1281
G1 X108.374 Y175.920 E7.6557
G1 X107.753 Y175.866 E7.6751
G1 X107.165 Y175.708 E7.6940
G1 X106.613 Y175.451 E7.7130
G1 X106.114 Y175.101 E7.7319
G1 X105.684 Y174.671 E7.7509
G1 X105.334 Y174.172 E7.7698
G1 X105.077 Y173.620 E7.7888
G1 X104.919 Y173.032 E7.8077
G1 X104.865 Y172.411 E7.8271
G1 X104.865 Y102.587 E9.9992
G1 X104.909 Y102.028 E10.0166
G1 X105.037 Y101.495 E10.0337
G1 X105.247 Y100.989 E10.0507
G1 X105.533 Y100.521 E10.0678
G1 X105.889 Y100.104 E10.0848
; inner perimeter
G1 X125.710 Y114.114 F4800
G92 E0
G1 X125.272 Y114.739 E0.0237 F1513
G1 X124.950 Y115.430 E0.0474
G1 X124.752 Y116.166 E0.0712
G1 X124.686 Y116.926 E0.0949
G1 X124.752 Y117.686 E0.1186
G1 X124.950 Y118.422 E0.1423
G1 X125.272 Y119.113 E0.1661
G1 X125.710 Y119.738 E0.1898
G1 X126.249 Y120.277 E0.2135
G1 X126.873 Y120.715 E0.2372
G1 X127.565 Y121.037 E0.2610
G1 X128.301 Y121.235 E0.2847
G1 X129.061 Y121.301 E0.3084
G1 X129.821 Y121.235 E0.3321
G1 X130.557 Y121.037 E0.3559
G1 X131.249 Y120.715 E0.3796
G1 X131.873 Y120.277 E0.4033
G1 X132.412 Y119.738 E0.4270
G1 X132.850 Y119.113 E0.4507
G1 X133.172 Y118.422 E0.4745
G1 X133.370 Y117.686 E0.4982
G1 X133.436 Y116.926 E0.5219
G1 X133.370 Y116.166 E0.5456
G1 X133.172 Y115.430 E0.5694
G1 X132.850 Y114.738 E0.5931
G1 X132.412 Y114.114 E0.6168
G1 X131.873 Y113.575 E0.6405
G1 X131.249 Y113.137 E0.6643
G1 X130.557 Y112.815 E0.6880
G1 X129.821 Y112.617 E0.7117
G1 X129.061 Y112.551 E0.7354
G1 X128.301 Y112.617 E0.7592
G1 X127.565 Y112.815 E0.7829
G1 X126.874 Y113.137 E0.8066
G1 X126.249 Y113.575 E0.8303
G1 X125.710 Y114.114 E0.8540
; inner perimeter
G1 X126.194 Y114.520 F4800
G92 E0
G1 X125.820 Y115.055 E0.0203 F1375
G1 X125.544 Y115.646 E0.0406
G1 X125.375 Y116.276 E0.0609
G1 X125.318 Y116.926 E0.0812
G1 X125.375 Y117.576 E0.1015
G1 X125.544 Y118.206 E0.1218
G1 X125.820 Y118.797 E0.1421
G1 X126.194 Y119.332 E0.1624
G1 X126.655 Y119.793 E0.1826
G1 X127.190 Y120.167 E0.2029
G1 X127.781 Y120.443 E0.2232
G1 X128.411 Y120.612 E0.2435
G1 X129.061 Y120.669 E0.2638
G1 X129.711 Y120.612 E0.2841
G1 X130.341 Y120.443 E0.3044
G1 X130.932 Y120.167 E0.3247
G1 X131.467 Y119.793 E0.3450
G1 X131.928 Y119.332 E0.3653
G1 X132.302 Y118.797 E0.3856
G1 X132.578 Y118.206 E0.4059
G1 X132.747 Y117.576 E0.4262
G1 X132.804 Y116.926 E0.4465
G1 X132.747 Y116.276 E0.4668
G1 X132.578 Y115.646 E0.4871
G1 X132.302 Y115.055 E0.5074
G1 X131.928 Y114.520 E0.5277
G1 X131.467 Y114.059 E0.5479
G1 X130.932 Y113.685 E0.5682
