; G-Code generated by Simplify3D(R) Version 3.1.1
; Apr 24, 2017 at 6:21:40 PM
; Settings Summary
;   processName,Process1
;   applyToModels,Motor Mount
;   profileName,LulzBot TAZ 5 910 (modified)
;   profileVersion,2017-04-04 19:03:28
;   baseProfile,LulzBot TAZ 5
;   printMaterial,Bridge
;   printQuality,Medium
;   printExtruders,
;   extruderName,Primary Extruder
;   extruderToolheadNumber,0
;   extruderDiameter,0.5
;   extruderAutoWidth,1
;   extruderWidth,0.6
;   extrusionMultiplier,1
;   extruderUseRetract,1
;   extruderRetractionDistance,3
;   extruderExtraRestartDistance,0
;   extruderRetractionZLift,0
;   extruderRetractionSpeed,498
;   extruderUseCoasting,0
;   extruderCoastingDistance,0.2
;   extruderUseWipe,0
;   extruderWipeDistance,5
;   primaryExtruder,0
;   layerHeight,0.35
;   topSolidLayers,3
;   bottomSolidLayers,3
;   perimeterOutlines,3
;   printPerimetersInsideOut,1
;   startPointOption,2
;   startPointOriginX,0
;   startPointOriginY,0
;   startPointOriginZ,300
;   sequentialIslands,0
;   spiralVaseMode,0
;   firstLayerHeightPercentage,105
;   firstLayerWidthPercentage,105
;   firstLayerUnderspeed,0.5
;   useRaft,0
;   raftExtruder,0
;   raftLayers,3
;   raftOffset,3
;   raftSeparationDistance,0.14
;   raftInfill,85
;   disableRaftBaseLayers,0
;   useSkirt,1
;   skirtExtruder,0
;   skirtLayers,1
;   skirtOutlines,1
;   skirtOffset,5
;   usePrimePillar,0
;   primePillarExtruder,999
;   primePillarWidth,12
;   primePillarLocation,7
;   primePillarSpeedMultiplier,1
;   useOozeShield,0
;   oozeShieldExtruder,999
;   oozeShieldOffset,2
;   oozeShieldOutlines,1
;   oozeShieldSidewallShape,1
;   oozeShieldSidewallAngle,30
;   oozeShieldSpeedMultiplier,1
;   infillExtruder,0
;   internalInfillPattern,Fast Honeycomb
;   externalInfillPattern,Rectilinear
;   infillPercentage,40
;   outlineOverlapPercentage,45
;   infillExtrusionWidthPercentage,230
;   minInfillLength,5
;   infillLayerInterval,1
;   infillAngles,0
;   overlapInfillAngles,0
;   generateSupport,0
;   supportExtruder,0
;   supportInfillPercentage,15
;   supportExtraInflation,0
;   denseSupportLayers,0
;   denseSupportInfillPercentage,70
;   supportLayerInterval,1
;   supportHorizontalPartOffset,0.3
;   supportUpperSeparationLayers,1
;   supportLowerSeparationLayers,1
;   supportType,1
;   supportGridSpacing,4
;   maxOverhangAngle,15
;   supportAngles,0,45
;   temperatureName,Primary Extruder,Heated Bed
;   temperatureNumber,0,1
;   temperatureSetpointCount,1,1
;   temperatureSetpointLayers,1,1
;   temperatureSetpointTemperatures,265,45
;   temperatureStabilizeAtStartup,1,1
;   temperatureHeatedBed,0,1
;   temperatureRelayBetweenLayers,0,0
;   temperatureRelayBetweenLoops,0,0
;   fanLayers,1
;   fanSpeeds,0
;   blipFanToFullPower,0
;   adjustSpeedForCooling,1
;   minSpeedLayerTime,15
;   minCoolingSpeedSlowdown,20
;   increaseFanForCooling,0
;   minFanLayerTime,45
;   maxCoolingFanSpeed,100
;   increaseFanForBridging,0
;   bridgingFanSpeed,100
;   use5D,1
;   relativeEdistances,0
;   allowEaxisZeroing,1
;   independentExtruderAxes,0
;   includeM10123,0
;   stickySupport,1
;   applyToolheadOffsets,0
;   gcodeXoffset,0
;   gcodeYoffset,0
;   gcodeZoffset,0
;   overrideMachineDefinition,1
;   machineTypeOverride,0
;   strokeXoverride,298
;   strokeYoverride,275
;   strokeZoverride,250
;   originOffsetXoverride,0
;   originOffsetYoverride,0
;   originOffsetZoverride,0
;   homeXdirOverride,-1
;   homeYdirOverride,-1
;   homeZdirOverride,-1
;   flipXoverride,1
;   flipYoverride,-1
;   flipZoverride,1
;   toolheadOffsets,0,0|0,0|0,0|0,0|0,0|0,0
;   overrideFirmwareConfiguration,1
;   firmwareTypeOverride,RepRap (Marlin/Repetier/Sprinter)
;   GPXconfigOverride,r2
;   baudRateOverride,115200
;   overridePrinterModels,1
;   printerModelsOverride,LulzBot_TAZ3.stl
;   startingGcode,G28 ; home all axes,G1 X240 E20 F1500 ;,,
;   layerChangeGcode,
;   retractionGcode,
;   toolChangeGcode,
;   endingGcode,M104 S0 ; turn off extruder,M140 S0 ; turn off bed,G28 X0 ; home X axis,M84 ; disable motors,M106 S0;
;   exportFileFormat,gcode
;   celebration,0
;   celebrationSong,Random Song
;   postProcessing,
;   defaultSpeed,3300
;   outlineUnderspeed,0.75
;   solidInfillUnderspeed,0.75
;   supportUnderspeed,0.75
;   rapidXYspeed,4800
;   rapidZspeed,1002
;   minBridgingArea,50
;   bridgingExtraInflation,0
;   bridgingExtrusionMultiplier,1
;   bridgingSpeedMultiplier,1
;   filamentDiameter,2.85
;   filamentPricePerKg,53.33
;   filamentDensity,1.25
;   useMinPrintHeight,0
;   minPrintHeight,0
;   useMaxPrintHeight,0
;   maxPrintHeight,0
;   useDiaphragm,0
;   diaphragmLayerInterval,20
;   robustSlicing,1
;   mergeAllIntoSolid,0
;   onlyRetractWhenCrossingOutline,1
;   retractBetweenLayers,1
;   useRetractionMinTravel,0
;   retractionMinTravel,3
;   retractWhileWiping,0
;   onlyWipeOutlines,1
;   avoidCrossingOutline,0
;   maxMovementDetourFactor,3
;   toolChangeRetractionDistance,12
;   toolChangeExtraRestartDistance,-0.5
;   toolChangeRetractionSpeed,600
;   allowThinWallGapFill,1
;   thinWallAllowedOverlapPercentage,10
;   horizontalSizeCompensation,0
G90
M82
M106 S0
M140 S45
M190 S45
M104 S265 T0
M109 S265 T0
G28 ; home all axes
G1 X240 E20 F1500 ;
G92 E0
G1 E-3.0000 F498
G1 Z0.368 F1002
; layer 1, Z = 0.3675
T0
; tool H0.368 W0.630
; skirt
G1 X102.070 Y115.032 F4800
G1 E0.0000 F149
G92 E0
G1 X102.832 Y114.381 E0.0364 F1650
G1 X102.842 Y114.374 E0.0368
G1 X103.169 Y114.136 E0.0515
G1 X103.179 Y114.129 E0.0519
G1 X104.031 Y113.607 E0.0882
G1 X104.041 Y113.602 E0.0886
G1 X104.400 Y113.419 E0.1032
G1 X104.410 Y113.414 E0.1037
G1 X105.339 Y113.028 E0.1401
G1 X105.350 Y113.024 E0.1406
G1 X105.736 Y112.899 E0.1553
G1 X105.748 Y112.895 E0.1557
G1 X106.723 Y112.661 E0.1922
G1 X106.735 Y112.659 E0.1926
G1 X107.135 Y112.595 E0.2073
G1 X107.146 Y112.594 E0.2077
G1 X108.034 Y112.524 E0.2400
G1 X108.040 Y112.524 E0.2402
G1 X108.242 Y112.516 E0.2476
G1 X108.248 Y112.516 E0.2478
G1 X189.741 Y112.515 E3.2054
G1 X189.747 Y112.515 E3.2056
G1 X189.949 Y112.523 E3.2129
G1 X189.955 Y112.523 E3.2132
G1 X190.854 Y112.594 E3.2459
G1 X190.865 Y112.595 E3.2463
G1 X191.265 Y112.659 E3.2610
G1 X191.277 Y112.661 E3.2614
G1 X192.251 Y112.895 E3.2978
G1 X192.263 Y112.898 E3.2982
G1 X192.648 Y113.023 E3.3129
G1 X192.659 Y113.027 E3.3133
G1 X193.585 Y113.411 E3.3497
G1 X193.596 Y113.416 E3.3502
G1 X193.956 Y113.600 E3.3648
G1 X193.966 Y113.606 E3.3653
G1 X194.821 Y114.129 E3.4017
G1 X194.831 Y114.136 E3.4021
G1 X195.158 Y114.374 E3.4168
G1 X195.168 Y114.381 E3.4172
G1 X195.930 Y115.032 E3.4536
G1 X195.939 Y115.040 E3.4540
G1 X196.225 Y115.326 E3.4687
G1 X196.233 Y115.335 E3.4691
G1 X196.884 Y116.097 E3.5055
G1 X196.891 Y116.107 E3.5059
G1 X197.129 Y116.434 E3.5206
G1 X197.136 Y116.444 E3.5211
G1 X197.659 Y117.299 E3.5574
G1 X197.665 Y117.309 E3.5579
G1 X197.849 Y117.669 E3.5725
G1 X197.854 Y117.680 E3.5730
G1 X198.237 Y118.606 E3.6094
G1 X198.242 Y118.617 E3.6098
G1 X198.367 Y119.002 E3.6245
G1 X198.370 Y119.014 E3.6249
G1 X198.604 Y119.988 E3.6613
G1 X198.606 Y120.000 E3.6617
G1 X198.669 Y120.400 E3.6764
G1 X198.671 Y120.411 E3.6768
G1 X198.741 Y121.299 E3.7091
G1 X198.741 Y121.305 E3.7094
G1 X198.749 Y121.507 E3.7167
G1 X198.749 Y121.513 E3.7169
G1 X198.750 Y153.476 E4.8769
G1 X198.750 Y153.482 E4.8772
G1 X198.742 Y153.684 E4.8845
G1 X198.742 Y153.690 E4.8847
G1 X198.671 Y154.589 E4.9174
G1 X198.669 Y154.600 E4.9179
G1 X198.606 Y155.000 E4.9325
G1 X198.604 Y155.012 E4.9330
G1 X198.370 Y155.986 E4.9693
G1 X198.367 Y155.998 E4.9698
G1 X198.242 Y156.383 E4.9845
G1 X198.238 Y156.394 E4.9849
G1 X197.854 Y157.320 E5.0213
G1 X197.849 Y157.330 E5.0217
G1 X197.665 Y157.691 E5.0364
G1 X197.659 Y157.701 E5.0368
G1 X197.136 Y158.556 E5.0732
G1 X197.129 Y158.566 E5.0736
G1 X196.891 Y158.893 E5.0883
G1 X196.884 Y158.903 E5.0887
G1 X196.233 Y159.665 E5.1251
G1 X196.225 Y159.674 E5.1256
G1 X195.939 Y159.960 E5.1402
G1 X195.930 Y159.968 E5.1407
G1 X195.168 Y160.619 E5.1771
G1 X195.158 Y160.626 E5.1775
G1 X194.831 Y160.864 E5.1922
G1 X194.821 Y160.871 E5.1926
G1 X193.967 Y161.394 E5.2290
G1 X193.956 Y161.400 E5.2294
G1 X193.596 Y161.584 E5.2441
G1 X193.585 Y161.589 E5.2445
G1 X192.659 Y161.973 E5.2809
G1 X192.647 Y161.977 E5.2813
G1 X192.263 Y162.102 E5.2960
G1 X192.251 Y162.105 E5.2965
G1 X191.277 Y162.339 E5.3328
G1 X191.265 Y162.341 E5.3333
G1 X190.865 Y162.405 E5.3480
G1 X190.854 Y162.406 E5.3484
G1 X189.966 Y162.476 E5.3807
G1 X189.960 Y162.476 E5.3809
G1 X189.758 Y162.484 E5.3883
G1 X189.752 Y162.484 E5.3885
G1 X108.259 Y162.485 E8.3461
G1 X108.253 Y162.485 E8.3463
G1 X108.051 Y162.477 E8.3536
G1 X108.045 Y162.477 E8.3538
G1 X107.146 Y162.406 E8.3865
G1 X107.135 Y162.405 E8.3870
G1 X106.735 Y162.341 E8.4017
G1 X106.723 Y162.339 E8.4021
G1 X105.749 Y162.105 E8.4385
G1 X105.737 Y162.102 E8.4389
G1 X105.352 Y161.977 E8.4536
G1 X105.341 Y161.973 E8.4540
G1 X104.415 Y161.589 E8.4904
G1 X104.404 Y161.584 E8.4908
G1 X104.044 Y161.400 E8.5055
G1 X104.034 Y161.394 E8.5059
G1 X103.179 Y160.871 E8.5423
G1 X103.169 Y160.864 E8.5428
G1 X102.842 Y160.626 E8.5574
G1 X102.832 Y160.619 E8.5579
G1 X102.070 Y159.968 E8.5942
G1 X102.061 Y159.960 E8.5947
G1 X101.775 Y159.674 E8.6094
G1 X101.767 Y159.665 E8.6098
G1 X101.116 Y158.903 E8.6462
G1 X101.109 Y158.893 E8.6466
G1 X100.871 Y158.566 E8.6613
G1 X100.864 Y158.556 E8.6617
G1 X100.341 Y157.701 E8.6981
G1 X100.335 Y157.691 E8.6985
G1 X100.151 Y157.331 E8.7132
G1 X100.146 Y157.320 E8.7136
G1 X99.762 Y156.394 E8.7500
G1 X99.758 Y156.383 E8.7505
G1 X99.633 Y155.998 E8.7651
G1 X99.630 Y155.986 E8.7656
G1 X99.396 Y155.012 E8.8020
G1 X99.394 Y155.000 E8.8024
G1 X99.330 Y154.600 E8.8171
G1 X99.329 Y154.589 E8.8175
G1 X99.259 Y153.701 E8.8498
G1 X99.259 Y153.695 E8.8500
G1 X99.251 Y153.493 E8.8574
G1 X99.251 Y153.487 E8.8576
G1 X99.250 Y121.524 E10.0176
G1 X99.250 Y121.518 E10.0178
G1 X99.258 Y121.316 E10.0252
G1 X99.258 Y121.310 E10.0254
G1 X99.329 Y120.411 E10.0581
G1 X99.330 Y120.400 E10.0585
G1 X99.394 Y120.000 E10.0732
G1 X99.396 Y119.988 E10.0736
G1 X99.630 Y119.014 E10.1100
G1 X99.633 Y119.002 E10.1104
G1 X99.758 Y118.617 E10.1251
G1 X99.763 Y118.606 E10.1256
G1 X100.146 Y117.680 E10.1619
G1 X100.151 Y117.669 E10.1624
G1 X100.335 Y117.309 E10.1771
G1 X100.341 Y117.299 E10.1775
G1 X100.864 Y116.444 E10.2139
G1 X100.871 Y116.434 E10.2143
G1 X101.109 Y116.107 E10.2290
G1 X101.116 Y116.097 E10.2294
G1 X101.767 Y115.335 E10.2658
G1 X101.775 Y115.326 E10.2662
G1 X102.061 Y115.040 E10.2809
G1 X102.070 Y115.032 E10.2813
G92 E0
G1 E-3.0000 F498
; inner perimeter
G1 X106.783 Y120.048 F4800
G1 E0.0000 F498
G92 E0
G1 X107.049 Y119.821 E0.0127 F1513
G1 X107.346 Y119.639 E0.0253
G1 X107.671 Y119.504 E0.0381
G1 X108.011 Y119.422 E0.0508
G1 X108.411 Y119.391 E0.0654
G1 X134.611 Y119.391 E1.0162
G1 X133.737 Y120.264 E1.0611
G1 X133.071 Y121.215 E1.1032
G1 X132.581 Y122.268 E1.1454
G1 X132.280 Y123.389 E1.1875
G1 X132.179 Y124.546 E1.2296
G1 X132.280 Y125.703 E1.2718
G1 X132.581 Y126.824 E1.3139
G1 X133.071 Y127.877 E1.3561
G1 X133.737 Y128.828 E1.3982
G1 X134.558 Y129.649 E1.4403
G1 X135.510 Y130.315 E1.4825
G1 X136.562 Y130.805 E1.5246
G1 X137.683 Y131.106 E1.5667
G1 X138.840 Y131.207 E1.6089
G1 X139.997 Y131.106 E1.6510
G1 X141.118 Y130.805 E1.6932
G1 X142.171 Y130.315 E1.7353
G1 X143.122 Y129.649 E1.7774
G1 X143.943 Y128.828 E1.8196
G1 X144.609 Y127.876 E1.8617
G1 X145.099 Y126.824 E1.9039
G1 X145.400 Y125.703 E1.9460
G1 X145.501 Y124.546 E1.9881
G1 X145.400 Y123.389 E2.0303
G1 X145.099 Y122.268 E2.0724
G1 X144.609 Y121.216 E2.1146
G1 X143.943 Y120.264 E2.1567
G1 X143.069 Y119.390 E2.2015
G1 X154.931 Y119.390 E2.6321
G1 X154.057 Y120.264 E2.6769
G1 X153.391 Y121.216 E2.7191
G1 X152.901 Y122.268 E2.7612
G1 X152.600 Y123.389 E2.8034
G1 X152.499 Y124.546 E2.8455
G1 X152.600 Y125.703 E2.8876
G1 X152.901 Y126.824 E2.9298
G1 X153.391 Y127.877 E2.9719
G1 X154.057 Y128.828 E3.0140
G1 X154.878 Y129.649 E3.0562
G1 X155.829 Y130.315 E3.0983
G1 X156.882 Y130.805 E3.1405
G1 X158.003 Y131.106 E3.1826
G1 X159.160 Y131.207 E3.2247
G1 X160.317 Y131.106 E3.2669
G1 X161.438 Y130.805 E3.3090
G1 X162.490 Y130.315 E3.3512
G1 X163.442 Y129.649 E3.3933
G1 X164.263 Y128.828 E3.4354
G1 X164.929 Y127.876 E3.4776
G1 X165.419 Y126.824 E3.5197
G1 X165.720 Y125.703 E3.5619
G1 X165.821 Y124.546 E3.6040
G1 X165.720 Y123.389 E3.6461
G1 X165.419 Y122.268 E3.6883
G1 X164.929 Y121.216 E3.7304
G1 X164.263 Y120.264 E3.7726
G1 X163.389 Y119.390 E3.8174
G1 X189.578 Y119.390 E4.7679
G1 X189.989 Y119.422 E4.7829
G1 X190.329 Y119.504 E4.7956
G1 X190.653 Y119.638 E4.8083
G1 X190.951 Y119.821 E4.8210
G1 X191.217 Y120.048 E4.8337
G1 X191.444 Y120.314 E4.8464
G1 X191.627 Y120.613 E4.8591
G1 X191.761 Y120.936 E4.8718
G1 X191.843 Y121.276 E4.8845
G1 X191.874 Y121.676 E4.8990
G1 X191.875 Y153.313 E6.0472
G1 X191.843 Y153.724 E6.0622
G1 X191.761 Y154.064 E6.0749
G1 X191.627 Y154.387 E6.0876
G1 X191.444 Y154.686 E6.1003
G1 X191.217 Y154.952 E6.1130
G1 X190.951 Y155.179 E6.1257
G1 X190.652 Y155.362 E6.1384
G1 X190.329 Y155.496 E6.1511
G1 X189.989 Y155.578 E6.1638
G1 X189.589 Y155.609 E6.1783
G1 X163.389 Y155.609 E7.1292
G1 X164.263 Y154.736 E7.1740
G1 X164.929 Y153.784 E7.2162
G1 X165.419 Y152.732 E7.2583
G1 X165.720 Y151.611 E7.3005
G1 X165.821 Y150.454 E7.3426
G1 X165.720 Y149.297 E7.3847
G1 X165.419 Y148.176 E7.4269
G1 X164.929 Y147.123 E7.4690
G1 X164.263 Y146.172 E7.5112
G1 X163.442 Y145.351 E7.5533
G1 X162.490 Y144.685 E7.5954
G1 X161.438 Y144.195 E7.6376
G1 X160.317 Y143.894 E7.6797
G1 X159.160 Y143.793 E7.7219
G1 X158.003 Y143.894 E7.7640
G1 X156.882 Y144.195 E7.8061
G1 X155.829 Y144.685 E7.8483
G1 X154.878 Y145.351 E7.8904
G1 X154.057 Y146.172 E7.9326
G1 X153.391 Y147.123 E7.9747
G1 X152.901 Y148.176 E8.0168
G1 X152.600 Y149.297 E8.0590
G1 X152.499 Y150.454 E8.1011
G1 X152.600 Y151.611 E8.1432
G1 X152.901 Y152.732 E8.1854
G1 X153.391 Y153.785 E8.2275
G1 X154.057 Y154.736 E8.2697
G1 X154.931 Y155.609 E8.3145
G1 X143.069 Y155.610 E8.7450
G1 X143.943 Y154.736 E8.7899
G1 X144.609 Y153.785 E8.8320
G1 X145.099 Y152.732 E8.8742
G1 X145.400 Y151.611 E8.9163
G1 X145.501 Y150.454 E8.9585
G1 X145.400 Y149.297 E9.0006
G1 X145.099 Y148.176 E9.0427
G1 X144.609 Y147.123 E9.0849
G1 X143.943 Y146.172 E9.1270
G1 X143.122 Y145.351 E9.1692
G1 X142.171 Y144.685 E9.2113
G1 X141.118 Y144.195 E9.2534
G1 X139.997 Y143.894 E9.2956
G1 X138.840 Y143.793 E9.3377
G1 X137.683 Y143.894 E9.3799
G1 X136.562 Y144.195 E9.4220
G1 X135.509 Y144.685 E9.4641
G1 X134.558 Y145.351 E9.5063
G1 X133.737 Y146.172 E9.5484
G1 X133.071 Y147.123 E9.5905
G1 X132.581 Y148.176 E9.6327
G1 X132.280 Y149.297 E9.6748
G1 X132.179 Y150.454 E9.7170
G1 X132.280 Y151.611 E9.7591
G1 X132.581 Y152.732 E9.8012
G1 X133.071 Y153.785 E9.8434
G1 X133.737 Y154.736 E9.8855
G1 X134.611 Y155.610 E9.9304
G1 X108.422 Y155.610 E10.8809
G1 X108.011 Y155.578 E10.8958
G1 X107.671 Y155.496 E10.9085
G1 X107.348 Y155.362 E10.9212
G1 X107.049 Y155.179 E10.9339
G1 X106.783 Y154.952 E10.9466
G1 X106.556 Y154.686 E10.9593
G1 X106.373 Y154.387 E10.9720
G1 X106.239 Y154.064 E10.9847
G1 X106.157 Y153.724 E10.9974
G1 X106.126 Y153.324 E11.0120
G1 X106.125 Y121.687 E12.1602
G1 X106.157 Y121.276 E12.1751
G1 X106.239 Y120.936 E12.1878
G1 X106.373 Y120.613 E12.2005
G1 X106.556 Y120.314 E12.2132
G1 X106.783 Y120.048 E12.2259
; inner perimeter
G1 X106.336 Y119.601 F4800
G92 E0
G1 X106.678 Y119.310 E0.0163 F1375
G1 X107.059 Y119.076 E0.0325
G1 X107.476 Y118.903 E0.0489
G1 X107.912 Y118.798 E0.0652
G1 X108.386 Y118.761 E0.0825
G1 X136.102 Y118.761 E1.0883
G1 X136.189 Y119.155 E1.1030
G1 X135.826 Y119.325 E1.1176
G1 X134.965 Y119.928 E1.1557
G1 X134.222 Y120.671 E1.1938
G1 X133.619 Y121.532 E1.2320
G1 X133.175 Y122.484 E1.2701
G1 X132.903 Y123.499 E1.3083
G1 X132.811 Y124.546 E1.3464
G1 X132.903 Y125.593 E1.3845
G1 X133.175 Y126.608 E1.4227
G1 X133.619 Y127.560 E1.4608
G1 X134.222 Y128.421 E1.4989
G1 X134.965 Y129.164 E1.5371
G1 X135.826 Y129.767 E1.5752
G1 X136.778 Y130.211 E1.6134
G1 X137.793 Y130.483 E1.6515
G1 X138.840 Y130.575 E1.6896
G1 X139.887 Y130.483 E1.7278
G1 X140.902 Y130.211 E1.7659
