; G-Code generated by Simplify3D(R) Version 3.1.1
; Apr 9, 2017 at 10:22:55 AM
; Settings Summary
;   processName,Process1
;   applyToModels,Router_feet_1.2D_final_.6in,Router_feet_1.2D_final_.6in(2),Router_feet_1.2D_final_.6in(3),Router_feet_1.2D_final_.6in(4)
;   profileName,LulzBot TAZ 5 NIJAFLEX (modified)
;   profileVersion,2017-04-05 11:51:16
;   baseProfile,LulzBot TAZ 5
;   printMaterial,NijaFlex
;   printQuality,Medium
;   printExtruders,
;   extruderName,Primary Extruder
;   extruderToolheadNumber,1
;   extruderDiameter,0.5
;   extruderAutoWidth,1
;   extruderWidth,0.6
;   extrusionMultiplier,1
;   extruderUseRetract,1
;   extruderRetractionDistance,3
;   extruderExtraRestartDistance,0
;   extruderRetractionZLift,0
;   extruderRetractionSpeed,498
;   extruderUseCoasting,0
;   extruderCoastingDistance,0.2
;   extruderUseWipe,0
;   extruderWipeDistance,5
;   primaryExtruder,0
;   layerHeight,0.3
;   topSolidLayers,3
;   bottomSolidLayers,3
;   perimeterOutlines,3
;   printPerimetersInsideOut,1
;   startPointOption,2
;   startPointOriginX,0
;   startPointOriginY,0
;   startPointOriginZ,300
;   sequentialIslands,0
;   spiralVaseMode,0
;   firstLayerHeightPercentage,105
;   firstLayerWidthPercentage,105
;   firstLayerUnderspeed,0.5
;   useRaft,0
;   raftExtruder,0
;   raftLayers,3
;   raftOffset,3
;   raftSeparationDistance,0.14
;   raftInfill,85
;   disableRaftBaseLayers,0
;   useSkirt,1
;   skirtExtruder,0
;   skirtLayers,1
;   skirtOutlines,1
;   skirtOffset,6
;   usePrimePillar,0
;   primePillarExtruder,999
;   primePillarWidth,12
;   primePillarLocation,7
;   primePillarSpeedMultiplier,1
;   useOozeShield,0
;   oozeShieldExtruder,999
;   oozeShieldOffset,2
;   oozeShieldOutlines,1
;   oozeShieldSidewallShape,1
;   oozeShieldSidewallAngle,30
;   oozeShieldSpeedMultiplier,1
;   infillExtruder,0
;   internalInfillPattern,Full Honeycomb
;   externalInfillPattern,Rectilinear
;   infillPercentage,35
;   outlineOverlapPercentage,40
;   infillExtrusionWidthPercentage,220
;   minInfillLength,5
;   infillLayerInterval,1
;   infillAngles,0,120,-120
;   overlapInfillAngles,0
;   generateSupport,1
;   supportExtruder,0
;   supportInfillPercentage,15
;   supportExtraInflation,0
;   denseSupportLayers,0
;   denseSupportInfillPercentage,70
;   supportLayerInterval,1
;   supportHorizontalPartOffset,0.45
;   supportUpperSeparationLayers,1
;   supportLowerSeparationLayers,1
;   supportType,0
;   supportGridSpacing,4
;   maxOverhangAngle,15
;   supportAngles,0,45
;   temperatureName,Primary Extruder,Heated Bed
;   temperatureNumber,0,1
;   temperatureSetpointCount,1,1
;   temperatureSetpointLayers,1,1
;   temperatureSetpointTemperatures,230,40
;   temperatureStabilizeAtStartup,1,1
;   temperatureHeatedBed,0,1
;   temperatureRelayBetweenLayers,0,0
;   temperatureRelayBetweenLoops,0,0
;   fanLayers,1,2
;   fanSpeeds,0,100
;   blipFanToFullPower,0
;   adjustSpeedForCooling,1
;   minSpeedLayerTime,15
;   minCoolingSpeedSlowdown,20
;   increaseFanForCooling,0
;   minFanLayerTime,45
;   maxCoolingFanSpeed,100
;   increaseFanForBridging,0
;   bridgingFanSpeed,100
;   use5D,1
;   relativeEdistances,0
;   allowEaxisZeroing,1
;   independentExtruderAxes,0
;   includeM10123,0
;   stickySupport,1
;   applyToolheadOffsets,0
;   gcodeXoffset,0
;   gcodeYoffset,0
;   gcodeZoffset,0
;   overrideMachineDefinition,1
;   machineTypeOverride,0
;   strokeXoverride,298
;   strokeYoverride,275
;   strokeZoverride,250
;   originOffsetXoverride,0
;   originOffsetYoverride,0
;   originOffsetZoverride,0
;   homeXdirOverride,-1
;   homeYdirOverride,-1
;   homeZdirOverride,-1
;   flipXoverride,1
;   flipYoverride,-1
;   flipZoverride,1
;   toolheadOffsets,0,0|0,0|0,0|0,0|0,0|0,0
;   overrideFirmwareConfiguration,1
;   firmwareTypeOverride,RepRap (Marlin/Repetier/Sprinter)
;   GPXconfigOverride,r2
;   baudRateOverride,115200
;   overridePrinterModels,1
;   printerModelsOverride,LulzBot_TAZ3.stl
;   startingGcode,G28 ; home all axes,G1 X240 E20 F1500 ;,,
;   layerChangeGcode,
;   retractionGcode,
;   toolChangeGcode,
;   endingGcode,M104 S0 ; turn off extruder,M140 S0 ; turn off bed,G28 X0 ; home X axis,M84 ; disable motors,M106 S0;
;   exportFileFormat,gcode
;   celebration,0
;   celebrationSong,Random Song
;   postProcessing,
;   defaultSpeed,1200
;   outlineUnderspeed,0.75
;   solidInfillUnderspeed,0.75
;   supportUnderspeed,0.75
;   rapidXYspeed,4800
;   rapidZspeed,1002
;   minBridgingArea,50
;   bridgingExtraInflation,0
;   bridgingExtrusionMultiplier,1
;   bridgingSpeedMultiplier,1
;   filamentDiameter,2.85
;   filamentPricePerKg,53.33
;   filamentDensity,1.25
;   useMinPrintHeight,0
;   minPrintHeight,0
;   useMaxPrintHeight,0
;   maxPrintHeight,0
;   useDiaphragm,0
;   diaphragmLayerInterval,20
;   robustSlicing,1
;   mergeAllIntoSolid,0
;   onlyRetractWhenCrossingOutline,1
;   retractBetweenLayers,1
;   useRetractionMinTravel,0
;   retractionMinTravel,3
;   retractWhileWiping,0
;   onlyWipeOutlines,1
;   avoidCrossingOutline,1
;   maxMovementDetourFactor,3
;   toolChangeRetractionDistance,12
;   toolChangeExtraRestartDistance,-0.5
;   toolChangeRetractionSpeed,600
;   allowThinWallGapFill,1
;   thinWallAllowedOverlapPercentage,10
;   horizontalSizeCompensation,0
G90
M82
M106 S0
M140 S40
M190 S40
M104 S230 T0
M109 S230 T0
G28 ; home all axes
G1 X240 E20 F1500 ;
G92 E0
G1 E-3.0000 F498
G1 Z0.315 F1002
; layer 1, Z = 0.315
T1
; tool H0.315 W0.630
; skirt
G1 X114.653 Y106.506 F4800
G1 E0.0000 F149
G92 E0
G1 X115.926 Y105.053 E0.0601 F600
G1 X115.931 Y105.048 E0.0603
G1 X116.159 Y104.813 E0.0705
G1 X116.165 Y104.808 E0.0708
G1 X117.585 Y103.497 E0.1309
G1 X117.591 Y103.492 E0.1311
G1 X117.844 Y103.282 E0.1413
G1 X117.851 Y103.278 E0.1416
G1 X119.412 Y102.119 E0.2021
G1 X119.419 Y102.114 E0.2023
G1 X119.691 Y101.934 E0.2125
G1 X119.698 Y101.930 E0.2127
G1 X121.362 Y100.950 E0.2728
G1 X121.369 Y100.946 E0.2731
G1 X121.659 Y100.795 E0.2832
G1 X121.667 Y100.792 E0.2835
G1 X123.426 Y99.994 E0.3436
G1 X123.434 Y99.991 E0.3438
G1 X123.740 Y99.871 E0.3541
G1 X123.748 Y99.868 E0.3543
G1 X125.594 Y99.259 E0.4148
G1 X125.602 Y99.256 E0.4151
G1 X125.917 Y99.171 E0.4252
G1 X125.925 Y99.169 E0.4255
G1 X127.813 Y98.761 E0.4856
G1 X127.821 Y98.760 E0.4858
G1 X128.143 Y98.708 E0.4960
G1 X128.151 Y98.707 E0.4962
G1 X130.073 Y98.502 E0.5563
G1 X130.081 Y98.501 E0.5566
G1 X130.409 Y98.484 E0.5668
G1 X130.417 Y98.484 E0.5671
G1 X132.361 Y98.485 E0.6275
G1 X132.369 Y98.485 E0.6278
G1 X132.696 Y98.503 E0.6380
G1 X132.704 Y98.503 E0.6382
G1 X134.624 Y98.709 E0.6983
G1 X134.632 Y98.710 E0.6985
G1 X134.955 Y98.762 E0.7087
G1 X134.962 Y98.764 E0.7090
G1 X136.851 Y99.173 E0.7691
G1 X136.859 Y99.175 E0.7693
G1 X137.176 Y99.261 E0.7795
G1 X137.184 Y99.264 E0.7798
G1 X139.029 Y99.875 E0.8403
G1 X139.037 Y99.878 E0.8405
G1 X139.341 Y99.997 E0.8507
G1 X139.349 Y100.000 E0.8509
G1 X141.107 Y100.799 E0.9110
G1 X141.114 Y100.803 E0.9113
G1 X141.404 Y100.953 E0.9214
G1 X141.411 Y100.957 E0.9217
G1 X143.076 Y101.939 E0.9818
G1 X143.083 Y101.943 E0.9821
G1 X143.356 Y102.125 E0.9923
G1 X143.363 Y102.129 E0.9925
G1 X144.923 Y103.290 E1.0530
G1 X144.929 Y103.295 E1.0533
G1 X145.181 Y103.503 E1.0634
G1 X145.187 Y103.509 E1.0637
G1 X146.606 Y104.819 E1.1238
G1 X146.611 Y104.825 E1.1240
G1 X146.839 Y105.059 E1.1342
G1 X146.845 Y105.065 E1.1344
G1 X148.117 Y106.519 E1.1945
G1 X148.122 Y106.526 E1.1948
G1 X148.325 Y106.784 E1.2050
G1 X148.330 Y106.791 E1.2053
G1 X149.000 Y107.746 E1.2416
G1 X149.682 Y106.776 E1.2784
G1 X149.686 Y106.770 E1.2787
G1 X149.889 Y106.513 E1.2889
G1 X149.894 Y106.506 E1.2891
G1 X151.166 Y105.053 E1.3492
G1 X151.172 Y105.048 E1.3494
G1 X151.400 Y104.813 E1.3596
G1 X151.406 Y104.808 E1.3599
G1 X152.826 Y103.498 E1.4200
G1 X152.832 Y103.492 E1.4202
G1 X153.085 Y103.282 E1.4304
G1 X153.091 Y103.278 E1.4307
G1 X154.653 Y102.119 E1.4912
G1 X154.659 Y102.114 E1.4914
G1 X154.932 Y101.934 E1.5016
G1 X154.939 Y101.930 E1.5018
G1 X156.603 Y100.950 E1.5619
G1 X156.610 Y100.946 E1.5622
G1 X156.900 Y100.795 E1.5723
G1 X156.907 Y100.792 E1.5726
G1 X158.667 Y99.994 E1.6327
G1 X158.674 Y99.991 E1.6330
G1 X158.981 Y99.871 E1.6432
G1 X158.988 Y99.868 E1.6434
G1 X160.835 Y99.259 E1.7039
G1 X160.842 Y99.256 E1.7042
G1 X161.158 Y99.171 E1.7143
G1 X161.166 Y99.169 E1.7146
G1 X163.053 Y98.761 E1.7747
G1 X163.061 Y98.760 E1.7749
G1 X163.384 Y98.708 E1.7851
G1 X163.392 Y98.707 E1.7853
G1 X165.313 Y98.502 E1.8454
G1 X165.321 Y98.501 E1.8457
G1 X165.650 Y98.484 E1.8559
G1 X165.658 Y98.484 E1.8562
G1 X167.602 Y98.485 E1.9167
G1 X167.610 Y98.485 E1.9169
G1 X167.936 Y98.503 E1.9271
G1 X167.944 Y98.503 E1.9273
G1 X169.865 Y98.709 E1.9874
G1 X169.873 Y98.710 E1.9876
G1 X170.195 Y98.762 E1.9978
G1 X170.203 Y98.764 E1.9981
G1 X172.092 Y99.173 E2.0582
G1 X172.099 Y99.175 E2.0584
G1 X172.417 Y99.261 E2.0686
G1 X172.424 Y99.264 E2.0689
G1 X174.270 Y99.875 E2.1294
G1 X174.278 Y99.878 E2.1296
G1 X174.582 Y99.997 E2.1398
G1 X174.589 Y100.000 E2.1401
G1 X176.348 Y100.799 E2.2001
G1 X176.355 Y100.803 E2.2004
G1 X176.645 Y100.953 E2.2106
G1 X176.652 Y100.957 E2.2108
G1 X178.316 Y101.939 E2.2709
G1 X178.323 Y101.943 E2.2712
G1 X178.597 Y102.125 E2.2814
G1 X178.604 Y102.129 E2.2816
G1 X180.164 Y103.290 E2.3421
G1 X180.170 Y103.295 E2.3424
G1 X180.422 Y103.503 E2.3525
G1 X180.428 Y103.509 E2.3528
G1 X181.846 Y104.819 E2.4129
G1 X181.852 Y104.825 E2.4131
G1 X182.080 Y105.059 E2.4233
G1 X182.086 Y105.065 E2.4235
G1 X183.358 Y106.519 E2.4836
G1 X183.363 Y106.526 E2.4839
G1 X183.566 Y106.784 E2.4941
G1 X183.570 Y106.791 E2.4944
G1 X184.687 Y108.382 E2.5549
G1 X184.692 Y108.389 E2.5551
G1 X184.865 Y108.666 E2.5653
G1 X184.869 Y108.673 E2.5655
G1 X185.804 Y110.363 E2.6256
G1 X185.808 Y110.370 E2.6259
G1 X185.951 Y110.664 E2.6360
G1 X185.954 Y110.671 E2.6363
G1 X186.705 Y112.452 E2.6964
G1 X186.708 Y112.459 E2.6966
G1 X186.819 Y112.768 E2.7068
G1 X186.822 Y112.776 E2.7071
G1 X187.382 Y114.638 E2.7676
G1 X187.384 Y114.646 E2.7678
G1 X187.462 Y114.963 E2.7780
G1 X187.464 Y114.971 E2.7783
G1 X187.821 Y116.869 E2.8383
G1 X187.822 Y116.877 E2.8386
G1 X187.865 Y117.201 E2.8488
G1 X187.866 Y117.209 E2.8490
G1 X188.020 Y119.135 E2.9091
G1 X188.020 Y119.143 E2.9094
G1 X188.029 Y119.472 E2.9196
G1 X188.029 Y119.480 E2.9198
G1 X187.976 Y121.423 E2.9803
G1 X187.976 Y121.431 E2.9806
G1 X187.950 Y121.757 E2.9907
G1 X187.949 Y121.765 E2.9910
G1 X187.692 Y123.680 E3.0511
G1 X187.691 Y123.687 E3.0513
G1 X187.630 Y124.009 E3.0615
G1 X187.628 Y124.017 E3.0617
G1 X187.169 Y125.893 E3.1218
G1 X187.167 Y125.901 E3.1221
G1 X187.072 Y126.216 E3.1323
G1 X187.070 Y126.223 E3.1326
G1 X186.409 Y128.052 E3.1931
G1 X186.406 Y128.060 E3.1933
G1 X186.279 Y128.361 E3.2035
G1 X186.276 Y128.368 E3.2037
G1 X185.431 Y130.105 E3.2638
G1 X185.427 Y130.112 E3.2641
G1 X185.268 Y130.398 E3.2742
G1 X185.264 Y130.405 E3.2745
G1 X184.239 Y132.043 E3.3346
G1 X184.235 Y132.049 E3.3348
G1 X184.046 Y132.318 E3.3451
G1 X184.041 Y132.324 E3.3453
G1 X182.840 Y133.853 E3.4058
G1 X182.835 Y133.859 E3.4060
G1 X182.619 Y134.106 E3.4162
G1 X182.614 Y134.111 E3.4165
G1 X181.266 Y135.495 E3.4765
G1 X181.260 Y135.500 E3.4768
G1 X181.020 Y135.722 E3.4870
G1 X181.014 Y135.727 E3.4872
G1 X179.526 Y136.960 E3.5473
G1 X179.520 Y136.965 E3.5476
G1 X179.256 Y137.161 E3.5578
G1 X179.250 Y137.166 E3.5580
G1 X178.770 Y137.483 E3.5759
G1 X180.164 Y138.520 E3.6299
G1 X180.170 Y138.525 E3.6302
G1 X180.422 Y138.733 E3.6404
G1 X180.428 Y138.739 E3.6406
G1 X181.846 Y140.049 E3.7007
G1 X181.852 Y140.055 E3.7009
G1 X182.080 Y140.289 E3.7111
G1 X182.085 Y140.295 E3.7114
G1 X183.358 Y141.749 E3.7715
G1 X183.363 Y141.755 E3.7717
G1 X183.566 Y142.014 E3.7819
G1 X183.570 Y142.021 E3.7822
G1 X184.687 Y143.612 E3.8427
G1 X184.692 Y143.619 E3.8429
G1 X184.865 Y143.896 E3.8531
G1 X184.869 Y143.903 E3.8533
G1 X185.804 Y145.593 E3.9134
G1 X185.808 Y145.600 E3.9137
G1 X185.951 Y145.894 E3.9238
G1 X185.954 Y145.901 E3.9241
G1 X186.705 Y147.682 E3.9842
G1 X186.708 Y147.689 E3.9844
G1 X186.819 Y147.998 E3.9947
G1 X186.822 Y148.006 E3.9949
G1 X187.382 Y149.868 E4.0554
G1 X187.384 Y149.876 E4.0557
G1 X187.462 Y150.193 E4.0658
G1 X187.464 Y150.201 E4.0661
G1 X187.821 Y152.099 E4.1262
G1 X187.822 Y152.107 E4.1264
G1 X187.865 Y152.431 E4.1366
G1 X187.866 Y152.439 E4.1368
G1 X188.020 Y154.365 E4.1969
G1 X188.020 Y154.373 E4.1972
G1 X188.029 Y154.702 E4.2074
G1 X188.029 Y154.710 E4.2077
G1 X187.976 Y156.653 E4.2681
G1 X187.976 Y156.661 E4.2684
G1 X187.950 Y156.987 E4.2786
G1 X187.949 Y156.995 E4.2788
G1 X187.692 Y158.910 E4.3389
G1 X187.691 Y158.917 E4.3391
G1 X187.630 Y159.239 E4.3493
G1 X187.628 Y159.246 E4.3496
G1 X187.169 Y161.123 E4.4097
G1 X187.167 Y161.131 E4.4099
G1 X187.072 Y161.446 E4.4201
G1 X187.070 Y161.453 E4.4204
G1 X186.409 Y163.282 E4.4809
G1 X186.406 Y163.290 E4.4811
G1 X186.279 Y163.591 E4.4913
G1 X186.276 Y163.598 E4.4915
G1 X185.431 Y165.335 E4.5516
G1 X185.427 Y165.342 E4.5519
G1 X185.268 Y165.628 E4.5620
G1 X185.264 Y165.635 E4.5623
G1 X184.239 Y167.273 E4.6224
G1 X184.235 Y167.279 E4.6227
G1 X184.046 Y167.548 E4.6329
G1 X184.041 Y167.554 E4.6331
G1 X182.840 Y169.083 E4.6936
G1 X182.835 Y169.089 E4.6939
G1 X182.619 Y169.336 E4.7040
G1 X182.614 Y169.341 E4.7043
G1 X181.266 Y170.725 E4.7644
G1 X181.260 Y170.730 E4.7646
G1 X181.020 Y170.952 E4.7748
G1 X181.014 Y170.957 E4.7750
G1 X179.526 Y172.190 E4.8351
G1 X179.520 Y172.195 E4.8354
G1 X179.256 Y172.391 E4.8456
G1 X179.250 Y172.396 E4.8459
G1 X177.629 Y173.470 E4.9063
G1 X177.622 Y173.474 E4.9066
G1 X177.340 Y173.640 E4.9168
G1 X177.333 Y173.644 E4.9170
G1 X175.619 Y174.534 E4.9771
G1 X175.612 Y174.537 E4.9774
G1 X175.314 Y174.673 E4.9875
G1 X175.307 Y174.676 E4.9878
G1 X173.507 Y175.379 E5.0479
G1 X173.499 Y175.382 E5.0481
G1 X173.188 Y175.485 E5.0583
G1 X173.180 Y175.487 E5.0586
G1 X171.304 Y175.998 E5.1191
G1 X171.296 Y176.000 E5.1193
G1 X170.976 Y176.069 E5.1295
G1 X170.968 Y176.070 E5.1298
G1 X169.061 Y176.377 E5.1898
G1 X169.053 Y176.378 E5.1901
G1 X168.728 Y176.413 E5.2003
G1 X168.720 Y176.413 E5.2005
G1 X166.791 Y176.516 E5.2606
G1 X166.783 Y176.516 E5.2609
G1 X166.455 Y176.516 E5.2711
G1 X166.446 Y176.516 E5.2713
G1 X164.505 Y176.412 E5.3318
G1 X164.497 Y176.411 E5.3321
G1 X164.171 Y176.376 E5.3422
G1 X164.164 Y176.375 E5.3425
G1 X162.257 Y176.067 E5.4026
G1 X162.249 Y176.066 E5.4028
G1 X161.929 Y175.997 E5.4130
G1 X161.922 Y175.995 E5.4132
G1 X160.057 Y175.486 E5.4734
G1 X160.050 Y175.484 E5.4736
G1 X159.738 Y175.381 E5.4838
G1 X159.731 Y175.378 E5.4841
G1 X157.920 Y174.669 E5.5445
G1 X157.913 Y174.666 E5.5448
G1 X157.615 Y174.531 E5.5550
G1 X157.608 Y174.527 E5.5552
G1 X155.894 Y173.636 E5.6153
G1 X155.887 Y173.632 E5.6156
G1 X155.605 Y173.466 E5.6257
G1 X155.598 Y173.462 E5.6260
G1 X153.988 Y172.393 E5.6861
G1 X153.982 Y172.389 E5.6863
G1 X153.718 Y172.193 E5.6966
G1 X153.712 Y172.188 E5.6968
G1 X152.216 Y170.947 E5.7573
G1 X152.210 Y170.942 E5.7575
G1 X151.969 Y170.719 E5.7677
G1 X151.963 Y170.714 E5.7680
G1 X150.616 Y169.330 E5.8281
G1 X150.611 Y169.324 E5.8283
G1 X150.396 Y169.078 E5.8385
G1 X150.391 Y169.071 E5.8387
G1 X149.197 Y167.551 E5.8988
G1 X149.192 Y167.545 E5.8991
G1 X149.004 Y167.276 E5.9093
G1 X149.000 Y167.270 E5.9095
G1 X148.999 Y167.273 E5.9096
G1 X148.994 Y167.279 E5.9099
G1 X148.805 Y167.548 E5.9201
G1 X148.800 Y167.554 E5.9203
G1 X147.599 Y169.083 E5.9808
G1 X147.594 Y169.089 E5.9811
G1 X147.378 Y169.336 E5.9912
G1 X147.373 Y169.341 E5.9915
G1 X146.025 Y170.725 E6.0516
G1 X146.019 Y170.730 E6.0518
G1 X145.779 Y170.952 E6.0620
G1 X145.773 Y170.957 E6.0622
G1 X144.286 Y172.190 E6.1223
G1 X144.279 Y172.195 E6.1226
G1 X144.015 Y172.391 E6.1328
G1 X144.009 Y172.396 E6.1331
G1 X142.388 Y173.470 E6.1935
G1 X142.381 Y173.474 E6.1938
G1 X142.099 Y173.640 E6.2040
G1 X142.092 Y173.644 E6.2042
G1 X140.378 Y174.534 E6.2643
G1 X140.371 Y174.537 E6.2645
G1 X140.073 Y174.673 E6.2747
G1 X140.066 Y174.676 E6.2750
G1 X138.266 Y175.379 E6.3351
G1 X138.259 Y175.382 E6.3353
G1 X137.947 Y175.485 E6.3455
G1 X137.939 Y175.487 E6.3458
G1 X136.063 Y175.998 E6.4063
G1 X136.055 Y176.000 E6.4065
