; G-Code generated by Simplify3D(R) Version 3.1.1
; Apr 6, 2017 at 9:48:32 AM
; Settings Summary
;   processName,Process1
;   applyToModels,Router_feet_1.2D_final_.6in
;   profileName,LulzBot TAZ 5 NIJAFLEX Dual (modified)
;   profileVersion,2017-04-05 11:52:21
;   baseProfile,LulzBot TAZ 5
;   printMaterial,NijaFlex
;   printQuality,Medium
;   printExtruders,
;   extruderName,Primary Extruder
;   extruderToolheadNumber,1
;   extruderDiameter,0.5
;   extruderAutoWidth,1
;   extruderWidth,0.6
;   extrusionMultiplier,1
;   extruderUseRetract,1
;   extruderRetractionDistance,3
;   extruderExtraRestartDistance,-0.05
;   extruderRetractionZLift,0
;   extruderRetractionSpeed,498
;   extruderUseCoasting,0
;   extruderCoastingDistance,0.2
;   extruderUseWipe,0
;   extruderWipeDistance,5
;   primaryExtruder,0
;   layerHeight,0.3
;   topSolidLayers,3
;   bottomSolidLayers,3
;   perimeterOutlines,3
;   printPerimetersInsideOut,1
;   startPointOption,2
;   startPointOriginX,0
;   startPointOriginY,0
;   startPointOriginZ,300
;   sequentialIslands,0
;   spiralVaseMode,0
;   firstLayerHeightPercentage,105
;   firstLayerWidthPercentage,105
;   firstLayerUnderspeed,0.5
;   useRaft,0
;   raftExtruder,0
;   raftLayers,3
;   raftOffset,3
;   raftSeparationDistance,0.14
;   raftInfill,85
;   disableRaftBaseLayers,0
;   useSkirt,1
;   skirtExtruder,0
;   skirtLayers,1
;   skirtOutlines,3
;   skirtOffset,6
;   usePrimePillar,0
;   primePillarExtruder,999
;   primePillarWidth,12
;   primePillarLocation,7
;   primePillarSpeedMultiplier,1
;   useOozeShield,0
;   oozeShieldExtruder,999
;   oozeShieldOffset,2
;   oozeShieldOutlines,1
;   oozeShieldSidewallShape,1
;   oozeShieldSidewallAngle,30
;   oozeShieldSpeedMultiplier,1
;   infillExtruder,0
;   internalInfillPattern,Fast Honeycomb
;   externalInfillPattern,Rectilinear
;   infillPercentage,35
;   outlineOverlapPercentage,40
;   infillExtrusionWidthPercentage,220
;   minInfillLength,5
;   infillLayerInterval,1
;   infillAngles,0
;   overlapInfillAngles,0
;   generateSupport,0
;   supportExtruder,0
;   supportInfillPercentage,15
;   supportExtraInflation,0
;   denseSupportLayers,0
;   denseSupportInfillPercentage,70
;   supportLayerInterval,1
;   supportHorizontalPartOffset,0.45
;   supportUpperSeparationLayers,1
;   supportLowerSeparationLayers,1
;   supportType,0
;   supportGridSpacing,4
;   maxOverhangAngle,15
;   supportAngles,0,45
;   temperatureName,Primary Extruder,Heated Bed
;   temperatureNumber,0,1
;   temperatureSetpointCount,1,1
;   temperatureSetpointLayers,1,1
;   temperatureSetpointTemperatures,230,40
;   temperatureStabilizeAtStartup,1,1
;   temperatureHeatedBed,0,1
;   temperatureRelayBetweenLayers,0,0
;   temperatureRelayBetweenLoops,0,0
;   fanLayers,1,2
;   fanSpeeds,0,100
;   blipFanToFullPower,0
;   adjustSpeedForCooling,1
;   minSpeedLayerTime,15
;   minCoolingSpeedSlowdown,20
;   increaseFanForCooling,0
;   minFanLayerTime,45
;   maxCoolingFanSpeed,100
;   increaseFanForBridging,0
;   bridgingFanSpeed,100
;   use5D,1
;   relativeEdistances,0
;   allowEaxisZeroing,1
;   independentExtruderAxes,0
;   includeM10123,0
;   stickySupport,1
;   applyToolheadOffsets,0
;   gcodeXoffset,0
;   gcodeYoffset,0
;   gcodeZoffset,0
;   overrideMachineDefinition,1
;   machineTypeOverride,0
;   strokeXoverride,298
;   strokeYoverride,275
;   strokeZoverride,250
;   originOffsetXoverride,0
;   originOffsetYoverride,0
;   originOffsetZoverride,0
;   homeXdirOverride,-1
;   homeYdirOverride,-1
;   homeZdirOverride,-1
;   flipXoverride,1
;   flipYoverride,-1
;   flipZoverride,1
;   toolheadOffsets,0,0|0,0|0,0|0,0|0,0|0,0
;   overrideFirmwareConfiguration,1
;   firmwareTypeOverride,RepRap (Marlin/Repetier/Sprinter)
;   GPXconfigOverride,r2
;   baudRateOverride,115200
;   overridePrinterModels,1
;   printerModelsOverride,LulzBot_TAZ3.stl
;   startingGcode,G28 ; home all axes,G1 X240 E20 F1500 ;,M218 X0 Y-50 T1,,
;   layerChangeGcode,
;   retractionGcode,
;   toolChangeGcode,
;   endingGcode,M104 S0 ; turn off extruder,M140 S0 ; turn off bed,G28 X0 ; home X axis,M84 ; disable motors,M106 S0;
;   exportFileFormat,gcode
;   celebration,0
;   celebrationSong,Random Song
;   postProcessing,
;   defaultSpeed,2100
;   outlineUnderspeed,0.75
;   solidInfillUnderspeed,0.75
;   supportUnderspeed,0.75
;   rapidXYspeed,4800
;   rapidZspeed,1002
;   minBridgingArea,50
;   bridgingExtraInflation,0
;   bridgingExtrusionMultiplier,1
;   bridgingSpeedMultiplier,1
;   filamentDiameter,2.85
;   filamentPricePerKg,53.33
;   filamentDensity,1.25
;   useMinPrintHeight,0
;   minPrintHeight,0
;   useMaxPrintHeight,0
;   maxPrintHeight,0
;   useDiaphragm,0
;   diaphragmLayerInterval,20
;   robustSlicing,1
;   mergeAllIntoSolid,0
;   onlyRetractWhenCrossingOutline,1
;   retractBetweenLayers,1
;   useRetractionMinTravel,0
;   retractionMinTravel,3
;   retractWhileWiping,0
;   onlyWipeOutlines,1
;   avoidCrossingOutline,1
;   maxMovementDetourFactor,3
;   toolChangeRetractionDistance,12
;   toolChangeExtraRestartDistance,-0.5
;   toolChangeRetractionSpeed,600
;   allowThinWallGapFill,1
;   thinWallAllowedOverlapPercentage,10
;   horizontalSizeCompensation,0
G90
M82
M106 S0
M140 S40
M190 S40
M104 S230 T0
M109 S230 T0
G28 ; home all axes
G1 X240 E20 F1500 ;
M218 X0 Y-50 T1
G92 E0
G1 E-3.0000 F498
G1 Z0.315 F1002
; layer 1, Z = 0.315
T1
; tool H0.315 W0.630
; skirt
G1 X132.670 Y121.848 F4800
G1 E-0.0500 F149
G92 E0
G1 X132.920 Y121.591 E0.0112 F1050
G1 X132.949 Y121.563 E0.0124
G1 X134.399 Y120.224 E0.0738
G1 X134.429 Y120.197 E0.0750
G1 X134.706 Y119.968 E0.0862
G1 X134.737 Y119.943 E0.0875
G1 X136.316 Y118.770 E0.1486
G1 X136.348 Y118.747 E0.1499
G1 X136.648 Y118.549 E0.1611
G1 X136.681 Y118.528 E0.1623
G1 X138.373 Y117.530 E0.2234
G1 X138.408 Y117.511 E0.2246
G1 X138.727 Y117.345 E0.2358
G1 X138.763 Y117.328 E0.2371
G1 X140.560 Y116.512 E0.2985
G1 X140.597 Y116.496 E0.2997
G1 X140.932 Y116.365 E0.3109
G1 X140.970 Y116.351 E0.3121
G1 X142.836 Y115.734 E0.3733
G1 X142.875 Y115.722 E0.3746
G1 X143.221 Y115.628 E0.3857
G1 X143.260 Y115.618 E0.3870
G1 X145.179 Y115.203 E0.4481
G1 X145.218 Y115.195 E0.4493
G1 X145.573 Y115.138 E0.4605
G1 X145.613 Y115.133 E0.4617
G1 X147.576 Y114.922 E0.5231
G1 X147.616 Y114.919 E0.5244
G1 X147.975 Y114.900 E0.5356
G1 X148.015 Y114.899 E0.5368
G1 X149.981 Y114.899 E0.5980
G1 X150.021 Y114.900 E0.5992
G1 X150.380 Y114.919 E0.6104
G1 X150.419 Y114.922 E0.6116
G1 X152.372 Y115.130 E0.6727
G1 X152.412 Y115.136 E0.6740
G1 X152.766 Y115.193 E0.6851
G1 X152.806 Y115.200 E0.6864
G1 X154.735 Y115.617 E0.7478
G1 X154.774 Y115.626 E0.7490
G1 X155.122 Y115.721 E0.7602
G1 X155.160 Y115.733 E0.7615
G1 X157.026 Y116.350 E0.8226
G1 X157.064 Y116.363 E0.8239
G1 X157.398 Y116.494 E0.8350
G1 X157.435 Y116.510 E0.8363
G1 X159.223 Y117.321 E0.8974
G1 X159.259 Y117.338 E0.8986
G1 X159.578 Y117.504 E0.9098
G1 X159.613 Y117.523 E0.9110
G1 X161.315 Y118.525 E0.9725
G1 X161.349 Y118.546 E0.9737
G1 X161.649 Y118.745 E0.9849
G1 X161.681 Y118.768 E0.9862
G1 X163.259 Y119.940 E1.0473
G1 X163.291 Y119.965 E1.0485
G1 X163.567 Y120.194 E1.0597
G1 X163.597 Y120.220 E1.0610
G1 X165.040 Y121.552 E1.1220
G1 X165.069 Y121.580 E1.1233
G1 X165.320 Y121.837 E1.1345
G1 X165.347 Y121.867 E1.1357
G1 X166.648 Y123.352 E1.1971
G1 X166.673 Y123.383 E1.1984
G1 X166.896 Y123.666 E1.2096
G1 X166.920 Y123.698 E1.2108
G1 X168.049 Y125.307 E1.2720
G1 X168.072 Y125.340 E1.2732
G1 X168.262 Y125.644 E1.2844
G1 X168.282 Y125.679 E1.2856
G1 X169.234 Y127.396 E1.3467
G1 X169.253 Y127.431 E1.3479
G1 X169.410 Y127.755 E1.3591
G1 X169.426 Y127.791 E1.3604
G1 X170.195 Y129.610 E1.4218
G1 X170.209 Y129.648 E1.4231
G1 X170.332 Y129.986 E1.4343
G1 X170.344 Y130.024 E1.4355
G1 X170.912 Y131.906 E1.4966
G1 X170.922 Y131.944 E1.4979
G1 X171.008 Y132.293 E1.5090
G1 X171.016 Y132.332 E1.5103
G1 X171.380 Y134.262 E1.5714
G1 X171.387 Y134.301 E1.5726
G1 X171.434 Y134.657 E1.5838
G1 X171.439 Y134.697 E1.5850
G1 X171.597 Y136.666 E1.6465
G1 X171.599 Y136.706 E1.6477
G1 X171.609 Y137.066 E1.6589
G1 X171.609 Y137.106 E1.6602
G1 X171.557 Y139.070 E1.7213
G1 X171.554 Y139.110 E1.7225
G1 X171.526 Y139.468 E1.7337
G1 X171.522 Y139.507 E1.7349
G1 X171.262 Y141.454 E1.7960
G1 X171.255 Y141.493 E1.7973
G1 X171.189 Y141.846 E1.8084
G1 X171.180 Y141.885 E1.8097
G1 X170.712 Y143.805 E1.8711
G1 X170.702 Y143.843 E1.8724
G1 X170.598 Y144.188 E1.8836
G1 X170.585 Y144.226 E1.8848
G1 X169.919 Y146.074 E1.9460
G1 X169.904 Y146.112 E1.9472
G1 X169.765 Y146.442 E1.9584
G1 X169.748 Y146.479 E1.9596
G1 X168.890 Y148.245 E2.0207
G1 X168.872 Y148.280 E2.0219
G1 X168.698 Y148.594 E2.0331
G1 X168.677 Y148.629 E2.0344
G1 X167.630 Y150.304 E2.0958
G1 X167.608 Y150.338 E2.0971
G1 X167.401 Y150.632 E2.1083
G1 X167.377 Y150.664 E2.1095
G1 X166.164 Y152.210 E2.1706
G1 X166.138 Y152.241 E2.1719
G1 X165.902 Y152.511 E2.1830
G1 X165.875 Y152.540 E2.1843
G1 X164.506 Y153.947 E2.2454
G1 X164.477 Y153.975 E2.2466
G1 X164.213 Y154.219 E2.2578
G1 X164.183 Y154.245 E2.2590
G1 X162.663 Y155.507 E2.3205
G1 X162.631 Y155.532 E2.3217
G1 X162.342 Y155.747 E2.3329
G1 X162.309 Y155.770 E2.3342
G1 X160.672 Y156.856 E2.3953
G1 X160.638 Y156.877 E2.3965
G1 X160.329 Y157.059 E2.4077
G1 X160.294 Y157.078 E2.4089
G1 X158.552 Y157.984 E2.4700
G1 X158.516 Y158.002 E2.4713
G1 X158.189 Y158.150 E2.4824
G1 X158.153 Y158.166 E2.4837
G1 X156.312 Y158.886 E2.5451
G1 X156.275 Y158.900 E2.5464
G1 X155.933 Y159.013 E2.5576
G1 X155.894 Y159.025 E2.5589
G1 X153.999 Y159.542 E2.6200
G1 X153.960 Y159.551 E2.6212
G1 X153.610 Y159.627 E2.6324
G1 X153.571 Y159.634 E2.6336
G1 X151.632 Y159.947 E2.6947
G1 X151.593 Y159.953 E2.6959
G1 X151.236 Y159.991 E2.7071
G1 X151.196 Y159.994 E2.7083
G1 X149.222 Y160.100 E2.7698
G1 X149.182 Y160.101 E2.7711
G1 X148.822 Y160.101 E2.7823
G1 X148.782 Y160.100 E2.7835
G1 X146.820 Y159.996 E2.8446
G1 X146.780 Y159.993 E2.8459
G1 X146.423 Y159.954 E2.8571
G1 X146.383 Y159.949 E2.8583
G1 X144.436 Y159.636 E2.9197
G1 X144.397 Y159.628 E2.9209
G1 X144.045 Y159.552 E2.9321
G1 X144.006 Y159.543 E2.9333
G1 X142.108 Y159.025 E2.9945
G1 X142.069 Y159.014 E2.9958
G1 X141.728 Y158.901 E3.0070
G1 X141.691 Y158.887 E3.0082
G1 X139.862 Y158.172 E3.0693
G1 X139.825 Y158.157 E3.0705
G1 X139.498 Y158.008 E3.0817
G1 X139.462 Y157.991 E3.0830
G1 X137.711 Y157.082 E3.1443
G1 X137.676 Y157.062 E3.1456
G1 X137.366 Y156.880 E3.1568
G1 X137.332 Y156.858 E3.1580
G1 X135.692 Y155.771 E3.2192
G1 X135.660 Y155.748 E3.2205
G1 X135.371 Y155.533 E3.2316
G1 X135.340 Y155.509 E3.2329
G1 X133.828 Y154.256 E3.2940
G1 X133.798 Y154.230 E3.2952
G1 X133.534 Y153.986 E3.3064
G1 X133.505 Y153.958 E3.3076
G1 X132.129 Y152.545 E3.3690
G1 X132.102 Y152.515 E3.3702
G1 X131.865 Y152.245 E3.3814
G1 X131.839 Y152.214 E3.3827
G1 X130.624 Y150.666 E3.4439
G1 X130.600 Y150.634 E3.4451
G1 X130.394 Y150.340 E3.4563
G1 X130.372 Y150.307 E3.4576
G1 X129.330 Y148.643 E3.5186
G1 X129.310 Y148.608 E3.5199
G1 X129.136 Y148.294 E3.5310
G1 X129.117 Y148.258 E3.5323
G1 X128.254 Y146.484 E3.5937
G1 X128.238 Y146.448 E3.5949
G1 X128.098 Y146.116 E3.6061
G1 X128.083 Y146.079 E3.6073
G1 X127.416 Y144.229 E3.6685
G1 X127.403 Y144.191 E3.6698
G1 X127.299 Y143.847 E3.6810
G1 X127.289 Y143.808 E3.6822
G1 X126.823 Y141.901 E3.7433
G1 X126.814 Y141.862 E3.7445
G1 X126.748 Y141.508 E3.7557
G1 X126.741 Y141.469 E3.7570
G1 X126.479 Y139.513 E3.8183
G1 X126.475 Y139.474 E3.8196
G1 X126.446 Y139.115 E3.8308
G1 X126.444 Y139.075 E3.8320
G1 X126.391 Y137.109 E3.8932
G1 X126.391 Y137.069 E3.8944
G1 X126.401 Y136.710 E3.9056
G1 X126.403 Y136.670 E3.9069
G1 X126.559 Y134.712 E3.9679
G1 X126.564 Y134.673 E3.9692
G1 X126.611 Y134.316 E3.9804
G1 X126.618 Y134.277 E3.9816
G1 X126.983 Y132.338 E4.0430
G1 X126.991 Y132.299 E4.0442
G1 X127.077 Y131.949 E4.0554
G1 X127.087 Y131.911 E4.0567
G1 X127.655 Y130.027 E4.1179
G1 X127.667 Y129.989 E4.1191
G1 X127.789 Y129.652 E4.1303
G1 X127.804 Y129.614 E4.1315
G1 X128.567 Y127.805 E4.1926
G1 X128.583 Y127.769 E4.1939
G1 X128.741 Y127.445 E4.2050
G1 X128.759 Y127.410 E4.2063
G1 X129.715 Y125.682 E4.2677
G1 X129.736 Y125.648 E4.2690
G1 X129.928 Y125.341 E4.2802
G1 X129.950 Y125.308 E4.2815
G1 X131.089 Y123.689 E4.3430
G1 X131.112 Y123.657 E4.3443
G1 X131.333 Y123.375 E4.3554
G1 X131.359 Y123.345 E4.3566
G1 X132.643 Y121.877 E4.4173
G1 X132.670 Y121.848 E4.4185
G1 X133.106 Y122.260 F4800
G92 E0
G1 X133.345 Y122.015 E0.0107 F1050
G1 X133.362 Y121.998 E0.0114
G1 X134.800 Y120.670 E0.0723
G1 X134.818 Y120.654 E0.0731
G1 X135.083 Y120.435 E0.0837
G1 X135.101 Y120.420 E0.0845
G1 X136.667 Y119.257 E0.1452
G1 X136.687 Y119.243 E0.1459
G1 X136.973 Y119.053 E0.1566
G1 X136.993 Y119.040 E0.1573
G1 X138.671 Y118.051 E0.2179
G1 X138.692 Y118.040 E0.2187
G1 X138.996 Y117.881 E0.2294
G1 X139.018 Y117.871 E0.2301
G1 X140.801 Y117.061 E0.2910
G1 X140.823 Y117.052 E0.2918
G1 X141.143 Y116.927 E0.3025
G1 X141.166 Y116.918 E0.3032
G1 X143.017 Y116.306 E0.3639
G1 X143.040 Y116.299 E0.3646
G1 X143.371 Y116.208 E0.3753
G1 X143.395 Y116.203 E0.3760
G1 X145.298 Y115.791 E0.4366
G1 X145.322 Y115.786 E0.4374
G1 X145.661 Y115.732 E0.4481
G1 X145.685 Y115.728 E0.4488
G1 X147.632 Y115.520 E0.5097
G1 X147.656 Y115.518 E0.5105
G1 X147.999 Y115.500 E0.5212
G1 X148.023 Y115.499 E0.5219
G1 X149.973 Y115.499 E0.5826
G1 X149.997 Y115.499 E0.5833
G1 X150.340 Y115.518 E0.5940
G1 X150.364 Y115.519 E0.5947
G1 X152.300 Y115.726 E0.6553
G1 X152.324 Y115.729 E0.6561
G1 X152.663 Y115.784 E0.6668
G1 X152.687 Y115.788 E0.6675
G1 X154.601 Y116.202 E0.7284
G1 X154.624 Y116.207 E0.7292
G1 X154.956 Y116.298 E0.7399
G1 X154.979 Y116.305 E0.7406
G1 X156.830 Y116.917 E0.8013
G1 X156.853 Y116.925 E0.8020
G1 X157.172 Y117.050 E0.8127
G1 X157.195 Y117.059 E0.8134
G1 X158.968 Y117.864 E0.8740
G1 X158.990 Y117.874 E0.8748
G1 X159.295 Y118.032 E0.8855
G1 X159.316 Y118.044 E0.8862
G1 X161.003 Y119.038 E0.9471
G1 X161.024 Y119.051 E0.9479
G1 X161.310 Y119.241 E0.9586
G1 X161.330 Y119.255 E0.9593
G1 X162.895 Y120.417 E1.0200
G1 X162.914 Y120.432 E1.0207
G1 X163.178 Y120.651 E1.0314
G1 X163.196 Y120.667 E1.0321
G1 X164.628 Y121.987 E1.0927
G1 X164.645 Y122.004 E1.0935
G1 X164.884 Y122.250 E1.1041
G1 X164.901 Y122.268 E1.1049
G1 X166.191 Y123.742 E1.1658
G1 X166.206 Y123.760 E1.1666
G1 X166.419 Y124.031 E1.1773
G1 X166.433 Y124.050 E1.1780
G1 X167.554 Y125.645 E1.2387
G1 X167.567 Y125.665 E1.2394
G1 X167.749 Y125.956 E1.2501
G1 X167.761 Y125.976 E1.2508
G1 X168.706 Y127.680 E1.3114
G1 X168.717 Y127.701 E1.3122
G1 X168.867 Y128.010 E1.3228
G1 X168.877 Y128.032 E1.3236
G1 X169.639 Y129.837 E1.3845
G1 X169.648 Y129.859 E1.3853
G1 X169.765 Y130.183 E1.3960
G1 X169.772 Y130.205 E1.3967
G1 X170.335 Y132.072 E1.4574
G1 X170.341 Y132.095 E1.4581
G1 X170.423 Y132.428 E1.4688
G1 X170.428 Y132.451 E1.4695
G1 X170.789 Y134.365 E1.5301
G1 X170.793 Y134.389 E1.5309
G1 X170.839 Y134.729 E1.5415
G1 X170.841 Y134.753 E1.5423
G1 X170.998 Y136.706 E1.6032
G1 X170.999 Y136.730 E1.6040
G1 X171.009 Y137.074 E1.6147
G1 X171.009 Y137.098 E1.6154
G1 X170.957 Y139.046 E1.6761
G1 X170.956 Y139.070 E1.6768
G1 X170.928 Y139.412 E1.6875
G1 X170.926 Y139.436 E1.6882
G1 X170.668 Y141.366 E1.7488
G1 X170.664 Y141.390 E1.7496
G1 X170.601 Y141.727 E1.7602
G1 X170.596 Y141.751 E1.7610
G1 X170.131 Y143.655 E1.8219
G1 X170.125 Y143.678 E1.8227
G1 X170.025 Y144.007 E1.8334
G1 X170.018 Y144.030 E1.8342
G1 X169.357 Y145.863 E1.8948
G1 X169.348 Y145.886 E1.8955
G1 X169.215 Y146.202 E1.9062
G1 X169.205 Y146.224 E1.9069
G1 X168.354 Y147.975 E1.9675
G1 X168.343 Y147.997 E1.9683
G1 X168.177 Y148.297 E1.9789
G1 X168.164 Y148.318 E1.9797
G1 X167.125 Y149.979 E2.0407
G1 X167.112 Y149.999 E2.0414
G1 X166.914 Y150.281 E2.0521
G1 X166.900 Y150.300 E2.0529
G1 X165.697 Y151.833 E2.1135
G1 X165.682 Y151.852 E2.1142
G1 X165.456 Y152.110 E2.1249
G1 X165.440 Y152.127 E2.1256
G1 X164.081 Y153.523 E2.1862
G1 X164.064 Y153.540 E2.1870
G1 X163.812 Y153.773 E2.1976
G1 X163.794 Y153.788 E2.1984
G1 X162.286 Y155.040 E2.2594
G1 X162.267 Y155.055 E2.2601
G1 X161.990 Y155.260 E2.2708
G1 X161.971 Y155.274 E2.2716
G1 X160.347 Y156.351 E2.3322
