; G-Code generated by Simplify3D(R) Version 3.1.1
; Apr 30, 2017 at 8:21:09 AM
; Settings Summary
;   processName,Process1
;   applyToModels,Vacum Mount
;   profileName,LulzBot TAZ 5 910 (modified)
;   profileVersion,2017-04-28 10:54:16
;   baseProfile,LulzBot TAZ 5
;   printMaterial,Bridge
;   printQuality,Medium
;   printExtruders,
;   extruderName,Primary Extruder
;   extruderToolheadNumber,0
;   extruderDiameter,0.5
;   extruderAutoWidth,1
;   extruderWidth,0.6
;   extrusionMultiplier,1
;   extruderUseRetract,1
;   extruderRetractionDistance,3
;   extruderExtraRestartDistance,0
;   extruderRetractionZLift,0
;   extruderRetractionSpeed,498
;   extruderUseCoasting,0
;   extruderCoastingDistance,0.2
;   extruderUseWipe,0
;   extruderWipeDistance,5
;   primaryExtruder,0
;   layerHeight,0.35
;   topSolidLayers,3
;   bottomSolidLayers,3
;   perimeterOutlines,3
;   printPerimetersInsideOut,1
;   startPointOption,2
;   startPointOriginX,0
;   startPointOriginY,0
;   startPointOriginZ,300
;   sequentialIslands,0
;   spiralVaseMode,0
;   firstLayerHeightPercentage,105
;   firstLayerWidthPercentage,105
;   firstLayerUnderspeed,0.5
;   useRaft,0
;   raftExtruder,0
;   raftLayers,3
;   raftOffset,3
;   raftSeparationDistance,0.14
;   raftInfill,85
;   disableRaftBaseLayers,0
;   useSkirt,1
;   skirtExtruder,0
;   skirtLayers,1
;   skirtOutlines,1
;   skirtOffset,5
;   usePrimePillar,0
;   primePillarExtruder,999
;   primePillarWidth,12
;   primePillarLocation,7
;   primePillarSpeedMultiplier,1
;   useOozeShield,0
;   oozeShieldExtruder,999
;   oozeShieldOffset,2
;   oozeShieldOutlines,1
;   oozeShieldSidewallShape,1
;   oozeShieldSidewallAngle,30
;   oozeShieldSpeedMultiplier,1
;   infillExtruder,0
;   internalInfillPattern,Fast Honeycomb
;   externalInfillPattern,Rectilinear
;   infillPercentage,40
;   outlineOverlapPercentage,45
;   infillExtrusionWidthPercentage,230
;   minInfillLength,5
;   infillLayerInterval,1
;   infillAngles,0
;   overlapInfillAngles,0
;   generateSupport,1
;   supportExtruder,0
;   supportInfillPercentage,15
;   supportExtraInflation,0
;   denseSupportLayers,0
;   denseSupportInfillPercentage,70
;   supportLayerInterval,1
;   supportHorizontalPartOffset,0.35
;   supportUpperSeparationLayers,1
;   supportLowerSeparationLayers,1
;   supportType,1
;   supportGridSpacing,4
;   maxOverhangAngle,15
;   supportAngles,0,45
;   temperatureName,Primary Extruder,Heated Bed
;   temperatureNumber,0,1
;   temperatureSetpointCount,1,1
;   temperatureSetpointLayers,1,1
;   temperatureSetpointTemperatures,265,45
;   temperatureStabilizeAtStartup,1,1
;   temperatureHeatedBed,0,1
;   temperatureRelayBetweenLayers,0,0
;   temperatureRelayBetweenLoops,0,0
;   fanLayers,1
;   fanSpeeds,0
;   blipFanToFullPower,0
;   adjustSpeedForCooling,1
;   minSpeedLayerTime,15
;   minCoolingSpeedSlowdown,20
;   increaseFanForCooling,0
;   minFanLayerTime,45
;   maxCoolingFanSpeed,100
;   increaseFanForBridging,0
;   bridgingFanSpeed,100
;   use5D,1
;   relativeEdistances,0
;   allowEaxisZeroing,1
;   independentExtruderAxes,0
;   includeM10123,0
;   stickySupport,1
;   applyToolheadOffsets,0
;   gcodeXoffset,0
;   gcodeYoffset,0
;   gcodeZoffset,0
;   overrideMachineDefinition,1
;   machineTypeOverride,0
;   strokeXoverride,298
;   strokeYoverride,275
;   strokeZoverride,250
;   originOffsetXoverride,0
;   originOffsetYoverride,0
;   originOffsetZoverride,0
;   homeXdirOverride,-1
;   homeYdirOverride,-1
;   homeZdirOverride,-1
;   flipXoverride,1
;   flipYoverride,-1
;   flipZoverride,1
;   toolheadOffsets,0,0|0,0|0,0|0,0|0,0|0,0
;   overrideFirmwareConfiguration,1
;   firmwareTypeOverride,RepRap (Marlin/Repetier/Sprinter)
;   GPXconfigOverride,r2
;   baudRateOverride,115200
;   overridePrinterModels,1
;   printerModelsOverride,LulzBot_TAZ3.stl
;   startingGcode,G28 ; home all axes,G1 X240 E20 F1500 ;,,
;   layerChangeGcode,
;   retractionGcode,
;   toolChangeGcode,
;   endingGcode,M104 S0 ; turn off extruder,M140 S0 ; turn off bed,G28 X0 ; home X axis,M84 ; disable motors,M106 S0;
;   exportFileFormat,gcode
;   celebration,0
;   celebrationSong,Random Song
;   postProcessing,
;   defaultSpeed,3300
;   outlineUnderspeed,0.75
;   solidInfillUnderspeed,0.75
;   supportUnderspeed,0.75
;   rapidXYspeed,4800
;   rapidZspeed,1002
;   minBridgingArea,50
;   bridgingExtraInflation,0
;   bridgingExtrusionMultiplier,1
;   bridgingSpeedMultiplier,1
;   filamentDiameter,2.85
;   filamentPricePerKg,53.33
;   filamentDensity,1.25
;   useMinPrintHeight,0
;   minPrintHeight,0
;   useMaxPrintHeight,0
;   maxPrintHeight,0
;   useDiaphragm,0
;   diaphragmLayerInterval,20
;   robustSlicing,1
;   mergeAllIntoSolid,0
;   onlyRetractWhenCrossingOutline,1
;   retractBetweenLayers,1
;   useRetractionMinTravel,0
;   retractionMinTravel,3
;   retractWhileWiping,0
;   onlyWipeOutlines,1
;   avoidCrossingOutline,0
;   maxMovementDetourFactor,3
;   toolChangeRetractionDistance,12
;   toolChangeExtraRestartDistance,-0.5
;   toolChangeRetractionSpeed,600
;   allowThinWallGapFill,1
;   thinWallAllowedOverlapPercentage,10
;   horizontalSizeCompensation,0
G90
M82
M106 S0
M140 S45
M190 S45
M104 S265 T0
M109 S265 T0
G28 ; home all axes
G1 X240 E20 F1500 ;
G92 E0
G1 E-3.0000 F498
G1 Z0.368 F1002
; layer 1, Z = 0.3675
T0
; tool H0.368 W0.630
; skirt
G1 X111.726 Y29.996 F4800
G1 E0.0000 F149
G92 E0
G1 X111.772 Y29.886 E0.0043 F1650
G1 X114.785 Y26.872 E0.1590
G1 X114.895 Y26.827 E0.1633
G1 X133.380 Y26.827 E0.8342
G1 X133.443 Y26.840 E0.8365
G1 X135.473 Y27.762 E0.9174
G1 X135.524 Y27.801 E0.9198
G1 X147.373 Y41.365 E1.5734
G1 X170.498 Y41.365 E2.4127
G1 X182.348 Y27.801 E3.0664
G1 X182.399 Y27.762 E3.0687
G1 X184.429 Y26.840 E3.1496
G1 X184.491 Y26.827 E3.1519
G1 X202.977 Y26.827 E3.8228
G1 X203.087 Y26.872 E3.8271
G1 X206.100 Y29.886 E3.9818
G1 X206.146 Y29.996 E3.9861
G1 X206.146 Y40.607 E4.3712
G1 X206.100 Y40.718 E4.3756
G1 X203.087 Y43.731 E4.5302
G1 X202.977 Y43.777 E4.5346
G1 X190.898 Y43.777 E4.9729
G1 X179.049 Y57.341 E5.6266
G1 X178.997 Y57.379 E5.6289
G1 X176.968 Y58.301 E5.7098
G1 X176.905 Y58.315 E5.7121
G1 X164.257 Y58.315 E6.1712
G1 X164.205 Y58.362 E6.1737
G1 X164.100 Y58.402 E6.1778
G1 X153.771 Y58.402 E6.5527
G1 X153.667 Y58.362 E6.5567
G1 X153.615 Y58.315 E6.5593
G1 X140.967 Y58.315 E7.0183
G1 X140.904 Y58.301 E7.0206
G1 X138.875 Y57.379 E7.1015
G1 X138.823 Y57.341 E7.1039
G1 X126.974 Y43.777 E7.7575
G1 X114.895 Y43.777 E8.1959
G1 X114.785 Y43.731 E8.2002
G1 X111.772 Y40.718 E8.3549
G1 X111.726 Y40.607 E8.3592
G1 X111.726 Y29.996 E8.7443
G92 E0
G1 E-3.0000 F498
; inner perimeter
G1 X118.601 Y33.702 F4800
G1 E0.0000 F498
G92 E0
G1 X131.550 Y33.702 E0.4700 F1513
G1 X144.250 Y48.240 E1.1706
G1 X173.621 Y48.240 E2.2365
G1 X186.321 Y33.702 E2.9371
G1 X199.271 Y33.702 E3.4071
G1 X199.271 Y36.902 E3.5232
G1 X187.775 Y36.902 E3.9404
G1 X175.075 Y51.440 E4.6410
G1 X160.687 Y51.440 E5.1632
G1 X160.679 Y51.527 E5.1664
G1 X157.193 Y51.527 E5.2929
G1 X157.185 Y51.440 E5.2961
G1 X142.797 Y51.440 E5.8183
G1 X130.097 Y36.902 E6.5189
G1 X118.601 Y36.902 E6.9361
G1 X118.601 Y33.702 E7.0522
; inner perimeter
G1 X117.971 Y33.072 F4800
G92 E0
G1 X131.837 Y33.072 E0.5032 F1375
G1 X144.537 Y47.610 E1.2038
G1 X173.335 Y47.610 E2.2490
G1 X186.035 Y33.072 E2.9496
G1 X199.901 Y33.072 E3.4528
G1 X199.901 Y37.532 E3.6147
G1 X188.061 Y37.532 E4.0444
G1 X175.361 Y52.070 E4.7450
G1 X161.260 Y52.070 E5.2567
G1 X161.251 Y52.157 E5.2599
G1 X156.620 Y52.157 E5.4280
G1 X156.612 Y52.070 E5.4312
G1 X142.511 Y52.070 E5.9430
G1 X129.811 Y37.532 E6.6436
G1 X117.971 Y37.532 E7.0733
G1 X117.971 Y33.072 E7.2351
; outer perimeter
G1 X117.341 Y32.442 F4800
G92 E0
G1 X132.123 Y32.442 E0.5365 F1237
G1 X144.823 Y46.980 E1.2371
G1 X173.049 Y46.980 E2.2615
G1 X185.749 Y32.442 E2.9621
G1 X200.531 Y32.442 E3.4985
G1 X200.531 Y38.162 E3.7061
G1 X188.347 Y38.162 E4.1483
G1 X175.647 Y52.700 E4.8489
G1 X161.833 Y52.700 E5.3503
G1 X161.824 Y52.787 E5.3535
G1 X156.047 Y52.787 E5.5631
G1 X156.039 Y52.700 E5.5663
G1 X142.224 Y52.700 E6.0677
G1 X129.524 Y38.162 E6.7683
G1 X117.341 Y38.162 E7.2104
G1 X117.341 Y32.442 E7.4180
; solid layer
G1 X119.040 Y36.555 F4800
G92 E0
G1 X118.947 Y36.463 E0.0048 F1237
G1 X118.947 Y35.572 E0.0371
G1 X119.931 Y36.555 E0.0876
G1 X120.822 Y36.555 E0.1199
G1 X118.947 Y34.681 E0.2161
G1 X118.947 Y34.048 E0.2391
G1 X119.206 Y34.048 E0.2485
G1 X121.713 Y36.555 E0.3771
G1 X122.604 Y36.555 E0.4095
G1 X120.097 Y34.048 E0.5382
G1 X120.988 Y34.048 E0.5705
G1 X123.495 Y36.555 E0.6992
G1 X124.386 Y36.555 E0.7315
G1 X121.879 Y34.048 E0.8602
G1 X122.770 Y34.048 E0.8925
G1 X125.277 Y36.555 E1.0212
G1 X126.168 Y36.555 E1.0535
G1 X123.661 Y34.048 E1.1822
G1 X124.552 Y34.048 E1.2145
G1 X127.059 Y36.555 E1.3432
G1 X127.950 Y36.555 E1.3755
G1 X125.443 Y34.048 E1.5042
G1 X126.334 Y34.048 E1.5365
G1 X128.841 Y36.555 E1.6652
G1 X129.732 Y36.555 E1.6975
G1 X127.225 Y34.048 E1.8262
G1 X128.116 Y34.048 E1.8586
G1 X145.161 Y51.093 E2.7334
G1 X146.052 Y51.093 E2.7657
G1 X129.006 Y34.048 E3.6406
G1 X135.571 Y38.831 F4800
G92 E0
G1 X130.788 Y34.048 E0.2455 F1237
G1 X129.897 Y34.048 E0.2778
G1 X141.727 Y45.878 E0.8850
G1 X144.093 Y48.586 E1.0155
G1 X144.435 Y48.586 E1.0279
G1 X146.942 Y51.093 E1.1566
G1 X147.833 Y51.093 E1.1889
G1 X145.326 Y48.586 E1.3176
G1 X146.217 Y48.586 E1.3499
G1 X148.724 Y51.093 E1.4786
G1 X149.615 Y51.093 E1.5109
G1 X147.108 Y48.586 E1.6396
G1 X147.999 Y48.586 E1.6719
G1 X150.506 Y51.093 E1.8006
G1 X151.397 Y51.093 E1.8329
G1 X148.890 Y48.586 E1.9616
G1 X149.781 Y48.586 E1.9940
G1 X152.288 Y51.093 E2.1226
G1 X153.179 Y51.093 E2.1550
G1 X150.672 Y48.586 E2.2836
G1 X151.563 Y48.586 E2.3160
G1 X154.070 Y51.093 E2.4446
G1 X154.961 Y51.093 E2.4770
G1 X152.454 Y48.586 E2.6057
G1 X153.345 Y48.586 E2.6380
G1 X155.852 Y51.093 E2.7667
G1 X156.743 Y51.093 E2.7990
G1 X154.236 Y48.586 E2.9277
G1 X155.127 Y48.586 E2.9600
G1 X157.721 Y51.181 E3.0932
G1 X158.612 Y51.181 E3.1255
G1 X156.018 Y48.586 E3.2587
G1 X156.909 Y48.586 E3.2910
G1 X159.503 Y51.181 E3.4242
G1 X160.363 Y51.181 E3.4554
G1 X160.366 Y51.153 E3.4564
G1 X157.800 Y48.586 E3.5881
G1 X158.691 Y48.586 E3.6205
G1 X161.198 Y51.093 E3.7491
G1 X162.089 Y51.093 E3.7815
G1 X159.582 Y48.586 E3.9101
G1 X160.473 Y48.586 E3.9425
G1 X162.980 Y51.093 E4.0711
G1 X163.871 Y51.093 E4.1035
G1 X161.364 Y48.586 E4.2322
G1 X162.255 Y48.586 E4.2645
G1 X164.762 Y51.093 E4.3932
G1 X165.653 Y51.093 E4.4255
G1 X163.146 Y48.586 E4.5542
G1 X164.036 Y48.586 E4.5865
G1 X166.543 Y51.093 E4.7152
G1 X167.434 Y51.093 E4.7475
G1 X164.927 Y48.586 E4.8762
G1 X165.818 Y48.586 E4.9085
G1 X168.325 Y51.093 E5.0372
G1 X169.216 Y51.093 E5.0695
G1 X166.709 Y48.586 E5.1982
G1 X167.600 Y48.586 E5.2305
G1 X170.107 Y51.093 E5.3592
G1 X170.998 Y51.093 E5.3915
G1 X168.491 Y48.586 E5.5202
G1 X169.382 Y48.586 E5.5525
G1 X171.889 Y51.093 E5.6812
G1 X172.780 Y51.093 E5.7136
G1 X170.273 Y48.586 E5.8422
G1 X171.164 Y48.586 E5.8746
G1 X173.671 Y51.093 E6.0032
G1 X174.562 Y51.093 E6.0356
G1 X172.055 Y48.586 E6.1642
G1 X172.946 Y48.586 E6.1966
G1 X175.167 Y50.807 E6.3106
G1 X175.583 Y50.332 E6.3335
G1 X173.806 Y48.555 E6.4247
G1 X174.221 Y48.080 E6.4476
G1 X175.998 Y49.856 E6.5388
G1 X176.413 Y49.381 E6.5617
G1 X174.637 Y47.604 E6.6529
G1 X175.052 Y47.129 E6.6758
G1 X176.829 Y48.905 E6.7670
G1 X177.244 Y48.430 E6.7899
G1 X175.468 Y46.653 E6.8811
G1 X175.883 Y46.178 E6.9040
G1 X177.660 Y47.954 E6.9952
G1 X178.075 Y47.479 E7.0182
G1 X176.298 Y45.702 E7.1093
G1 X176.714 Y45.226 E7.1323
G1 X178.491 Y47.003 E7.2235
G1 X178.906 Y46.528 E7.2464
G1 X177.129 Y44.751 E7.3376
G1 X177.545 Y44.275 E7.3605
G1 X179.321 Y46.052 E7.4517
G1 X179.737 Y45.577 E7.4746
G1 X177.960 Y43.800 E7.5658
G1 X178.375 Y43.324 E7.5887
G1 X180.152 Y45.101 E7.6799
G1 X180.568 Y44.626 E7.7028
G1 X178.791 Y42.849 E7.7940
G1 X179.206 Y42.373 E7.8169
G1 X180.983 Y44.150 E7.9081
G1 X181.398 Y43.674 E7.9310
G1 X179.622 Y41.898 E8.0222
G1 X180.037 Y41.422 E8.0451
G1 X181.814 Y43.199 E8.1363
G1 X182.229 Y42.723 E8.1592
G1 X180.453 Y40.947 E8.2504
G1 X180.868 Y40.471 E8.2733
G1 X182.645 Y42.248 E8.3645
G1 X183.060 Y41.772 E8.3875
G1 X181.283 Y39.996 E8.4787
G1 X181.699 Y39.520 E8.5016
G1 X183.476 Y41.297 E8.5928
G1 X183.891 Y40.821 E8.6157
G1 X182.114 Y39.044 E8.7069
G1 X182.530 Y38.569 E8.7298
G1 X184.306 Y40.346 E8.8210
G1 X184.722 Y39.870 E8.8439
G1 X182.945 Y38.093 E8.9351
G1 X183.360 Y37.618 E8.9580
G1 X185.137 Y39.395 E9.0492
G1 X185.553 Y38.919 E9.0721
G1 X183.776 Y37.142 E9.1633
G1 X184.191 Y36.667 E9.1862
G1 X185.968 Y38.444 E9.2774
G1 X186.383 Y37.968 E9.3003
G1 X184.607 Y36.191 E9.3915
G1 X185.022 Y35.716 E9.4144
G1 X186.799 Y37.492 E9.5056
G1 X187.214 Y37.017 E9.5285
G1 X185.438 Y35.240 E9.6197
G1 X185.853 Y34.765 E9.6427
G1 X187.644 Y36.555 E9.7346
G1 X188.535 Y36.555 E9.7669
G1 X186.268 Y34.289 E9.8832
G1 X186.479 Y34.048 E9.8948
G1 X186.919 Y34.048 E9.9108
G1 X189.426 Y36.555 E10.0395
G1 X190.317 Y36.555 E10.0718
G1 X187.809 Y34.048 E10.2005
G1 X188.700 Y34.048 E10.2328
G1 X191.207 Y36.555 E10.3615
G1 X192.098 Y36.555 E10.3938
G1 X189.591 Y34.048 E10.5225
G1 X190.482 Y34.048 E10.5548
G1 X192.989 Y36.555 E10.6835
G1 X193.880 Y36.555 E10.7158
G1 X191.373 Y34.048 E10.8445
G1 X192.264 Y34.048 E10.8768
G1 X194.771 Y36.555 E11.0055
G1 X195.662 Y36.555 E11.0378
G1 X193.155 Y34.048 E11.1665
G1 X194.046 Y34.048 E11.1988
G1 X196.553 Y36.555 E11.3275
G1 X197.444 Y36.555 E11.3599
G1 X194.937 Y34.048 E11.4885
G1 X195.828 Y34.048 E11.5209
G1 X198.335 Y36.555 E11.6495
G1 X198.924 Y36.555 E11.6709
G1 X198.924 Y36.254 E11.6819
G1 X196.719 Y34.048 E11.7951
G1 X197.610 Y34.048 E11.8274
G1 X198.924 Y35.363 E11.8949
G1 X198.924 Y34.472 E11.9272
G1 X198.501 Y34.048 E11.9489
G92 E0
G1 E-3.0000 F498
G1 X140.022 Y47.736 F4800
G1 E0.0000 F498
G92 E0
G1 X143.379 Y51.093 E0.1723 F1237
G1 X144.270 Y51.093 E0.2046
G1 X133.865 Y40.689 E0.7386
G92 E0
G1 E-3.0000 F498
; support
G1 X150.876 Y64.869 F4800
G1 E0.0000 F498
G92 E0
G1 X166.996 Y64.869 E0.5850 F1237
G1 X166.996 Y66.687 E0.6510
G1 X170.033 Y66.687 E0.7612
G1 X170.033 Y68.746 E0.8360
G1 X171.984 Y68.746 E0.9068
G1 X171.984 Y68.869 E0.9113
G1 X145.869 Y68.869 E1.8590
G1 X145.869 Y69.273 E1.8737
G1 X144.646 Y69.273 E1.9181
G1 X144.646 Y71.006 E1.9810
G1 X142.801 Y71.006 E2.0480
G1 X142.801 Y71.273 E2.0576
G1 X142.758 Y71.273 E2.0592
G1 X142.758 Y72.322 E2.0973
G1 X141.736 Y72.322 E2.1344
G1 X141.736 Y72.869 E2.1542
G1 X148.286 Y72.869 E2.3920
G1 X148.286 Y72.913 E2.3935
G1 X146.441 Y72.913 E2.4605
G1 X146.441 Y74.646 E2.5234
G1 X146.398 Y74.646 E2.5250
G1 X146.398 Y74.913 E2.5347
G1 X145.376 Y74.913 E2.5718
G1 X145.376 Y75.962 E2.6098
G1 X144.312 Y75.962 E2.6484
G1 X144.312 Y76.869 E2.6814
G1 X138.876 Y76.869 E2.8786
G1 X138.876 Y80.869 E3.0238
G1 X142.996 Y80.869 E3.1733
G1 X142.996 Y83.998 E3.2869
G1 X143.777 Y83.998 E3.3153
G1 X143.777 Y84.869 E3.3469
G1 X138.876 Y84.869 E3.5247
G1 X138.876 Y84.929 E3.5269
G1 X140.137 Y84.929 E3.5727
G1 X140.137 Y87.638 E3.6710
G1 X140.856 Y87.638 E3.6971
G1 X140.856 Y88.869 E3.7417
G1 X146.996 Y88.869 E3.9646
G1 X146.996 Y91.176 E4.0483
G1 X149.125 Y91.176 E4.1256
G1 X149.125 Y92.809 E4.1848
G1 X150.996 Y92.809 E4.2527
G1 X150.996 Y92.818 E4.2531
G1 X154.536 Y92.818 E4.3816
G1 X154.536 Y92.869 E4.3834
G1 X142.876 Y92.869 E4.8066
G1 X142.876 Y92.929 E4.8088
G1 X145.485 Y92.929 E4.9034
G1 X145.485 Y94.816 E4.9719
G1 X146.876 Y94.816 E5.0224
G1 X146.876 Y96.869 E5.0969
G1 X151.707 Y96.869 E5.2723
G1 X151.707 Y96.458 E5.2872
G1 X153.287 Y96.458 E5.3445
G1 X153.287 Y96.869 E5.3594
G1 X170.996 Y96.869 E6.0021
G1 X170.996 Y94.757 E6.0788
G1 X172.780 Y94.757 E6.1435
G1 X172.780 Y92.929 E6.2099
G1 X174.996 Y92.929 E6.2903
G1 X174.996 Y92.869 E6.2925
G1 X166.876 Y92.869 E6.5872
G1 X166.876 Y92.809 E6.5894
G1 X169.140 Y92.809 E6.6715
G1 X169.140 Y91.117 E6.7329
G1 X170.876 Y91.117 E6.7959
G1 X170.876 Y88.869 E6.8775
G1 X176.540 Y88.869 E7.0831
G1 X176.540 Y86.755 E7.1598
G1 X177.404 Y86.755 E7.1911
G1 X177.404 Y84.929 E7.2574
G1 X178.996 Y84.929 E7.3152
G1 X178.996 Y84.869 E7.3174
G1 X173.764 Y84.869 E7.5073
G1 X173.764 Y83.115 E7.5709
