; G-Code generated by Simplify3D(R) Version 3.1.1
; Apr 4, 2017 at 3:57:42 PM
; Settings Summary
;   processName,Process1
;   applyToModels,X axis Plate
;   profileName,LulzBot TAZ 5 910 (modified)
;   profileVersion,2017-03-14 09:03:50
;   baseProfile,LulzBot TAZ 5
;   printMaterial,Bridge
;   printQuality,Medium
;   printExtruders,
;   extruderName,Primary Extruder
;   extruderToolheadNumber,0
;   extruderDiameter,0.5
;   extruderAutoWidth,1
;   extruderWidth,0.6
;   extrusionMultiplier,1
;   extruderUseRetract,1
;   extruderRetractionDistance,3
;   extruderExtraRestartDistance,0
;   extruderRetractionZLift,0
;   extruderRetractionSpeed,498
;   extruderUseCoasting,0
;   extruderCoastingDistance,0.2
;   extruderUseWipe,0
;   extruderWipeDistance,5
;   primaryExtruder,0
;   layerHeight,0.35
;   topSolidLayers,3
;   bottomSolidLayers,3
;   perimeterOutlines,3
;   printPerimetersInsideOut,1
;   startPointOption,2
;   startPointOriginX,0
;   startPointOriginY,0
;   startPointOriginZ,300
;   sequentialIslands,0
;   spiralVaseMode,0
;   firstLayerHeightPercentage,105
;   firstLayerWidthPercentage,105
;   firstLayerUnderspeed,0.5
;   useRaft,0
;   raftExtruder,0
;   raftLayers,3
;   raftOffset,3
;   raftSeparationDistance,0.14
;   raftInfill,85
;   disableRaftBaseLayers,0
;   useSkirt,1
;   skirtExtruder,0
;   skirtLayers,1
;   skirtOutlines,1
;   skirtOffset,5
;   usePrimePillar,0
;   primePillarExtruder,999
;   primePillarWidth,12
;   primePillarLocation,7
;   primePillarSpeedMultiplier,1
;   useOozeShield,0
;   oozeShieldExtruder,999
;   oozeShieldOffset,2
;   oozeShieldOutlines,1
;   oozeShieldSidewallShape,1
;   oozeShieldSidewallAngle,30
;   oozeShieldSpeedMultiplier,1
;   infillExtruder,0
;   internalInfillPattern,Fast Honeycomb
;   externalInfillPattern,Rectilinear
;   infillPercentage,35
;   outlineOverlapPercentage,45
;   infillExtrusionWidthPercentage,230
;   minInfillLength,5
;   infillLayerInterval,1
;   infillAngles,0
;   overlapInfillAngles,0
;   generateSupport,0
;   supportExtruder,0
;   supportInfillPercentage,15
;   supportExtraInflation,0
;   denseSupportLayers,0
;   denseSupportInfillPercentage,70
;   supportLayerInterval,1
;   supportHorizontalPartOffset,0.3
;   supportUpperSeparationLayers,1
;   supportLowerSeparationLayers,1
;   supportType,1
;   supportGridSpacing,4
;   maxOverhangAngle,15
;   supportAngles,0,45
;   temperatureName,Primary Extruder,Heated Bed
;   temperatureNumber,0,1
;   temperatureSetpointCount,1,1
;   temperatureSetpointLayers,1,1
;   temperatureSetpointTemperatures,265,45
;   temperatureStabilizeAtStartup,1,1
;   temperatureHeatedBed,0,1
;   temperatureRelayBetweenLayers,0,0
;   temperatureRelayBetweenLoops,0,0
;   fanLayers,1
;   fanSpeeds,0
;   blipFanToFullPower,0
;   adjustSpeedForCooling,1
;   minSpeedLayerTime,15
;   minCoolingSpeedSlowdown,20
;   increaseFanForCooling,0
;   minFanLayerTime,45
;   maxCoolingFanSpeed,100
;   increaseFanForBridging,0
;   bridgingFanSpeed,100
;   use5D,1
;   relativeEdistances,0
;   allowEaxisZeroing,1
;   independentExtruderAxes,0
;   includeM10123,0
;   stickySupport,1
;   applyToolheadOffsets,0
;   gcodeXoffset,0
;   gcodeYoffset,0
;   gcodeZoffset,0
;   overrideMachineDefinition,1
;   machineTypeOverride,0
;   strokeXoverride,298
;   strokeYoverride,275
;   strokeZoverride,250
;   originOffsetXoverride,0
;   originOffsetYoverride,0
;   originOffsetZoverride,0
;   homeXdirOverride,-1
;   homeYdirOverride,-1
;   homeZdirOverride,-1
;   flipXoverride,1
;   flipYoverride,-1
;   flipZoverride,1
;   toolheadOffsets,0,0|0,0|0,0|0,0|0,0|0,0
;   overrideFirmwareConfiguration,1
;   firmwareTypeOverride,RepRap (Marlin/Repetier/Sprinter)
;   GPXconfigOverride,r2
;   baudRateOverride,115200
;   overridePrinterModels,1
;   printerModelsOverride,LulzBot_TAZ3.stl
;   startingGcode,G28 ; home all axes,G1 X240 E20 F1500 ;,,
;   layerChangeGcode,
;   retractionGcode,
;   toolChangeGcode,
;   endingGcode,M104 S0 ; turn off extruder,M140 S0 ; turn off bed,G28 X0 ; home X axis,M84 ; disable motors,M106 S0;
;   exportFileFormat,gcode
;   celebration,0
;   celebrationSong,Random Song
;   postProcessing,
;   defaultSpeed,3300
;   outlineUnderspeed,0.75
;   solidInfillUnderspeed,0.75
;   supportUnderspeed,0.75
;   rapidXYspeed,4800
;   rapidZspeed,1002
;   minBridgingArea,50
;   bridgingExtraInflation,0
;   bridgingExtrusionMultiplier,1
;   bridgingSpeedMultiplier,1
;   filamentDiameter,2.85
;   filamentPricePerKg,53.33
;   filamentDensity,1.25
;   useMinPrintHeight,0
;   minPrintHeight,0
;   useMaxPrintHeight,0
;   maxPrintHeight,0
;   useDiaphragm,0
;   diaphragmLayerInterval,20
;   robustSlicing,1
;   mergeAllIntoSolid,0
;   onlyRetractWhenCrossingOutline,1
;   retractBetweenLayers,1
;   useRetractionMinTravel,0
;   retractionMinTravel,3
;   retractWhileWiping,0
;   onlyWipeOutlines,1
;   avoidCrossingOutline,0
;   maxMovementDetourFactor,3
;   toolChangeRetractionDistance,12
;   toolChangeExtraRestartDistance,-0.5
;   toolChangeRetractionSpeed,600
;   allowThinWallGapFill,1
;   thinWallAllowedOverlapPercentage,10
;   horizontalSizeCompensation,0
G90
M82
M106 S0
M140 S45
M190 S45
M104 S265 T0
M109 S265 T0
G28 ; home all axes
G1 X240 E20 F1500 ;
G92 E0
G1 E-3.0000 F498
G1 Z0.368 F1002
; layer 1, Z = 0.3675
T0
; tool H0.368 W0.630
; skirt
G1 X83.089 Y80.528 F4800
G1 E0.0000 F149
G92 E0
G1 X83.097 Y80.519 E0.0004 F1650
G1 X83.383 Y80.233 E0.0151
G1 X83.392 Y80.225 E0.0155
G1 X84.306 Y79.445 E0.0592
G1 X84.315 Y79.437 E0.0596
G1 X84.643 Y79.199 E0.0743
G1 X84.652 Y79.193 E0.0747
G1 X85.677 Y78.565 E0.1183
G1 X85.687 Y78.559 E0.1187
G1 X86.048 Y78.376 E0.1334
G1 X86.059 Y78.371 E0.1339
G1 X87.169 Y77.911 E0.1775
G1 X87.180 Y77.907 E0.1779
G1 X87.565 Y77.781 E0.1926
G1 X87.576 Y77.778 E0.1930
G1 X88.745 Y77.498 E0.2366
G1 X88.756 Y77.495 E0.2371
G1 X89.156 Y77.432 E0.2518
G1 X89.168 Y77.431 E0.2522
G1 X90.265 Y77.344 E0.2921
G1 X90.271 Y77.344 E0.2923
G1 X90.473 Y77.336 E0.2997
G1 X90.479 Y77.336 E0.2999
G1 X207.521 Y77.336 E4.5477
G1 X207.527 Y77.336 E4.5479
G1 X207.729 Y77.344 E4.5552
G1 X207.735 Y77.344 E4.5554
G1 X208.832 Y77.431 E4.5954
G1 X208.844 Y77.432 E4.5958
G1 X209.244 Y77.495 E4.6105
G1 X209.255 Y77.498 E4.6109
G1 X210.424 Y77.778 E4.6545
G1 X210.435 Y77.781 E4.6550
G1 X210.820 Y77.907 E4.6697
G1 X210.831 Y77.911 E4.6701
G1 X211.941 Y78.371 E4.7137
G1 X211.952 Y78.376 E4.7141
G1 X212.313 Y78.559 E4.7288
G1 X212.323 Y78.565 E4.7292
G1 X213.348 Y79.193 E4.7729
G1 X213.357 Y79.199 E4.7733
G1 X213.685 Y79.437 E4.7880
G1 X213.694 Y79.445 E4.7884
G1 X214.608 Y80.225 E4.8320
G1 X214.617 Y80.233 E4.8324
G1 X214.903 Y80.519 E4.8471
G1 X214.911 Y80.528 E4.8476
G1 X215.691 Y81.442 E4.8912
G1 X215.699 Y81.451 E4.8916
G1 X215.937 Y81.779 E4.9063
G1 X215.943 Y81.788 E4.9067
G1 X216.571 Y82.813 E4.9503
G1 X216.577 Y82.823 E4.9508
G1 X216.760 Y83.184 E4.9654
G1 X216.765 Y83.195 E4.9659
G1 X217.225 Y84.305 E5.0095
G1 X217.229 Y84.316 E5.0099
G1 X217.355 Y84.701 E5.0246
G1 X217.358 Y84.712 E5.0250
G1 X217.638 Y85.881 E5.0687
G1 X217.641 Y85.892 E5.0691
G1 X217.704 Y86.292 E5.0838
G1 X217.705 Y86.304 E5.0842
G1 X217.792 Y87.401 E5.1241
G1 X217.792 Y87.407 E5.1244
G1 X217.800 Y87.609 E5.1317
G1 X217.800 Y87.615 E5.1319
G1 X217.800 Y187.385 E8.7528
G1 X217.800 Y187.391 E8.7531
G1 X217.792 Y187.593 E8.7604
G1 X217.792 Y187.599 E8.7606
G1 X217.705 Y188.696 E8.8006
G1 X217.704 Y188.708 E8.8010
G1 X217.641 Y189.108 E8.8157
G1 X217.638 Y189.119 E8.8161
G1 X217.358 Y190.288 E8.8597
G1 X217.355 Y190.299 E8.8601
G1 X217.229 Y190.684 E8.8748
G1 X217.225 Y190.695 E8.8753
G1 X216.765 Y191.805 E8.9189
G1 X216.760 Y191.816 E8.9193
G1 X216.577 Y192.177 E8.9340
G1 X216.571 Y192.187 E8.9344
G1 X215.943 Y193.212 E8.9780
G1 X215.937 Y193.221 E8.9785
G1 X215.699 Y193.549 E8.9931
G1 X215.691 Y193.558 E8.9936
G1 X214.911 Y194.472 E9.0372
G1 X214.903 Y194.481 E9.0376
G1 X214.617 Y194.767 E9.0523
G1 X214.608 Y194.775 E9.0527
G1 X213.694 Y195.555 E9.0963
G1 X213.685 Y195.563 E9.0968
G1 X213.358 Y195.801 E9.1115
G1 X213.348 Y195.807 E9.1119
G1 X212.323 Y196.435 E9.1555
G1 X212.313 Y196.441 E9.1559
G1 X211.952 Y196.625 E9.1706
G1 X211.941 Y196.629 E9.1710
G1 X210.831 Y197.089 E9.2147
G1 X210.820 Y197.093 E9.2151
G1 X210.435 Y197.219 E9.2298
G1 X210.424 Y197.222 E9.2302
G1 X209.255 Y197.502 E9.2738
G1 X209.244 Y197.505 E9.2743
G1 X208.844 Y197.568 E9.2889
G1 X208.832 Y197.569 E9.2894
G1 X207.735 Y197.656 E9.3293
G1 X207.729 Y197.656 E9.3295
G1 X207.527 Y197.664 E9.3369
G1 X207.521 Y197.664 E9.3371
G1 X197.656 Y197.664 E9.6951
G1 X197.649 Y197.664 E9.6954
G1 X197.425 Y197.654 E9.7035
G1 X197.418 Y197.654 E9.7038
G1 X196.200 Y197.547 E9.7481
G1 X196.187 Y197.545 E9.7486
G1 X195.744 Y197.467 E9.7649
G1 X195.731 Y197.464 E9.7654
G1 X194.442 Y197.119 E9.8139
G1 X194.429 Y197.115 E9.8143
G1 X194.007 Y196.961 E9.8307
G1 X193.994 Y196.956 E9.8311
G1 X192.784 Y196.392 E9.8796
G1 X192.773 Y196.386 E9.8801
G1 X192.383 Y196.161 E9.8964
G1 X192.372 Y196.154 E9.8969
G1 X191.278 Y195.388 E9.9453
G1 X191.268 Y195.380 E9.9458
G1 X190.924 Y195.091 E9.9621
G1 X190.914 Y195.082 E9.9626
G1 X189.970 Y194.138 E10.0111
G1 X189.961 Y194.128 E10.0115
G1 X189.672 Y193.784 E10.0278
G1 X189.664 Y193.774 E10.0283
G1 X188.898 Y192.680 E10.0768
G1 X188.891 Y192.669 E10.0773
G1 X188.666 Y192.279 E10.0936
G1 X188.660 Y192.268 E10.0940
G1 X188.096 Y191.058 E10.1425
G1 X188.091 Y191.045 E10.1430
G1 X187.937 Y190.623 E10.1593
G1 X187.933 Y190.610 E10.1598
G1 X187.588 Y189.321 E10.2082
G1 X187.585 Y189.308 E10.2087
G1 X187.507 Y188.865 E10.2250
G1 X187.505 Y188.852 E10.2255
G1 X187.398 Y187.634 E10.2699
G1 X187.398 Y187.627 E10.2701
G1 X187.388 Y187.403 E10.2783
G1 X187.388 Y187.396 E10.2785
G1 X187.388 Y168.900 E10.9498
G1 X187.168 Y165.840 E11.0612
G1 X186.554 Y163.028 E11.1656
G1 X185.544 Y160.333 E11.2700
G1 X184.160 Y157.810 E11.3745
G1 X182.429 Y155.511 E11.4789
G1 X180.388 Y153.483 E11.5834
G1 X177.924 Y151.654 E11.6947
G1 X145.188 Y130.807 E13.1032
G1 X142.521 Y129.363 E13.2133
G1 X139.852 Y128.375 E13.3166
G1 X137.071 Y127.775 E13.4199
G1 X134.045 Y127.560 E13.5300
G1 X90.479 Y127.560 E15.1111
G1 X90.473 Y127.560 E15.1113
G1 X90.271 Y127.552 E15.1186
G1 X90.265 Y127.552 E15.1189
G1 X89.168 Y127.465 E15.1588
G1 X89.156 Y127.464 E15.1592
G1 X88.756 Y127.401 E15.1739
G1 X88.745 Y127.398 E15.1743
G1 X87.576 Y127.118 E15.2180
G1 X87.565 Y127.115 E15.2184
G1 X87.180 Y126.989 E15.2331
G1 X87.169 Y126.985 E15.2335
G1 X86.059 Y126.525 E15.2771
G1 X86.048 Y126.521 E15.2776
G1 X85.687 Y126.337 E15.2922
G1 X85.677 Y126.331 E15.2927
G1 X84.652 Y125.703 E15.3363
G1 X84.643 Y125.697 E15.3367
G1 X84.315 Y125.459 E15.3514
G1 X84.306 Y125.451 E15.3518
G1 X83.392 Y124.671 E15.3954
G1 X83.383 Y124.663 E15.3959
G1 X83.097 Y124.377 E15.4106
G1 X83.089 Y124.368 E15.4110
G1 X82.309 Y123.454 E15.4546
G1 X82.301 Y123.445 E15.4550
G1 X82.063 Y123.118 E15.4697
G1 X82.057 Y123.108 E15.4701
G1 X81.429 Y122.083 E15.5138
G1 X81.423 Y122.073 E15.5142
G1 X81.239 Y121.712 E15.5289
G1 X81.235 Y121.701 E15.5293
G1 X80.775 Y120.591 E15.5729
G1 X80.771 Y120.580 E15.5734
G1 X80.645 Y120.195 E15.5880
G1 X80.642 Y120.184 E15.5885
G1 X80.362 Y119.015 E15.6321
G1 X80.359 Y119.004 E15.6325
G1 X80.296 Y118.604 E15.6472
G1 X80.295 Y118.592 E15.6476
G1 X80.208 Y117.495 E15.6876
G1 X80.208 Y117.489 E15.6878
G1 X80.200 Y117.287 E15.6951
G1 X80.200 Y117.281 E15.6953
G1 X80.200 Y87.615 E16.7720
G1 X80.200 Y87.609 E16.7722
G1 X80.208 Y87.407 E16.7796
G1 X80.208 Y87.401 E16.7798
G1 X80.295 Y86.304 E16.8197
G1 X80.296 Y86.292 E16.8201
G1 X80.359 Y85.892 E16.8348
G1 X80.362 Y85.881 E16.8353
G1 X80.642 Y84.712 E16.8789
G1 X80.645 Y84.701 E16.8793
G1 X80.771 Y84.316 E16.8940
G1 X80.775 Y84.305 E16.8944
G1 X81.235 Y83.195 E16.9380
G1 X81.239 Y83.184 E16.9385
G1 X81.423 Y82.823 E16.9532
G1 X81.429 Y82.813 E16.9536
G1 X82.057 Y81.788 E16.9972
G1 X82.063 Y81.778 E16.9976
G1 X82.301 Y81.451 E17.0123
G1 X82.309 Y81.442 E17.0127
G1 X83.089 Y80.528 E17.0564
G92 E0
G1 E-3.0000 F498
; inner perimeter
G1 X88.105 Y85.241 F4800
G1 E0.0000 F498
G92 E0
G1 X88.523 Y84.884 E0.0199 F1513
G1 X88.991 Y84.597 E0.0399
G1 X89.498 Y84.387 E0.0598
G1 X90.032 Y84.259 E0.0797
G1 X90.642 Y84.211 E0.1019
G1 X207.358 Y84.211 E4.3379
G1 X207.968 Y84.259 E4.3600
G1 X208.502 Y84.387 E4.3800
G1 X209.009 Y84.597 E4.3999
G1 X209.477 Y84.884 E4.4198
G1 X209.895 Y85.241 E4.4398
G1 X210.252 Y85.659 E4.4597
G1 X210.539 Y86.127 E4.4796
G1 X210.749 Y86.634 E4.4996
G1 X210.877 Y87.169 E4.5195
G1 X210.925 Y87.778 E4.5417
G1 X210.925 Y187.222 E8.1508
G1 X210.877 Y187.832 E8.1730
G1 X210.749 Y188.366 E8.1929
G1 X210.539 Y188.873 E8.2128
G1 X210.252 Y189.341 E8.2328
G1 X209.895 Y189.759 E8.2527
G1 X209.477 Y190.116 E8.2726
G1 X209.009 Y190.403 E8.2926
G1 X208.502 Y190.613 E8.3125
G1 X207.968 Y190.741 E8.3324
G1 X207.358 Y190.789 E8.3546
G1 X197.837 Y190.789 E8.7002
G1 X197.160 Y190.730 E8.7248
G1 X196.571 Y190.572 E8.7470
G1 X196.018 Y190.314 E8.7691
G1 X195.519 Y189.964 E8.7912
G1 X195.088 Y189.533 E8.8134
G1 X194.738 Y189.033 E8.8355
G1 X194.480 Y188.481 E8.8576
G1 X194.322 Y187.892 E8.8798
G1 X194.263 Y187.215 E8.9044
G1 X194.263 Y168.653 E9.5781
G1 X193.990 Y164.855 E9.7163
G1 X193.165 Y161.078 E9.8566
G1 X191.809 Y157.459 E9.9968
G1 X189.950 Y154.070 E10.1371
G1 X187.625 Y150.982 E10.2774
G1 X184.883 Y148.258 E10.4177
G1 X181.825 Y145.987 E10.5559
G1 X148.675 Y124.877 E11.9822
G1 X145.364 Y123.084 E12.1189
G1 X141.780 Y121.758 E12.2576
G1 X138.045 Y120.952 E12.3963
G1 X134.289 Y120.685 E12.5329
G1 X90.642 Y120.685 E14.1170
G1 X90.032 Y120.637 E14.1392
G1 X89.498 Y120.509 E14.1591
G1 X88.991 Y120.299 E14.1791
G1 X88.523 Y120.012 E14.1990
G1 X88.105 Y119.655 E14.2189
G1 X87.748 Y119.237 E14.2389
G1 X87.461 Y118.769 E14.2588
G1 X87.251 Y118.262 E14.2787
G1 X87.123 Y117.728 E14.2987
G1 X87.075 Y117.118 E14.3208
G1 X87.075 Y87.778 E15.3857
G1 X87.123 Y87.168 E15.4079
G1 X87.251 Y86.634 E15.4278
G1 X87.461 Y86.127 E15.4477
G1 X87.748 Y85.659 E15.4677
G1 X88.105 Y85.241 E15.4876
; inner perimeter
G1 X87.658 Y84.794 F4800
G92 E0
G1 X88.151 Y84.373 E0.0235 F1375
G1 X88.704 Y84.034 E0.0471
G1 X89.303 Y83.786 E0.0706
G1 X89.934 Y83.635 E0.0941
G1 X90.617 Y83.581 E0.1190
G1 X207.383 Y83.581 E4.3567
G1 X208.066 Y83.635 E4.3816
G1 X208.697 Y83.786 E4.4052
G1 X209.296 Y84.034 E4.4287
G1 X209.849 Y84.373 E4.4522
G1 X210.342 Y84.794 E4.4758
G1 X210.763 Y85.287 E4.4993
G1 X211.102 Y85.840 E4.5228
G1 X211.350 Y86.439 E4.5464
G1 X211.501 Y87.070 E4.5699
G1 X211.555 Y87.753 E4.5948
G1 X211.555 Y187.247 E8.2057
G1 X211.501 Y187.930 E8.2305
G1 X211.350 Y188.561 E8.2541
G1 X211.102 Y189.160 E8.2776
G1 X210.763 Y189.713 E8.3011
G1 X210.342 Y190.206 E8.3247
G1 X209.849 Y190.627 E8.3482
G1 X209.296 Y190.966 E8.3717
G1 X208.697 Y191.214 E8.3953
G1 X208.066 Y191.365 E8.4188
G1 X207.383 Y191.419 E8.4437
G1 X197.809 Y191.419 E8.7911
G1 X197.051 Y191.353 E8.8188
G1 X196.355 Y191.166 E8.8449
G1 X195.702 Y190.862 E8.8710
G1 X195.112 Y190.449 E8.8972
G1 X194.603 Y189.940 E8.9233
G1 X194.190 Y189.350 E8.9495
G1 X193.886 Y188.697 E8.9756
G1 X193.699 Y188.001 E9.0017
G1 X193.633 Y187.243 E9.0294
G1 X193.633 Y168.676 E9.7032
G1 X193.365 Y164.945 E9.8390
G1 X192.559 Y161.257 E9.9760
G1 X191.235 Y157.722 E10.1130
G1 X189.419 Y154.413 E10.2500
G1 X187.149 Y151.397 E10.3869
G1 X184.471 Y148.737 E10.5239
G1 X181.468 Y146.506 E10.6597
G1 X148.356 Y125.420 E12.0844
G1 X145.104 Y123.660 E12.2186
G1 X141.603 Y122.365 E12.3541
G1 X137.956 Y121.577 E12.4895
G1 X134.267 Y121.315 E12.6237
G1 X90.617 Y121.315 E14.2079
G1 X89.934 Y121.261 E14.2328
G1 X89.303 Y121.110 E14.2563
G1 X88.704 Y120.862 E14.2798
G1 X88.151 Y120.523 E14.3034
G1 X87.658 Y120.102 E14.3269
G1 X87.237 Y119.609 E14.3504
G1 X86.898 Y119.056 E14.3740
G1 X86.650 Y118.457 E14.3975
G1 X86.499 Y117.826 E14.4210
G1 X86.445 Y117.143 E14.4459
G1 X86.445 Y87.753 E15.5125
G1 X86.499 Y87.070 E15.5374
G1 X86.650 Y86.439 E15.5610
G1 X86.898 Y85.840 E15.5845
G1 X87.237 Y85.287 E15.6080
G1 X87.658 Y84.794 E15.6316
; outer perimeter
G1 X87.211 Y84.347 F4800
G92 E0
G1 X87.780 Y83.862 E0.0271 F1237
