%
(1 in square)
(Holly Sheet!)
(T1  D=0.0787 CR=0 - ZMIN=-0.06 - bullnose end mill)
G90 G94
G17
G20
G28 G91 Z0
G90

(2D Contour1)
M9
T1 M6
S5000 M3
G54
M8
G0 X-0.563 Y-0.0079
Z0.6
Z0.2
G1 Z0.0494 F13.33
Z-0.0021
G18 G2 X-0.5551 Z-0.01 I0.0079
G1 X-0.5472
G17 G3 X-0.5394 Y0 J0.0079
G1 Y0.5
G2 X-0.5 Y0.5394 I0.0394
G1 X0.5
G2 X0.5394 Y0.5 J-0.0394
G1 Y-0.5
G2 X0.5 Y-0.5394 I-0.0394
G1 X-0.5
G2 X-0.5394 Y-0.5 J0.0394
G1 Y0
G3 X-0.5472 Y0.0079 I-0.0079
G1 X-0.5551
G18 G3 X-0.563 Z-0.0021 K0.0079
G1 Y-0.0079
Z-0.0121
G2 X-0.5551 Z-0.02 I0.0079
G1 X-0.5472
G17 G3 X-0.5394 Y0 J0.0079
G1 Y0.5
G2 X-0.5 Y0.5394 I0.0394
G1 X0.5
G2 X0.5394 Y0.5 J-0.0394
G1 Y-0.5
G2 X0.5 Y-0.5394 I-0.0394
G1 X-0.5
G2 X-0.5394 Y-0.5 J0.0394
G1 Y0
G3 X-0.5472 Y0.0079 I-0.0079
G1 X-0.5551
G18 G3 X-0.563 Z-0.0121 K0.0079
G1 Y-0.0079
Z-0.0221
G2 X-0.5551 Z-0.03 I0.0079
G1 X-0.5472
G17 G3 X-0.5394 Y0 J0.0079
G1 Y0.5
G2 X-0.5 Y0.5394 I0.0394
G1 X0.5
G2 X0.5394 Y0.5 J-0.0394
G1 Y-0.5
G2 X0.5 Y-0.5394 I-0.0394
G1 X-0.5
G2 X-0.5394 Y-0.5 J0.0394
G1 Y0
G3 X-0.5472 Y0.0079 I-0.0079
G1 X-0.5551
G18 G3 X-0.563 Z-0.0221 K0.0079
G1 Y-0.0079
Z-0.0321
G2 X-0.5551 Z-0.04 I0.0079
G1 X-0.5472
G17 G3 X-0.5394 Y0 J0.0079
G1 Y0.5
G2 X-0.5 Y0.5394 I0.0394
G1 X0.5
G2 X0.5394 Y0.5 J-0.0394
G1 Y-0.5
G2 X0.5 Y-0.5394 I-0.0394
G1 X-0.5
G2 X-0.5394 Y-0.5 J0.0394
G1 Y0
G3 X-0.5472 Y0.0079 I-0.0079
G1 X-0.5551
G18 G3 X-0.563 Z-0.0321 K0.0079
G1 Y-0.0079
Z-0.0421
G2 X-0.5551 Z-0.05 I0.0079
G1 X-0.5472
G17 G3 X-0.5394 Y0 J0.0079
G1 Y0.5
G2 X-0.5 Y0.5394 I0.0394
G1 X0.5
G2 X0.5394 Y0.5 J-0.0394
G1 Y-0.5
G2 X0.5 Y-0.5394 I-0.0394
G1 X-0.5
G2 X-0.5394 Y-0.5 J0.0394
G1 Y0
G3 X-0.5472 Y0.0079 I-0.0079
G1 X-0.5551
G18 G3 X-0.563 Z-0.0421 K0.0079
G1 Y-0.0079
Z-0.0521
G2 X-0.5551 Z-0.06 I0.0079
G1 X-0.5472
G17 G3 X-0.5394 Y0 J0.0079
G1 Y0.5
G2 X-0.5 Y0.5394 I0.0394
G1 X0.5
G2 X0.5394 Y0.5 J-0.0394
G1 Y-0.5
G2 X0.5 Y-0.5394 I-0.0394
G1 X-0.5
G2 X-0.5394 Y-0.5 J0.0394
G1 Y0
G3 X-0.5472 Y0.0079 I-0.0079
G1 X-0.5551
G18 G3 X-0.563 Z-0.0521 K0.0079
G0 Z0.6
G17
M9
G28 G91 Z0
G28 X0 Y0
M30
%
