%
(10 token grid box)
(T4  D=0.01 CR=0 - ZMIN=0 - flat end mill)
G90 G94
G17
G20
G28 G91 Z0
G90

(2D Contour5)
M9
T4 M6
S5000 M3
G54
M8
G0 X2.208 Y0.001
Z0.6
Z0.2
G1 Z0.0394 F13.33
Z0.001
G18 G3 X2.207 Z0 I-0.001
G1 X2.206 F40
G17 G3 X2.205 Y0 J-0.001
G1 Y-5.5
G2 X2.2 Y-5.505 I-0.005
G1 X0
G2 X-0.005 Y-5.5 J0.005
G1 Y0
G2 X0 Y0.005 I0.005
G1 X2.2
G2 X2.205 Y0 J-0.005
G3 X2.206 Y-0.001 I0.001
G1 X2.207
G18 G2 X2.208 Z0.001 K0.001
G0 Z0.6
G17
M9
G28 G91 Z0
G28 X0 Y0
M30
%
