%
(10 token grid)
(T4  D=0.01 CR=0 - ZMIN=0 - flat end mill)
G90 G94
G17
G20
G28 G91 Z0
G90

(2D Contour1)
M9
T4 M6
S5000 M3
G54
M8
G0 X-0.001 Y-2.742
Z0.6
Z0.2
G1 Z0.0394 F13.33
Z0.001
G19 G2 Y-2.743 Z0 J-0.001
G1 Y-2.744 F40
G17 G3 X0 Y-2.745 I0.001
G1 X2.2
G3 X2.201 Y-2.744 J0.001
G1 Y-2.743
G19 G3 Y-2.742 Z0.001 K0.001
G0 Z0.2
X-0.001 Y-1.642
G1 Z0.0394 F13.33
Z0.001
G2 Y-1.643 Z0 J-0.001
G1 Y-1.644 F40
G17 G3 X0 Y-1.645 I0.001
G1 X2.2
G3 X2.201 Y-1.644 J0.001
G1 Y-1.643
G19 G3 Y-1.642 Z0.001 K0.001
G0 Z0.2
X-0.001 Y-0.542
G1 Z0.0394 F13.33
Z0.001
G2 Y-0.543 Z0 J-0.001
G1 Y-0.544 F40
G17 G3 X0 Y-0.545 I0.001
G1 X2.2
G3 X2.201 Y-0.544 J0.001
G1 Y-0.543
G19 G3 Y-0.542 Z0.001 K0.001
G0 Z0.2
X-0.001 Y-3.842
G1 Z0.0394 F13.33
Z0.001
G2 Y-3.843 Z0 J-0.001
G1 Y-3.844 F40
G17 G3 X0 Y-3.845 I0.001
G1 X2.2
G3 X2.201 Y-3.844 J0.001
G1 Y-3.843
G19 G3 Y-3.842 Z0.001 K0.001
G0 Z0.2
X-0.001 Y-4.942
G1 Z0.0394 F13.33
Z0.001
G2 Y-4.943 Z0 J-0.001
G1 Y-4.944 F40
G17 G3 X0 Y-4.945 I0.001
G1 X2.2
G3 X2.201 Y-4.944 J0.001
G1 Y-4.943
G19 G3 Y-4.942 Z0.001 K0.001
G0 Z0.6
G17

(2D Contour2)
M8
G0 X0.558 Y0.001
Z0.6
Z0.2
G1 Z0.0394 F13.33
Z0.001
G18 G3 X0.557 Z0 I-0.001
G1 X0.556 F40
G17 G3 X0.555 Y0 J-0.001
G1 Y-5.5
G3 X0.556 Y-5.501 I0.001
G1 X0.557
G18 G2 X0.558 Z0.001 K0.001
G0 Z0.2
X1.658 Y0.001
G1 Z0.0394 F13.33
Z0.001
G3 X1.657 Z0 I-0.001
G1 X1.656 F40
G17 G3 X1.655 Y0 J-0.001
G1 Y-5.5
G3 X1.656 Y-5.501 I0.001
G1 X1.657
G18 G2 X1.658 Z0.001 K0.001
G0 Z0.6
G17

(2D Contour3)
M8
G0 X1.2901 Y-2.3915
Z0.6
Z0.2
G1 Z0.0394 F13.33
Z0.001
X1.2903 Y-2.3917 Z0.0003
X1.2908 Y-2.3922 Z0
X1.2915 Y-2.3929 F40
G3 X1.2929 I0.0007 J0.0007
G2 X2.0071 Y-3.1071 I0.3571 J-0.3571
X1.2929 Y-2.3929 I-0.3571 J0.3571
G3 Y-2.3915 I-0.0007 J0.0007
G1 X1.2922 Y-2.3908
X1.2917 Y-2.3903 Z0.0003
X1.2915 Y-2.3901 Z0.001
Y-2.0099
X1.2917 Y-2.0097 Z0.0003 F13.33
X1.2922 Y-2.0092 Z0
X1.2929 Y-2.0085 F40
G3 Y-2.0071 I-0.0007 J0.0007
G2 X2.0071 Y-1.2929 I0.3571 J0.3571
X1.2929 Y-2.0071 I-0.3571 J-0.3571
G3 X1.2915 I-0.0007 J-0.0007
G1 X1.2908 Y-2.0078
X1.2903 Y-2.0083 Z0.0003
X1.2901 Y-2.0085 Z0.001
G0 Z0.2
X0.9085 Y-1.2901
G1 Z0.0394 F13.33
Z0.001
X0.9083 Y-1.2903 Z0.0003
X0.9078 Y-1.2908 Z0
X0.9071 Y-1.2915 F40
G3 Y-1.2929 I0.0007 J-0.0007
G2 X0.6976 Y-2.1329 I-0.3571 J-0.3571
X0.5497 Y-2.155 I-0.1477 J0.4829
X0.0751 Y-1.4784 I0.0003 J0.505
X0.9071 Y-1.2929 I0.4749 J-0.1716
G3 X0.9085 I0.0007 J0.0007
G1 X0.9092 Y-1.2922
X0.9097 Y-1.2917 Z0.0003
X0.9099 Y-1.2915 Z0.001
G0 Z0.2
X0.6105 Y-0.0456
G1 Z0.0394 F13.33
Z0.001
Y-0.0459 Z0.0003
X0.6104 Y-0.0466 Z0
X0.6103 Y-0.0476 F40
G3 X0.6111 Y-0.0487 I0.001 J-0.0001
G2 X0.8478 Y-0.1421 I-0.0611 J-0.5013
X0.2522 Y-0.9579 I-0.2978 J-0.4079
X0.0751 Y-0.3784 I0.2978 J0.4079
X0.3085 Y-0.1065 I0.4749 J-0.1716
X0.6111 Y-0.0487 I0.2415 J-0.4435
G3 X0.6122 Y-0.0478 I0.0001 J0.001
G1 X0.6124 Y-0.0468
Y-0.0461 Z0.0003
X0.6125 Y-0.0459 Z0.001
G0 Z0.2
X1.2915 Y-0.9099
G1 Z0.0394 F13.33
Z0.001
X1.2917 Y-0.9097 Z0.0003
X1.2922 Y-0.9092 Z0
X1.2929 Y-0.9085 F40
G3 Y-0.9071 I-0.0007 J0.0007
G2 X1.1751 Y-0.3784 I0.3571 J0.3571
X1.8913 Y-0.1064 I0.4749 J-0.1716
X1.9478 Y-0.1421 I-0.2413 J-0.4436
X2.0336 Y-0.8784 I-0.2978 J-0.4079
X1.2929 Y-0.9071 I-0.3836 J0.3284
G3 X1.2915 I-0.0007 J-0.0007
G1 X1.2908 Y-0.9078
X1.2903 Y-0.9083 Z0.0003
X1.2901 Y-0.9085 Z0.001
G0 Z0.2
X0.9099 Y-3.1085
G1 Z0.0394 F13.33
Z0.001
X0.9097 Y-3.1083 Z0.0003
X0.9092 Y-3.1078 Z0
X0.9085 Y-3.1071 F40
G3 X0.9071 I-0.0007 J-0.0007
G2 X0.1929 Y-2.3929 I-0.3571 J0.3571
X0.9071 Y-3.1071 I0.3571 J-0.3571
G3 Y-3.1085 I0.0007 J-0.0007
G1 X0.9078 Y-3.1092
X0.9083 Y-3.1097 Z0.0003
X0.9085 Y-3.1099 Z0.001
G0 Z0.2
X0.9099 Y-4.2085
G1 Z0.0394 F13.33
Z0.001
X0.9097 Y-4.2083 Z0.0003
X0.9092 Y-4.2078 Z0
X0.9085 Y-4.2071 F40
G3 X0.9071 I-0.0007 J-0.0007
G2 X0.6976 Y-4.3329 I-0.3571 J0.3571
X0.5497 Y-4.355 I-0.1477 J0.4829
X0.0751 Y-3.6784 I0.0003 J0.505
X1.0249 Y-4.0216 I0.4749 J-0.1716
X0.9071 Y-4.2071 I-0.4749 J0.1716
G3 Y-4.2085 I0.0007 J-0.0007
G1 X0.9078 Y-4.2092
X0.9083 Y-4.2097 Z0.0003
X0.9085 Y-4.2099 Z0.001
G0 Z0.2
X0.6995 Y-5.4355
G1 Z0.0394 F13.33
Z0.001
X0.6994 Y-5.4352 Z0.0003
X0.6992 Y-5.4346 Z0
X0.6989 Y-5.4336 F40
G3 X0.6976 Y-5.4329 I-0.001 J-0.0003
G2 X0.4024 Y-4.4671 I-0.1476 J0.4829
X0.6976 Y-5.4329 I0.1476 J-0.4829
G3 X0.697 Y-5.4342 I0.0003 J-0.001
G1 X0.6973 Y-5.4351
X0.6975 Y-5.4358 Z0.0003
X0.6976 Y-5.4361 Z0.001
G0 Z0.2
X1.2901 Y-4.5915
G1 Z0.0394 F13.33
Z0.001
X1.2903 Y-4.5917 Z0.0003
X1.2908 Y-4.5922 Z0
X1.2915 Y-4.5929 F40
G3 X1.2929 I0.0007 J0.0007
G2 X1.9478 Y-4.5421 I0.3571 J-0.3571
X1.8889 Y-5.3949 I-0.2978 J-0.4079
X1.7976 Y-5.4329 I-0.2389 J0.4449
X1.2929 Y-4.5929 I-0.1476 J0.4829
G3 Y-4.5915 I-0.0007 J0.0007
G1 X1.2922 Y-4.5908
X1.2917 Y-4.5903 Z0.0003
X1.2915 Y-4.5901 Z0.001
Y-4.2099
X1.2917 Y-4.2097 Z0.0003 F13.33
X1.2922 Y-4.2092 Z0
X1.2929 Y-4.2085 F40
G3 Y-4.2071 I-0.0007 J0.0007
G2 X2.0071 Y-3.4929 I0.3571 J0.3571
X1.2929 Y-4.2071 I-0.3571 J-0.3571
G3 X1.2915 I-0.0007 J-0.0007
G1 X1.2908 Y-4.2078
X1.2903 Y-4.2083 Z0.0003
X1.2901 Y-4.2085 Z0.001
G0 Z0.6

(2D Contour4)
M8
X0.7218 Y0.0368
Z0.6
Z0.2
G1 Z0.0394 F13.33
Z0.001
X0.7217 Y0.0365 Z0.0003
Y0.0358 Z0
X0.7216 Y0.0348 F40
G3 X0.7225 Y0.0337 I0.001 J-0.0001
G2 X0.7229 I-0.0004 J-0.005
G1 X0.7236 Y0.0336
G2 X0.7271 Y0.0312 I-0.0008 J-0.0049
G1 X0.7273 Y0.0308
G2 X0.7279 Y0.0272 I-0.0043 J-0.0026
G1 X0.7272 Y0.0239
G2 X0.7269 Y0.0229 I-0.0049 J0.0011
G1 X0.7254 Y0.0198
G2 X0.7253 Y0.0195 I-0.0045 J0.0021
G1 X0.7236 Y0.0166
X0.7235 Y0.0163
X0.7217 Y0.0135
X0.7215 Y0.0133
X0.7184 Y0.009
G2 X0.7181 Y0.0086 I-0.004 J0.0029
G1 X0.7146 Y0.0047
G2 X0.7139 Y0.0041 I-0.0037 J0.0034
G1 X0.7097 Y0.0009
G2 X0.7089 Y0.0004 I-0.003 J0.004
G1 X0.7042 Y-0.0019
G2 X0.7034 Y-0.0022 I-0.0022 J0.0045
G1 X0.6984 Y-0.0037
G2 X0.6977 Y-0.0038 I-0.0014 J0.0048
G1 X0.6916 Y-0.0047
G2 X0.691 I-0.0007 J0.0049
G1 X0.6849 Y-0.005
G2 X0.6844 I-0.0002 J0.005
G1 X0.6762 Y-0.0046
G2 X0.6755 Y-0.0045 I0.0003 J0.005
G1 X0.6675 Y-0.0029
G2 X0.6669 Y-0.0028 I0.0009 J0.0049
G1 X0.6629 Y-0.0015
G2 X0.6624 Y-0.0013 I0.0015 J0.0048
G1 X0.6587 Y0.0004
G2 X0.6579 Y0.0009 I0.0021 J0.0045
G1 X0.6557 Y0.0024
G2 X0.6548 Y0.0032 I0.0029 J0.0041
G1 X0.653 Y0.0053
G2 X0.6519 Y0.0072 I0.0037 J0.0033
G1 X0.6512 Y0.0099
G2 Y0.0127 I0.0048 J0.0013
G1 X0.6521 Y0.0155
G2 X0.6526 Y0.0165 I0.0048 J-0.0015
G1 X0.6541 Y0.019
X0.6543 Y0.0193
X0.656 Y0.0217
X0.6562 Y0.0219
X0.6606 Y0.0272
X0.6668 Y0.0347
X0.6713 Y0.0408
X0.6724 Y0.0424
X0.6732 Y0.0438
X0.6734 Y0.0441
X0.6746 Y0.0458
X0.6748 Y0.046
X0.6759 Y0.0475
X0.6801 Y0.0541
X0.6796
G2 X0.6779 Y0.0542 I-0.0005 J0.005
G1 X0.6743 Y0.0551
G2 X0.6732 Y0.0554 I0.0012 J0.0049
G1 X0.6699 Y0.0571
G2 X0.6694 Y0.0574 I0.0022 J0.0045
G1 X0.6669 Y0.059
G2 X0.6663 Y0.0594 I0.0027 J0.0042
G1 X0.6641 Y0.0613
G2 X0.6632 Y0.0624 I0.0033 J0.0038
G1 X0.6607 Y0.0662
G2 X0.6602 Y0.0672 I0.0042 J0.0027
G1 X0.6586 Y0.0715
G2 X0.6584 Y0.0722 I0.0047 J0.0018
G1 X0.6577 Y0.0757
G2 X0.6576 Y0.0764 I0.0049 J0.001
G1 X0.6574 Y0.08
G2 Y0.0808 I0.005 J0.0003
G1 X0.658 Y0.0866
G2 X0.6581 Y0.0875 I0.005 J-0.0005
G1 X0.6598 Y0.0931
G2 X0.6602 Y0.094 I0.0048 J-0.0014
G1 X0.6629 Y0.0991
G2 X0.6634 Y0.1 I0.0044 J-0.0023
G1 X0.667 Y0.1045
G2 X0.6677 Y0.1052 I0.0039 J-0.0031
G1 X0.6721 Y0.109
G2 X0.6728 Y0.1095 I0.0032 J-0.0038
G1 X0.6778 Y0.1124
G2 X0.6785 Y0.1127 I0.0025 J-0.0043
G1 X0.6838 Y0.1148
G2 X0.6845 Y0.115 I0.0018 J-0.0047
G1 X0.6901 Y0.1162
G2 X0.6909 Y0.1163 I0.0011 J-0.0049
G1 X0.6966 Y0.1167
G2 X0.6974 I0.0003 J-0.005
G1 X0.7029 Y0.1162
G2 X0.7039 Y0.116 I-0.0004 J-0.005
G1 X0.7092 Y0.1144
G2 X0.7102 Y0.114 I-0.0015 J-0.0048
G1 X0.715 Y0.1113
G2 X0.7159 Y0.1107 I-0.0024 J-0.0044
G1 X0.7201 Y0.107
G2 X0.7208 Y0.1063 I-0.0033 J-0.0038
G1 X0.7234 Y0.1028
G2 X0.7239 Y0.1021 I-0.004 J-0.003
G1 X0.7259 Y0.0982
G2 X0.7262 Y0.0973 I-0.0044 J-0.0023
G1 X0.7274 Y0.0931
G2 X0.7276 Y0.0922 I-0.0048 J-0.0014
G1 X0.728 Y0.0878
G2 Y0.0868 I-0.005 J-0.0005
G1 X0.7273 Y0.0807
G2 X0.7271 Y0.0798 I-0.005 J0.0006
G1 X0.7253 Y0.0738
G2 X0.7251 Y0.0732 I-0.0048 J0.0015
G1 X0.7225 Y0.0675
G2 X0.7223 Y0.0671 I-0.0046 J0.0021
G1 X0.7193 Y0.0617
X0.7192 Y0.0615
X0.7158 Y0.0563
Y0.0561
X0.7123 Y0.051
X0.7122 Y0.0508
X0.7036 Y0.0389
X0.7035 Y0.0388
X0.6969 Y0.0305
X0.6971
X0.703 Y0.0307
X0.7089 Y0.0312
X0.7134 Y0.0318
X0.7179 Y0.0329
X0.7195 Y0.0333
G2 X0.72 Y0.0334 I0.0013 J-0.0048
G1 X0.7214 Y0.0337
G2 X0.7225 I0.0008 J-0.0049
G3 X0.7236 Y0.0346 I0.0001 J0.001
G1 X0.7237 Y0.0356
Y0.0363 Z0.0003
X0.7238 Y0.0366 Z0.001
X0.7313 Y0.0412
X0.7315 Y0.041 Z0.0003 F13.33
X0.732 Y0.0406 Z0
X0.7327 Y0.0399 F40
G3 X0.7341 I0.0007 J0.0007
G1 X0.7378 Y0.0437
G2 X0.7382 Y0.0441 I0.0036 J-0.0035
G1 X0.7446 Y0.0494
X0.7449 Y0.0496
X0.7516 Y0.0544
X0.7517 Y0.0545
X0.7529 Y0.0553
X0.7528 Y0.0554
X0.7484 Y0.0599
G2 X0.748 Y0.0603 I0.0036 J0.0035
G1 X0.7442 Y0.0653
G2 X0.7437 Y0.066 I0.0039 J0.0031
G1 X0.7414 Y0.0703
G2 X0.741 Y0.0712 I0.0044 J0.0024
G1 X0.7395 Y0.0758
G2 X0.7393 Y0.0769 I0.0048 J0.0015
G1 X0.7388 Y0.0818
G2 Y0.0829 I0.005 J0.0005
G1 X0.7395 Y0.0887
G2 X0.7398 Y0.0899 I0.005 J-0.0006
G1 X0.7419 Y0.0953
G2 X0.7424 Y0.0962 I0.0047 J-0.0018
G1 X0.7456 Y0.1011
G2 X0.7462 Y0.1018 I0.0042 J-0.0028
G1 X0.7503 Y0.106
G2 X0.751 Y0.1065 I0.0036 J-0.0035
G1 X0.7557 Y0.1099
G2 X0.7564 Y0.1103 I0.0029 J-0.0041
G1 X0.7615 Y0.1129
G2 X0.7621 Y0.1131 I0.0022 J-0.0045
G1 X0.7675 Y0.115
G2 X0.7682 Y0.1152 I0.0016 J-0.0047
G1 X0.7738 Y0.1163
G2 X0.7744 Y0.1164 I0.001 J-0.0049
G1 X0.7801 Y0.1167
G2 X0.7806 I0.0003 J-0.005
G1 X0.7839 Y0.1166
G2 X0.7845 I-0.0002 J-0.005
G1 X0.7877 Y0.1161
G2 X0.7885 Y0.1159 I-0.0007 J-0.0049
G1 X0.79 Y0.1155
G2 X0.7908 Y0.1152 I-0.0014 J-0.0048
G1 X0.7923 Y0.1144
G2 X0.7937 Y0.1134 I-0.0022 J-0.0045
G1 X0.7949 Y0.1122
G2 X0.7954 Y0.1115 I-0.0036 J-0.0035
G1 X0.796 Y0.1116
G2 X0.7968 Y0.1118 I0.0012 J-0.0048
G1 X0.7988 Y0.1119
G2 X0.8001 I0.0004 J-0.005
G1 X0.8034 Y0.1112
G2 X0.8051 Y0.1106 I-0.0009 J-0.0049
G1 X0.8079 Y0.1088
G2 X0.8092 Y0.1077 I-0.0026 J-0.0043
G1 X0.8113 Y0.1051
G2 X0.8121 Y0.1037 I-0.0039 J-0.0031
G1 X0.8135 Y0.1001
G2 X0.8138 Y0.0988 I-0.0047 J-0.0018
G1 X0.8142 Y0.0949
G2 Y0.0938 I-0.005 J-0.0005
G1 X0.8136 Y0.0883
G2 X0.8133 Y0.0873 I-0.005 J0.0006
G1 X0.8116 Y0.0821
G2 X0.8111 Y0.0812 I-0.0047 J0.0016
G1 X0.8084 Y0.0764
G2 X0.8079 Y0.0758 I-0.0043 J0.0025
G1 X0.8045 Y0.0715
G2 X0.8042 Y0.0711 I-0.0039 J0.0031
G1 X0.7981 Y0.065
X0.7978 Y0.0647
X0.7953 Y0.0625
Y0.0624
G2 X0.7956 Y0.0621 I-0.0036 J-0.0035
G1 X0.7991 Y0.0579
G2 X0.7995 Y0.0574 I-0.0039 J-0.0032
G1 X0.8023 Y0.0528
G2 X0.8027 Y0.0521 I-0.0042 J-0.0026
G1 X0.8044 Y0.0482
G2 X0.8046 Y0.0475 I-0.0046 J-0.002
G1 X0.8057 Y0.0434
G2 X0.8059 Y0.0425 I-0.0048 J-0.0013
G1 X0.8062 Y0.0383
G2 Y0.0373 I-0.005 J-0.0004
G1 X0.8056 Y0.0316
G2 X0.8054 Y0.0305 I-0.005 J0.0005
G1 X0.8035 Y0.025
G2 X0.8032 Y0.0243 I-0.0047 J0.0016
G1 X0.8005 Y0.0192
G2 X0.8001 Y0.0186 I-0.0044 J0.0024
G1 X0.7967 Y0.0139
G2 X0.7962 Y0.0134 I-0.004 J0.003
G1 X0.7923 Y0.0093
G2 X0.7918 Y0.0089 I-0.0036 J0.0035
G1 X0.7874 Y0.0052
G2 X0.7869 Y0.0048 I-0.0032 J0.0039
G1 X0.7811 Y0.0012
G2 X0.7805 Y0.0008 I-0.0027 J0.0042
G1 X0.7743 Y-0.002
G2 X0.7737 Y-0.0023 I-0.0021 J0.0045
G1 X0.7671 Y-0.0041
G2 X0.7662 Y-0.0043 I-0.0014 J0.0048
G1 X0.7594 Y-0.005
G2 X0.7586 I-0.0005 J0.005
G1 X0.7533 Y-0.0047
G2 X0.7525 Y-0.0045 I0.0003 J0.005
G1 X0.7473 Y-0.0034
G2 X0.7464 Y-0.0031 I0.0011 J0.0049
G1 X0.7415 Y-0.001
G2 X0.7405 Y-0.0005 I0.002 J0.0046
G1 X0.7362 Y0.0026
G2 X0.7354 Y0.0034 I0.0029 J0.0041
G1 X0.7325 Y0.0065
G2 X0.7319 Y0.0074 I0.0037 J0.0034
G1 X0.7298 Y0.0111
G2 X0.7294 Y0.0121 I0.0044 J0.0025
G1 X0.7282 Y0.0161
G2 X0.728 Y0.0171 I0.0048 J0.0014
G1 X0.7276 Y0.0213
G2 Y0.0223 I0.005 J0.0004
G1 X0.7282 Y0.0275
G2 X0.7284 Y0.0286 I0.005 J-0.0005
G1 X0.7301 Y0.0336
G2 X0.7307 Y0.0347 I0.0047 J-0.0016
G1 X0.7335 Y0.0391
G2 X0.7341 Y0.0399 I0.0042 J-0.0027
G3 Y0.0413 I-0.0007 J0.0007
G1 X0.7334 Y0.042
X0.7329 Y0.0425 Z0.0003
X0.7327 Y0.0427 Z0.001
G0 Z0.2
X0.7668 Y0.0263
G1 Z0.0394 F13.33
Z0.001
X0.7671 Z0.0003
X0.7677 Y0.026 Z0
X0.7687 Y0.0257 F40
G3 X0.7699 Y0.0264 I0.0003 J0.001
G1 X0.7701 Y0.027
X0.7707 Y0.031
X0.7704 Y0.035
X0.7695 Y0.039
X0.7674 Y0.0361
X0.7653 Y0.0317
X0.7641 Y0.0281
X0.7634 Y0.0243
X0.7631 Y0.0204
X0.7633 Y0.0173
X0.7637 Y0.0143
X0.7638 Y0.0141
X0.7664 Y0.0179
X0.7688 Y0.023
X0.7699 Y0.0264
G3 X0.7693 Y0.0276 I-0.001 J0.0003
G1 X0.7683 Y0.0279
X0.7677 Y0.0282 Z0.0003
X0.7674 Z0.001
G0 Z0.2
X0.8121 Y0.0588
G1 Z0.0394 F13.33
Z0.001
X0.8124 Y0.0587 Z0.0003
X0.8131 Y0.0585 Z0
X0.814 Y0.0581 F40
G3 X0.8153 Y0.0588 I0.0003 J0.0009
G1 X0.8154 Y0.059
Y0.0591
X0.8186 Y0.0673
X0.8211 Y0.0735
X0.8229 Y0.0783
Y0.0784
X0.8267 Y0.088
X0.8268 Y0.0882
X0.8302 Y0.0955
X0.8304 Y0.0959
X0.832 Y0.0988
X0.8321 Y0.099
X0.8334 Y0.1012
X0.8336 Y0.1015
X0.8352 Y0.1038
G2 X0.8356 Y0.1043 I0.0041 J-0.0029
G1 X0.8374 Y0.1063
G2 X0.838 Y0.1069 I0.0037 J-0.0034
G1 X0.8414 Y0.1095
G2 X0.842 Y0.1099 I0.0031 J-0.0039
G1 X0.8464 Y0.1126
G2 X0.847 Y0.1129 I0.0026 J-0.0043
G1 X0.8518 Y0.1149
G2 X0.8525 Y0.1152 I0.002 J-0.0046
G1 X0.8565 Y0.1162
G2 X0.8573 Y0.1163 I0.0013 J-0.0048
G1 X0.8614 Y0.1167
G2 X0.862 I0.0004 J-0.005
G1 X0.864 Y0.1166
G2 X0.8647 I-0.0002 J-0.005
G1 X0.8667 Y0.1162
G2 X0.868 Y0.1157 I-0.0009 J-0.0049
G1 X0.8698 Y0.1148
G2 X0.8716 Y0.1133 I-0.0023 J-0.0044
G1 X0.8722 Y0.1124
G2 X0.873 Y0.1105 I-0.0041 J-0.0029
G1 X0.8732 Y0.1095
G2 X0.873 Y0.1071 I-0.0049 J-0.0009
G1 X0.872 Y0.1037
G2 X0.8716 Y0.1029 I-0.0048 J0.0015
G1 X0.87 Y0.0997
X0.8698 Y0.0995
X0.868 Y0.0964
X0.8679 Y0.0963
X0.866 Y0.0933
Y0.0932
X0.864 Y0.0902
Y0.0901
X0.856 Y0.0786
X0.8481 Y0.0671
X0.8475 Y0.0662
X0.8534 Y0.0665
X0.8542 Y0.0683
G2 X0.8544 Y0.0688 I0.0046 J-0.0019
G1 X0.8569 Y0.0732
G2 X0.8574 Y0.0739 I0.0044 J-0.0025
G1 X0.8606 Y0.0778
G2 X0.8614 Y0.0786 I0.0039 J-0.0032
G1 X0.8654 Y0.0817
G2 X0.8664 Y0.0824 I0.0031 J-0.004
G1 X0.8713 Y0.0845
G2 X0.8722 Y0.0848 I0.002 J-0.0046
G1 X0.8774 Y0.086
G2 X0.8782 Y0.0861 I0.0011 J-0.0049
G1 X0.8835 Y0.0864
G2 X0.884 I0.0003 J-0.005
G1 X0.886 Y0.0863
G2 X0.8866 I-0.0002 J-0.005
G1 X0.8887 Y0.0859
G2 X0.8897 Y0.0857 I-0.0008 J-0.0049
G1 X0.8907 Y0.0853
G2 X0.8919 Y0.0846 I-0.0018 J-0.0047
G1 X0.8927 Y0.084
G2 X0.8941 Y0.0824 I-0.0031 J-0.004
G1 X0.8946 Y0.0815
G2 X0.8951 Y0.0798 I-0.0044 J-0.0024
G1 X0.8953 Y0.0788
G2 Y0.0772 I-0.0049 J-0.0007
G1 X0.8948 Y0.0743
G2 X0.8947 Y0.0738 I-0.0049 J0.0008
G1 X0.8938 Y0.0709
Y0.0708
X0.8929 Y0.0679
X0.8928 Y0.0678
X0.8925 Y0.0668
X0.8936 Y0.0667
G2 X0.8953 Y0.0662 I-0.0006 J-0.005
G1 X0.8958 Y0.0659
G2 X0.8982 Y0.0633 I-0.0023 J-0.0045
G1 X0.8984 Y0.0627
G2 X0.8987 Y0.0599 I-0.0046 J-0.0019
G1 Y0.0596
G2 X0.8981 Y0.0581 I-0.0049 J0.0009
G1 X0.898 Y0.0579
X0.8958 Y0.0538
G2 X0.8955 Y0.0534 I-0.0044 J0.0024
G1 X0.8929 Y0.0495
X0.8927 Y0.0492
X0.8905 Y0.0463
G2 X0.8902 Y0.046 I-0.0039 J0.0031
G1 X0.8877 Y0.0433
X0.8875 Y0.0431
X0.8864 Y0.042
G2 X0.8857 Y0.0414 I-0.0035 J0.0036
G1 X0.8844 Y0.0405
G2 X0.8834 Y0.04 I-0.0028 J0.0041
G1 X0.8833
X0.8801 Y0.0292
X0.8772 Y0.0192
X0.8768 Y0.0174
X0.8766 Y0.0159
G2 X0.8765 Y0.0154 I-0.0049 J0.0008
G1 X0.8753 Y0.0102
G2 X0.875 Y0.0095 I-0.0049 J0.0012
G1 X0.8742 Y0.0076
G2 X0.8736 Y0.0065 I-0.0046 J0.0019
G1 X0.8724 Y0.0048
G2 X0.8708 Y0.0034 I-0.004 J0.0029
G1 X0.8651 Y0.0002
G2 X0.8647 Y0 I-0.0024 J0.0044
G1 X0.8588 Y-0.0026
G2 X0.8582 Y-0.0029 I-0.0021 J0.0046
G1 X0.8533 Y-0.0043
G2 X0.8524 Y-0.0045 I-0.0014 J0.0048
G1 X0.8473 Y-0.005
G2 X0.8462 I-0.0005 J0.005
G1 X0.843 Y-0.0046
G2 X0.8417 Y-0.0042 I0.0006 J0.005
G1 X0.8387 Y-0.0029
G2 X0.8376 Y-0.0023 I0.002 J0.0046
G1 X0.8363 Y-0.0013
G2 X0.8354 Y-0.0003 I0.0031 J0.0039
G1 X0.8343 Y0.001
G2 X0.8335 Y0.0029 I0.004 J0.003
G1 X0.8331 Y0.0045
G2 X0.833 Y0.0065 I0.0049 J0.0011
G1 X0.8339 Y0.0117
G2 X0.834 Y0.0121 I0.0049 J-0.0008
G1 X0.8354 Y0.0172
X0.8355 Y0.0174
X0.8371 Y0.0224
Y0.0225
X0.8389 Y0.0274
Y0.0275
X0.8418 Y0.0352
X0.8419 Y0.0354
X0.842 Y0.0356
X0.8363 Y0.0352
X0.8362
X0.8297 Y0.0349
X0.8294
X0.8253 Y0.035
G2 X0.8248 Y0.0351 I0.0002 J0.005
G1 X0.8208 Y0.0356
G2 X0.8197 Y0.0358 I0.0006 J0.005
G1 X0.8178 Y0.0365
G2 X0.8161 Y0.0375 I0.0017 J0.0047
G1 X0.8147 Y0.0389
G2 X0.8133 Y0.041 I0.0034 J0.0037
G1 X0.8126 Y0.0429
G2 X0.8124 Y0.0441 I0.0047 J0.0016
G1 X0.8122 Y0.0462
G2 X0.8123 Y0.0473 I0.005 J0.0004
G1 X0.8128 Y0.051
G2 X0.813 Y0.0516 I0.0049 J-0.0008
G1 X0.814 Y0.0552
X0.8141 Y0.0554
X0.8153 Y0.0588
G3 X0.8147 Y0.06 I-0.0009 J0.0003
G1 X0.8137 Y0.0604
X0.8131 Y0.0606 Z0.0003
X0.8128 Y0.0607 Z0.001
G0 Z0.2
X0.7825 Y0.0878
G1 Z0.0394 F13.33
Z0.001
X0.7828 Y0.0877 Z0.0003
X0.7835 Y0.0875 Z0
X0.7844 Y0.0871 F40
G3 X0.7857 Y0.0877 I0.0003 J0.0009
G1 X0.7863 Y0.0896
X0.7866 Y0.0922
X0.7865 Y0.0936
X0.7862 Y0.0949
X0.7858 Y0.0957
X0.7851 Y0.0967
X0.7847 Y0.0972
G2 X0.7841 Y0.0982 I0.0039 J0.0031
G1 X0.783 Y0.0972
X0.7807 Y0.094
X0.7789 Y0.0904
X0.7779 Y0.0876
X0.7776 Y0.0851
X0.7781 Y0.0821
X0.7793 Y0.079
X0.7795 Y0.0787
X0.7803 Y0.0795
X0.784 Y0.0844
X0.7854 Y0.087
X0.7857 Y0.0877
G3 X0.7851 Y0.089 I-0.0009 J0.0003
G1 X0.7841 Y0.0893
X0.7834 Y0.0896 Z0.0003
X0.7832 Y0.0897 Z0.001
G0 Z0.2
X0.6861 Y0.0777
G1 Z0.0394 F13.33
Z0.001
X0.6864 Z0.0003
X0.6871 Y0.0776 Z0
X0.6881 Y0.0775 F40
G3 X0.6892 Y0.0785 I0.0001 J0.001
G1 X0.6893 Y0.0795
X0.6892 Y0.0827
X0.6888 Y0.0855
X0.6879 Y0.0878
X0.6876 Y0.0884
X0.6875 Y0.0882
X0.6858 Y0.0831
X0.6852 Y0.0788
X0.6849 Y0.0744
X0.6853 Y0.0691
X0.686 Y0.065
X0.6861 Y0.0646
X0.6873 Y0.0679
X0.6883 Y0.0711
X0.6889 Y0.0742
X0.6892 Y0.0785
G3 X0.6883 Y0.0795 I-0.001 J0.0001
G1 X0.6873 Y0.0796
X0.6866 Y0.0797 Z0.0003
X0.6863 Z0.001
G0 Z0.2
X0.6443 Y0.0682
G1 Z0.0394 F13.33
Z0.001
X0.6441 Y0.0684 Z0.0003
X0.6436 Y0.0689 Z0
X0.6429 Y0.0696 F40
G3 X0.6414 I-0.0007 J-0.0007
G1 X0.6369 Y0.065
X0.6366 Y0.0647
X0.6341 Y0.0625
Y0.0624
G2 X0.6344 Y0.0621 I-0.0036 J-0.0035
G1 X0.6379 Y0.0579
G2 X0.6383 Y0.0574 I-0.0039 J-0.0032
G1 X0.6411 Y0.0528
G2 X0.6415 Y0.0521 I-0.0042 J-0.0026
G1 X0.6432 Y0.0482
G2 X0.6434 Y0.0475 I-0.0046 J-0.002
G1 X0.6445 Y0.0434
G2 X0.6446 Y0.0425 I-0.0048 J-0.0013
G1 X0.645 Y0.0383
G2 Y0.0373 I-0.005 J-0.0004
G1 X0.6444 Y0.0316
G2 X0.6441 Y0.0305 I-0.005 J0.0005
G1 X0.6423 Y0.025
G2 X0.642 Y0.0243 I-0.0047 J0.0016
G1 X0.6393 Y0.0192
G2 X0.6389 Y0.0186 I-0.0044 J0.0024
G1 X0.6355 Y0.0139
G2 X0.635 Y0.0134 I-0.004 J0.003
G1 X0.6311 Y0.0093
G2 X0.6306 Y0.0089 I-0.0036 J0.0035
G1 X0.6262 Y0.0052
G2 X0.6257 Y0.0048 I-0.0032 J0.0039
G1 X0.6199 Y0.0012
G2 X0.6193 Y0.0008 I-0.0027 J0.0042
G1 X0.6131 Y-0.002
G2 X0.6124 Y-0.0023 I-0.0021 J0.0045
G1 X0.6059 Y-0.0041
G2 X0.605 Y-0.0043 I-0.0014 J0.0048
G1 X0.5982 Y-0.005
G2 X0.5974 I-0.0005 J0.005
G1 X0.5921 Y-0.0047
G2 X0.5913 Y-0.0045 I0.0003 J0.005
G1 X0.5861 Y-0.0034
G2 X0.5852 Y-0.0031 I0.0011 J0.0049
G1 X0.5803 Y-0.001
G2 X0.5793 Y-0.0005 I0.002 J0.0046
G1 X0.575 Y0.0026
G2 X0.5742 Y0.0034 I0.0029 J0.0041
G1 X0.5713 Y0.0065
G2 X0.5707 Y0.0074 I0.0037 J0.0034
G1 X0.5686 Y0.0111
G2 X0.5682 Y0.0121 I0.0044 J0.0025
G1 X0.567 Y0.0161
G2 X0.5668 Y0.0171 I0.0048 J0.0014
G1 X0.5664 Y0.0213
G2 Y0.0223 I0.005 J0.0004
G1 X0.567 Y0.0275
G2 X0.5672 Y0.0286 I0.005 J-0.0005
G1 X0.5689 Y0.0336
G2 X0.5695 Y0.0347 I0.0047 J-0.0016
G1 X0.5723 Y0.0391
G2 X0.5729 Y0.0399 I0.0042 J-0.0027
G1 X0.5766 Y0.0437
G2 X0.577 Y0.0441 I0.0036 J-0.0035
G1 X0.5834 Y0.0494
X0.5837 Y0.0496
X0.5904 Y0.0544
X0.5905 Y0.0545
X0.5917 Y0.0553
X0.5916 Y0.0554
X0.5872 Y0.0599
G2 X0.5868 Y0.0603 I0.0036 J0.0035
G1 X0.583 Y0.0653
G2 X0.5825 Y0.066 I0.0039 J0.0031
G1 X0.5802 Y0.0703
G2 X0.5798 Y0.0712 I0.0044 J0.0024
G1 X0.5783 Y0.0758
G2 X0.5781 Y0.0769 I0.0048 J0.0015
G1 X0.5776 Y0.0818
G2 Y0.0829 I0.005 J0.0005
G1 X0.5783 Y0.0887
G2 X0.5786 Y0.0899 I0.005 J-0.0006
G1 X0.5807 Y0.0953
G2 X0.5812 Y0.0962 I0.0047 J-0.0018
G1 X0.5844 Y0.1011
G2 X0.585 Y0.1018 I0.0042 J-0.0028
G1 X0.5891 Y0.106
G2 X0.5898 Y0.1065 I0.0036 J-0.0035
G1 X0.5945 Y0.1099
G2 X0.5952 Y0.1103 I0.0029 J-0.0041
G1 X0.6003 Y0.1129
G2 X0.6009 Y0.1131 I0.0022 J-0.0045
G1 X0.6063 Y0.115
G2 X0.607 Y0.1152 I0.0016 J-0.0047
G1 X0.6126 Y0.1163
G2 X0.6132 Y0.1164 I0.001 J-0.0049
G1 X0.6189 Y0.1167
G2 X0.6194 I0.0003 J-0.005
G1 X0.6227 Y0.1166
G2 X0.6233 I-0.0002 J-0.005
G1 X0.6265 Y0.1161
G2 X0.6272 Y0.1159 I-0.0007 J-0.0049
G1 X0.6288 Y0.1155
G2 X0.6296 Y0.1152 I-0.0014 J-0.0048
G1 X0.6311 Y0.1144
G2 X0.6325 Y0.1134 I-0.0022 J-0.0045
G1 X0.6337 Y0.1122
G2 X0.6342 Y0.1115 I-0.0036 J-0.0035
G1 X0.6348 Y0.1116
G2 X0.6356 Y0.1118 I0.0012 J-0.0048
G1 X0.6376 Y0.1119
G2 X0.6389 I0.0004 J-0.005
G1 X0.6422 Y0.1112
G2 X0.6439 Y0.1106 I-0.0009 J-0.0049
G1 X0.6467 Y0.1088
G2 X0.648 Y0.1077 I-0.0026 J-0.0043
G1 X0.6501 Y0.1051
G2 X0.6509 Y0.1037 I-0.0039 J-0.0031
G1 X0.6523 Y0.1001
G2 X0.6526 Y0.0988 I-0.0047 J-0.0018
G1 X0.653 Y0.0949
G2 Y0.0938 I-0.005 J-0.0005
G1 X0.6524 Y0.0883
G2 X0.6521 Y0.0873 I-0.005 J0.0006
G1 X0.6504 Y0.0821
G2 X0.6499 Y0.0812 I-0.0047 J0.0016
G1 X0.6472 Y0.0764
G2 X0.6467 Y0.0758 I-0.0043 J0.0025
G1 X0.6433 Y0.0715
G2 X0.6429 Y0.0711 I-0.0039 J0.0031
G1 X0.6414 Y0.0696
G3 Y0.0682 I0.0007 J-0.0007
G1 X0.6422 Y0.0675
X0.6427 Y0.067 Z0.0003
X0.6429 Y0.0668 Z0.001
G0 Z0.2
X0.6213 Y0.0878
G1 Z0.0394 F13.33
Z0.001
X0.6216 Y0.0877 Z0.0003
X0.6223 Y0.0875 Z0
X0.6232 Y0.0871 F40
G3 X0.6245 Y0.0877 I0.0003 J0.0009
G1 X0.6251 Y0.0896
X0.6254 Y0.0922
X0.6253 Y0.0936
X0.625 Y0.0949
X0.6246 Y0.0957
X0.6239 Y0.0967
X0.6235 Y0.0972
G2 X0.6229 Y0.0982 I0.0039 J0.0031
G1 X0.6218 Y0.0972
X0.6195 Y0.094
X0.6176 Y0.0904
X0.6167 Y0.0876
X0.6164 Y0.0851
X0.6169 Y0.0821
X0.6181 Y0.079
X0.6183 Y0.0787
X0.6191 Y0.0795
X0.6228 Y0.0844
X0.6242 Y0.087
X0.6245 Y0.0877
G3 X0.6239 Y0.089 I-0.0009 J0.0003
G1 X0.6229 Y0.0893
X0.6222 Y0.0896 Z0.0003
X0.622 Y0.0897 Z0.001
G0 Z0.2
X0.5617 Y0.0616
G1 Z0.0394 F13.33
Z0.001
X0.5614 Y0.0617 Z0.0003
X0.5608 Y0.0619 Z0
X0.5598 Y0.0622 F40
G3 X0.5586 Y0.0616 I-0.0003 J-0.001
G1 X0.5565 Y0.055
X0.5546 Y0.0485
X0.5533 Y0.0444
X0.5526 Y0.0417
X0.5518 Y0.0391
X0.5509 Y0.0364
X0.5462 Y0.0207
X0.5461 Y0.0205
X0.5439 Y0.0144
G2 X0.5437 Y0.0139 I-0.0047 J0.0017
G1 X0.5409 Y0.0081
G2 X0.5404 Y0.0073 I-0.0045 J0.0022
G1 X0.5388 Y0.0053
G2 X0.5384 Y0.0048 I-0.004 J0.0031
G1 X0.537 Y0.0034
G2 X0.5364 Y0.0028 I-0.0035 J0.0035
G1 X0.5321 Y-0.0001
G2 X0.5316 Y-0.0004 I-0.0029 J0.0041
G1 X0.5271 Y-0.0029
G2 X0.5262 Y-0.0033 I-0.0024 J0.0044
G1 X0.5223 Y-0.0045
G2 X0.5212 Y-0.0047 I-0.0014 J0.0048
G1 X0.5172 Y-0.005
G2 X0.5163 I-0.0004 J0.005
G1 X0.5134 Y-0.0047
G2 X0.5123 Y-0.0045 I0.0005 J0.005
G1 X0.5096 Y-0.0035
G2 X0.5086 Y-0.003 I0.0016 J0.0047
G1 X0.5062 Y-0.0015
G2 X0.5053 Y-0.0009 I0.0027 J0.0042
G1 X0.5037 Y0.0007
G2 X0.5029 Y0.0017 I0.0035 J0.0036
G1 X0.5018 Y0.0036
G2 X0.5011 Y0.0053 I0.0043 J0.0026
G1 X0.5007 Y0.0075
G2 Y0.009 I0.0049 J0.0009
G1 X0.5008 Y0.0101
G2 X0.5009 Y0.0106 I0.005 J-0.0006
G1 X0.5011 Y0.0115
G2 X0.5012 Y0.012 I0.0049 J-0.0011
G1 X0.5077 Y0.0306
Y0.0307
X0.5145 Y0.0492
Y0.0493
X0.5232 Y0.072
X0.5215 Y0.0717
G2 X0.5197 I-0.0009 J0.0049
G1 X0.5188 Y0.0719
G2 X0.5171 Y0.0725 I0.0009 J0.0049
G1 X0.5163 Y0.073
G2 X0.5148 Y0.0743 I0.0026 J0.0043
G1 X0.5138 Y0.0758
G2 X0.513 Y0.0774 I0.0041 J0.0029
G1 X0.5125 Y0.0791
G2 X0.5123 Y0.0801 I0.0048 J0.0014
G1 X0.5121 Y0.082
G2 X0.5122 Y0.0831 I0.005 J0.0004
G1 X0.5125 Y0.0858
G2 X0.5127 Y0.0867 I0.005 J-0.0007
G1 X0.5136 Y0.0893
G2 X0.5138 Y0.0899 I0.0048 J-0.0015
G1 X0.5147 Y0.0919
G2 X0.5153 Y0.0928 I0.0045 J-0.0021
G1 X0.5166 Y0.0946
G2 X0.5182 Y0.0959 I0.004 J-0.003
G1 X0.5235 Y0.0988
X0.5237 Y0.0989
X0.5291 Y0.1015
X0.5377 Y0.1055
X0.5378 Y0.1056
X0.5402 Y0.1065
X0.5413 Y0.1072
G2 X0.5418 Y0.1074 I0.0023 J-0.0044
G1 X0.5428 Y0.1078
X0.5506 Y0.1112
X0.5509 Y0.1114
X0.5541 Y0.1125
G2 X0.5548 Y0.1127 I0.0017 J-0.0047
G1 X0.5581 Y0.1134
G2 X0.5597 Y0.1135 I0.001 J-0.0049
G1 X0.5616 Y0.1133
G2 X0.5631 Y0.1128 I-0.0006 J-0.005
G1 X0.5648 Y0.112
G2 X0.5663 Y0.111 I-0.0021 J-0.0045
G1 X0.5676 Y0.1097
G2 X0.5683 Y0.1088 I-0.0036 J-0.0035
G1 X0.5695 Y0.1069
G2 X0.5698 Y0.1063 I-0.0042 J-0.0027
G1 X0.5707 Y0.1043
G2 X0.5712 Y0.1016 I-0.0045 J-0.0021
G1 X0.5707 Y0.0974
G2 X0.5706 Y0.0968 I-0.005 J0.0006
G1 X0.5696 Y0.0927
X0.5695 Y0.0923
X0.5683 Y0.0883
X0.5682 Y0.088
X0.5647 Y0.0786
X0.562 Y0.0717
X0.56 Y0.0665
X0.5595 Y0.0648
X0.5591 Y0.0633
X0.5586 Y0.0616
G3 X0.5592 Y0.0603 I0.001 J-0.0003
G1 X0.5602 Y0.06
X0.5608 Y0.0598 Z0.0003
X0.5611 Y0.0597 Z0.001
G0 Z0.2
X0.6056 Y0.0263
G1 Z0.0394 F13.33
Z0.001
X0.6058 Z0.0003
X0.6065 Y0.026 Z0
X0.6075 Y0.0257 F40
G3 X0.6087 Y0.0264 I0.0003 J0.001
G1 X0.6089 Y0.027
X0.6095 Y0.031
X0.6092 Y0.035
X0.6083 Y0.039
X0.6062 Y0.0361
X0.6041 Y0.0317
X0.6029 Y0.0281
X0.6022 Y0.0243
X0.6019 Y0.0204
X0.6021 Y0.0173
X0.6025 Y0.0143
X0.6026 Y0.0141
X0.6052 Y0.0179
X0.6076 Y0.023
X0.6087 Y0.0264
G3 X0.6081 Y0.0276 I-0.001 J0.0003
G1 X0.6071 Y0.0279
X0.6065 Y0.0282 Z0.0003
X0.6062 Z0.001
G0 Z0.2
X0.4958 Y0.0697
G1 Z0.0394 F13.33
Z0.001
X0.4955 Y0.0699 Z0.0003
X0.495 Y0.0704 Z0
X0.4943 Y0.0711 F40
G3 X0.4929 I-0.0007 J-0.0007
G1 X0.4868 Y0.065
X0.4865 Y0.0647
X0.484 Y0.0625
X0.4841 Y0.0624
G2 X0.4844 Y0.0621 I-0.0036 J-0.0035
G1 X0.4879 Y0.0579
G2 X0.4882 Y0.0574 I-0.0039 J-0.0032
G1 X0.4911 Y0.0528
G2 X0.4914 Y0.0521 I-0.0042 J-0.0026
G1 X0.4931 Y0.0482
G2 X0.4934 Y0.0475 I-0.0046 J-0.002
G1 X0.4945 Y0.0434
G2 X0.4946 Y0.0425 I-0.0048 J-0.0013
G1 X0.495 Y0.0383
G2 Y0.0373 I-0.005 J-0.0004
G1 X0.4943 Y0.0316
G2 X0.4941 Y0.0305 I-0.005 J0.0005
G1 X0.4923 Y0.025
G2 X0.492 Y0.0243 I-0.0047 J0.0016
G1 X0.4892 Y0.0192
G2 X0.4888 Y0.0186 I-0.0044 J0.0024
G1 X0.4854 Y0.0139
G2 X0.485 Y0.0134 I-0.004 J0.003
G1 X0.481 Y0.0093
G2 X0.4806 Y0.0089 I-0.0036 J0.0035
G1 X0.4761 Y0.0052
G2 X0.4756 Y0.0048 I-0.0032 J0.0039
G1 X0.4699 Y0.0012
G2 X0.4693 Y0.0008 I-0.0027 J0.0042
G1 X0.4631 Y-0.002
G2 X0.4624 Y-0.0023 I-0.0021 J0.0045
G1 X0.4559 Y-0.0041
G2 X0.455 Y-0.0043 I-0.0014 J0.0048
G1 X0.4482 Y-0.005
G2 X0.4474 I-0.0005 J0.005
G1 X0.4421 Y-0.0047
G2 X0.4413 Y-0.0045 I0.0003 J0.005
G1 X0.4361 Y-0.0034
G2 X0.4351 Y-0.0031 I0.0011 J0.0049
G1 X0.4302 Y-0.001
G2 X0.4293 Y-0.0005 I0.002 J0.0046
G1 X0.4249 Y0.0026
G2 X0.4241 Y0.0034 I0.0029 J0.0041
G1 X0.4213 Y0.0065
G2 X0.4207 Y0.0074 I0.0037 J0.0034
G1 X0.4186 Y0.0111
G2 X0.4182 Y0.0121 I0.0044 J0.0025
G1 X0.4169 Y0.0161
G2 X0.4168 Y0.0171 I0.0048 J0.0014
G1 X0.4164 Y0.0213
G2 Y0.0223 I0.005 J0.0004
G1 X0.4169 Y0.0275
G2 X0.4172 Y0.0286 I0.005 J-0.0005
G1 X0.4189 Y0.0336
G2 X0.4194 Y0.0347 I0.0047 J-0.0016
G1 X0.4223 Y0.0391
G2 X0.4229 Y0.0399 I0.0042 J-0.0027
G1 X0.4266 Y0.0437
G2 X0.427 Y0.0441 I0.0036 J-0.0035
G1 X0.4334 Y0.0494
X0.4336 Y0.0496
X0.4404 Y0.0544
X0.4405 Y0.0545
X0.4417 Y0.0553
X0.4415 Y0.0554
X0.4372 Y0.0599
G2 X0.4368 Y0.0603 I0.0036 J0.0035
G1 X0.4329 Y0.0653
G2 X0.4325 Y0.066 I0.0039 J0.0031
G1 X0.4301 Y0.0703
G2 X0.4298 Y0.0712 I0.0044 J0.0024
G1 X0.4283 Y0.0758
G2 X0.4281 Y0.0769 I0.0048 J0.0015
G1 X0.4276 Y0.0818
G2 Y0.0829 I0.005 J0.0005
G1 X0.4283 Y0.0886
G2 X0.4286 Y0.0899 I0.005 J-0.0006
G1 X0.4307 Y0.0953
G2 X0.4312 Y0.0962 I0.0047 J-0.0018
G1 X0.4344 Y0.1011
G2 X0.435 Y0.1018 I0.0042 J-0.0028
G1 X0.4391 Y0.106
G2 X0.4397 Y0.1065 I0.0036 J-0.0035
G1 X0.4445 Y0.1099
G2 X0.4452 Y0.1103 I0.0029 J-0.0041
G1 X0.4503 Y0.1129
G2 X0.4509 Y0.1131 I0.0022 J-0.0045
G1 X0.4563 Y0.115
G2 X0.4569 Y0.1152 I0.0016 J-0.0047
G1 X0.4625 Y0.1163
G2 X0.4632 Y0.1164 I0.001 J-0.0049
G1 X0.4689 Y0.1167
G2 X0.4694 I0.0003 J-0.005
G1 X0.4727 Y0.1166
G2 X0.4732 I-0.0002 J-0.005
G1 X0.4765 Y0.1161
G2 X0.4772 Y0.1159 I-0.0007 J-0.0049
G1 X0.4788 Y0.1155
G2 X0.4796 Y0.1152 I-0.0014 J-0.0048
G1 X0.4811 Y0.1144
G2 X0.4825 Y0.1134 I-0.0022 J-0.0045
G1 X0.4836 Y0.1122
G2 X0.4842 Y0.1115 I-0.0036 J-0.0035
G1 X0.4848 Y0.1116
G2 X0.4856 Y0.1118 I0.0012 J-0.0048
G1 X0.4875 Y0.1119
G2 X0.4888 I0.0004 J-0.005
G1 X0.4921 Y0.1112
G2 X0.4938 Y0.1106 I-0.0009 J-0.0049
G1 X0.4967 Y0.1088
G2 X0.498 Y0.1077 I-0.0026 J-0.0043
G1 X0.5001 Y0.1051
G2 X0.5008 Y0.1037 I-0.0039 J-0.0031
G1 X0.5022 Y0.1001
G2 X0.5025 Y0.0988 I-0.0047 J-0.0018
G1 X0.5029 Y0.0949
G2 Y0.0938 I-0.005 J-0.0005
G1 X0.5023 Y0.0884
G2 X0.5021 Y0.0873 I-0.005 J0.0005
G1 X0.5003 Y0.0821
G2 X0.4999 Y0.0812 I-0.0047 J0.0016
G1 X0.4971 Y0.0764
G2 X0.4967 Y0.0758 I-0.0043 J0.0025
G1 X0.4933 Y0.0715
G2 X0.4929 Y0.0711 I-0.0039 J0.0031
G3 Y0.0697 I0.0007 J-0.0007
G1 X0.4936 Y0.069
X0.4941 Y0.0685 Z0.0003
X0.4943 Y0.0683 Z0.001
G0 Z0.2
X0.4713 Y0.0878
G1 Z0.0394 F13.33
Z0.001
X0.4716 Y0.0877 Z0.0003
X0.4722 Y0.0875 Z0
X0.4732 Y0.0871 F40
G3 X0.4744 Y0.0877 I0.0003 J0.0009
G1 X0.4751 Y0.0896
X0.4754 Y0.0922
X0.4753 Y0.0936
X0.475 Y0.0949
X0.4746 Y0.0957
X0.4739 Y0.0967
X0.4735 Y0.0972
G2 X0.4729 Y0.0982 I0.0039 J0.0031
G1 X0.4718 Y0.0972
X0.4694 Y0.094
X0.4676 Y0.0904
X0.4667 Y0.0876
X0.4663 Y0.0851
X0.4668 Y0.0821
X0.4681 Y0.079
X0.4683 Y0.0787
X0.4691 Y0.0795
X0.4728 Y0.0844
X0.4742 Y0.087
X0.4744 Y0.0877
G3 X0.4738 Y0.089 I-0.0009 J0.0003
G1 X0.4729 Y0.0893
X0.4722 Y0.0896 Z0.0003
X0.4719 Y0.0897 Z0.001
G0 Z0.2
X0.4555 Y0.0263
G1 Z0.0394 F13.33
Z0.001
X0.4558 Z0.0003
X0.4565 Y0.026 Z0
X0.4574 Y0.0257 F40
G3 X0.4587 Y0.0264 I0.0003 J0.001
G1 X0.4589 Y0.027
X0.4594 Y0.031
X0.4592 Y0.035
X0.4583 Y0.039
X0.4562 Y0.0361
X0.454 Y0.0317
X0.4529 Y0.0281
X0.4521 Y0.0243
X0.4519 Y0.0204
X0.452 Y0.0173
X0.4525 Y0.0143
Y0.0141
X0.4552 Y0.0179
X0.4576 Y0.023
X0.4587 Y0.0264
G3 X0.4581 Y0.0276 I-0.001 J0.0003
G1 X0.4571 Y0.0279
X0.4564 Y0.0282 Z0.0003
X0.4562 Z0.001
G0 Z0.2
X0.4126 Y0.0637
G1 Z0.0394 F13.33
Z0.001
X0.4123 Y0.0638 Z0.0003
X0.4117 Y0.0642 Z0
X0.4108 Y0.0647 F40
G3 X0.4095 Y0.0643 I-0.0005 J-0.0009
G1 X0.408 Y0.0617
X0.4079 Y0.0615
X0.4046 Y0.0563
X0.4045 Y0.0561
X0.4022 Y0.0527
X0.4011 Y0.051
X0.401 Y0.0508
X0.3924 Y0.0389
X0.3922 Y0.0388
X0.3857 Y0.0305
X0.3859
X0.3918 Y0.0307
X0.3977 Y0.0312
X0.4022 Y0.0318
X0.4066 Y0.0329
X0.4082 Y0.0333
G2 X0.4087 Y0.0334 I0.0013 J-0.0048
G1 X0.4101 Y0.0337
G2 X0.4117 I0.0008 J-0.0049
G1 X0.4123 Y0.0336
G2 X0.4158 Y0.0312 I-0.0008 J-0.0049
G1 X0.4161 Y0.0308
G2 X0.4167 Y0.0272 I-0.0043 J-0.0026
G1 X0.416 Y0.0239
G2 X0.4156 Y0.0229 I-0.0049 J0.0011
G1 X0.4142 Y0.0198
G2 X0.414 Y0.0195 I-0.0045 J0.0021
G1 X0.4124 Y0.0166
X0.4122 Y0.0163
X0.4104 Y0.0135
X0.4103 Y0.0133
X0.4072 Y0.009
G2 X0.4068 Y0.0086 I-0.004 J0.0029
G1 X0.4033 Y0.0047
G2 X0.4026 Y0.0041 I-0.0037 J0.0034
G1 X0.3985 Y0.0009
G2 X0.3977 Y0.0004 I-0.003 J0.004
G1 X0.393 Y-0.0019
G2 X0.3922 Y-0.0022 I-0.0022 J0.0045
G1 X0.3871 Y-0.0037
G2 X0.3864 Y-0.0038 I-0.0014 J0.0048
G1 X0.3803 Y-0.0047
G2 X0.3798 I-0.0007 J0.0049
G1 X0.3736 Y-0.005
G2 X0.3732 I-0.0002 J0.005
G1 X0.365 Y-0.0046
G2 X0.3643 Y-0.0045 I0.0003 J0.005
G1 X0.3562 Y-0.0029
G2 X0.3556 Y-0.0028 I0.0009 J0.0049
G1 X0.3517 Y-0.0015
G2 X0.3511 Y-0.0013 I0.0016 J0.0048
G1 X0.3474 Y0.0004
G2 X0.3467 Y0.0009 I0.0021 J0.0045
G1 X0.3444 Y0.0024
G2 X0.3435 Y0.0032 I0.0029 J0.0041
G1 X0.3417 Y0.0053
G2 X0.3407 Y0.0072 I0.0038 J0.0033
G1 X0.3399 Y0.0099
G2 X0.34 Y0.0127 I0.0048 J0.0013
G1 X0.3409 Y0.0155
G2 X0.3414 Y0.0165 I0.0048 J-0.0015
G1 X0.3429 Y0.019
X0.3431 Y0.0193
X0.3448 Y0.0217
X0.345 Y0.0219
X0.3494 Y0.0272
X0.3555 Y0.0347
X0.3601 Y0.0408
X0.3611 Y0.0424
X0.362 Y0.0438
X0.3622 Y0.0441
X0.3634 Y0.0458
X0.3635 Y0.046
X0.3647 Y0.0475
X0.3689 Y0.0541
X0.3684
G2 X0.3667 Y0.0542 I-0.0005 J0.005
G1 X0.363 Y0.0551
G2 X0.362 Y0.0554 I0.0012 J0.0049
G1 X0.3586 Y0.0571
G2 X0.3581 Y0.0574 I0.0022 J0.0045
G1 X0.3557 Y0.059
G2 X0.3551 Y0.0594 I0.0027 J0.0042
G1 X0.3529 Y0.0613
G2 X0.352 Y0.0624 I0.0033 J0.0038
G1 X0.3495 Y0.0662
G2 X0.349 Y0.0672 I0.0042 J0.0027
G1 X0.3474 Y0.0715
G2 X0.3472 Y0.0722 I0.0047 J0.0018
G1 X0.3465 Y0.0757
G2 X0.3464 Y0.0764 I0.0049 J0.001
G1 X0.3461 Y0.08
G2 X0.3462 Y0.0808 I0.005 J0.0003
G1 X0.3467 Y0.0866
G2 X0.3469 Y0.0875 I0.005 J-0.0005
G1 X0.3486 Y0.0931
G2 X0.3489 Y0.094 I0.0048 J-0.0014
G1 X0.3516 Y0.0991
G2 X0.3521 Y0.1 I0.0044 J-0.0023
G1 X0.3558 Y0.1045
G2 X0.3564 Y0.1052 I0.0039 J-0.0031
G1 X0.3609 Y0.109
G2 X0.3616 Y0.1095 I0.0032 J-0.0038
G1 X0.3665 Y0.1124
G2 X0.3673 Y0.1127 I0.0025 J-0.0043
G1 X0.3726 Y0.1148
G2 X0.3733 Y0.115 I0.0018 J-0.0047
G1 X0.3789 Y0.1162
G2 X0.3796 Y0.1163 I0.0011 J-0.0049
G1 X0.3853 Y0.1167
G2 X0.3861 I0.0003 J-0.005
G1 X0.3917 Y0.1162
G2 X0.3927 Y0.116 I-0.0004 J-0.005
G1 X0.398 Y0.1144
G2 X0.3989 Y0.114 I-0.0015 J-0.0048
G1 X0.4038 Y0.1113
G2 X0.4047 Y0.1107 I-0.0024 J-0.0044
G1 X0.4088 Y0.107
G2 X0.4095 Y0.1063 I-0.0033 J-0.0038
G1 X0.4122 Y0.1028
G2 X0.4126 Y0.1021 I-0.004 J-0.003
G1 X0.4146 Y0.0982
G2 X0.415 Y0.0973 I-0.0044 J-0.0023
G1 X0.4162 Y0.0931
G2 X0.4164 Y0.0922 I-0.0048 J-0.0014
G1 X0.4168 Y0.0878
G2 Y0.0868 I-0.005 J-0.0005
G1 X0.4161 Y0.0807
G2 X0.4159 Y0.0798 I-0.005 J0.0006
G1 X0.4141 Y0.0738
G2 X0.4138 Y0.0732 I-0.0048 J0.0015
G1 X0.4113 Y0.0675
G2 X0.4111 Y0.0671 I-0.0046 J0.0021
G1 X0.4095 Y0.0643
G3 X0.4099 Y0.0629 I0.0009 J-0.0005
G1 X0.4107 Y0.0624
X0.4113 Y0.0621 Z0.0003
X0.4116 Y0.0619 Z0.001
G0 Z0.2
X0.3749 Y0.0777
G1 Z0.0394 F13.33
Z0.001
X0.3752 Z0.0003
X0.3759 Y0.0776 Z0
X0.3769 Y0.0775 F40
G3 X0.378 Y0.0785 I0.0001 J0.001
G1 X0.3781 Y0.0795
X0.3779 Y0.0827
X0.3775 Y0.0855
X0.3767 Y0.0878
X0.3763 Y0.0884
Y0.0882
X0.3746 Y0.0831
X0.3739 Y0.0788
X0.3737 Y0.0744
X0.374 Y0.0691
X0.3747 Y0.065
X0.3748 Y0.0646
X0.3761 Y0.0679
X0.3771 Y0.0711
X0.3777 Y0.0742
X0.378 Y0.0785
G3 X0.3771 Y0.0795 I-0.001 J0.0001
G1 X0.3761 Y0.0796
X0.3753 Y0.0797 Z0.0003
X0.3751 Z0.001
G0 Z0.2
X0.333 Y0.0682
G1 Z0.0394 F13.33
Z0.001
X0.3328 Y0.0684 Z0.0003
X0.3323 Y0.0689 Z0
X0.3316 Y0.0696 F40
G3 X0.3302 I-0.0007 J-0.0007
G1 X0.3256 Y0.065
X0.3253 Y0.0647
X0.3228 Y0.0625
X0.3229
G2 X0.3232 Y0.0621 I-0.0036 J-0.0035
G1 X0.3266 Y0.0579
G2 X0.327 Y0.0574 I-0.0039 J-0.0032
G1 X0.3293 Y0.0538
X0.3299 Y0.0528
G2 X0.3302 Y0.0521 I-0.0042 J-0.0026
G1 X0.3319 Y0.0482
G2 X0.3322 Y0.0475 I-0.0046 J-0.002
G1 X0.3333 Y0.0434
G2 X0.3334 Y0.0425 I-0.0048 J-0.0013
G1 X0.3338 Y0.0383
G2 Y0.0373 I-0.005 J-0.0004
G1 X0.3331 Y0.0316
G2 X0.3329 Y0.0305 I-0.005 J0.0005
G1 X0.3311 Y0.025
G2 X0.3307 Y0.0243 I-0.0047 J0.0016
G1 X0.328 Y0.0192
G2 X0.3276 Y0.0186 I-0.0044 J0.0024
G1 X0.3242 Y0.0139
G2 X0.3238 Y0.0134 I-0.004 J0.003
G1 X0.3198 Y0.0093
G2 X0.3194 Y0.0089 I-0.0036 J0.0035
G1 X0.3149 Y0.0052
G2 X0.3144 Y0.0048 I-0.0032 J0.0039
G1 X0.3087 Y0.0012
G2 X0.3081 Y0.0008 I-0.0027 J0.0042
G1 X0.3019 Y-0.002
G2 X0.3012 Y-0.0023 I-0.0021 J0.0045
G1 X0.2947 Y-0.0041
G2 X0.2938 Y-0.0043 I-0.0014 J0.0048
G1 X0.287 Y-0.005
G2 X0.2862 I-0.0005 J0.005
G1 X0.2808 Y-0.0047
G2 X0.2801 Y-0.0045 I0.0003 J0.005
G1 X0.2749 Y-0.0034
G2 X0.2739 Y-0.0031 I0.0011 J0.0049
G1 X0.269 Y-0.001
G2 X0.2681 Y-0.0005 I0.002 J0.0046
G1 X0.2637 Y0.0026
G2 X0.2629 Y0.0034 I0.0029 J0.0041
G1 X0.2601 Y0.0065
G2 X0.2594 Y0.0074 I0.0037 J0.0034
G1 X0.2574 Y0.0111
G2 X0.257 Y0.0121 I0.0044 J0.0025
G1 X0.2557 Y0.0161
G2 X0.2555 Y0.0171 I0.0048 J0.0014
G1 X0.2552 Y0.0213
G2 Y0.0223 I0.005 J0.0004
G1 X0.2557 Y0.0275
G2 X0.256 Y0.0286 I0.005 J-0.0005
G1 X0.2577 Y0.0336
G2 X0.2582 Y0.0347 I0.0047 J-0.0016
G1 X0.2611 Y0.0391
G2 X0.2617 Y0.0399 I0.0042 J-0.0027
G1 X0.2654 Y0.0437
G2 X0.2658 Y0.0441 I0.0036 J-0.0035
G1 X0.2722 Y0.0494
X0.2724 Y0.0496
X0.2792 Y0.0544
X0.2793 Y0.0545
X0.2805 Y0.0553
X0.2803 Y0.0554
X0.276 Y0.0599
G2 X0.2756 Y0.0603 I0.0036 J0.0035
G1 X0.2717 Y0.0653
G2 X0.2713 Y0.066 I0.0039 J0.0031
G1 X0.2689 Y0.0703
G2 X0.2686 Y0.0712 I0.0044 J0.0024
G1 X0.2671 Y0.0758
G2 X0.2669 Y0.0769 I0.0048 J0.0015
G1 X0.2664 Y0.0818
G2 Y0.0829 I0.005 J0.0005
G1 X0.2671 Y0.0887
G2 X0.2674 Y0.0899 I0.005 J-0.0006
G1 X0.2695 Y0.0953
G2 X0.27 Y0.0962 I0.0047 J-0.0018
G1 X0.2732 Y0.1011
G2 X0.2738 Y0.1018 I0.0042 J-0.0028
G1 X0.2779 Y0.106
G2 X0.2785 Y0.1065 I0.0036 J-0.0035
G1 X0.2833 Y0.1099
G2 X0.2839 Y0.1103 I0.0029 J-0.0041
G1 X0.2891 Y0.1129
G2 X0.2897 Y0.1131 I0.0022 J-0.0045
G1 X0.2951 Y0.115
G2 X0.2957 Y0.1152 I0.0016 J-0.0047
G1 X0.3013 Y0.1163
G2 X0.302 Y0.1164 I0.001 J-0.0049
G1 X0.3077 Y0.1167
G2 X0.3082 I0.0003 J-0.005
G1 X0.3115 Y0.1166
G2 X0.312 I-0.0002 J-0.005
G1 X0.3153 Y0.1161
G2 X0.316 Y0.1159 I-0.0007 J-0.0049
G1 X0.3176 Y0.1155
G2 X0.3184 Y0.1152 I-0.0014 J-0.0048
G1 X0.3199 Y0.1144
G2 X0.3213 Y0.1134 I-0.0022 J-0.0045
G1 X0.3224 Y0.1122
G2 X0.323 Y0.1115 I-0.0036 J-0.0035
G1 X0.3236 Y0.1116
G2 X0.3244 Y0.1118 I0.0012 J-0.0048
G1 X0.3263 Y0.1119
G2 X0.3276 I0.0004 J-0.005
G1 X0.3309 Y0.1112
G2 X0.3326 Y0.1106 I-0.0009 J-0.0049
G1 X0.3355 Y0.1088
G2 X0.3367 Y0.1077 I-0.0026 J-0.0043
G1 X0.3388 Y0.1051
G2 X0.3396 Y0.1037 I-0.0039 J-0.0031
G1 X0.341 Y0.1001
G2 X0.3413 Y0.0988 I-0.0047 J-0.0018
G1 X0.3417 Y0.0949
G2 Y0.0938 I-0.005 J-0.0005
G1 X0.3411 Y0.0883
G2 X0.3409 Y0.0873 I-0.005 J0.0006
G1 X0.3391 Y0.0821
G2 X0.3387 Y0.0812 I-0.0047 J0.0016
G1 X0.3359 Y0.0764
G2 X0.3355 Y0.0758 I-0.0043 J0.0025
G1 X0.3321 Y0.0715
G2 X0.3317 Y0.0711 I-0.0039 J0.0031
G1 X0.3302 Y0.0696
G3 Y0.0682 I0.0007 J-0.0007
G1 X0.3309 Y0.0675
X0.3314 Y0.067 Z0.0003
X0.3316 Y0.0668 Z0.001
G0 Z0.2
X0.3101 Y0.0878
G1 Z0.0394 F13.33
Z0.001
X0.3103 Y0.0877 Z0.0003
X0.311 Y0.0875 Z0
X0.312 Y0.0871 F40
G3 X0.3132 Y0.0877 I0.0003 J0.0009
G1 X0.3139 Y0.0896
X0.3142 Y0.0922
X0.3141 Y0.0936
X0.3138 Y0.0949
X0.3134 Y0.0957
X0.3127 Y0.0967
X0.3123 Y0.0972
G2 X0.3117 Y0.0982 I0.0039 J0.0031
G1 X0.3106 Y0.0971
X0.3082 Y0.094
X0.3064 Y0.0904
X0.3055 Y0.0876
X0.3051 Y0.0851
X0.3056 Y0.0821
X0.3069 Y0.079
X0.3071 Y0.0787
X0.3079 Y0.0795
X0.3116 Y0.0844
X0.313 Y0.087
X0.3132 Y0.0877
G3 X0.3126 Y0.089 I-0.0009 J0.0003
G1 X0.3117 Y0.0893
X0.311 Y0.0896 Z0.0003
X0.3107 Y0.0897 Z0.001
G0 Z0.2
X0.2505 Y0.0616
G1 Z0.0394 F13.33
Z0.001
X0.2502 Y0.0617 Z0.0003
X0.2495 Y0.0619 Z0
X0.2486 Y0.0622 F40
G3 X0.2473 Y0.0616 I-0.0003 J-0.001
G1 X0.2453 Y0.055
X0.2433 Y0.0485
X0.2421 Y0.0444
X0.2413 Y0.0417
X0.2405 Y0.0391
Y0.039
X0.2397 Y0.0364
X0.235 Y0.0207
X0.2349 Y0.0205
X0.2327 Y0.0144
G2 X0.2325 Y0.0139 I-0.0047 J0.0017
G1 X0.2297 Y0.0081
G2 X0.2291 Y0.0073 I-0.0045 J0.0022
G1 X0.2276 Y0.0053
G2 X0.2272 Y0.0048 I-0.004 J0.0031
G1 X0.2258 Y0.0034
G2 X0.2251 Y0.0028 I-0.0035 J0.0035
G1 X0.2209 Y-0.0001
G2 X0.2204 Y-0.0004 I-0.0029 J0.0041
G1 X0.2159 Y-0.0029
G2 X0.2149 Y-0.0033 I-0.0024 J0.0044
G1 X0.211 Y-0.0045
G2 X0.21 Y-0.0047 I-0.0014 J0.0048
G1 X0.2059 Y-0.005
G2 X0.205 I-0.0004 J0.005
G1 X0.2022 Y-0.0047
G2 X0.2011 Y-0.0045 I0.0005 J0.005
G1 X0.1984 Y-0.0035
G2 X0.1973 Y-0.003 I0.0016 J0.0047
G1 X0.1949 Y-0.0015
G2 X0.1941 Y-0.0009 I0.0027 J0.0042
G1 X0.1925 Y0.0007
G2 X0.1917 Y0.0017 I0.0035 J0.0036
G1 X0.1905 Y0.0036
G2 X0.1899 Y0.0053 I0.0043 J0.0026
G1 X0.1895 Y0.0075
G2 X0.1894 Y0.009 I0.0049 J0.0009
G1 X0.1896 Y0.0101
G2 X0.1897 Y0.0106 I0.005 J-0.0006
G1 X0.1899 Y0.0115
G2 X0.19 Y0.012 I0.0049 J-0.0011
G1 X0.1965 Y0.0306
Y0.0307
X0.2032 Y0.0492
X0.2033 Y0.0493
X0.212 Y0.072
X0.2103 Y0.0717
G2 X0.2085 I-0.0009 J0.0049
G1 X0.2076 Y0.0719
G2 X0.2058 Y0.0725 I0.0009 J0.0049
G1 X0.205 Y0.073
G2 X0.2036 Y0.0743 I0.0026 J0.0043
G1 X0.2025 Y0.0758
G2 X0.2018 Y0.0774 I0.0041 J0.0029
G1 X0.2013 Y0.0791
G2 X0.2011 Y0.0801 I0.0048 J0.0014
G1 X0.2009 Y0.082
G2 Y0.0831 I0.005 J0.0004
G1 X0.2013 Y0.0858
G2 X0.2015 Y0.0867 I0.005 J-0.0007
G1 X0.2023 Y0.0893
G2 X0.2026 Y0.0899 I0.0048 J-0.0015
G1 X0.2035 Y0.0919
G2 X0.204 Y0.0928 I0.0045 J-0.0021
G1 X0.2053 Y0.0946
G2 X0.207 Y0.0959 I0.004 J-0.003
G1 X0.2122 Y0.0988
X0.2124 Y0.0989
X0.2178 Y0.1015
X0.2179
X0.2264 Y0.1055
X0.2266 Y0.1056
X0.2289 Y0.1065
X0.2301 Y0.1072
G2 X0.2306 Y0.1074 I0.0023 J-0.0044
G1 X0.2316 Y0.1078
X0.2393 Y0.1112
X0.2397 Y0.1114
X0.2428 Y0.1125
G2 X0.2435 Y0.1127 I0.0017 J-0.0047
G1 X0.2468 Y0.1134
G2 X0.2484 Y0.1135 I0.001 J-0.0049
G1 X0.2503 Y0.1133
G2 X0.2519 Y0.1128 I-0.0006 J-0.005
G1 X0.2536 Y0.112
G2 X0.255 Y0.111 I-0.0021 J-0.0045
G1 X0.2564 Y0.1097
G2 X0.257 Y0.1088 I-0.0036 J-0.0035
G1 X0.2583 Y0.1069
G2 X0.2586 Y0.1063 I-0.0042 J-0.0027
G1 X0.2595 Y0.1043
G2 X0.2599 Y0.1016 I-0.0045 J-0.0021
G1 X0.2595 Y0.0974
G2 X0.2594 Y0.0968 I-0.005 J0.0006
G1 X0.2584 Y0.0927
X0.2583 Y0.0923
X0.2571 Y0.0883
X0.257 Y0.088
X0.2534 Y0.0786
X0.2507 Y0.0717
X0.2488 Y0.0665
X0.2483 Y0.0648
X0.2479 Y0.0633
X0.2473 Y0.0616
G3 X0.248 Y0.0603 I0.001 J-0.0003
G1 X0.2489 Y0.06
X0.2496 Y0.0598 Z0.0003
X0.2499 Y0.0597 Z0.001
G0 Z0.2
X0.2943 Y0.0263
G1 Z0.0394 F13.33
Z0.001
X0.2946 Z0.0003
X0.2953 Y0.026 Z0
X0.2962 Y0.0257 F40
G3 X0.2975 Y0.0264 I0.0003 J0.001
G1 X0.2977 Y0.027
X0.2982 Y0.031
X0.298 Y0.035
X0.2971 Y0.039
X0.295 Y0.0361
X0.2928 Y0.0317
X0.2917 Y0.0281
X0.2909 Y0.0243
X0.2907 Y0.0204
X0.2908 Y0.0173
X0.2913 Y0.0143
Y0.0141
X0.294 Y0.0179
X0.2964 Y0.023
X0.2975 Y0.0264
G3 X0.2968 Y0.0276 I-0.001 J0.0003
G1 X0.2959 Y0.0279
X0.2952 Y0.0282 Z0.0003
X0.2949 Z0.001
G0 Z0.2
X0.1895 Y0.064
G1 Z0.0394 F13.33
Z0.001
X0.1892 Z0.0003
X0.1885 Y0.0638 Z0
X0.1876 Y0.0636 F40
G3 X0.1868 Y0.0624 I0.0002 J-0.001
G2 Y0.06 I-0.0049 J-0.0012
G1 X0.1859 Y0.0566
G2 X0.1856 Y0.0556 I-0.0048 J0.0012
G1 X0.184 Y0.0524
G2 X0.1837 Y0.052 I-0.0045 J0.0022
G1 X0.1823 Y0.0496
G2 X0.1819 Y0.0492 I-0.0042 J0.0027
G1 X0.1802 Y0.047
G2 X0.1796 Y0.0464 I-0.0039 J0.0032
G1 X0.1759 Y0.0432
G2 X0.1751 Y0.0426 I-0.0033 J0.0038
G1 X0.1708 Y0.0403
G2 X0.1702 Y0.04 I-0.0024 J0.0044
G1 X0.1666 Y0.0387
G2 X0.1662 Y0.0386 I-0.0017 J0.0047
G1 X0.1648 Y0.0382
X0.1532 Y0.0127
X0.1528 Y0.0117
X0.1527 Y0.0115
X0.1523 Y0.0106
Y0.0104
X0.1509 Y0.0075
G2 X0.1505 Y0.0068 I-0.0045 J0.0021
G1 X0.149 Y0.0047
G2 X0.1479 Y0.0035 I-0.0041 J0.0028
G1 X0.1443 Y0.0009
G2 X0.1436 Y0.0005 I-0.0029 J0.004
G1 X0.1397 Y-0.0014
G2 X0.1392 Y-0.0017 I-0.0022 J0.0045
G1 X0.1351 Y-0.0032
G2 X0.1345 Y-0.0033 I-0.0017 J0.0047
G1 X0.1295 Y-0.0045
G2 X0.1288 Y-0.0046 I-0.0011 J0.0049
G1 X0.1236 Y-0.005
G2 X0.1228 I-0.0004 J0.005
G1 X0.1201 Y-0.0048
G2 X0.1191 Y-0.0046 I0.0004 J0.005
G1 X0.1165 Y-0.0038
G2 X0.1148 Y-0.0029 I0.0015 J0.0048
G1 X0.1127 Y-0.0013
G2 X0.1114 Y0.0003 I0.0031 J0.0039
G1 X0.1107 Y0.0015
G2 X0.1102 Y0.0031 I0.0044 J0.0023
G1 X0.11 Y0.0044
G2 Y0.0063 I0.0049 J0.0008
G1 X0.1106 Y0.0087
X0.1099 Y0.0069
G2 X0.1097 Y0.0064 I-0.0047 J0.0016
G1 X0.1088 Y0.0043
G2 X0.108 Y0.0031 I-0.0046 J0.0021
G1 X0.1065 Y0.0013
G2 X0.1053 Y0.0003 I-0.0038 J0.0032
G1 X0.1037 Y-0.0007
G2 X0.1031 Y-0.001 I-0.0026 J0.0043
G1 X0.1014 Y-0.0018
G2 X0.1009 Y-0.002 I-0.002 J0.0046
G1 X0.0944 Y-0.0041
G2 X0.0938 Y-0.0042 I-0.0015 J0.0048
G1 X0.0911 Y-0.0047
G2 X0.0906 Y-0.0048 I-0.0009 J0.0049
G1 X0.0879 Y-0.005
G2 X0.0872 I-0.0004 J0.005
G1 X0.0845 Y-0.0048
G2 X0.0835 Y-0.0046 I0.0003 J0.005
G1 X0.0809 Y-0.0039
G2 X0.0796 Y-0.0033 I0.0014 J0.0048
G1 X0.0785 Y-0.0025
G2 X0.0774 Y-0.0016 I0.0027 J0.0042
G1 X0.0766 Y-0.0006
G2 X0.0758 Y0.0009 I0.0038 J0.0032
G1 X0.0753 Y0.0021
G2 X0.075 Y0.0033 I0.0047 J0.0018
G1 X0.0748 Y0.0046
G2 Y0.0058 I0.005 J0.0005
G1 X0.0752 Y0.0088
G2 X0.0753 Y0.0093 I0.005 J-0.0007
G1 X0.076 Y0.0122
G2 X0.0762 Y0.0127 I0.0049 J-0.0012
G1 X0.0777 Y0.0171
G2 X0.078 Y0.0177 I0.0047 J-0.0016
G1 X0.0803 Y0.0222
G2 X0.0805 Y0.0227 I0.0045 J-0.0023
G1 X0.0816 Y0.0244
G2 X0.0821 Y0.025 I0.0042 J-0.0027
G1 X0.0835 Y0.0265
G2 X0.0845 Y0.0273 I0.0037 J-0.0034
G1 X0.0886 Y0.0299
G2 X0.0895 Y0.0304 I0.0027 J-0.0042
G1 X0.094 Y0.0321
G2 X0.0945 Y0.0323 I0.0018 J-0.0047
G1 X0.0982 Y0.0332
G2 X0.099 Y0.0333 I0.0012 J-0.0049
G1 X0.1027 Y0.0337
G2 X0.1038 I0.0005 J-0.005
G1 X0.1055 Y0.0335
G2 X0.107 Y0.0331 I-0.0006 J-0.005
G1 X0.1085 Y0.0324
G2 X0.1102 Y0.0312 I-0.002 J-0.0046
G1 X0.1114 Y0.0299
G2 X0.1124 Y0.0283 I-0.0037 J-0.0033
G1 X0.1131 Y0.0264
G2 X0.1133 Y0.0251 I-0.0047 J-0.0017
G1 X0.1135 Y0.023
G2 Y0.0222 I-0.005 J-0.0004
G1 X0.1132 Y0.0181
G2 X0.1131 Y0.0174 I-0.005 J0.0004
G1 X0.1122 Y0.0135
G2 X0.112 Y0.0129 I-0.0049 J0.0011
G1 X0.1113 Y0.0108
X0.1117 Y0.0119
X0.1118 Y0.0122
X0.1129 Y0.0145
Y0.0147
X0.1156 Y0.0201
X0.1157 Y0.0202
X0.1161 Y0.021
X0.1164 Y0.0217
X0.1233 Y0.0354
X0.1228 Y0.0356
G2 X0.1214 Y0.0362 I0.0014 J0.0048
G1 X0.1199 Y0.0372
G2 X0.1184 Y0.0388 I0.0028 J0.0042
G1 X0.1173 Y0.0406
G2 X0.1166 Y0.0425 I0.0043 J0.0025
G1 X0.1163 Y0.0446
G2 X0.1164 Y0.0461 I0.005 J0.0007
G1 X0.1169 Y0.0492
G2 X0.1171 Y0.0498 I0.0049 J-0.0009
G1 X0.1178 Y0.0521
G2 X0.118 Y0.0528 I0.0048 J-0.0015
G1 X0.1207 Y0.0585
G2 X0.1209 Y0.0589 I0.0045 J-0.0021
G1 X0.1222 Y0.0611
G2 X0.1226 Y0.0616 I0.0043 J-0.0025
G1 X0.1241 Y0.0636
G2 X0.1259 Y0.0651 I0.004 J-0.0031
G1 X0.1276 Y0.0659
G2 X0.129 Y0.0663 I0.0021 J-0.0045
G1 X0.1309 Y0.0666
G2 X0.1314 I0.0007 J-0.0049
G1 X0.1344 Y0.0667
X0.1387 Y0.0669
X0.1393 Y0.067
X0.1506 Y0.0894
X0.1486 Y0.0888
X0.1412 Y0.0862
X0.1367 Y0.0845
X0.1365 Y0.0844
X0.1319 Y0.0829
X0.1316 Y0.0828
X0.1279 Y0.0818
G2 X0.1272 Y0.0817 I-0.0013 J0.0048
G1 X0.1234 Y0.0812
G2 X0.1224 I-0.0006 J0.005
G1 X0.1205 Y0.0814
G2 X0.1189 Y0.0818 I0.0005 J0.005
G1 X0.1172 Y0.0826
G2 X0.1152 Y0.0842 I0.002 J0.0046
G1 X0.1143 Y0.0854
G2 X0.1134 Y0.0875 I0.004 J0.0029
G1 X0.1132 Y0.0889
G2 Y0.0907 I0.0049 J0.0009
G1 X0.1138 Y0.0942
G2 X0.1141 Y0.0952 I0.0049 J-0.0009
G1 X0.1154 Y0.0985
G2 X0.1155 Y0.099 I0.0047 J-0.0018
G1 X0.1171 Y0.1022
G2 X0.1174 Y0.1026 I0.0045 J-0.0022
G1 X0.1196 Y0.1063
G2 X0.1198 Y0.1066 I0.0043 J-0.0026
G1 X0.1224 Y0.1101
G2 X0.1226 Y0.1104 I0.004 J-0.003
G1 X0.124 Y0.112
G2 X0.1244 Y0.1124 I0.0038 J-0.0033
G1 X0.126 Y0.1138
G2 X0.127 Y0.1145 I0.0034 J-0.0037
G1 X0.1288 Y0.1155
G2 X0.1302 Y0.116 I0.0024 J-0.0044
G1 X0.1326 Y0.1165
G2 X0.1334 Y0.1166 I0.001 J-0.0049
G1 X0.1359 Y0.1167
G2 X0.1363 I0.0002 J-0.005
G1 X0.1378
X0.1381 Y0.1166
X0.1391 Y0.1165
X0.1581 Y0.1162
X0.1582
X0.1658 Y0.1159
X0.1661 Y0.1158
X0.1736 Y0.1151
X0.174
X0.1799 Y0.1141
G2 X0.1805 Y0.114 I-0.0008 J-0.0049
G1 X0.1862 Y0.1122
G2 X0.1875 Y0.1117 I-0.0015 J-0.0048
G1 X0.1887 Y0.1109
G2 X0.1898 Y0.1099 I-0.0027 J-0.0042
G1 X0.1907 Y0.1088
G2 X0.1918 Y0.1068 I-0.0038 J-0.0033
G1 X0.1924 Y0.1046
G2 Y0.1025 I-0.0048 J-0.0012
G1 X0.192 Y0.0999
G2 X0.1918 Y0.0991 I-0.0049 J0.0009
G1 X0.1909 Y0.0966
X0.1908 Y0.0963
X0.1891 Y0.0925
Y0.0924
X0.1779 Y0.0672
X0.1782
X0.1804 Y0.0671
G2 X0.181 I-0.0003 J-0.005
G1 X0.1821 Y0.0668
G2 X0.1836 Y0.0663 I-0.0009 J-0.0049
G1 X0.1841 Y0.0661
G2 X0.186 Y0.0642 I-0.0024 J-0.0044
G1 X0.1863 Y0.0637
G2 X0.1868 Y0.0624 I-0.0043 J-0.0025
G3 X0.188 Y0.0616 I0.001 J0.0002
G1 X0.189 Y0.0619
X0.1897 Y0.062 Z0.0003
X0.19 Y0.0621 Z0.001
G0 Z0.2
X0.0745 Y0.0672
G1 Z0.0394 F13.33
Z0.001
X0.0742 Y0.0673 Z0.0003
X0.0736 Y0.0676 Z0
X0.0727 Y0.068 F40
G3 X0.0713 Y0.0675 I-0.0004 J-0.0009
G2 X0.0711 Y0.0671 I-0.0046 J0.0021
G1 X0.0681 Y0.0617
X0.068 Y0.0615
X0.0646 Y0.0563
Y0.0561
X0.0611 Y0.051
X0.061 Y0.0508
X0.0524 Y0.0389
X0.0523 Y0.0388
X0.0457 Y0.0305
X0.0459
X0.0518 Y0.0307
X0.0577 Y0.0312
X0.0622 Y0.0318
X0.0666 Y0.0329
X0.0683 Y0.0333
G2 X0.0688 Y0.0334 I0.0013 J-0.0048
G1 X0.0702 Y0.0337
G2 X0.0717 I0.0008 J-0.0049
G1 X0.0724 Y0.0336
G2 X0.0759 Y0.0312 I-0.0008 J-0.0049
G1 X0.0761 Y0.0308
G2 X0.0767 Y0.0272 I-0.0043 J-0.0025
G1 X0.076 Y0.0239
G2 X0.0756 Y0.0229 I-0.0049 J0.0011
G1 X0.0742 Y0.0198
G2 X0.0741 Y0.0195 I-0.0045 J0.0021
G1 X0.0724 Y0.0166
X0.0723 Y0.0163
X0.0705 Y0.0135
X0.0703 Y0.0133
X0.0672 Y0.009
G2 X0.0669 Y0.0086 I-0.004 J0.0029
G1 X0.0634 Y0.0047
G2 X0.0627 Y0.0041 I-0.0037 J0.0034
G1 X0.0585 Y0.0009
G2 X0.0577 Y0.0004 I-0.003 J0.004
G1 X0.053 Y-0.0019
G2 X0.0522 Y-0.0022 I-0.0022 J0.0045
G1 X0.0472 Y-0.0037
G2 X0.0465 Y-0.0038 I-0.0014 J0.0048
G1 X0.0404 Y-0.0047
G2 X0.0398 I-0.0007 J0.0049
G1 X0.0337 Y-0.005
G2 X0.0332 I-0.0002 J0.005
G1 X0.025 Y-0.0046
G2 X0.0243 Y-0.0045 I0.0003 J0.005
G1 X0.0163 Y-0.0029
G2 X0.0156 Y-0.0028 I0.0009 J0.0049
G1 X0.0117 Y-0.0015
G2 X0.0112 Y-0.0013 I0.0016 J0.0048
G1 X0.0075 Y0.0004
G2 X0.0067 Y0.0009 I0.0021 J0.0045
G1 X0.0045 Y0.0024
G2 X0.0036 Y0.0032 I0.0029 J0.0041
G1 X0.0018 Y0.0053
G2 X0.0007 Y0.0072 I0.0038 J0.0033
G1 X0 Y0.0099
G2 Y0.0127 I0.0048 J0.0013
G1 X0.0009 Y0.0155
G2 X0.0014 Y0.0165 I0.0048 J-0.0015
G1 X0.0029 Y0.019
X0.0031 Y0.0193
X0.0048 Y0.0217
X0.005 Y0.0219
X0.0094 Y0.0272
X0.0156 Y0.0347
X0.0201 Y0.0408
X0.0212 Y0.0424
X0.022 Y0.0438
X0.0222 Y0.0441
X0.0234 Y0.0458
X0.0236 Y0.046
X0.0247 Y0.0475
X0.0289 Y0.0541
X0.0284
G2 X0.0267 Y0.0542 I-0.0005 J0.005
G1 X0.0231 Y0.0551
G2 X0.022 Y0.0554 I0.0012 J0.0049
G1 X0.0187 Y0.0571
G2 X0.0182 Y0.0574 I0.0022 J0.0045
G1 X0.0157 Y0.059
G2 X0.0151 Y0.0594 I0.0027 J0.0042
G1 X0.0129 Y0.0613
G2 X0.012 Y0.0624 I0.0033 J0.0038
G1 X0.0095 Y0.0662
G2 X0.009 Y0.0672 I0.0042 J0.0027
G1 X0.0074 Y0.0715
G2 X0.0072 Y0.0722 I0.0047 J0.0018
G1 X0.0065 Y0.0757
G2 X0.0064 Y0.0764 I0.0049 J0.001
G1 X0.0062 Y0.08
G2 Y0.0808 I0.005 J0.0003
G1 X0.0068 Y0.0866
G2 X0.0069 Y0.0875 I0.005 J-0.0005
G1 X0.0086 Y0.0931
G2 X0.009 Y0.094 I0.0048 J-0.0014
G1 X0.0117 Y0.0991
G2 X0.0122 Y0.1 I0.0044 J-0.0023
G1 X0.0158 Y0.1045
G2 X0.0165 Y0.1052 I0.0039 J-0.0031
G1 X0.0209 Y0.109
G2 X0.0216 Y0.1095 I0.0032 J-0.0038
G1 X0.0266 Y0.1124
G2 X0.0273 Y0.1127 I0.0025 J-0.0043
G1 X0.0326 Y0.1148
G2 X0.0333 Y0.115 I0.0018 J-0.0047
G1 X0.0389 Y0.1162
G2 X0.0397 Y0.1163 I0.0011 J-0.0049
G1 X0.0454 Y0.1167
G2 X0.0462 I0.0003 J-0.005
G1 X0.0517 Y0.1162
G2 X0.0527 Y0.116 I-0.0004 J-0.005
G1 X0.058 Y0.1144
G2 X0.059 Y0.114 I-0.0015 J-0.0048
G1 X0.0638 Y0.1113
G2 X0.0647 Y0.1107 I-0.0024 J-0.0044
G1 X0.0689 Y0.107
G2 X0.0696 Y0.1063 I-0.0033 J-0.0038
G1 X0.0722 Y0.1028
G2 X0.0726 Y0.1021 I-0.004 J-0.003
G1 X0.0747 Y0.0982
G2 X0.075 Y0.0973 I-0.0044 J-0.0023
G1 X0.0762 Y0.0931
G2 X0.0764 Y0.0922 I-0.0048 J-0.0014
G1 X0.0768 Y0.0878
G2 Y0.0868 I-0.005 J-0.0005
G1 X0.0761 Y0.0807
G2 X0.0759 Y0.0798 I-0.005 J0.0006
G1 X0.0741 Y0.0738
G2 X0.0739 Y0.0732 I-0.0048 J0.0015
G1 X0.0713 Y0.0675
G3 X0.0718 Y0.0662 I0.0009 J-0.0004
G1 X0.0727 Y0.0658
X0.0734 Y0.0655 Z0.0003
X0.0737 Y0.0654 Z0.001
G0 Z0.2
X0.0349 Y0.0777
G1 Z0.0394 F13.33
Z0.001
X0.0352 Z0.0003
X0.0359 Y0.0776 Z0
X0.0369 Y0.0775 F40
G3 X0.038 Y0.0785 I0.0001 J0.001
G1 X0.0381 Y0.0795
X0.038 Y0.0827
X0.0375 Y0.0855
X0.0367 Y0.0878
X0.0364 Y0.0884
X0.0363 Y0.0882
X0.0346 Y0.0831
X0.0339 Y0.0788
X0.0337 Y0.0744
X0.0341 Y0.0691
X0.0348 Y0.065
X0.0349 Y0.0646
X0.0361 Y0.0679
X0.0371 Y0.0711
X0.0377 Y0.0742
X0.038 Y0.0785
G3 X0.0371 Y0.0795 I-0.001 J0.0001
G1 X0.0361 Y0.0796
X0.0354 Y0.0797 Z0.0003
X0.0351 Z0.001
G0 Z0.2
X0.9051 Y0.0692
G1 Z0.0394 F13.33
Z0.001
X0.9054 Z0.0003
X0.9061 Y0.069 Z0
X0.9071 Y0.0689 F40
G3 X0.9082 Y0.0697 I0.0002 J0.001
G1 X0.9084 Y0.0711
G2 X0.9085 Y0.0716 I0.0049 J-0.0008
G1 X0.9092 Y0.0741
Y0.0743
X0.9104 Y0.0783
X0.9105 Y0.0784
X0.9145 Y0.0904
X0.9146 Y0.0906
X0.9181 Y0.1
X0.9182 Y0.1002
X0.9188 Y0.1014
X0.9196 Y0.1032
X0.9202 Y0.1046
X0.9223 Y0.1092
G2 X0.9226 Y0.1097 I0.0045 J-0.0021
G1 X0.9236 Y0.1114
G2 X0.9242 Y0.1121 I0.0043 J-0.0026
G1 X0.9255 Y0.1136
G2 X0.9271 Y0.1148 I0.0037 J-0.0033
G1 X0.9292 Y0.1158
G2 X0.9305 Y0.1162 I0.0021 J-0.0045
G1 X0.9328 Y0.1166
G2 X0.9334 I0.0008 J-0.0049
G1 X0.9358 Y0.1167
X0.936
X0.9495
X0.9496
X0.9601 Y0.1164
X0.9619
X0.9622
X0.9634 Y0.1163
X0.9643
G2 X0.9648 Y0.1162 J-0.005
G1 X0.9708 Y0.1157
G2 X0.9715 Y0.1156 I-0.0004 J-0.005
G1 X0.9744 Y0.115
G2 X0.9757 Y0.1144 I-0.0011 J-0.0049
G1 X0.9771 Y0.1137
G2 X0.9792 Y0.1114 I-0.0025 J-0.0044
G1 X0.9798 Y0.11
G2 X0.98 Y0.1065 I-0.0046 J-0.002
G1 X0.9793 Y0.1044
G2 X0.9788 Y0.1034 I-0.0048 J0.0015
G1 X0.9777 Y0.1015
G2 X0.9775 Y0.1011 I-0.0043 J0.0026
G1 X0.9762 Y0.0994
G2 X0.9758 Y0.0989 I-0.004 J0.003
G1 X0.9722 Y0.0952
G2 X0.9718 Y0.0948 I-0.0036 J0.0035
G1 X0.9669 Y0.0909
G2 X0.9663 Y0.0904 I-0.0032 J0.0039
G1 X0.9609 Y0.0873
G2 X0.9602 Y0.0869 I-0.0025 J0.0043
G1 X0.9571 Y0.0857
G2 X0.9565 Y0.0855 I-0.0018 J0.0047
G1 X0.9533 Y0.0848
X0.9532
X0.9538
G2 X0.9543 I0.0003 J-0.005
G1 X0.9593 Y0.0845
G2 X0.96 Y0.0844 I-0.0003 J-0.005
G1 X0.965 Y0.0835
G2 X0.9659 Y0.0832 I-0.001 J-0.0049
G1 X0.9705 Y0.0814
G2 X0.9716 Y0.0808 I-0.0019 J-0.0046
G1 X0.9756 Y0.0779
G2 X0.9766 Y0.0771 I-0.0029 J-0.0041
G1 X0.9791 Y0.0741
G2 X0.9798 Y0.0731 I-0.0038 J-0.0033
G1 X0.9816 Y0.0696
Y0.0695
X0.982 Y0.0739
G2 X0.9822 Y0.0748 I0.005 J-0.0005
G1 X0.984 Y0.0812
G2 X0.9843 Y0.082 I0.0048 J-0.0014
G1 X0.9872 Y0.088
G2 X0.9875 Y0.0886 I0.0045 J-0.0022
G1 X0.9912 Y0.0941
G2 X0.9916 Y0.0946 I0.0042 J-0.0028
G1 X0.9959 Y0.0996
G2 X0.9964 Y0.1001 I0.0038 J-0.0033
G1 X1.0013 Y0.1045
G2 X1.0018 Y0.1049 I0.0033 J-0.0037
G1 X1.0083 Y0.1093
G2 X1.0089 Y0.1097 I0.0028 J-0.0041
G1 X1.0159 Y0.1132
G2 X1.0167 Y0.1135 I0.0022 J-0.0045
G1 X1.0241 Y0.1158
G2 X1.0251 Y0.1159 I0.0014 J-0.0048
G1 X1.0329 Y0.1167
G2 X1.0337 I0.0005 J-0.005
G1 X1.0381 Y0.1164
G2 X1.0388 Y0.1163 I-0.0003 J-0.005
G1 X1.0431 Y0.1154
G2 X1.0438 Y0.1152 I-0.0011 J-0.0049
G1 X1.0479 Y0.1136
G2 X1.0486 Y0.1132 I-0.0018 J-0.0047
G1 X1.0531 Y0.1106
G2 X1.0538 Y0.1101 I-0.0025 J-0.0043
G1 X1.0577 Y0.1068
G2 X1.0583 Y0.1062 I-0.0032 J-0.0038
G1 X1.0619 Y0.1018
G2 X1.0624 Y0.1011 I-0.0038 J-0.0032
G1 X1.0652 Y0.0962
G2 X1.0656 Y0.0955 I-0.0043 J-0.0025
G1 X1.0676 Y0.0901
G2 X1.0678 Y0.0894 I-0.0047 J-0.0017
G1 X1.0691 Y0.0828
G2 X1.0692 Y0.0821 I-0.0049 J-0.001
G1 X1.0696 Y0.0755
G2 Y0.0748 I-0.005 J-0.0003
G1 X1.0688 Y0.0659
G2 X1.0687 Y0.0651 I-0.005 J0.0004
G1 X1.0665 Y0.0565
G2 X1.0663 Y0.0558 I-0.0049 J0.0012
G1 X1.0631 Y0.0476
G2 X1.0628 Y0.0471 I-0.0046 J0.0018
G1 X1.0587 Y0.0392
G2 X1.0585 Y0.0388 I-0.0044 J0.0023
G1 X1.0536 Y0.0313
G2 X1.0533 Y0.0309 I-0.0042 J0.0027
G1 X1.0478 Y0.024
G2 X1.0475 Y0.0236 I-0.0039 J0.0031
G1 X1.0414 Y0.0172
G2 X1.041 Y0.0169 I-0.0036 J0.0034
G1 X1.0349 Y0.0115
G2 X1.0345 Y0.0112 I-0.0033 J0.0038
G1 X1.0279 Y0.0064
G2 X1.0275 Y0.0062 I-0.0029 J0.0041
G1 X1.0205 Y0.002
G2 X1.02 Y0.0017 I-0.0025 J0.0043
G1 X1.0125 Y-0.0016
G2 X1.0118 Y-0.0018 I-0.002 J0.0046
G1 X1.004 Y-0.004
G2 X1.0031 Y-0.0042 I-0.0014 J0.0048
G1 X0.995 Y-0.005
G2 X0.994 I-0.0005 J0.005
G1 X0.9908 Y-0.0046
G2 X0.9886 Y-0.0038 I0.0005 J0.005
G1 X0.9872 Y-0.003
G2 X0.9853 Y-0.0007 I0.0027 J0.0042
G1 X0.985 Y0.0001
G2 X0.9847 Y0.0014 I0.0046 J0.0019
G1 X0.9846 Y0.0022
G2 X0.985 Y0.0047 I0.005 J0.0006
G1 X0.9855 Y0.006
G2 X0.9869 Y0.0079 I0.0046 J-0.002
G1 X0.988 Y0.0088
G2 X0.9889 Y0.0094 I0.0032 J-0.0038
G1 X0.9908 Y0.0104
X0.9964 Y0.0135
X1.0012 Y0.0172
X1.0056 Y0.0216
X1.0097 Y0.0264
X1.0133 Y0.0316
X1.0177 Y0.0389
X1.0193 Y0.0421
X1.0189 Y0.0419
G2 X1.0182 Y0.0416 I-0.002 J0.0046
G1 X1.0131 Y0.0403
G2 X1.0122 Y0.0401 I-0.0013 J0.0048
G1 X1.0069 Y0.0397
G2 X1.006 I-0.0004 J0.005
G1 X1.0013 Y0.0402
G2 X1.0002 Y0.0404 I0.0005 J0.005
G1 X0.9957 Y0.042
G2 X0.9946 Y0.0426 I0.0017 J0.0047
G1 X0.9907 Y0.0452
G2 X0.9898 Y0.046 I0.0028 J0.0041
G1 X0.9867 Y0.0495
G2 X0.986 Y0.0505 I0.0037 J0.0033
G1 X0.9837 Y0.0548
G2 X0.9832 Y0.0559 I0.0044 J0.0024
G1 X0.9831 Y0.0563
X0.9827 Y0.0523
G2 X0.9826 Y0.0515 I-0.005 J0.0005
G1 X0.9809 Y0.045
G2 X0.9807 Y0.0444 I-0.0048 J0.0013
G1 X0.9781 Y0.0381
G2 X0.9779 Y0.0376 I-0.0046 J0.0019
G1 X0.9746 Y0.0316
G2 X0.9743 Y0.0311 I-0.0044 J0.0024
G1 X0.9682 Y0.0224
G2 X0.9678 Y0.0219 I-0.0041 J0.0029
G1 X0.9606 Y0.014
G2 X0.9603 Y0.0137 I-0.0037 J0.0034
G1 X0.9553 Y0.0091
G2 X0.955 Y0.0088 I-0.0034 J0.0037
G1 X0.9496 Y0.0046
G2 X0.9492 Y0.0043 I-0.0031 J0.0039
G1 X0.9435 Y0.0006
G2 X0.943 Y0.0003 I-0.0027 J0.0042
G1 X0.9382 Y-0.0021
G2 X0.9376 Y-0.0023 I-0.0022 J0.0045
G1 X0.9325 Y-0.004
G2 X0.9315 Y-0.0043 I-0.0016 J0.0047
G1 X0.9262 Y-0.005
G2 X0.925 I-0.0006 J0.005
G1 X0.9196 Y-0.0043
G2 X0.9185 Y-0.0041 I0.0006 J0.005
G1 X0.9134 Y-0.0023
G2 X0.9125 Y-0.0019 I0.0016 J0.0047
G1 X0.9088 Y0.0003
G2 X0.9081 Y0.0007 I0.0025 J0.0043
G1 X0.9048 Y0.0035
G2 X0.9041 Y0.0041 I0.0032 J0.0038
G1 X0.9019 Y0.0069
G2 X0.9013 Y0.0077 I0.0039 J0.0032
G1 X0.8996 Y0.0108
G2 X0.8993 Y0.0116 I0.0044 J0.0024
G1 X0.8981 Y0.015
G2 X0.8979 Y0.0157 I0.0047 J0.0017
G1 X0.8971 Y0.0199
G2 X0.897 Y0.0205 I0.0049 J0.0009
G1 X0.8968 Y0.0248
G2 Y0.0253 I0.005 J0.0003
G1 X0.8971 Y0.0302
G2 Y0.0308 I0.005 J-0.0003
G1 X0.898 Y0.0357
G2 X0.8981 Y0.0364 I0.0049 J-0.0009
G1 X0.8997 Y0.0411
G2 X0.9 Y0.0418 I0.0047 J-0.0016
G1 X0.9017 Y0.0452
G2 X0.9021 Y0.0458 I0.0045 J-0.0023
G1 X0.9043 Y0.049
G2 X0.9048 Y0.0495 I0.0041 J-0.0029
G1 X0.9074 Y0.0524
G2 X0.9079 Y0.0529 I0.0037 J-0.0034
G1 X0.9131 Y0.057
G2 X0.9138 Y0.0575 I0.0031 J-0.0039
G1 X0.9146 Y0.058
G2 X0.9133 Y0.0586 I0.0016 J0.0047
G1 X0.9113 Y0.0601
G2 X0.91 Y0.0616 I0.0029 J0.0041
G1 X0.909 Y0.0632
G2 X0.9083 Y0.065 I0.0043 J0.0026
G1 X0.908 Y0.067
G2 Y0.0685 I0.0049 J0.0008
G1 X0.9082 Y0.0697
G3 X0.9074 Y0.0709 I-0.001 J0.0002
G1 X0.9064 Y0.071
X0.9057 Y0.0711 Z0.0003
X0.9054 Y0.0712 Z0.001
G0 Z0.2
X0.9385 Y0.0358
G1 Z0.0394 F13.33
Z0.001
X0.9388 Y0.0357 Z0.0003
X0.9394 Y0.0355 Z0
X0.9404 Y0.0351 F40
G3 X0.9416 Y0.0357 I0.0004 J0.0009
G1 X0.9431 Y0.0395
X0.9442 Y0.0435
X0.9447 Y0.0474
X0.9445 Y0.0503
X0.944 Y0.0531
X0.9431 Y0.0553
X0.9419 Y0.0568
X0.9416 Y0.0571
G2 X0.9406 Y0.0535 I-0.005 J-0.0005
G1 X0.9375 Y0.0495
X0.935 Y0.0457
X0.9335 Y0.0426
X0.9321 Y0.0393
X0.9306 Y0.0345
X0.9297 Y0.0296
X0.9291 Y0.0213
X0.9292 Y0.0193
X0.9293 Y0.0185
X0.93 Y0.0189
X0.9328 Y0.0214
X0.9361 Y0.0256
X0.939 Y0.0303
X0.9415 Y0.0354
X0.9416 Y0.0357
G3 X0.9411 Y0.037 I-0.0009 J0.0004
G1 X0.9401 Y0.0373
X0.9395 Y0.0376 Z0.0003
X0.9392 Y0.0377 Z0.001
G0 Z0.2
X1.0294 Y0.0764
G1 Z0.0394 F13.33
Z0.001
X1.0297 Y0.0763 Z0.0003
X1.0304 Y0.0762 Z0
X1.0314 Y0.076 F40
G3 X1.0326 Y0.0768 I0.0002 J0.001
G1 X1.0336 Y0.0828
X1.034 Y0.0895
X1.0338 Y0.0932
X1.0329 Y0.0965
X1.0323 Y0.0976
X1.0317 Y0.0983
X1.0313 Y0.0986
X1.031
X1.0301 Y0.0984
X1.0287 Y0.0977
X1.0261 Y0.0957
X1.0233 Y0.0927
X1.0209 Y0.0893
X1.019 Y0.0855
X1.0179 Y0.0824
X1.0172 Y0.0794
X1.0169 Y0.0764
X1.0173 Y0.0734
X1.0183 Y0.0707
X1.02 Y0.0682
X1.0223 Y0.0661
X1.0252 Y0.0644
X1.0282 Y0.0632
X1.03 Y0.0677
X1.0324 Y0.0761
X1.0326 Y0.0768
G3 X1.0318 Y0.078 I-0.001 J0.0002
G1 X1.0308 Y0.0782
X1.0301 Y0.0783 Z0.0003
X1.0298 Z0.001
G0 Z0.2
X1.1249 Y0.1197
G1 Z0.0394 F13.33
Z0.001
Y0.1194 Z0.0003
Y0.1187 Z0
Y0.1177 F40
G3 X1.1259 Y0.1167 I0.001
G2 X1.1264 I0.0001 J-0.005
G1 X1.1297 Y0.1165
G2 X1.1305 Y0.1164 I-0.0004 J-0.005
G1 X1.1337 Y0.1156
G2 X1.1346 Y0.1153 I-0.0011 J-0.0049
G1 X1.137 Y0.1142
G2 X1.1376 Y0.1139 I-0.002 J-0.0046
G1 X1.1387 Y0.1132
X1.1418 Y0.1127
G2 X1.1432 Y0.1123 I-0.0008 J-0.0049
G1 X1.146 Y0.1109
G2 X1.147 Y0.1103 I-0.0022 J-0.0045
G1 X1.1494 Y0.1083
G2 X1.1501 Y0.1077 I-0.0032 J-0.0039
G1 X1.1531 Y0.1042
G2 X1.1536 Y0.1034 I-0.0038 J-0.0032
G1 X1.156 Y0.0993
G2 X1.1563 Y0.0986 I-0.0043 J-0.0025
G1 X1.1585 Y0.0928
G2 X1.1587 Y0.0921 I-0.0047 J-0.0018
G1 X1.16 Y0.086
G2 X1.1601 Y0.0852 I-0.0049 J-0.0011
G1 X1.1606 Y0.079
G2 X1.1605 Y0.0783 I-0.005 J-0.0003
G1 X1.1597 Y0.0682
G2 X1.1596 Y0.0676 I-0.005 J0.0004
G1 X1.1576 Y0.0577
G2 X1.1574 Y0.0572 I-0.0049 J0.001
G1 X1.1544 Y0.0475
G2 X1.1543 Y0.0471 I-0.0048 J0.0015
G1 X1.1504 Y0.0377
G2 X1.1502 Y0.0373 I-0.0046 J0.0019
G1 X1.1453 Y0.0279
G2 X1.1451 Y0.0275 I-0.0044 J0.0023
G1 X1.1393 Y0.0186
G2 X1.1389 Y0.0181 I-0.0042 J0.0027
G1 X1.1319 Y0.01
G2 X1.1316 Y0.0096 I-0.0038 J0.0033
G1 X1.1274 Y0.0057
G2 X1.127 Y0.0054 I-0.0034 J0.0037
G1 X1.1224 Y0.0019
G2 X1.1219 Y0.0016 I-0.003 J0.004
G1 X1.117 Y-0.0013
G2 X1.1163 Y-0.0016 I-0.0025 J0.0043
G1 X1.1122 Y-0.0032
G2 X1.1115 Y-0.0034 I-0.0019 J0.0046
G1 X1.1071 Y-0.0045
G2 X1.1063 Y-0.0046 I-0.0012 J0.0049
G1 X1.1019 Y-0.005
G2 X1.101 I-0.0004 J0.005
G1 X1.095 Y-0.0045
G2 X1.094 Y-0.0043 I0.0004 J0.005
G1 X1.0882 Y-0.0025
G2 X1.0872 Y-0.0021 I0.0014 J0.0048
G1 X1.082 Y0.0009
G2 X1.0811 Y0.0016 I0.0025 J0.0044
G1 X1.0766 Y0.0056
G2 X1.076 Y0.0064 I0.0034 J0.0037
G1 X1.0724 Y0.0113
G2 X1.0719 Y0.0121 I0.004 J0.0029
G1 X1.0694 Y0.0174
G2 X1.0691 Y0.0181 I0.0045 J0.0021
G1 X1.0674 Y0.0238
G2 X1.0673 Y0.0244 I0.0048 J0.0014
G1 X1.0663 Y0.0302
G2 Y0.0308 I0.0049 J0.0008
G1 X1.066 Y0.0367
G2 Y0.0373 I0.005 J0.0002
G1 X1.0665 Y0.0467
G2 Y0.0472 I0.005 J-0.0003
G1 X1.0681 Y0.0566
G2 X1.0682 Y0.0571 I0.0049 J-0.0008
G1 X1.0707 Y0.0663
G2 X1.0709 Y0.0668 I0.0048 J-0.0013
G1 X1.0744 Y0.0756
G2 X1.0746 Y0.076 I0.0046 J-0.0019
G1 X1.079 Y0.0844
G2 X1.0793 Y0.0849 I0.0044 J-0.0023
G1 X1.0846 Y0.0927
G2 X1.085 Y0.0932 I0.0041 J-0.0028
G1 X1.0898 Y0.0988
G2 X1.0902 Y0.0992 I0.0038 J-0.0033
G1 X1.0956 Y0.1043
G2 X1.096 Y0.1047 I0.0034 J-0.0036
G1 X1.102 Y0.1091
G2 X1.1026 Y0.1095 I0.003 J-0.004
G1 X1.1092 Y0.113
G2 X1.11 Y0.1134 I0.0024 J-0.0044
G1 X1.1171 Y0.1157
G2 X1.1181 Y0.1159 I0.0015 J-0.0048
G1 X1.1255 Y0.1167
G2 X1.1259 I0.0005 J-0.005
G3 X1.1269 Y0.1177 J0.001
G1 Y0.1187
Y0.1194 Z0.0003
Y0.1197 Z0.001
G0 Z0.2
X1.1236 Y0.0518
G1 Z0.0394 F13.33
Z0.001
X1.1239 Y0.0517 Z0.0003
X1.1246 Y0.0516 Z0
X1.1255 Y0.0515 F40
G3 X1.1267 Y0.0523 I0.0001 J0.001
G1 X1.1277 Y0.0597
X1.1282 Y0.0679
X1.1279 Y0.0729
X1.127 Y0.0779
X1.1255 Y0.0828
X1.124 Y0.0863
X1.1221 Y0.0894
X1.1194 Y0.0921
X1.1171 Y0.0889
X1.1143 Y0.0842
X1.112 Y0.0793
X1.109 Y0.0714
X1.1067 Y0.0634
X1.1052 Y0.0552
X1.1047 Y0.047
X1.1051 Y0.0416
X1.1063 Y0.0363
X1.1081 Y0.0311
X1.1098 Y0.0274
X1.1118 Y0.0241
X1.1133 Y0.0223
X1.1145 Y0.0213
X1.115 Y0.0212
X1.1157 Y0.0218
X1.1169 Y0.0232
X1.1179 Y0.0248
X1.1195 Y0.0279
X1.1208 Y0.0312
X1.1242 Y0.0413
X1.1266 Y0.0516
X1.1267 Y0.0523
G3 X1.1258 Y0.0535 I-0.001 J0.0001
G1 X1.1248 Y0.0536
X1.1241 Y0.0537 Z0.0003
X1.1238 Y0.0538 Z0.001
G0 Z0.2
X1.1956 Y0.068
G1 Z0.0394 F13.33
Z0.001
X1.1958 Y0.0679 Z0.0003
X1.1965 Y0.0677 Z0
X1.1974 Y0.0673 F40
G3 X1.1987 Y0.0678 I0.0004 J0.0009
G1 X1.1989 Y0.0683
G2 X1.1992 Y0.0688 I0.0046 J-0.0019
G1 X1.2017 Y0.0732
G2 X1.2021 Y0.0739 I0.0044 J-0.0025
G1 X1.2053 Y0.0778
G2 X1.2062 Y0.0786 I0.0039 J-0.0032
G1 X1.2102 Y0.0817
G2 X1.2112 Y0.0824 I0.0031 J-0.004
G1 X1.216 Y0.0845
G2 X1.217 Y0.0848 I0.002 J-0.0046
G1 X1.2222 Y0.086
G2 X1.2229 Y0.0861 I0.0011 J-0.0049
G1 X1.2282 Y0.0864
G2 X1.2287 I0.0003 J-0.005
G1 X1.2308 Y0.0863
G2 X1.2314 I-0.0002 J-0.005
G1 X1.2334 Y0.0859
G2 X1.2345 Y0.0857 I-0.0008 J-0.0049
G1 X1.2354 Y0.0853
G2 X1.2367 Y0.0846 I-0.0018 J-0.0047
G1 X1.2375 Y0.084
G2 X1.2388 Y0.0824 I-0.0031 J-0.004
G1 X1.2393 Y0.0815
G2 X1.2399 Y0.0798 I-0.0044 J-0.0024
G1 X1.24 Y0.0788
G2 Y0.0772 I-0.0049 J-0.0007
G1 X1.2395 Y0.0743
G2 X1.2394 Y0.0738 I-0.0049 J0.0008
G1 X1.2386 Y0.0709
X1.2385 Y0.0708
X1.2376 Y0.0679
Y0.0678
X1.2372 Y0.0668
X1.2383 Y0.0667
G2 X1.24 Y0.0662 I-0.0006 J-0.005
G1 X1.2406 Y0.0659
G2 X1.243 Y0.0633 I-0.0023 J-0.0045
G1 X1.2432 Y0.0627
G2 X1.2435 Y0.0599 I-0.0046 J-0.0019
G1 X1.2434 Y0.0596
G2 X1.2429 Y0.058 I-0.0049 J0.0009
G1 X1.2428 Y0.0579
X1.2405 Y0.0538
G2 X1.2403 Y0.0534 I-0.0044 J0.0024
G1 X1.2377 Y0.0495
X1.2375 Y0.0492
X1.2352 Y0.0463
G2 X1.235 Y0.046 I-0.0039 J0.0031
G1 X1.2325 Y0.0433
X1.2323 Y0.0431
X1.2311 Y0.042
G2 X1.2304 Y0.0414 I-0.0035 J0.0036
G1 X1.2291 Y0.0405
G2 X1.2282 Y0.04 I-0.0028 J0.0041
G1 X1.2281
X1.2249 Y0.0292
X1.222 Y0.0192
X1.2216 Y0.0174
X1.2214 Y0.0159
G2 X1.2213 Y0.0154 I-0.0049 J0.0008
G1 X1.22 Y0.0102
G2 X1.2198 Y0.0095 I-0.0049 J0.0012
G1 X1.219 Y0.0076
G2 X1.2184 Y0.0065 I-0.0046 J0.0019
G1 X1.2172 Y0.0048
G2 X1.2155 Y0.0034 I-0.004 J0.0029
G1 X1.2099 Y0.0002
G2 X1.2095 Y0 I-0.0024 J0.0044
G1 X1.2036 Y-0.0026
G2 X1.2029 Y-0.0029 I-0.0021 J0.0046
G1 X1.198 Y-0.0043
G2 X1.1971 Y-0.0045 I-0.0014 J0.0048
G1 X1.1921 Y-0.005
G2 X1.1909 I-0.0005 J0.005
G1 X1.1877 Y-0.0046
G2 X1.1864 Y-0.0042 I0.0006 J0.005
G1 X1.1835 Y-0.0029
G2 X1.1823 Y-0.0023 I0.002 J0.0046
G1 X1.181 Y-0.0013
G2 X1.1801 Y-0.0003 I0.0031 J0.0039
G1 X1.1791 Y0.001
G2 X1.1782 Y0.0029 I0.004 J0.003
G1 X1.1778 Y0.0045
G2 Y0.0065 I0.0049 J0.0011
G1 X1.1787 Y0.0117
G2 X1.1788 Y0.0121 I0.0049 J-0.0009
G1 X1.1802 Y0.0172
Y0.0174
X1.1818 Y0.0224
X1.1819 Y0.0225
X1.1836 Y0.0274
X1.1837 Y0.0275
X1.1866 Y0.0352
Y0.0354
X1.1867 Y0.0356
X1.1811 Y0.0352
X1.1809
X1.1745 Y0.0349
X1.1741
X1.17 Y0.035
G2 X1.1696 Y0.0351 I0.0002 J0.005
G1 X1.1655 Y0.0356
G2 X1.1644 Y0.0358 I0.0006 J0.005
G1 X1.1625 Y0.0365
G2 X1.1609 Y0.0375 I0.0017 J0.0047
G1 X1.1594 Y0.0389
G2 X1.158 Y0.041 I0.0034 J0.0037
G1 X1.1574 Y0.0429
G2 X1.1571 Y0.0441 I0.0047 J0.0016
G1 X1.157 Y0.0462
G2 Y0.0473 I0.005 J0.0004
G1 X1.1576 Y0.051
G2 X1.1577 Y0.0516 I0.0049 J-0.0008
G1 X1.1588 Y0.0552
X1.1589 Y0.0555
X1.1601 Y0.059
X1.1602 Y0.0591
X1.1633 Y0.0673
X1.1658 Y0.0735
X1.1676 Y0.0783
X1.1677 Y0.0784
X1.1715 Y0.088
X1.1716 Y0.0882
X1.1749 Y0.0955
G2 X1.1751 Y0.0959 I0.0046 J-0.0021
G1 X1.1767 Y0.0988
X1.1768 Y0.099
X1.1782 Y0.1012
X1.1784 Y0.1015
X1.18 Y0.1038
G2 X1.1804 Y0.1043 I0.0041 J-0.0029
G1 X1.1822 Y0.1063
G2 X1.1828 Y0.1069 I0.0037 J-0.0034
G1 X1.1862 Y0.1095
G2 X1.1867 Y0.1099 I0.0031 J-0.0039
G1 X1.1912 Y0.1126
G2 X1.1918 Y0.1129 I0.0026 J-0.0043
G1 X1.1966 Y0.1149
G2 X1.1973 Y0.1152 I0.002 J-0.0046
G1 X1.2012 Y0.1162
G2 X1.202 Y0.1163 I0.0013 J-0.0048
G1 X1.2061 Y0.1167
G2 X1.2068 I0.0004 J-0.005
G1 X1.2088 Y0.1166
G2 X1.2095 I-0.0002 J-0.005
G1 X1.2114 Y0.1162
G2 X1.2128 Y0.1157 I-0.0009 J-0.0049
G1 X1.2146 Y0.1148
G2 X1.2164 Y0.1132 I-0.0023 J-0.0045
G1 X1.2169 Y0.1124
G2 X1.2178 Y0.1105 I-0.0041 J-0.0029
G1 X1.2179 Y0.1095
G2 X1.2178 Y0.1071 I-0.0049 J-0.0009
G1 X1.2167 Y0.1037
G2 X1.2164 Y0.1029 I-0.0048 J0.0015
G1 X1.2147 Y0.0997
X1.2146 Y0.0995
X1.2128 Y0.0964
X1.2127 Y0.0963
X1.2108 Y0.0933
X1.2107 Y0.0932
X1.2088 Y0.0902
X1.2087 Y0.0901
X1.2008 Y0.0786
X1.1928 Y0.0671
X1.1922 Y0.0662
X1.1982 Y0.0665
X1.1987 Y0.0678
G3 X1.1982 Y0.0691 I-0.0009 J0.0004
G1 X1.1973 Y0.0695
X1.1966 Y0.0698 Z0.0003
X1.1963 Y0.0699 Z0.001
G0 Z0.2
X1.2498 Y0.0692
G1 Z0.0394 F13.33
Z0.001
X1.2501 Y0.0691 Z0.0003
X1.2508 Y0.069 Z0
X1.2518 Y0.0689 F40
G3 X1.253 Y0.0697 I0.0002 J0.001
G1 X1.2532 Y0.0711
G2 X1.2533 Y0.0716 I0.0049 J-0.0008
G1 X1.2539 Y0.0741
X1.254 Y0.0743
X1.2552 Y0.0783
Y0.0784
X1.2592 Y0.0904
X1.2593 Y0.0906
X1.2629 Y0.1
X1.263 Y0.1002
X1.2635 Y0.1014
X1.2643 Y0.1032
X1.265 Y0.1046
X1.2671 Y0.1092
G2 X1.2673 Y0.1097 I0.0045 J-0.0021
G1 X1.2684 Y0.1114
G2 X1.2689 Y0.1121 I0.0043 J-0.0026
G1 X1.2702 Y0.1136
G2 X1.2719 Y0.1148 I0.0037 J-0.0033
G1 X1.274 Y0.1158
G2 X1.2753 Y0.1162 I0.0021 J-0.0045
G1 X1.2776 Y0.1166
G2 X1.2782 I0.0008 J-0.0049
G1 X1.2805 Y0.1167
X1.2808
X1.2942
X1.2943
X1.3049 Y0.1164
X1.3067
X1.307
X1.3082 Y0.1163
X1.3091
G2 X1.3095 Y0.1162 J-0.005
G1 X1.3155 Y0.1157
G2 X1.3162 Y0.1156 I-0.0004 J-0.005
G1 X1.3191 Y0.115
G2 X1.3205 Y0.1144 I-0.0011 J-0.0049
G1 X1.3218 Y0.1137
G2 X1.3239 Y0.1114 I-0.0025 J-0.0044
G1 X1.3245 Y0.11
G2 X1.3247 Y0.1065 I-0.0046 J-0.002
G1 X1.3241 Y0.1044
G2 X1.3236 Y0.1034 I-0.0048 J0.0015
G1 X1.3225 Y0.1015
G2 X1.3222 Y0.1011 I-0.0043 J0.0026
G1 X1.3209 Y0.0994
G2 X1.3205 Y0.0989 I-0.004 J0.003
G1 X1.317 Y0.0952
G2 X1.3165 Y0.0948 I-0.0036 J0.0035
G1 X1.3117 Y0.0908
G2 X1.311 Y0.0904 I-0.0032 J0.0039
G1 X1.3056 Y0.0873
G2 X1.3049 Y0.0869 I-0.0025 J0.0043
G1 X1.3019 Y0.0857
G2 X1.3012 Y0.0855 I-0.0018 J0.0047
G1 X1.298 Y0.0848
X1.2985
G2 X1.2991 I0.0003 J-0.005
G1 X1.3041 Y0.0845
G2 X1.3048 Y0.0844 I-0.0003 J-0.005
G1 X1.3097 Y0.0835
G2 X1.3106 Y0.0832 I-0.001 J-0.0049
G1 X1.3153 Y0.0814
G2 X1.3163 Y0.0808 I-0.0019 J-0.0046
G1 X1.3204 Y0.0779
G2 X1.3213 Y0.0771 I-0.0029 J-0.0041
G1 X1.3239 Y0.0741
G2 X1.3245 Y0.0731 I-0.0038 J-0.0033
G1 X1.3263 Y0.0696
G2 X1.3267 Y0.0686 I-0.0045 J-0.0023
G1 X1.3277 Y0.0647
G2 X1.3278 Y0.0639 I-0.0048 J-0.0013
G1 X1.3281 Y0.0599
G2 Y0.0591 I-0.005 J-0.0004
G1 X1.3275 Y0.0523
G2 X1.3274 Y0.0515 I-0.005 J0.0005
G1 X1.3256 Y0.045
G2 X1.3254 Y0.0444 I-0.0048 J0.0013
G1 X1.3229 Y0.0381
G2 X1.3226 Y0.0376 I-0.0046 J0.0019
G1 X1.3194 Y0.0316
G2 X1.3191 Y0.0311 I-0.0044 J0.0024
G1 X1.3129 Y0.0224
G2 X1.3125 Y0.0219 I-0.0041 J0.0029
G1 X1.3054 Y0.014
G2 X1.3051 Y0.0137 I-0.0037 J0.0034
G1 X1.3 Y0.0091
G2 X1.2997 Y0.0088 I-0.0034 J0.0037
G1 X1.2944 Y0.0046
G2 X1.294 Y0.0043 I-0.0031 J0.0039
G1 X1.2882 Y0.0006
G2 X1.2877 Y0.0003 I-0.0027 J0.0042
G1 X1.2829 Y-0.0021
G2 X1.2823 Y-0.0023 I-0.0022 J0.0045
G1 X1.2772 Y-0.004
G2 X1.2763 Y-0.0043 I-0.0016 J0.0047
G1 X1.2709 Y-0.005
G2 X1.2697 I-0.0006 J0.005
G1 X1.2643 Y-0.0043
G2 X1.2633 Y-0.0041 I0.0006 J0.005
G1 X1.2581 Y-0.0023
G2 X1.2572 Y-0.0019 I0.0016 J0.0047
G1 X1.2535 Y0.0003
G2 X1.2529 Y0.0007 I0.0025 J0.0043
G1 X1.2496 Y0.0035
G2 X1.2489 Y0.0041 I0.0032 J0.0038
G1 X1.2466 Y0.0069
G2 X1.2461 Y0.0077 I0.0039 J0.0032
G1 X1.2444 Y0.0108
G2 X1.244 Y0.0116 I0.0044 J0.0024
G1 X1.2428 Y0.015
G2 X1.2426 Y0.0157 I0.0047 J0.0016
G1 X1.2419 Y0.0199
G2 X1.2418 Y0.0205 I0.0049 J0.0009
G1 X1.2416 Y0.0248
G2 Y0.0253 I0.005 J0.0003
G1 X1.2418 Y0.0302
G2 X1.2419 Y0.0308 I0.005 J-0.0003
G1 X1.2427 Y0.0357
G2 X1.2429 Y0.0364 I0.0049 J-0.0009
G1 X1.2445 Y0.0411
G2 X1.2447 Y0.0418 I0.0047 J-0.0016
G1 X1.2465 Y0.0452
G2 X1.2469 Y0.0458 I0.0045 J-0.0023
G1 X1.2491 Y0.049
G2 X1.2495 Y0.0495 I0.0041 J-0.0029
G1 X1.2522 Y0.0524
G2 X1.2527 Y0.0529 I0.0037 J-0.0034
G1 X1.2579 Y0.057
G2 X1.2585 Y0.0575 I0.0031 J-0.0039
G1 X1.2594 Y0.058
G2 X1.2581 Y0.0586 I0.0016 J0.0047
G1 X1.2561 Y0.0601
G2 X1.2547 Y0.0616 I0.0029 J0.0041
G1 X1.2537 Y0.0632
G2 X1.2531 Y0.065 I0.0043 J0.0026
G1 X1.2528 Y0.0669
G2 Y0.0685 I0.0049 J0.0008
G1 X1.253 Y0.0697
G3 X1.2521 Y0.0709 I-0.001 J0.0002
G1 X1.2511 Y0.071
X1.2504 Y0.0711 Z0.0003
X1.2502 Y0.0712 Z0.001
G0 Z0.2
X1.2832 Y0.0358
G1 Z0.0394 F13.33
Z0.001
X1.2835 Y0.0357 Z0.0003
X1.2842 Y0.0355 Z0
X1.2851 Y0.0351 F40
G3 X1.2864 Y0.0357 I0.0004 J0.0009
G1 X1.2879 Y0.0395
X1.289 Y0.0435
X1.2894 Y0.0474
X1.2893 Y0.0503
X1.2888 Y0.0531
X1.2879 Y0.0553
X1.2867 Y0.0568
X1.2863 Y0.0571
G2 X1.2853 Y0.0535 I-0.005 J-0.0005
G1 X1.2823 Y0.0495
X1.2798 Y0.0457
X1.2782 Y0.0426
X1.2769 Y0.0393
X1.2753 Y0.0345
X1.2744 Y0.0296
X1.2739 Y0.0213
X1.274 Y0.0193
X1.2741 Y0.0185
X1.2748 Y0.0189
X1.2775 Y0.0214
X1.2809 Y0.0256
X1.2838 Y0.0303
X1.2863 Y0.0354
X1.2864 Y0.0357
G3 X1.2858 Y0.037 I-0.0009 J0.0004
G1 X1.2849 Y0.0373
X1.2842 Y0.0376 Z0.0003
X1.284 Y0.0377 Z0.001
G0 Z0.2
X1.4269 Y0.035
G1 Z0.0394 F13.33
Z0.001
X1.4268 Y0.0348 Z0.0003
X1.4264 Y0.0342 Z0
X1.4258 Y0.0334 F40
G3 X1.4261 Y0.032 I0.0008 J-0.0006
G2 X1.427 Y0.0312 I-0.0028 J-0.0041
G1 X1.4282 Y0.0299
G2 X1.4291 Y0.0283 I-0.0037 J-0.0033
G1 X1.4298 Y0.0264
G2 X1.4301 Y0.0251 I-0.0047 J-0.0017
G1 X1.4303 Y0.023
G2 Y0.0222 I-0.005 J-0.0004
G1 X1.4299 Y0.0181
G2 X1.4298 Y0.0174 I-0.005 J0.0004
G1 X1.4289 Y0.0135
G2 X1.4288 Y0.0129 I-0.0049 J0.0011
G1 X1.4267 Y0.0069
G2 X1.4265 Y0.0065 I-0.0047 J0.0016
G1 X1.4255 Y0.0043
G2 X1.4248 Y0.0031 I-0.0046 J0.0021
G1 X1.4233 Y0.0013
G2 X1.4221 Y0.0003 I-0.0038 J0.0032
G1 X1.4205 Y-0.0007
G2 X1.4199 Y-0.001 I-0.0026 J0.0043
G1 X1.4182 Y-0.0018
G2 X1.4177 Y-0.002 I-0.002 J0.0046
G1 X1.4111 Y-0.0041
G2 X1.4106 Y-0.0042 I-0.0015 J0.0048
G1 X1.4079 Y-0.0047
G2 X1.4073 Y-0.0048 I-0.0009 J0.0049
G1 X1.4047 Y-0.005
G2 X1.4039 I-0.0004 J0.005
G1 X1.4013 Y-0.0048
G2 X1.4002 Y-0.0046 I0.0003 J0.005
G1 X1.3977 Y-0.0039
G2 X1.3964 Y-0.0033 I0.0014 J0.0048
G1 X1.3953 Y-0.0026
G2 X1.3942 Y-0.0016 I0.0027 J0.0042
G1 X1.3934 Y-0.0006
G2 X1.3925 Y0.0009 I0.0038 J0.0032
G1 X1.3921 Y0.0021
G2 X1.3917 Y0.0033 I0.0047 J0.0018
G1 Y0.0037
G2 X1.3913 Y0.0031 I-0.0042 J0.0026
G1 X1.3897 Y0.0013
G2 X1.3886 Y0.0003 I-0.0038 J0.0032
G1 X1.387 Y-0.0007
G2 X1.3864 Y-0.001 I-0.0026 J0.0043
G1 X1.3846 Y-0.0018
G2 X1.3842 Y-0.002 I-0.002 J0.0046
G1 X1.3776 Y-0.0041
G2 X1.377 Y-0.0042 I-0.0015 J0.0048
G1 X1.3744 Y-0.0047
G2 X1.3738 Y-0.0048 I-0.0009 J0.0049
G1 X1.3711 Y-0.005
G2 X1.3704 I-0.0004 J0.005
G1 X1.3678 Y-0.0048
G2 X1.3667 Y-0.0046 I0.0003 J0.005
G1 X1.3642 Y-0.0039
G2 X1.3629 Y-0.0033 I0.0014 J0.0048
G1 X1.3618 Y-0.0025
G2 X1.3607 Y-0.0016 I0.0027 J0.0042
G1 X1.3598 Y-0.0006
G2 X1.359 Y0.0008 I0.0038 J0.0032
G1 X1.3585 Y0.0021
G2 X1.3582 Y0.0033 I0.0047 J0.0018
G1 Y0.0037
G2 X1.3578 Y0.0031 I-0.0042 J0.0027
G1 X1.3562 Y0.0013
G2 X1.355 Y0.0003 I-0.0038 J0.0032
G1 X1.3535 Y-0.0007
G2 X1.3528 Y-0.001 I-0.0026 J0.0043
G1 X1.3511 Y-0.0018
G2 X1.3506 Y-0.002 I-0.002 J0.0046
G1 X1.3441 Y-0.0041
G2 X1.3435 Y-0.0042 I-0.0015 J0.0048
G1 X1.3409 Y-0.0047
G2 X1.3403 Y-0.0048 I-0.0009 J0.0049
G1 X1.3376 Y-0.005
G2 X1.3369 I-0.0004 J0.005
G1 X1.3343 Y-0.0048
G2 X1.3332 Y-0.0046 I0.0003 J0.005
G1 X1.3307 Y-0.0039
G2 X1.3294 Y-0.0033 I0.0014 J0.0048
G1 X1.3283 Y-0.0026
G2 X1.3272 Y-0.0016 I0.0027 J0.0042
G1 X1.3263 Y-0.0006
G2 X1.3255 Y0.0009 I0.0038 J0.0032
G1 X1.325 Y0.0021
G2 X1.3247 Y0.0033 I0.0047 J0.0018
G1 X1.3246 Y0.0046
G2 Y0.0058 I0.005 J0.0005
G1 X1.325 Y0.0088
G2 X1.3251 Y0.0093 I0.005 J-0.0006
G1 X1.3258 Y0.0122
G2 X1.3259 Y0.0127 I0.0049 J-0.0012
G1 X1.3275 Y0.0171
G2 X1.3277 Y0.0177 I0.0047 J-0.0017
G1 X1.33 Y0.0222
G2 X1.3303 Y0.0227 I0.0045 J-0.0023
G1 X1.3309 Y0.0237
X1.3314 Y0.0244
G2 X1.3319 Y0.025 I0.0042 J-0.0027
G1 X1.3332 Y0.0265
G2 X1.3342 Y0.0273 I0.0037 J-0.0034
G1 X1.3383 Y0.0299
G2 X1.3392 Y0.0304 I0.0027 J-0.0042
G1 X1.3437 Y0.0321
G2 X1.3443 Y0.0323 I0.0018 J-0.0047
G1 X1.348 Y0.0332
G2 X1.3487 Y0.0333 I0.0012 J-0.0049
G1 X1.3525 Y0.0337
G2 X1.3535 I0.0005 J-0.005
G1 X1.3552 Y0.0335
G2 X1.3567 Y0.0331 I-0.0006 J-0.005
G1 X1.3583 Y0.0324
G2 X1.36 Y0.0312 I-0.002 J-0.0046
G1 X1.3611 Y0.0299
G2 X1.3621 Y0.0283 I-0.0037 J-0.0033
G1 X1.3628 Y0.0264
G2 X1.3631 Y0.0251 I-0.0047 J-0.0017
G1 X1.3633 Y0.023
G2 Y0.0222 I-0.005 J-0.0004
G1 X1.3632 Y0.0216
X1.3635 Y0.0222
G2 X1.3638 Y0.0227 I0.0045 J-0.0023
G1 X1.3649 Y0.0244
G2 X1.3654 Y0.025 I0.0042 J-0.0027
G1 X1.3667 Y0.0265
G2 X1.3677 Y0.0273 I0.0037 J-0.0034
G1 X1.3718 Y0.0299
G2 X1.3727 Y0.0304 I0.0027 J-0.0042
G1 X1.3772 Y0.0321
G2 X1.3778 Y0.0323 I0.0018 J-0.0047
G1 X1.3815 Y0.0332
G2 X1.3822 Y0.0333 I0.0012 J-0.0049
G1 X1.386 Y0.0337
G2 X1.387 I0.0005 J-0.005
G1 X1.3887 Y0.0335
G2 X1.3902 Y0.0331 I-0.0006 J-0.005
G1 X1.3918 Y0.0324
G2 X1.3935 Y0.0312 I-0.002 J-0.0046
G1 X1.3947 Y0.0299
G2 X1.3956 Y0.0283 I-0.0037 J-0.0033
G1 X1.3963 Y0.0264
G2 X1.3966 Y0.0251 I-0.0047 J-0.0017
G1 X1.3968 Y0.023
G2 Y0.0222 I-0.005 J-0.0004
G1 X1.3967 Y0.0216
X1.397 Y0.0222
G2 X1.3973 Y0.0227 I0.0045 J-0.0023
G1 X1.3984 Y0.0244
G2 X1.3989 Y0.025 I0.0042 J-0.0027
G1 X1.4003 Y0.0265
G2 X1.4012 Y0.0273 I0.0037 J-0.0034
G1 X1.4053 Y0.0299
G2 X1.4062 Y0.0304 I0.0027 J-0.0042
G1 X1.4107 Y0.0321
G2 X1.4113 Y0.0323 I0.0018 J-0.0047
G1 X1.415 Y0.0332
G2 X1.4157 Y0.0333 I0.0012 J-0.0049
G1 X1.4195 Y0.0337
G2 X1.4205 I0.0005 J-0.005
G1 X1.4223 Y0.0335
G2 X1.4237 Y0.0331 I-0.0006 J-0.005
G1 X1.4253 Y0.0324
G2 X1.4261 Y0.032 I-0.002 J-0.0046
G3 X1.4275 Y0.0323 I0.0006 J0.0008
G1 X1.428 Y0.0331
X1.4284 Y0.0337 Z0.0003
X1.4286 Y0.0339 Z0.001
G0 Z0.6
M9
G28 G91 Z0
G28 X0 Y0
M30
%
