%
(DO NOT TOUCH)
(T4  D=0.01 CR=0 - ZMIN=-0.0118 - flat end mill)
G90 G94
G17
G20
G28 G91 Z0
G90

(2D Contour3)
M9
T4 M6
S5000 M3
G54
M8
G0 X1.4246 Y0.3714
Z0.6
Z0.2
G1 Z0.0394 F13.33
Z-0.0108
G18 G2 X1.4256 Z-0.0118 I0.001
G1 X1.4266 F40
G17 G3 X1.4276 Y0.3724 J0.001
G2 X1.4326 Y0.3774 I0.005
G1 X1.4926
Y0.4478
X1.296
Y0.3774
X1.3522
G2 X1.3572 Y0.3724 J-0.005
G1 Y0.1822
X1.4276
Y0.3724
G3 X1.4266 Y0.3734 I-0.001
G1 X1.4256
G18 G3 X1.4246 Z-0.0108 K0.001
G0 Z0.2
X1.2681 Y0.3461
G1 Z0.0394 F13.33
Z-0.0108
X1.2684 Z-0.0115
X1.2691 Y0.3463 Z-0.0118
X1.2701 Y0.3465 F40
G17 G3 X1.2709 Y0.3476 I-0.0002 J0.001
G1 X1.2706 Y0.3491
X1.2675 Y0.3601
X1.2634 Y0.3708
X1.2585 Y0.381
X1.2515 Y0.3925
X1.2434 Y0.4034
X1.2344 Y0.4134
X1.2246 Y0.4228
X1.2152 Y0.4302
X1.2052 Y0.4369
X1.1946 Y0.4426
X1.1836 Y0.4473
X1.1722 Y0.4509
X1.1604 Y0.4534
X1.1485 Y0.4549
X1.1365 Y0.4554
X1.1247 Y0.455
X1.1131 Y0.4538
X1.1016 Y0.4516
X1.0904 Y0.4486
X1.0795 Y0.4446
X1.069 Y0.4396
X1.0571 Y0.4326
X1.046 Y0.4245
X1.0357 Y0.4153
X1.0262 Y0.4053
X1.0186 Y0.3957
X1.0119 Y0.3854
X1.0062 Y0.3746
X1.0016 Y0.3633
X0.998 Y0.3516
X0.9955 Y0.3396
X0.994 Y0.3274
X0.9936 Y0.3151
X0.994 Y0.3035
X0.9953 Y0.292
X0.9975 Y0.2807
X1.0007 Y0.2696
X1.0048 Y0.2588
X1.0099 Y0.2485
X1.017 Y0.2369
X1.0252 Y0.226
X1.0344 Y0.216
X1.0445 Y0.2067
X1.0541 Y0.1992
X1.0643 Y0.1927
X1.0751 Y0.187
X1.0863 Y0.1824
X1.0978 Y0.1789
X1.1098 Y0.1764
X1.1218 Y0.175
X1.1311 Y0.1746
X1.134 Y0.1745
X1.1456 Y0.1749
X1.1571 Y0.1762
X1.1685 Y0.1784
X1.1796 Y0.1816
X1.1904 Y0.1856
X1.2007 Y0.1907
X1.2123 Y0.1978
X1.2232 Y0.206
X1.2333 Y0.2152
X1.2426 Y0.2253
X1.25 Y0.2349
X1.2565 Y0.2452
X1.2621 Y0.256
X1.2667 Y0.2672
X1.2701 Y0.2789
X1.2726 Y0.2908
X1.274 Y0.3029
X1.2745 Y0.3151
X1.274 Y0.3265
X1.2728 Y0.3379
X1.2709 Y0.3476
G3 X1.2697 Y0.3484 I-0.001 J-0.0002
G1 X1.2687 Y0.3482
X1.268 Y0.3481 Z-0.0115
X1.2677 Y0.348 Z-0.0108
X1.2009 Y0.3349
X1.2006 Y0.3348 Z-0.0115 F13.33
X1.1999 Y0.3347 Z-0.0118
X1.1989 Y0.3345 F40
G3 X1.1981 Y0.3333 I0.0002 J-0.001
G1 Y0.3332
X1.1997 Y0.3246
G2 X1.1998 Y0.324 I-0.0049 J-0.0009
G1 X1.2003 Y0.3152
G2 Y0.3147 I-0.005 J-0.0003
G1 X1.1998 Y0.3067
G2 Y0.3062 I-0.005 J0.0003
G1 X1.1985 Y0.2984
G2 X1.1984 Y0.2978 I-0.0049 J0.0008
G1 X1.1963 Y0.2902
G2 X1.196 Y0.2895 I-0.0048 J0.0013
G1 X1.1929 Y0.2822
G2 X1.1926 Y0.2816 I-0.0046 J0.002
G1 X1.1885 Y0.2748
G2 X1.1882 Y0.2743 I-0.0043 J0.0026
G1 X1.1834 Y0.268
G2 X1.183 Y0.2675 I-0.004 J0.003
G1 X1.1775 Y0.2618
G2 X1.177 Y0.2614 I-0.0036 J0.0035
G1 X1.1702 Y0.2559
G2 X1.1696 Y0.2555 I-0.0031 J0.0039
G1 X1.162 Y0.2511
G2 X1.1613 Y0.2508 I-0.0025 J0.0043
G1 X1.1531 Y0.2477
G2 X1.1524 Y0.2474 I-0.0018 J0.0047
G1 X1.1438 Y0.2456
G2 X1.1431 Y0.2455 I-0.0011 J0.0049
G1 X1.1344 Y0.2449
G2 X1.1337 I-0.0003 J0.005
G1 X1.1258 Y0.2454
G2 X1.1251 Y0.2455 I0.0003 J0.005
G1 X1.1173 Y0.247
G2 X1.1167 Y0.2472 I0.001 J0.0049
G1 X1.1092 Y0.2499
G2 X1.1085 Y0.2501 I0.0017 J0.0047
G1 X1.1015 Y0.2538
G2 X1.1009 Y0.2542 I0.0023 J0.0044
G1 X1.0944 Y0.2588
G2 X1.0939 Y0.2592 I0.0029 J0.0041
G1 X1.0881 Y0.2646
G2 X1.0877 Y0.265 I0.0034 J0.0037
G1 X1.0825 Y0.2709
G2 X1.0821 Y0.2715 I0.0038 J0.0033
G1 X1.0772 Y0.2787
G2 X1.0769 Y0.2793 I0.0042 J0.0028
G1 X1.0731 Y0.2871
G2 X1.0728 Y0.2878 I0.0045 J0.0022
G1 X1.0701 Y0.2961
G2 X1.0699 Y0.2968 I0.0048 J0.0016
G1 X1.0684 Y0.3054
G2 X1.0683 Y0.3059 I0.0049 J0.0009
G1 X1.0678 Y0.3147
G2 Y0.3153 I0.005 J0.0003
G1 X1.0684 Y0.3245
G2 Y0.3252 I0.005 J-0.0003
G1 X1.0702 Y0.3343
G2 X1.0704 Y0.335 I0.0049 J-0.0009
G1 X1.0734 Y0.3437
G2 X1.0737 Y0.3444 I0.0047 J-0.0017
G1 X1.078 Y0.3526
G2 X1.0784 Y0.3532 I0.0044 J-0.0023
G1 X1.0838 Y0.3607
G2 X1.0842 Y0.3612 I0.004 J-0.0029
G1 X1.0906 Y0.368
G2 X1.0911 Y0.3684 I0.0036 J-0.0034
G1 X1.0967 Y0.373
G2 X1.0972 Y0.3734 I0.0032 J-0.0039
G1 X1.1034 Y0.3773
G2 X1.1039 Y0.3776 I0.0027 J-0.0042
G1 X1.1105 Y0.3807
G2 X1.1111 Y0.3809 I0.0021 J-0.0045
G1 X1.1181 Y0.3831
G2 X1.1187 Y0.3833 I0.0015 J-0.0048
G1 X1.1259 Y0.3845
G2 X1.1265 Y0.3846 I0.0009 J-0.0049
G1 X1.1337 Y0.385
G2 X1.1343 I0.0003 J-0.005
G1 X1.1423 Y0.3845
G2 X1.1429 I-0.0003 J-0.005
G1 X1.1507 Y0.3829
G2 X1.1514 Y0.3828 I-0.001 J-0.0049
G1 X1.1589 Y0.3802
G2 X1.1596 Y0.3799 I-0.0016 J-0.0047
G1 X1.1667 Y0.3763
G2 X1.1673 Y0.3759 I-0.0023 J-0.0044
G1 X1.1738 Y0.3713
G2 X1.1743 Y0.3709 I-0.0029 J-0.0041
G1 X1.1801 Y0.3655
G2 X1.1805 Y0.3651 I-0.0034 J-0.0037
G1 X1.1857 Y0.3591
G2 X1.1861 Y0.3586 I-0.0038 J-0.0033
G1 X1.1909 Y0.3513
G2 X1.1913 Y0.3507 I-0.0042 J-0.0028
G1 X1.1951 Y0.3429
G2 X1.1954 Y0.3422 I-0.0045 J-0.0022
G1 X1.198 Y0.3338
G2 X1.1981 Y0.3333 I-0.0048 J-0.0015
G3 X1.1993 Y0.3325 I0.001 J0.0002
G1 X1.2003 Y0.3327
X1.201 Y0.3328 Z-0.0115
X1.2013 Y0.3329 Z-0.0108
G0 Z0.2
X0.9458 Y0.3646
G1 Z0.0394 F13.33
Z-0.0108
X0.9461 Z-0.0115
X0.9468 Z-0.0118
X0.9478 F40
G3 X0.9488 Y0.3657 J0.001
G1 Y0.367
X0.9474 Y0.3793
X0.9451 Y0.3914
X0.9416 Y0.4031
X0.9378 Y0.4118
X0.9332 Y0.42
X0.9276 Y0.4276
X0.9211 Y0.4344
X0.9136 Y0.4404
X0.9054 Y0.4453
X0.8966 Y0.4493
X0.8874 Y0.4521
X0.8778 Y0.454
X0.868 Y0.4551
X0.8581 Y0.4554
X0.8482 Y0.4551
X0.8383 Y0.454
X0.8287 Y0.4521
X0.8193 Y0.4493
X0.8103 Y0.4455
X0.8019 Y0.4409
X0.7941 Y0.4353
X0.7869 Y0.4289
X0.7805 Y0.4218
X0.7748 Y0.4139
X0.7701 Y0.4054
X0.7663 Y0.3963
X0.7634 Y0.3869
X0.7615 Y0.3773
X0.7604 Y0.3674
X0.7601 Y0.3573
Y0.1822
X0.8305
Y0.3546
Y0.3548
X0.8306 Y0.3588
Y0.3592
X0.8311 Y0.3632
G2 Y0.3637 I0.005 J-0.0005
G1 X0.832 Y0.3676
G2 X0.8322 Y0.3683 I0.0049 J-0.001
G1 X0.8335 Y0.3721
G2 X0.834 Y0.373 I0.0047 J-0.0017
G1 X0.836 Y0.3764
G2 X0.8368 Y0.3774 I0.0043 J-0.0026
G1 X0.8396 Y0.3802
G2 X0.8406 Y0.381 I0.0035 J-0.0035
G1 X0.8441 Y0.383
G2 X0.8452 Y0.3834 I0.0025 J-0.0043
G1 X0.849 Y0.3845
G2 X0.8499 Y0.3847 I0.0013 J-0.0048
G1 X0.8539 Y0.385
G2 X0.8547 I0.0004 J-0.005
G1 X0.8588 Y0.3847
G2 X0.8597 Y0.3845 I-0.0004 J-0.005
G1 X0.8636 Y0.3834
G2 X0.8647 Y0.383 I-0.0013 J-0.0048
G1 X0.8683 Y0.381
G2 X0.8694 Y0.3802 I-0.0024 J-0.0044
G1 X0.8723 Y0.3774
G2 X0.8731 Y0.3764 I-0.0035 J-0.0036
G1 X0.8752 Y0.3728
G2 X0.8756 Y0.3719 I-0.0043 J-0.0026
G1 X0.8774 Y0.3669
G2 X0.8776 Y0.366 I-0.0047 J-0.0016
G1 X0.8784 Y0.3607
G2 X0.8785 Y0.3602 I-0.0049 J-0.0008
G1 X0.8787 Y0.3548
Y0.3546
Y0.1822
X0.9491
Y0.3545
X0.9488 Y0.3657
G3 X0.9478 Y0.3666 I-0.001
G1 X0.9468
X0.9461 Z-0.0115
X0.9458 Z-0.0108
G0 Z0.2
X0.6128 Y0.3241
G1 Z0.0394 F13.33
Z-0.0108
X0.6131 Z-0.0115
X0.6138 Z-0.0118
X0.6148 Y0.3242 F40
G3 X0.6157 Y0.3252 J0.001
G1 Y0.3265
X0.6144 Y0.3379
X0.6122 Y0.3491
X0.6091 Y0.3601
X0.6051 Y0.3708
X0.6001 Y0.381
X0.5931 Y0.3925
X0.5851 Y0.4034
X0.5761 Y0.4134
X0.5662 Y0.4228
X0.5568 Y0.4302
X0.5468 Y0.4369
X0.5363 Y0.4426
X0.5252 Y0.4473
X0.5138 Y0.4509
X0.5021 Y0.4534
X0.4902 Y0.4549
X0.4781 Y0.4554
X0.4664 Y0.455
X0.4548 Y0.4538
X0.4433 Y0.4516
X0.432 Y0.4486
X0.4211 Y0.4446
X0.4106 Y0.4396
X0.3987 Y0.4326
X0.3877 Y0.4245
X0.3773 Y0.4153
X0.3679 Y0.4053
X0.3603 Y0.3957
X0.3536 Y0.3854
X0.3479 Y0.3746
X0.3432 Y0.3633
X0.3396 Y0.3516
X0.3371 Y0.3396
X0.3357 Y0.3274
X0.3352 Y0.3151
X0.3357 Y0.3035
X0.3369 Y0.292
X0.3392 Y0.2807
X0.3423 Y0.2696
X0.3465 Y0.2588
X0.3515 Y0.2485
X0.3587 Y0.2369
X0.3669 Y0.226
X0.3761 Y0.216
X0.3861 Y0.2067
X0.3957 Y0.1992
X0.4059 Y0.1927
X0.4167 Y0.187
X0.4279 Y0.1824
X0.4395 Y0.1789
X0.4514 Y0.1764
X0.4635 Y0.175
X0.4757 Y0.1745
X0.4873 Y0.1749
X0.4988 Y0.1762
X0.5101 Y0.1784
X0.5212 Y0.1816
X0.532 Y0.1856
X0.5424 Y0.1907
X0.554 Y0.1978
X0.5649 Y0.206
X0.575 Y0.2152
X0.5842 Y0.2253
X0.5916 Y0.2349
X0.5982 Y0.2452
X0.6038 Y0.256
X0.6063 Y0.2621
X0.6083 Y0.2672
X0.6118 Y0.2789
X0.6143 Y0.2908
X0.6156 Y0.3029
X0.6161 Y0.3151
X0.6157 Y0.3252
G3 X0.6147 Y0.3262 I-0.001
G1 X0.6137 Y0.3261
X0.613 Z-0.0115
X0.6127 Z-0.0108
X0.5445 Y0.3228
X0.5442 Z-0.0115 F13.33
X0.5435 Z-0.0118
X0.5425 Y0.3227 F40
G3 X0.5415 Y0.3217 I0.0001 J-0.001
G1 X0.5419 Y0.3153
G2 Y0.3147 I-0.005 J-0.0003
G1 X0.5415 Y0.3067
G2 X0.5414 Y0.3062 I-0.005 J0.0003
G1 X0.5402 Y0.2984
G2 X0.54 Y0.2978 I-0.0049 J0.0008
G1 X0.5379 Y0.2901
G2 X0.5377 Y0.2895 I-0.0048 J0.0013
G1 X0.5345 Y0.2822
G2 X0.5343 Y0.2816 I-0.0046 J0.002
G1 X0.5302 Y0.2748
G2 X0.5299 Y0.2743 I-0.0043 J0.0026
G1 X0.525 Y0.268
G2 X0.5246 Y0.2675 I-0.004 J0.003
G1 X0.5191 Y0.2618
G2 X0.5186 Y0.2614 I-0.0036 J0.0035
G1 X0.5118 Y0.2559
G2 X0.5112 Y0.2555 I-0.0031 J0.0039
G1 X0.5036 Y0.2511
G2 X0.5029 Y0.2508 I-0.0025 J0.0043
G1 X0.4947 Y0.2477
G2 X0.494 Y0.2474 I-0.0018 J0.0047
G1 X0.4855 Y0.2456
G2 X0.4847 Y0.2455 I-0.0011 J0.0049
G1 X0.476 Y0.2449
G2 X0.4754 I-0.0003 J0.005
G1 X0.4674 Y0.2454
G2 X0.4668 Y0.2455 I0.0003 J0.005
G1 X0.459 Y0.247
G2 X0.4583 Y0.2472 I0.001 J0.0049
G1 X0.4508 Y0.2499
G2 X0.4501 Y0.2501 I0.0017 J0.0047
G1 X0.4431 Y0.2538
G2 X0.4425 Y0.2542 I0.0023 J0.0044
G1 X0.4361 Y0.2588
G2 X0.4355 Y0.2592 I0.0029 J0.0041
G1 X0.4297 Y0.2646
G2 X0.4293 Y0.265 I0.0034 J0.0037
G1 X0.4241 Y0.2709
G2 X0.4237 Y0.2715 I0.0038 J0.0033
G1 X0.4189 Y0.2787
G2 X0.4186 Y0.2793 I0.0042 J0.0028
G1 X0.4147 Y0.2871
G2 X0.4144 Y0.2878 I0.0045 J0.0022
G1 X0.4117 Y0.2961
G2 X0.4116 Y0.2968 I0.0048 J0.0016
G1 X0.41 Y0.3054
G2 X0.4099 Y0.3059 I0.0049 J0.0009
G1 X0.4094 Y0.3147
G2 Y0.3153 I0.005 J0.0003
G1 X0.41 Y0.3245
G2 X0.4101 Y0.3252 I0.005 J-0.0003
G1 X0.4118 Y0.3343
G2 X0.412 Y0.335 I0.0049 J-0.0009
G1 X0.4151 Y0.3437
G2 X0.4154 Y0.3444 I0.0047 J-0.0017
G1 X0.4196 Y0.3526
G2 X0.42 Y0.3532 I0.0044 J-0.0023
G1 X0.4255 Y0.3607
G2 X0.4259 Y0.3612 I0.004 J-0.0029
G1 X0.4323 Y0.368
G2 X0.4327 Y0.3684 I0.0036 J-0.0034
G1 X0.4383 Y0.373
G2 X0.4389 Y0.3734 I0.0032 J-0.0039
G1 X0.445 Y0.3773
G2 X0.4456 Y0.3776 I0.0027 J-0.0042
G1 X0.4521 Y0.3807
G2 X0.4528 Y0.3809 I0.0021 J-0.0045
G1 X0.4597 Y0.3831
G2 X0.4603 Y0.3833 I0.0015 J-0.0048
G1 X0.4675 Y0.3845
G2 X0.4681 Y0.3846 I0.0009 J-0.0049
G1 X0.4754 Y0.385
G2 X0.476 I0.0003 J-0.005
G1 X0.4839 Y0.3845
G2 X0.4846 I-0.0003 J-0.005
G1 X0.4924 Y0.3829
G2 X0.493 Y0.3828 I-0.001 J-0.0049
G1 X0.5006 Y0.3802
G2 X0.5013 Y0.3799 I-0.0016 J-0.0047
G1 X0.5083 Y0.3763
G2 X0.5089 Y0.3759 I-0.0023 J-0.0044
G1 X0.5154 Y0.3713
G2 X0.5159 Y0.3709 I-0.0029 J-0.0041
G1 X0.5217 Y0.3655
G2 X0.5221 Y0.3651 I-0.0034 J-0.0037
G1 X0.5274 Y0.3591
G2 X0.5278 Y0.3586 I-0.0038 J-0.0033
G1 X0.5326 Y0.3513
G2 X0.5329 Y0.3507 I-0.0042 J-0.0028
G1 X0.5367 Y0.3429
G2 X0.537 Y0.3422 I-0.0045 J-0.0022
G1 X0.5396 Y0.3338
G2 X0.5398 Y0.3332 I-0.0048 J-0.0015
G1 X0.5413 Y0.3246
G2 X0.5414 Y0.324 I-0.0049 J-0.0009
G1 X0.5415 Y0.3217
G3 X0.5426 Y0.3207 I0.001 J0.0001
G1 X0.5436 Y0.3208
X0.5443 Z-0.0115
X0.5446 Z-0.0108
G0 Z0.2
X0.2992 Y0.3158
G1 Z0.0394 F13.33
Z-0.0108
X0.2994 Z-0.0115
X0.3002 Y0.3157 Z-0.0118
X0.3012 F40
G3 X0.3022 Y0.3167 J0.001
G1 Y0.3181
X0.3018 Y0.3308
X0.3002 Y0.3434
X0.2975 Y0.3558
X0.2936 Y0.3678
X0.2884 Y0.3793
X0.2835 Y0.3878
X0.2778 Y0.396
X0.2715 Y0.4036
X0.2645 Y0.4106
X0.257 Y0.4171
X0.2468 Y0.4244
X0.2359 Y0.4306
X0.2244 Y0.4357
X0.2125 Y0.4398
X0.2002 Y0.4428
X0.1879 Y0.4451
X0.1754 Y0.4467
X0.1653 Y0.4473
X0.1629 Y0.4475
X0.1503 Y0.4478
X0.0481
Y0.1822
X0.1185
Y0.3724
G2 X0.1235 Y0.3774 I0.005
G1 X0.1532
X0.1533
X0.1605 Y0.3772
X0.1607
X0.1678 Y0.3767
X0.1681
X0.1752 Y0.3758
X0.1755 Y0.3757
X0.1825 Y0.3744
G2 X0.1829 Y0.3743 I-0.0009 J-0.0049
G1 X0.1898 Y0.3723
G2 X0.1903 Y0.3721 I-0.0014 J-0.0048
G1 X0.1969 Y0.3695
G2 X0.1975 Y0.3693 I-0.0018 J-0.0047
G1 X0.2037 Y0.3659
G2 X0.2043 Y0.3655 I-0.0024 J-0.0044
G1 X0.2101 Y0.3613
G2 X0.2107 Y0.3607 I-0.003 J-0.004
G1 X0.2159 Y0.3553
G2 X0.2165 Y0.3546 I-0.0036 J-0.0035
G1 X0.2206 Y0.3484
G2 X0.221 Y0.3477 I-0.0042 J-0.0028
G1 X0.2241 Y0.3409
G2 X0.2244 Y0.3402 I-0.0046 J-0.0021
G1 X0.2264 Y0.333
G2 X0.2266 Y0.3324 I-0.0048 J-0.0014
G1 X0.2276 Y0.325
G2 X0.2277 Y0.3245 I-0.0049 J-0.0007
G1 X0.228 Y0.317
G2 Y0.3165 I-0.005 J-0.0002
G1 X0.2277 Y0.3091
G2 Y0.3087 I-0.005 J0.0002
G1 X0.2267 Y0.3013
G2 X0.2266 Y0.3008 I-0.005 J0.0007
G1 X0.2249 Y0.2936
G2 X0.2247 Y0.293 I-0.0049 J0.0012
G1 X0.222 Y0.2861
G2 X0.2216 Y0.2854 I-0.0047 J0.0018
G1 X0.2179 Y0.279
G2 X0.2175 Y0.2783 I-0.0043 J0.0025
G1 X0.2128 Y0.2726
G2 X0.2122 Y0.272 I-0.0039 J0.0032
G1 X0.2067 Y0.2671
G2 X0.2061 Y0.2666 I-0.0033 J0.0037
G1 X0.1999 Y0.2626
G2 X0.1992 Y0.2622 I-0.0027 J0.0042
G1 X0.1906 Y0.2585
G2 X0.19 Y0.2583 I-0.002 J0.0046
G1 X0.1811 Y0.2556
G2 X0.1806 Y0.2555 I-0.0014 J0.0048
G1 X0.1714 Y0.2538
G2 X0.171 Y0.2537 I-0.0009 J0.0049
G1 X0.1617 Y0.2528
X0.1614
X0.1521 Y0.2525
X0.1519
X0.1438
Y0.1816
X0.1523 Y0.182
X0.1524
X0.1631 Y0.1822
X0.177 Y0.1827
X0.1907 Y0.1842
X0.2042 Y0.187
X0.2173 Y0.191
X0.2299 Y0.1963
X0.2416 Y0.2028
X0.2525 Y0.2105
X0.2627 Y0.2194
X0.2719 Y0.2291
X0.2792 Y0.2386
X0.2855 Y0.2487
X0.2909 Y0.2594
X0.2951 Y0.2706
X0.2983 Y0.2822
X0.3006 Y0.294
X0.3018 Y0.306
X0.3022 Y0.3167
G3 X0.3012 Y0.3177 I-0.001
G1 X0.3002
X0.2995 Y0.3178 Z-0.0115
X0.2992 Z-0.0108
G0 Z0.2
X1.7433 Y0.3764
G1 Z0.0394 F13.33
Z-0.0108
X1.7435 Y0.3762 Z-0.0115
X1.7441 Y0.3758 Z-0.0118
X1.7449 Y0.3752 F40
G3 X1.7463 Y0.3754 I0.0006 J0.0008
G2 X1.7503 Y0.3774 I0.004 J-0.003
G1 X1.8103
Y0.4478
X1.6136
Y0.3774
X1.6699
G2 X1.6749 Y0.3724 J-0.005
G1 Y0.1822
X1.7453
Y0.3724
G2 X1.7463 Y0.3754 I0.005
G3 X1.7461 Y0.3768 I-0.0008 J0.0006
G1 X1.7453 Y0.3774
X1.7447 Y0.3778 Z-0.0115
X1.7445 Y0.378 Z-0.0108
G0 Z0.2
X1.8475 Y0.3647
G1 Z0.0394 F13.33
Z-0.0108
X1.8472 Y0.3648 Z-0.0115
X1.8465 Y0.3651 Z-0.0118
X1.8456 Y0.3655 F40
G3 X1.8443 Y0.365 I-0.0004 J-0.0009
G1 X1.8436 Y0.3633
X1.8401 Y0.3516
X1.8376 Y0.3396
X1.8361 Y0.3274
X1.8357 Y0.3151
X1.8361 Y0.3035
X1.8374 Y0.292
X1.8396 Y0.2807
X1.8428 Y0.2696
X1.8469 Y0.2588
X1.8519 Y0.2485
X1.8591 Y0.2369
X1.8673 Y0.226
X1.8765 Y0.216
X1.8866 Y0.2067
X1.8962 Y0.1992
X1.9064 Y0.1927
X1.9171 Y0.187
X1.9283 Y0.1824
X1.9399 Y0.1789
X1.9518 Y0.1764
X1.9639 Y0.175
X1.9761 Y0.1745
X1.9877 Y0.1749
X1.9992 Y0.1762
X2.0106 Y0.1784
X2.0217 Y0.1816
X2.0325 Y0.1856
X2.0428 Y0.1907
X2.0544 Y0.1978
X2.0653 Y0.206
X2.0754 Y0.2152
X2.0847 Y0.2253
X2.0921 Y0.2349
X2.0986 Y0.2452
X2.1042 Y0.256
X2.1087 Y0.2672
X2.1122 Y0.2789
X2.1147 Y0.2908
X2.1161 Y0.3029
X2.1166 Y0.3151
X2.1161 Y0.3265
X2.1149 Y0.3379
X2.1127 Y0.3491
X2.1096 Y0.3601
X2.1055 Y0.3708
X2.1005 Y0.381
X2.0936 Y0.3925
X2.0855 Y0.4034
X2.0765 Y0.4134
X2.0667 Y0.4228
X2.0573 Y0.4302
X2.0473 Y0.4369
X2.0367 Y0.4426
X2.0257 Y0.4473
X2.0143 Y0.4509
X2.0025 Y0.4534
X1.9906 Y0.4549
X1.9785 Y0.4554
X1.9668 Y0.455
X1.9552 Y0.4538
X1.9437 Y0.4516
X1.9325 Y0.4486
X1.9215 Y0.4446
X1.911 Y0.4396
X1.8992 Y0.4326
X1.8881 Y0.4245
X1.8778 Y0.4153
X1.8683 Y0.4053
X1.8607 Y0.3957
X1.854 Y0.3854
X1.8483 Y0.3746
X1.8443 Y0.365
G3 X1.8449 Y0.3636 I0.0009 J-0.0004
G1 X1.8458 Y0.3633
X1.8464 Y0.363 Z-0.0115
X1.8467 Y0.3629 Z-0.0108
X1.9105 Y0.3386
X1.9108 Y0.3385 Z-0.0115 F13.33
X1.9115 Y0.3383 Z-0.0118
X1.9124 Y0.3379 F40
G3 X1.9137 Y0.3385 I0.0003 J0.0009
G1 X1.9155 Y0.3437
G2 X1.9158 Y0.3444 I0.0047 J-0.0017
G1 X1.9201 Y0.3526
G2 X1.9205 Y0.3532 I0.0044 J-0.0023
G1 X1.9259 Y0.3607
G2 X1.9263 Y0.3612 I0.004 J-0.0029
G1 X1.9327 Y0.368
G2 X1.9332 Y0.3684 I0.0036 J-0.0034
G1 X1.9388 Y0.373
G2 X1.9393 Y0.3734 I0.0032 J-0.0039
G1 X1.9455 Y0.3773
G2 X1.946 Y0.3776 I0.0027 J-0.0042
G1 X1.9526 Y0.3807
G2 X1.9532 Y0.3809 I0.0021 J-0.0045
G1 X1.9602 Y0.3831
G2 X1.9608 Y0.3833 I0.0015 J-0.0048
G1 X1.9679 Y0.3845
G2 X1.9686 Y0.3846 I0.0009 J-0.0049
G1 X1.9758 Y0.385
G2 X1.9764 I0.0003 J-0.005
G1 X1.9843 Y0.3845
G2 X1.985 I-0.0003 J-0.005
G1 X1.9928 Y0.3829
G2 X1.9935 Y0.3828 I-0.001 J-0.0049
G1 X2.001 Y0.3802
G2 X2.0017 Y0.3799 I-0.0016 J-0.0047
G1 X2.0088 Y0.3763
G2 X2.0093 Y0.3759 I-0.0023 J-0.0044
G1 X2.0158 Y0.3713
G2 X2.0163 Y0.3709 I-0.0029 J-0.0041
G1 X2.0222 Y0.3655
G2 X2.0226 Y0.3651 I-0.0034 J-0.0037
G1 X2.0278 Y0.3591
G2 X2.0282 Y0.3586 I-0.0038 J-0.0033
G1 X2.033 Y0.3513
G2 X2.0333 Y0.3507 I-0.0042 J-0.0028
G1 X2.0372 Y0.3429
G2 X2.0375 Y0.3422 I-0.0045 J-0.0022
G1 X2.0401 Y0.3338
G2 X2.0402 Y0.3332 I-0.0048 J-0.0015
G1 X2.0418 Y0.3246
G2 Y0.324 I-0.0049 J-0.0009
G1 X2.0423 Y0.3152
G2 Y0.3147 I-0.005 J-0.0003
G1 X2.0419 Y0.3067
G2 Y0.3062 I-0.005 J0.0003
G1 X2.0406 Y0.2984
G2 X2.0405 Y0.2978 I-0.0049 J0.0008
G1 X2.0383 Y0.2902
G2 X2.0381 Y0.2895 I-0.0048 J0.0013
G1 X2.035 Y0.2822
G2 X2.0347 Y0.2816 I-0.0046 J0.002
G1 X2.0306 Y0.2748
G2 X2.0303 Y0.2743 I-0.0043 J0.0026
G1 X2.0255 Y0.268
G2 X2.0251 Y0.2675 I-0.004 J0.003
G1 X2.0195 Y0.2618
G2 X2.0191 Y0.2614 I-0.0036 J0.0035
G1 X2.0123 Y0.2559
G2 X2.0116 Y0.2555 I-0.0031 J0.0039
G1 X2.0041 Y0.2511
G2 X2.0033 Y0.2508 I-0.0025 J0.0043
G1 X1.9952 Y0.2477
G2 X1.9944 Y0.2474 I-0.0018 J0.0047
G1 X1.9859 Y0.2456
G2 X1.9852 Y0.2455 I-0.0011 J0.0049
G1 X1.9764 Y0.2449
G2 X1.9758 I-0.0003 J0.005
G1 X1.9679 Y0.2454
G2 X1.9672 Y0.2455 I0.0003 J0.005
G1 X1.9594 Y0.247
G2 X1.9587 Y0.2472 I0.001 J0.0049
G1 X1.9512 Y0.2499
G2 X1.9506 Y0.2501 I0.0017 J0.0047
G1 X1.9435 Y0.2538
G2 X1.943 Y0.2542 I0.0023 J0.0044
G1 X1.9365 Y0.2588
G2 X1.936 Y0.2592 I0.0029 J0.0041
G1 X1.9302 Y0.2646
G2 X1.9298 Y0.265 I0.0034 J0.0037
G1 X1.9246 Y0.2709
G2 X1.9242 Y0.2715 I0.0038 J0.0033
G1 X1.9193 Y0.2787
G2 X1.919 Y0.2793 I0.0042 J0.0028
G1 X1.9151 Y0.2871
G2 X1.9149 Y0.2878 I0.0045 J0.0022
G1 X1.9122 Y0.2961
G2 X1.912 Y0.2968 I0.0048 J0.0016
G1 X1.9104 Y0.3054
G2 Y0.3059 I0.0049 J0.0009
G1 X1.9099 Y0.3147
G2 Y0.3153 I0.005 J0.0003
G1 X1.9104 Y0.3245
G2 X1.9105 Y0.3252 I0.005 J-0.0003
G1 X1.9123 Y0.3343
G2 X1.9125 Y0.335 I0.0049 J-0.0009
G1 X1.9137 Y0.3385
G3 X1.9131 Y0.3398 I-0.0009 J0.0003
G1 X1.9122 Y0.3401
X1.9115 Y0.3404 Z-0.0115
X1.9112 Y0.3405 Z-0.0108
G0 Z0.2
X2.225 Y0.2697
G1 Z0.0394 F13.33
Z-0.0108
X2.2253 Z-0.0115
X2.226 Y0.2698 Z-0.0118
X2.227 Y0.2699 F40
G3 X2.2279 Y0.271 I-0.0001 J0.001
G1 X2.2278 Y0.2723
X2.2277 Y0.2727
X2.2276 Y0.2775
Y0.2776
Y0.4478
X2.1572
Y0.2775
X2.1575 Y0.2649
X2.1588 Y0.2524
X2.1611 Y0.2402
X2.1646 Y0.2283
X2.1683 Y0.2194
X2.1729 Y0.2111
X2.1784 Y0.2033
X2.1849 Y0.1963
X2.1923 Y0.1901
X2.2005 Y0.185
X2.2094 Y0.181
X2.2187 Y0.178
X2.2283 Y0.176
X2.2382 Y0.1749
X2.2482 Y0.1745
X2.2582 Y0.1748
X2.2682 Y0.176
X2.2779 Y0.178
X2.2874 Y0.1809
X2.2965 Y0.1848
X2.3049 Y0.1896
X2.3126 Y0.1954
X2.3198 Y0.202
X2.3261 Y0.2093
X2.3318 Y0.2174
X2.3364 Y0.2261
X2.3401 Y0.2353
X2.3429 Y0.2449
X2.3448 Y0.2547
X2.3459 Y0.2647
X2.3462 Y0.2749
Y0.4478
X2.2758
Y0.2776
Y0.2775
X2.2757 Y0.2727
X2.2756 Y0.2723
X2.2751 Y0.2676
G2 X2.275 Y0.2671 I-0.005 J0.0005
G1 X2.274 Y0.2625
G2 X2.2738 Y0.2617 I-0.0049 J0.0011
G1 X2.2721 Y0.2573
G2 X2.2717 Y0.2565 I-0.0047 J0.0018
G1 X2.2701 Y0.2538
G2 X2.2696 Y0.2531 I-0.0043 J0.0026
G1 X2.2675 Y0.2507
G2 X2.2667 Y0.25 I-0.0038 J0.0033
G1 X2.2641 Y0.2481
G2 X2.263 Y0.2475 I-0.003 J0.004
G1 X2.2585 Y0.2457
G2 X2.2572 Y0.2454 I-0.0018 J0.0047
G1 X2.2525 Y0.2449
G2 X2.2517 I-0.0005 J0.005
G1 X2.2485 Y0.2451
G2 X2.2478 Y0.2452 I0.0003 J0.005
G1 X2.2446 Y0.2459
G2 X2.2437 Y0.2462 I0.001 J0.0049
G1 X2.2407 Y0.2474
G2 X2.2396 Y0.2481 I0.002 J0.0046
G1 X2.2358 Y0.251
G2 X2.2348 Y0.2521 I0.0031 J0.004
G1 X2.232 Y0.256
G2 X2.2315 Y0.257 I0.0041 J0.0029
G1 X2.2297 Y0.2615
G2 X2.2295 Y0.2622 I0.0046 J0.0019
G1 X2.2284 Y0.2669
G2 X2.2283 Y0.2675 I0.0049 J0.0011
G1 X2.2279 Y0.271
G3 X2.2268 Y0.2719 I-0.001 J-0.0001
G1 X2.2258 Y0.2718
X2.2251 Y0.2717 Z-0.0115
X2.2248 Z-0.0108
G0 Z0.2
X2.4629 Y0.3006
G1 Z0.0394 F13.33
Z-0.0108
X2.4632 Y0.3007 Z-0.0115
X2.4639 Y0.3008 Z-0.0118
X2.4649 Y0.3009 F40
G3 X2.4657 Y0.3021 I-0.0002 J0.001
G1 X2.4653 Y0.3046
G2 Y0.3052 I0.0049 J0.0008
G1 X2.4649 Y0.3137
G2 Y0.3142 I0.005 J0.0002
G1 X2.4653 Y0.3235
G2 X2.4654 Y0.3241 I0.005 J-0.0002
G1 X2.4669 Y0.3333
G2 X2.4671 Y0.3339 I0.0049 J-0.0008
G1 X2.4698 Y0.3428
G2 X2.47 Y0.3435 I0.0048 J-0.0014
G1 X2.474 Y0.352
G2 X2.4743 Y0.3526 I0.0045 J-0.0021
G1 X2.4795 Y0.3604
G2 X2.4799 Y0.361 I0.0042 J-0.0028
G1 X2.4862 Y0.3679
G2 X2.4867 Y0.3684 I0.0037 J-0.0033
G1 X2.4923 Y0.3731
G2 X2.4928 Y0.3735 I0.0032 J-0.0038
G1 X2.499 Y0.3774
G2 X2.4996 Y0.3777 I0.0027 J-0.0042
G1 X2.5062 Y0.3808
G2 X2.5069 Y0.3811 I0.0021 J-0.0045
G1 X2.5139 Y0.3832
G2 X2.5145 Y0.3834 I0.0015 J-0.0048
G1 X2.5218 Y0.3846
G2 X2.5223 I0.0008 J-0.0049
G1 X2.5297 Y0.385
G2 X2.5302 I0.0003 J-0.005
G1 X2.5374 Y0.3846
G2 X2.538 Y0.3845 I-0.0003 J-0.005
G1 X2.5451 Y0.3834
G2 X2.5458 Y0.3832 I-0.0008 J-0.0049
G1 X2.5527 Y0.381
G2 X2.5534 Y0.3808 I-0.0015 J-0.0048
G1 X2.5599 Y0.3777
G2 X2.5606 Y0.3773 I-0.0021 J-0.0045
G1 X2.5666 Y0.3732
G2 X2.5672 Y0.3727 I-0.0028 J-0.0041
G1 X2.5725 Y0.3678
G2 X2.573 Y0.3673 I-0.0034 J-0.0037
G1 X2.5784 Y0.3606
G2 X2.5787 Y0.3601 I-0.0039 J-0.0031
G1 X2.5832 Y0.3529
G2 X2.5835 Y0.3523 I-0.0043 J-0.0026
G1 X2.5871 Y0.3446
G2 X2.5873 Y0.3442 I-0.0045 J-0.0021
G1 X2.5889 Y0.3397
X2.667 Y0.345
X2.6654 Y0.3512
X2.6617 Y0.3628
X2.6573 Y0.3742
X2.652 Y0.3852
X2.6473 Y0.3935
X2.6421 Y0.4014
X2.6363 Y0.4089
X2.6299 Y0.4159
X2.621 Y0.4242
X2.6114 Y0.4316
X2.6011 Y0.4381
X2.5903 Y0.4436
X2.579 Y0.4481
X2.5676 Y0.4514
X2.5558 Y0.4537
X2.5439 Y0.4549
X2.5319 Y0.4554
X2.5202 Y0.455
X2.5086 Y0.4538
X2.4971 Y0.4516
X2.4859 Y0.4485
X2.475 Y0.4445
X2.4645 Y0.4394
X2.4528 Y0.4324
X2.4418 Y0.4241
X2.4316 Y0.4149
X2.4223 Y0.4047
X2.4149 Y0.395
X2.4083 Y0.3846
X2.4028 Y0.3738
X2.3983 Y0.3624
X2.3949 Y0.3506
X2.3925 Y0.3386
X2.3911 Y0.3264
X2.3907 Y0.3141
X2.3911 Y0.3025
X2.3922 Y0.291
X2.3943 Y0.2797
X2.3973 Y0.2686
X2.4013 Y0.2578
X2.4062 Y0.2474
X2.4131 Y0.2358
X2.4212 Y0.2249
X2.4303 Y0.2148
X2.4403 Y0.2056
X2.4499 Y0.1983
X2.4601 Y0.1918
X2.4709 Y0.1864
X2.4822 Y0.182
X2.4938 Y0.1786
X2.5057 Y0.1763
X2.5177 Y0.175
X2.5299 Y0.1745
X2.5413 Y0.1749
X2.5526 Y0.1759
X2.5637 Y0.1778
X2.5746 Y0.1806
X2.5853 Y0.1843
X2.5955 Y0.189
X2.6069 Y0.1957
X2.6175 Y0.2036
X2.6271 Y0.2126
X2.6358 Y0.2227
X2.6436 Y0.2338
X2.6502 Y0.2456
X2.6558 Y0.2581
X2.6604 Y0.2709
X2.6641 Y0.2842
X2.6669 Y0.2976
X2.6681 Y0.3058
X2.5926 Y0.3078
X2.5922 Y0.3046
X2.5921 Y0.3042
X2.5906 Y0.2966
Y0.2963
X2.5885 Y0.2888
G2 X2.5884 Y0.2884 I-0.0048 J0.0013
G1 X2.5856 Y0.2811
G2 X2.5854 Y0.2806 I-0.0047 J0.0018
G1 X2.5818 Y0.2737
G2 X2.5815 Y0.2732 I-0.0044 J0.0023
G1 X2.5771 Y0.2668
G2 X2.5767 Y0.2663 I-0.0041 J0.0028
G1 X2.5715 Y0.2606
G2 X2.5709 Y0.26 I-0.0037 J0.0034
G1 X2.5642 Y0.2548
G2 X2.5635 Y0.2543 I-0.0031 J0.0039
G1 X2.556 Y0.2502
G2 X2.5553 Y0.2499 I-0.0024 J0.0044
G1 X2.5472 Y0.2471
G2 X2.5465 Y0.247 I-0.0016 J0.0047
G1 X2.5381 Y0.2454
G2 X2.5375 Y0.2453 I-0.0009 J0.0049
G1 X2.529 Y0.2449
G2 X2.5284 I-0.0003 J0.005
G1 X2.5207 Y0.2454
G2 X2.52 I0.0003 J0.005
G1 X2.5124 Y0.2469
G2 X2.5117 Y0.247 I0.0009 J0.0049
G1 X2.5043 Y0.2495
G2 X2.5037 Y0.2498 I0.0016 J0.0047
G1 X2.4967 Y0.2532
G2 X2.496 Y0.2536 I0.0022 J0.0045
G1 X2.4897 Y0.2582
G2 X2.4892 Y0.2586 I0.0029 J0.0041
G1 X2.4835 Y0.2639
G2 X2.4831 Y0.2644 I0.0034 J0.0036
G1 X2.4781 Y0.2704
G2 X2.4777 Y0.2709 I0.0039 J0.0032
G1 X2.4732 Y0.2782
G2 X2.4729 Y0.2789 I0.0042 J0.0026
G1 X2.4694 Y0.2867
G2 X2.4692 Y0.2873 I0.0046 J0.002
G1 X2.4668 Y0.2955
G2 X2.4667 Y0.2961 I0.0048 J0.0014
G1 X2.4657 Y0.3021
G3 X2.4646 Y0.3029 I-0.001 J-0.0002
G1 X2.4636 Y0.3027
X2.4629 Y0.3026 Z-0.0115
X2.4626 Z-0.0108
G0 Z0.2
X2.7871 Y0.3464
G1 Z0.0394 F13.33
Z-0.0108
X2.7873 Y0.3466 Z-0.0115
X2.7878 Y0.3472 Z-0.0118
X2.7884 Y0.3479 F40
G3 X2.7882 Y0.3494 I-0.0008 J0.0006
G2 X2.7864 Y0.3532 I0.0032 J0.0039
G1 Y0.4478
X2.716
Y0.1822
X2.7864
Y0.2767
G2 X2.7914 Y0.2817 I0.005
G1 X2.8094
Y0.3482
X2.7914
G2 X2.7882 Y0.3494 J0.005
G3 X2.7868 Y0.3492 I-0.0006 J-0.0008
G1 X2.7862 Y0.3484
X2.7858 Y0.3479 Z-0.0115
X2.7856 Y0.3477 Z-0.0108
G0 Z0.2
X2.9059 Y0.2164
G1 Z0.0394 F13.33
Z-0.0108
G18 G2 X2.9069 Z-0.0118 I0.001
G1 X2.9079 F40
G17 G3 X2.9089 Y0.2174 J0.001
G1 Y0.4478
X2.8385
Y0.1822
X2.9089
Y0.2174
G3 X2.9079 Y0.2184 I-0.001
G1 X2.9069
G18 G3 X2.9059 Z-0.0108 K0.001
G0 Z0.6
G17
M9
G28 G91 Z0
G28 X0 Y0
M30
%
