%
(Faceing pass one fast)
(T2  D=0.25 CR=0 - ZMIN=-0.02 - flat end mill)
G90 G94
G17
G20
G28 G91 Z0
G90

(2D Adaptive1)
M9
T2 M6
S5000 M3
G54
M8
G0 X-0.0939 Y-0.9267
Z1
Z0.5
Z0.145
G1 Z0.12 F40
G3 X0.0939 Y-1.0721 Z0.107 I0.0939 J-0.0727 F13.33
X-0.0939 Y-0.9267 Z0.0939 I-0.0939 J0.0727
X0.0939 Y-1.0721 Z0.0809 I0.0939 J-0.0727
X-0.0939 Y-0.9267 Z0.0679 I-0.0939 J0.0727
X0.0939 Y-1.0721 Z0.0549 I0.0939 J-0.0727
X-0.0939 Y-0.9267 Z0.0418 I-0.0939 J0.0727
X0.0939 Y-1.0721 Z0.0288 I0.0939 J-0.0727
X-0.0939 Y-0.9267 Z0.0158 I-0.0939 J0.0727
X0.0939 Y-1.0721 Z0.0028 I0.0939 J-0.0727
X0.1187 Y-0.9994 Z0 I-0.0939 J0.0727
X-0.1187 I-0.1187
X0.1187 I0.1187
G1 X0.1189 Y-0.9897 F50
X0.126 Y-0.9513
X0.1275 Y-0.9467
X0.1287 Y-0.9408
X0.1294 Y-0.9348
X0.1295 Y-0.9288
X0.1291 Y-0.9224
X0.1281 Y-0.9156
X0.1265 Y-0.9084
X0.1242 Y-0.901
X0.1212 Y-0.8933
X0.1173 Y-0.8855
X0.1126 Y-0.8777
X0.107 Y-0.8699
X0.1005 Y-0.8622
X0.0932 Y-0.8548
X0.0849 Y-0.8478
X0.0759 Y-0.8412
X0.066 Y-0.8352
X0.0554 Y-0.8299
X0.0441 Y-0.8253
X0.0322 Y-0.8215
X0.0197 Y-0.8187
X0.0068 Y-0.8168
X-0.0064 Y-0.8159
X-0.0199 Y-0.8161
X-0.0335 Y-0.8174
X-0.0472 Y-0.8198
X-0.0607 Y-0.8234
X-0.0741 Y-0.8281
X-0.0872 Y-0.8339
X-0.0999 Y-0.8407
X-0.112 Y-0.8487
X-0.1236 Y-0.8576
X-0.1344 Y-0.8675
X-0.1445 Y-0.8783
X-0.1537 Y-0.8899
X-0.162 Y-0.9022
X-0.1693 Y-0.9152
X-0.1756 Y-0.9288
X-0.1807 Y-0.9429
X-0.1847 Y-0.9574
X-0.1876 Y-0.9722
X-0.1892 Y-0.9872
X-0.1897 Y-1.0023
X-0.1889 Y-1.0175
X-0.1869 Y-1.0325
X-0.1837 Y-1.0473
X-0.1793 Y-1.0618
X-0.1738 Y-1.076
X-0.1671 Y-1.0897
X-0.1594 Y-1.1028
X-0.1506 Y-1.1152
X-0.1409 Y-1.1269
X-0.1303 Y-1.1378
X-0.1188 Y-1.1478
X-0.1065 Y-1.1569
X-0.0935 Y-1.1649
X-0.08 Y-1.1719
X-0.0659 Y-1.1777
X-0.0514 Y-1.1825
X-0.0365 Y-1.186
X-0.0215 Y-1.1883
X-0.0062 Y-1.1894
X0.009 Y-1.1893
X0.0242 Y-1.188
X0.0393 Y-1.1855
X0.0541 Y-1.1817
X0.0685 Y-1.1768
X0.0825 Y-1.1707
X0.096 Y-1.1635
X0.1089 Y-1.1553
X0.121 Y-1.1461
X0.1324 Y-1.1359
X0.1429 Y-1.1248
X0.1525 Y-1.1129
X0.1612 Y-1.1003
X0.1738 Y-1.0782
X0.1877 Y-1.0486
X0.1962 Y-1.026
X0.202 Y-1.0057
X0.2058 Y-0.987
X0.2079 Y-0.9689
X0.2085 Y-0.9514
X0.2078 Y-0.9344
X0.2058 Y-0.9179
X0.2024 Y-0.9017
X0.1978 Y-0.8859
X0.1919 Y-0.8706
X0.1848 Y-0.8556
X0.1765 Y-0.8412
X0.1669 Y-0.8274
X0.1562 Y-0.8143
X0.1443 Y-0.802
X0.1314 Y-0.7905
X0.1173 Y-0.78
X0.1023 Y-0.7705
X0.0863 Y-0.7621
X0.0694 Y-0.7549
X0.0518 Y-0.749
X0.0336 Y-0.7445
X0.0148 Y-0.7414
X-0.0044 Y-0.7399
X-0.0238 Y-0.7398
X-0.0434 Y-0.7414
X-0.063 Y-0.7445
X-0.0824 Y-0.7493
X-0.1015 Y-0.7556
X-0.1202 Y-0.7635
X-0.1383 Y-0.773
X-0.1557 Y-0.7839
X-0.1722 Y-0.7963
X-0.1878 Y-0.81
X-0.2023 Y-0.825
X-0.2156 Y-0.8412
X-0.2276 Y-0.8584
X-0.2382 Y-0.8766
X-0.2474 Y-0.8957
X-0.255 Y-0.9155
X-0.261 Y-0.9359
X-0.2654 Y-0.9568
X-0.2681 Y-0.978
X-0.269 Y-0.9994
X-0.2683 Y-1.0208
X-0.2658 Y-1.0422
X-0.2617 Y-1.0632
X-0.2558 Y-1.0839
X-0.2483 Y-1.1041
X-0.2392 Y-1.1237
X-0.2285 Y-1.1424
X-0.2164 Y-1.1603
X-0.2028 Y-1.1771
X-0.188 Y-1.1928
X-0.1719 Y-1.2072
X-0.1547 Y-1.2203
X-0.1365 Y-1.2321
X-0.1175 Y-1.2423
X-0.0976 Y-1.2509
X-0.0771 Y-1.2579
X-0.0562 Y-1.2633
X-0.0348 Y-1.267
X-0.0133 Y-1.2689
X0.0084 Y-1.2691
X0.03 Y-1.2676
X0.0514 Y-1.2643
X0.0725 Y-1.2593
X0.0931 Y-1.2527
X0.1131 Y-1.2444
X0.1324 Y-1.2345
X0.1509 Y-1.2232
X0.1683 Y-1.2103
X0.1862 Y-1.1948
X0.2048 Y-1.176
X0.2221 Y-1.1553
X0.2382 Y-1.1326
X0.2523 Y-1.1087
X0.2643 Y-1.0843
X0.274 Y-1.0596
X0.2815 Y-1.0348
X0.2869 Y-1.0101
X0.2902 Y-0.9855
X0.2916 Y-0.961
X0.2909 Y-0.9368
X0.2883 Y-0.913
X0.2839 Y-0.8896
X0.2776 Y-0.8667
X0.2695 Y-0.8444
X0.2597 Y-0.8229
X0.2482 Y-0.8021
X0.2349 Y-0.7824
X0.2201 Y-0.7636
X0.2037 Y-0.746
X0.1858 Y-0.7297
X0.1666 Y-0.7147
X0.146 Y-0.7012
X0.1242 Y-0.6893
X0.1014 Y-0.6792
X0.0776 Y-0.6708
X0.053 Y-0.6643
X0.0278 Y-0.6597
X0.0021 Y-0.6572
X-0.0239 Y-0.6567
X-0.05 Y-0.6584
X-0.0761 Y-0.6621
X-0.102 Y-0.668
X-0.1275 Y-0.676
X-0.1524 Y-0.6861
X-0.1765 Y-0.6982
X-0.1997 Y-0.7122
X-0.2218 Y-0.7282
X-0.2427 Y-0.7459
X-0.2621 Y-0.7654
X-0.28 Y-0.7864
X-0.2962 Y-0.8089
X-0.3106 Y-0.8327
X-0.323 Y-0.8576
X-0.3335 Y-0.8835
X-0.3418 Y-0.9102
X-0.348 Y-0.9376
X-0.352 Y-0.9654
X-0.3538 Y-0.9935
X-0.3532 Y-1.0217
X-0.3505 Y-1.0498
X-0.3454 Y-1.0777
X-0.3382 Y-1.105
X-0.3287 Y-1.1317
X-0.3172 Y-1.1576
X-0.3035 Y-1.1825
X-0.288 Y-1.2062
X-0.2705 Y-1.2286
X-0.2513 Y-1.2496
X-0.2305 Y-1.2689
X-0.2082 Y-1.2866
X-0.1845 Y-1.3023
X-0.1597 Y-1.3162
X-0.1338 Y-1.328
X-0.107 Y-1.3377
X-0.0796 Y-1.3452
X-0.0516 Y-1.3505
X-0.0233 Y-1.3535
X0.0052 Y-1.3542
X0.0336 Y-1.3527
X0.0619 Y-1.3488
X0.0897 Y-1.3428
X0.117 Y-1.3345
X0.1435 Y-1.324
X0.1695 Y-1.3112
X0.1953 Y-1.2959
X0.2205 Y-1.278
X0.245 Y-1.2575
X0.2682 Y-1.2346
X0.2898 Y-1.2097
X0.3093 Y-1.183
X0.3267 Y-1.1549
X0.3416 Y-1.1256
X0.3541 Y-1.0954
X0.364 Y-1.0646
X0.3713 Y-1.0334
X0.3761 Y-1.0019
X0.3783 Y-0.9704
X0.378 Y-0.9391
X0.3752 Y-0.908
X0.3699 Y-0.8774
X0.3622 Y-0.8474
X0.3521 Y-0.8182
X0.3398 Y-0.7899
X0.3251 Y-0.7627
X0.3084 Y-0.7367
X0.2895 Y-0.712
X0.2686 Y-0.6888
X0.2459 Y-0.6673
X0.2214 Y-0.6476
X0.1952 Y-0.6299
X0.1675 Y-0.6141
X0.1385 Y-0.6006
X0.1083 Y-0.5894
X0.0771 Y-0.5806
X0.0451 Y-0.5743
X0.0126 Y-0.5706
X-0.0204 Y-0.5695
X-0.0535 Y-0.571
X-0.0865 Y-0.5752
X-0.1193 Y-0.5821
X-0.1516 Y-0.5916
X-0.1832 Y-0.6038
X-0.2138 Y-0.6185
X-0.2432 Y-0.6357
X-0.2713 Y-0.6553
X-0.2979 Y-0.6771
X-0.3227 Y-0.7011
X-0.3455 Y-0.7271
X-0.3662 Y-0.7549
X-0.3847 Y-0.7844
X-0.4009 Y-0.8153
X-0.4145 Y-0.8476
X-0.4255 Y-0.8808
X-0.4338 Y-0.9149
X-0.4393 Y-0.9497
X-0.4421 Y-0.9848
X-0.442 Y-1.02
X-0.4391 Y-1.0552
X-0.4334 Y-1.0901
X-0.4249 Y-1.1245
X-0.4136 Y-1.158
X-0.3997 Y-1.1906
X-0.3832 Y-1.222
X-0.3642 Y-1.252
X-0.3429 Y-1.2804
X-0.3193 Y-1.307
X-0.2937 Y-1.3316
X-0.2662 Y-1.3541
X-0.2369 Y-1.3743
X-0.2061 Y-1.3921
X-0.174 Y-1.4074
X-0.1407 Y-1.42
X-0.1066 Y-1.43
X-0.0717 Y-1.4372
X-0.0364 Y-1.4415
X-0.0008 Y-1.443
X0.0348 Y-1.4417
X0.0702 Y-1.4375
X0.1052 Y-1.4304
X0.1397 Y-1.4205
X0.1737 Y-1.4077
X0.2071 Y-1.3921
X0.2395 Y-1.3735
X0.271 Y-1.3519
X0.3011 Y-1.3275
X0.3293 Y-1.3006
X0.3553 Y-1.2716
X0.379 Y-1.2406
X0.4001 Y-1.2078
X0.4186 Y-1.1734
X0.4343 Y-1.1378
X0.4471 Y-1.1009
X0.457 Y-1.0632
X0.4638 Y-1.0248
X0.4675 Y-0.9862
X0.4681 Y-0.9476
X0.4656 Y-0.9091
X0.4601 Y-0.8712
X0.4515 Y-0.8339
X0.44 Y-0.7974
X0.4256 Y-0.762
X0.4084 Y-0.7279
X0.3885 Y-0.6952
X0.366 Y-0.6641
X0.341 Y-0.6349
X0.3137 Y-0.6077
X0.2842 Y-0.5827
X0.2526 Y-0.5601
X0.2192 Y-0.54
X0.1843 Y-0.5226
X0.1481 Y-0.5081
X0.1109 Y-0.4965
X0.0728 Y-0.4878
X0.0343 Y-0.4822
X-0.0046 Y-0.4796
X-0.0436 Y-0.4801
X-0.0825 Y-0.4835
X-0.1209 Y-0.49
X-0.1588 Y-0.4994
X-0.1958 Y-0.5116
X-0.2318 Y-0.5266
X-0.2665 Y-0.5443
X-0.2998 Y-0.5646
X-0.3315 Y-0.5873
X-0.3614 Y-0.6124
X-0.3892 Y-0.6397
X-0.415 Y-0.669
X-0.4384 Y-0.7001
X-0.4595 Y-0.7329
X-0.4781 Y-0.7672
X-0.4941 Y-0.8027
X-0.5074 Y-0.8394
X-0.518 Y-0.8769
X-0.5258 Y-0.9151
X-0.5309 Y-0.9538
X-0.533 Y-0.9927
X-0.5323 Y-1.0317
X-0.5287 Y-1.0705
X-0.5222 Y-1.1089
X-0.5129 Y-1.1468
X-0.5008 Y-1.1839
X-0.486 Y-1.22
X-0.4687 Y-1.2549
X-0.4488 Y-1.2884
X-0.4266 Y-1.3205
X-0.4021 Y-1.3508
X-0.3754 Y-1.3793
X-0.3468 Y-1.4057
X-0.3163 Y-1.43
X-0.2841 Y-1.4519
X-0.2503 Y-1.4714
X-0.2152 Y-1.4884
X-0.1789 Y-1.5028
X-0.1417 Y-1.5145
X-0.1038 Y-1.5235
X-0.0653 Y-1.5296
X-0.0265 Y-1.533
X0.0125 Y-1.5336
X0.0515 Y-1.5314
X0.0901 Y-1.5263
X0.1283 Y-1.5183
X0.1658 Y-1.5076
X0.2024 Y-1.4942
X0.238 Y-1.4782
X0.2723 Y-1.4598
X0.3054 Y-1.4391
X0.337 Y-1.4163
X0.3668 Y-1.3912
X0.3949 Y-1.3642
X0.4211 Y-1.3353
X0.4453 Y-1.3047
X0.4675 Y-1.2726
X0.4875 Y-1.2392
X0.5052 Y-1.2044
X0.5205 Y-1.1685
X0.5333 Y-1.1317
X0.5436 Y-1.0941
X0.5514 Y-1.0559
X0.5567 Y-1.0173
X0.5594 Y-0.9784
X0.5593 Y-0.9394
X0.5565 Y-0.9005
X0.5511 Y-0.8619
X0.5431 Y-0.8237
X0.5325 Y-0.7862
X0.5194 Y-0.7495
X0.5038 Y-0.7137
X0.4858 Y-0.6792
X0.4654 Y-0.646
X0.4427 Y-0.6142
X0.418 Y-0.5841
X0.3913 Y-0.5557
X0.3627 Y-0.5291
X0.3324 Y-0.5046
X0.3005 Y-0.4822
X0.2671 Y-0.4621
X0.2324 Y-0.4443
X0.1966 Y-0.4288
X0.1599 Y-0.4156
X0.1224 Y-0.405
X0.0843 Y-0.3969
X0.0457 Y-0.3914
X0.0068 Y-0.3885
X-0.0322 Y-0.3881
X-0.0711 Y-0.3903
X-0.1099 Y-0.3949
X-0.1482 Y-0.4021
X-0.1859 Y-0.4118
X-0.223 Y-0.424
X-0.2592 Y-0.4385
X-0.2944 Y-0.4553
X-0.3284 Y-0.4742
X-0.3612 Y-0.4953
X-0.3925 Y-0.5186
X-0.4223 Y-0.5438
X-0.4503 Y-0.5709
X-0.4766 Y-0.5997
X-0.501 Y-0.6301
X-0.5235 Y-0.6619
X-0.5439 Y-0.6952
X-0.5621 Y-0.7297
X-0.578 Y-0.7652
X-0.5917 Y-0.8017
X-0.6031 Y-0.839
X-0.6122 Y-0.8769
X-0.6189 Y-0.9153
X-0.6232 Y-0.9541
X-0.625 Y-0.9931
X-0.6243 Y-1.032
X-0.6211 Y-1.0709
X-0.6156 Y-1.1095
X-0.6076 Y-1.1477
X-0.5974 Y-1.1853
X-0.5847 Y-1.2222
X-0.5697 Y-1.2581
X-0.5525 Y-1.2931
X-0.5331 Y-1.327
X-0.5118 Y-1.3596
X-0.4884 Y-1.3908
X-0.4632 Y-1.4206
X-0.4362 Y-1.4487
X-0.4074 Y-1.4749
X-0.377 Y-1.4994
X-0.3451 Y-1.5219
X-0.312 Y-1.5423
X-0.2776 Y-1.5608
X-0.2422 Y-1.577
X-0.2057 Y-1.5909
X-0.1685 Y-1.6025
X-0.1306 Y-1.6118
X-0.0923 Y-1.6188
X-0.0536 Y-1.6234
X-0.0146 Y-1.6256
X0.0244 Y-1.6254
X0.0633 Y-1.6227
X0.1019 Y-1.6175
X0.1402 Y-1.61
X0.1779 Y-1.6001
X0.2149 Y-1.5879
X0.2512 Y-1.5736
X0.2865 Y-1.5571
X0.3208 Y-1.5385
X0.3538 Y-1.5178
X0.3856 Y-1.4952
X0.416 Y-1.4708
X0.4449 Y-1.4446
X0.4723 Y-1.4169
X0.498 Y-1.3876
X0.522 Y-1.3568
X0.5441 Y-1.3247
X0.5643 Y-1.2913
X0.5825 Y-1.2569
X0.5988 Y-1.2214
X0.6129 Y-1.1851
X0.6251 Y-1.148
X0.6349 Y-1.1103
X0.6426 Y-1.0721
X0.648 Y-1.0335
X0.6511 Y-0.9946
X0.652 Y-0.9556
X0.6506 Y-0.9167
X0.647 Y-0.8779
X0.641 Y-0.8393
X0.6328 Y-0.8012
X0.6223 Y-0.7637
X0.6097 Y-0.7268
X0.5949 Y-0.6907
X0.578 Y-0.6556
X0.5591 Y-0.6215
X0.5382 Y-0.5885
X0.5153 Y-0.557
X0.4906 Y-0.5268
X0.4643 Y-0.4981
X0.4362 Y-0.4709
X0.4067 Y-0.4455
X0.3758 Y-0.4218
X0.3434 Y-0.3999
X0.3099 Y-0.3801
X0.2752 Y-0.3622
X0.2396 Y-0.3463
X0.2032 Y-0.3325
X0.166 Y-0.3209
X0.1282 Y-0.3113
X0.0899 Y-0.304
X0.0512 Y-0.2989
X0.0123 Y-0.296
X-0.0267 Y-0.2954
X-0.0656 Y-0.2969
X-0.1044 Y-0.3006
X-0.143 Y-0.3065
X-0.1811 Y-0.3146
X-0.2188 Y-0.3248
X-0.2557 Y-0.3372
X-0.292 Y-0.3516
X-0.3273 Y-0.368
X-0.3618 Y-0.3863
X-0.3951 Y-0.4065
X-0.4273 Y-0.4285
X-0.4582 Y-0.4523
X-0.4877 Y-0.4778
X-0.5157 Y-0.5049
X-0.5422 Y-0.5336
X-0.567 Y-0.5636
X-0.5902 Y-0.595
X-0.6116 Y-0.6275
X-0.6312 Y-0.6612
X-0.649 Y-0.6959
X-0.6647 Y-0.7316
X-0.6784 Y-0.7681
X-0.6902 Y-0.8053
X-0.6999 Y-0.843
X-0.7076 Y-0.8813
X-0.7132 Y-0.9199
X-0.7167 Y-0.9587
X-0.718 Y-0.9977
X-0.7171 Y-1.0366
X-0.7141 Y-1.0755
X-0.709 Y-1.1142
X-0.7018 Y-1.1525
X-0.6926 Y-1.1904
X-0.6813 Y-1.2277
X-0.668 Y-1.2644
X-0.6527 Y-1.3002
X-0.6355 Y-1.3352
X-0.6163 Y-1.3691
X-0.5954 Y-1.4021
X-0.5728 Y-1.4338
X-0.5484 Y-1.4643
X-0.5225 Y-1.4934
X-0.495 Y-1.5211
X-0.466 Y-1.5471
X-0.4357 Y-1.5716
X-0.404 Y-1.5943
X-0.3712 Y-1.6153
X-0.3373 Y-1.6346
X-0.3024 Y-1.652
X-0.2666 Y-1.6675
X-0.23 Y-1.6809
X-0.1927 Y-1.6924
X-0.1549 Y-1.7018
X-0.1166 Y-1.7091
X-0.0779 Y-1.7144
X-0.0391 Y-1.7176
X-0.0001 Y-1.7188
X0.0389 Y-1.7178
X0.0777 Y-1.7147
X0.1164 Y-1.7094
X0.1547 Y-1.702
X0.1925 Y-1.6926
X0.2298 Y-1.6813
X0.2664 Y-1.668
X0.3024 Y-1.6528
X0.3374 Y-1.6357
X0.3715 Y-1.6168
X0.4045 Y-1.5961
X0.4364 Y-1.5736
X0.4671 Y-1.5496
X0.4966 Y-1.524
X0.5247 Y-1.497
X0.5514 Y-1.4686
X0.5766 Y-1.4389
X0.6003 Y-1.4079
X0.6223 Y-1.3757
X0.6426 Y-1.3424
X0.6612 Y-1.3082
X0.6781 Y-1.273
X0.6932 Y-1.2371
X0.7065 Y-1.2004
X0.7179 Y-1.1631
X0.7273 Y-1.1253
X0.7348 Y-1.087
X0.7403 Y-1.0484
X0.7438 Y-1.0096
X0.7453 Y-0.9706
X0.7448 Y-0.9317
X0.7424 Y-0.8927
X0.738 Y-0.854
X0.7315 Y-0.8155
X0.7231 Y-0.7775
X0.7127 Y-0.7399
X0.7003 Y-0.7029
X0.6861 Y-0.6666
X0.67 Y-0.6311
X0.6522 Y-0.5964
X0.6326 Y-0.5627
X0.6112 Y-0.5301
X0.5882 Y-0.4986
X0.5636 Y-0.4684
X0.5374 Y-0.4395
X0.5098 Y-0.4119
X0.4809 Y-0.3858
X0.4506 Y-0.3612
X0.4192 Y-0.3382
X0.3866 Y-0.3168
X0.3529 Y-0.2971
X0.3183 Y-0.2792
X0.2827 Y-0.2631
X0.2465 Y-0.2488
X0.2095 Y-0.2364
X0.172 Y-0.2258
X0.134 Y-0.2171
X0.0956 Y-0.2103
X0.0569 Y-0.2055
X0.018 Y-0.2027
X-0.021 Y-0.2018
X-0.0599 Y-0.2029
X-0.0988 Y-0.2059
X-0.1375 Y-0.2108
X-0.1759 Y-0.2176
X-0.2139 Y-0.2263
X-0.2514 Y-0.2369
X-0.2884 Y-0.2494
X-0.3246 Y-0.2637
X-0.3601 Y-0.2798
X-0.3948 Y-0.2976
X-0.4286 Y-0.3171
X-0.4614 Y-0.3382
X-0.4932 Y-0.3608
X-0.5237 Y-0.385
X-0.5531 Y-0.4107
X-0.5811 Y-0.4378
X-0.6077 Y-0.4663
X-0.6329 Y-0.496
X-0.6567 Y-0.527
X-0.6789 Y-0.559
X-0.6996 Y-0.592
X-0.7187 Y-0.626
X-0.7361 Y-0.6609
X-0.7517 Y-0.6967
X-0.7655 Y-0.7331
X-0.7776 Y-0.7702
X-0.7879 Y-0.8078
X-0.7963 Y-0.8459
X-0.803 Y-0.8843
X-0.8078 Y-0.923
X-0.8107 Y-0.9619
X-0.8117 Y-1.0008
X-0.8108 Y-1.0398
X-0.808 Y-1.0787
X-0.8033 Y-1.1174
X-0.7968 Y-1.1559
X-0.7885 Y-1.194
X-0.7783 Y-1.2316
X-0.7664 Y-1.2687
X-0.7527 Y-1.3052
X-0.7372 Y-1.341
X-0.7199 Y-1.376
X-0.7011 Y-1.4101
X-0.6806 Y-1.4433
X-0.6585 Y-1.4754
X-0.635 Y-1.5065
X-0.61 Y-1.5365
X-0.5836 Y-1.5652
X-0.5559 Y-1.5926
X-0.5268 Y-1.6185
X-0.4965 Y-1.6431
X-0.465 Y-1.6661
X-0.4325 Y-1.6876
X-0.399 Y-1.7076
X-0.3647 Y-1.726
X-0.3294 Y-1.7427
X-0.2934 Y-1.7577
X-0.2567 Y-1.7709
X-0.2195 Y-1.7823
X-0.1817 Y-1.7918
X-0.1435 Y-1.7996
X-0.1049 Y-1.8056
X-0.0662 Y-1.8097
X-0.0272 Y-1.812
X0.0118 Y-1.8125
X0.0507 Y-1.8111
X0.0896 Y-1.8077
X0.1282 Y-1.8025
X0.1665 Y-1.7954
X0.2045 Y-1.7865
X0.242 Y-1.7759
X0.279 Y-1.7635
X0.3154 Y-1.7495
X0.3511 Y-1.7337
X0.3859 Y-1.7163
X0.4199 Y-1.6973
X0.453 Y-1.6766
X0.4851 Y-1.6544
X0.5161 Y-1.6308
X0.5461 Y-1.6059
X0.5749 Y-1.5796
X0.6024 Y-1.552
X0.6287 Y-1.5232
X0.6537 Y-1.4932
X0.6772 Y-1.4621
X0.6992 Y-1.43
X0.7198 Y-1.3968
X0.7388 Y-1.3628
X0.7564 Y-1.328
X0.7723 Y-1.2924
X0.7866 Y-1.2561
X0.7993 Y-1.2193
X0.8103 Y-1.1819
X0.8196 Y-1.144
X0.827 Y-1.1057
X0.8327 Y-1.0672
X0.8367 Y-1.0284
X0.8389 Y-0.9894
X0.8393 Y-0.9504
X0.838 Y-0.9115
X0.835 Y-0.8726
X0.8301 Y-0.8339
X0.8235 Y-0.7955
X0.815 Y-0.7574
X0.8048 Y-0.7198
X0.7929 Y-0.6827
X0.7793 Y-0.6461
X0.764 Y-0.6102
X0.7472 Y-0.5751
X0.7288 Y-0.5407
X0.7088 Y-0.5072
X0.6873 Y-0.4747
X0.6642 Y-0.4433
X0.6398 Y-0.4129
X0.614 Y-0.3837
X0.5868 Y-0.3557
X0.5585 Y-0.3289
X0.529 Y-0.3034
X0.4983 Y-0.2793
X0.4666 Y-0.2566
X0.4339 Y-0.2354
X0.4002 Y-0.2158
X0.3657 Y-0.1977
X0.3303 Y-0.1812
X0.2943 Y-0.1663
X0.2576 Y-0.1531
X0.2204 Y-0.1414
X0.1827 Y-0.1314
X0.1446 Y-0.1232
X0.1062 Y-0.1167
X0.0675 Y-0.1119
X0.0286 Y-0.109
X-0.0104 Y-0.1077
X-0.0494 Y-0.1082
X-0.0883 Y-0.1104
X-0.1271 Y-0.1143
X-0.1657 Y-0.1199
X-0.204 Y-0.1272
X-0.2419 Y-0.1362
X-0.2794 Y-0.147
X-0.3164 Y-0.1594
X-0.3527 Y-0.1734
X-0.3885 Y-0.189
X-0.4235 Y-0.2062
X-0.4577 Y-0.2248
X-0.4911 Y-0.2449
X-0.5236 Y-0.2665
X-0.5551 Y-0.2894
X-0.5856 Y-0.3138
X-0.6149 Y-0.3395
X-0.643 Y-0.3665
X-0.67 Y-0.3947
X-0.6957 Y-0.424
X-0.7201 Y-0.4544
X-0.7432 Y-0.4858
X-0.7649 Y-0.5182
X-0.7852 Y-0.5515
X-0.804 Y-0.5856
X-0.8213 Y-0.6206
X-0.837 Y-0.6563
X-0.8512 Y-0.6926
X-0.8637 Y-0.7295
X-0.8747 Y-0.7669
X-0.8841 Y-0.8048
X-0.8918 Y-0.843
X-0.8979 Y-0.8815
X-0.9024 Y-0.9202
X-0.9051 Y-0.9591
X-0.9061 Y-0.9981
X-0.9053 Y-1.0371
X-0.9029 Y-1.076
X-0.8989 Y-1.1148
X-0.8931 Y-1.1533
X-0.8858 Y-1.1916
X-0.8768 Y-1.2296
X-0.8662 Y-1.2671
X-0.854 Y-1.3041
X-0.8402 Y-1.3406
X-0.8247 Y-1.3764
X-0.8078 Y-1.4115
X-0.7893 Y-1.4458
X-0.7694 Y-1.4794
X-0.7481 Y-1.512
X-0.7255 Y-1.5438
X-0.7015 Y-1.5745
X-0.6762 Y-1.6042
X-0.6496 Y-1.6327
X-0.6218 Y-1.6601
X-0.5929 Y-1.6862
X-0.5628 Y-1.711
X-0.5317 Y-1.7345
X-0.4996 Y-1.7567
X-0.4666 Y-1.7774
X-0.4328 Y-1.7968
X-0.3982 Y-1.8148
X-0.3628 Y-1.8312
X-0.3267 Y-1.846
X-0.2901 Y-1.8592
X-0.2528 Y-1.8709
X-0.2152 Y-1.8809
X-0.1771 Y-1.8893
X-0.1387 Y-1.8961
X-0.1001 Y-1.9013
X-0.0612 Y-1.9048
X-0.0223 Y-1.9067
X0.0167 Y-1.9069
X0.0557 Y-1.9053
X0.0945 Y-1.9021
X0.1332 Y-1.8972
X0.1716 Y-1.8906
X0.2098 Y-1.8825
X0.2475 Y-1.8727
X0.2848 Y-1.8614
X0.3216 Y-1.8486
X0.3579 Y-1.8342
X0.3935 Y-1.8183
X0.4283 Y-1.8008
X0.4624 Y-1.7819
X0.4957 Y-1.7615
X0.5281 Y-1.7398
X0.5596 Y-1.7168
X0.5901 Y-1.6926
X0.6196 Y-1.6671
X0.6481 Y-1.6404
X0.6754 Y-1.6126
X0.7016 Y-1.5837
X0.7265 Y-1.5537
X0.7501 Y-1.5227
X0.7724 Y-1.4908
X0.7935 Y-1.4579
X0.8131 Y-1.4242
X0.8314 Y-1.3898
X0.8483 Y-1.3547
X0.8638 Y-1.3189
X0.8779 Y-1.2825
X0.8904 Y-1.2456
X0.9013 Y-1.2082
X0.9106 Y-1.1703
X0.9184 Y-1.1321
X0.9246 Y-1.0936
X0.9293 Y-1.0549
X0.9324 Y-1.016
X0.9339 Y-0.9771
X0.9338 Y-0.9381
X0.9322 Y-0.8991
X0.9289 Y-0.8603
X0.924 Y-0.8216
X0.9174 Y-0.7832
X0.9093 Y-0.745
X0.8995 Y-0.7073
X0.8883 Y-0.6699
X0.8755 Y-0.6331
X0.8613 Y-0.5968
X0.8456 Y-0.5611
X0.8285 Y-0.5261
X0.8099 Y-0.4918
X0.7898 Y-0.4584
X0.7684 Y-0.4258
X0.7457 Y-0.3941
X0.7216 Y-0.3634
X0.6963 Y-0.3338
X0.6699 Y-0.3051
X0.6423 Y-0.2776
X0.6136 Y-0.2512
X0.5838 Y-0.2259
X0.5531 Y-0.202
X0.5213 Y-0.1794
X0.4887 Y-0.1581
X0.4551 Y-0.1381
X0.4208 Y-0.1196
X0.3858 Y-0.1025
X0.3501 Y-0.0868
X0.3138 Y-0.0725
X0.277 Y-0.0597
X0.2397 Y-0.0484
X0.202 Y-0.0386
X0.1638 Y-0.0304
X0.1254 Y-0.0238
X0.0867 Y-0.0188
X0.0479 Y-0.0153
X0.009 Y-0.0134
X-0.03 Y-0.0131
X-0.069 Y-0.0143
X-0.1079 Y-0.017
X-0.1467 Y-0.0212
X-0.1852 Y-0.027
X-0.2235 Y-0.0344
X-0.2614 Y-0.0434
X-0.299 Y-0.0539
X-0.3361 Y-0.0659
X-0.3727 Y-0.0793
X-0.4087 Y-0.0942
X-0.4441 Y-0.1105
X-0.4789 Y-0.1282
X-0.513 Y-0.1472
X-0.5462 Y-0.1675
X-0.5786 Y-0.1892
X-0.6101 Y-0.2122
X-0.6407 Y-0.2364
X-0.6703 Y-0.2618
X-0.6988 Y-0.2884
X-0.7262 Y-0.3161
X-0.7526 Y-0.3448
X-0.7778 Y-0.3745
X-0.8019 Y-0.4052
X-0.8248 Y-0.4368
X-0.8463 Y-0.4693
X-0.8666 Y-0.5026
X-0.8855 Y-0.5367
X-0.903 Y-0.5715
X-0.9191 Y-0.607
X-0.9339 Y-0.6431
X-0.9472 Y-0.6798
X-0.9591 Y-0.7169
X-0.9695 Y-0.7545
X-0.9786 Y-0.7924
X-0.9861 Y-0.8307
X-0.9921 Y-0.8692
X-0.9965 Y-0.9079
X-0.9994 Y-0.9468
X-1.0008 Y-0.9858
X-1.0006 Y-1.0248
X-0.9989 Y-1.0637
X-0.9957 Y-1.1026
X-0.991 Y-1.1413
X-0.9849 Y-1.1798
X-0.9772 Y-1.218
X-0.9681 Y-1.2559
X-0.9575 Y-1.2934
X-0.9453 Y-1.3305
X-0.9317 Y-1.367
X-0.9167 Y-1.403
X-0.9003 Y-1.4384
X-0.8826 Y-1.4731
X-0.8635 Y-1.5071
X-0.8432 Y-1.5404
X-0.8216 Y-1.5728
X-0.7987 Y-1.6044
X-0.7746 Y-1.6351
X-0.7493 Y-1.6648
X-0.7229 Y-1.6934
X-0.6953 Y-1.721
X-0.6667 Y-1.7475
X-0.6371 Y-1.7729
X-0.6065 Y-1.7971
X-0.5751 Y-1.8201
X-0.5427 Y-1.8419
X-0.5096 Y-1.8624
X-0.4757 Y-1.8817
X-0.441 Y-1.8995
X-0.4057 Y-1.916
X-0.3697 Y-1.931
X-0.3332 Y-1.9447
X-0.2962 Y-1.9569
X-0.2587 Y-1.9677
X-0.2208 Y-1.977
X-0.1826 Y-1.9849
X-0.1442 Y-1.9913
X-0.1055 Y-1.9963
X-0.0667 Y-1.9997
X-0.0277 Y-2.0015
X0.0113 Y-2.0019
X0.0502 Y-2.0006
X0.0891 Y-1.9979
X0.1279 Y-1.9937
X0.1665 Y-1.988
X0.2048 Y-1.9808
X0.2428 Y-1.9722
X0.2805 Y-1.9621
X0.3178 Y-1.9507
X0.3545 Y-1.9378
X0.3908 Y-1.9234
X0.4265 Y-1.9077
X0.4615 Y-1.8905
X0.4959 Y-1.8721
X0.5295 Y-1.8524
X0.5624 Y-1.8314
X0.5945 Y-1.8093
X0.6257 Y-1.7859
X0.6561 Y-1.7615
X0.6855 Y-1.7359
X0.7139 Y-1.7092
X0.7413 Y-1.6814
X0.7676 Y-1.6526
X0.7928 Y-1.6229
X0.8169 Y-1.5922
X0.8398 Y-1.5607
X0.8615 Y-1.5283
X0.882 Y-1.4952
X0.9014 Y-1.4613
X0.9194 Y-1.4267
X0.9362 Y-1.3916
X0.9516 Y-1.3557
X0.9657 Y-1.3194
X0.9784 Y-1.2825
X0.9897 Y-1.2452
X0.9996 Y-1.2075
X1.008 Y-1.1694
X1.0151 Y-1.1311
X1.0207 Y-1.0925
X1.025 Y-1.0537
X1.0278 Y-1.0148
X1.0291 Y-0.9759
X1.029 Y-0.9369
X1.0274 Y-0.8979
X1.0243 Y-0.8591
X1.0198 Y-0.8203
X1.0137 Y-0.7818
X1.0063 Y-0.7435
X0.9974 Y-0.7056
X0.9872 Y-0.6679
X0.9755 Y-0.6307
X0.9625 Y-0.594
X0.9482 Y-0.5577
X0.9324 Y-0.5221
X0.9153 Y-0.487
X0.8969 Y-0.4526
X0.8772 Y-0.419
X0.8563 Y-0.3861
X0.8341 Y-0.354
X0.8107 Y-0.3228
X0.7863 Y-0.2925
X0.7607 Y-0.263
X0.734 Y-0.2346
X0.7064 Y-0.2071
X0.6776 Y-0.1807
X0.6479 Y-0.1555
X0.6173 Y-0.1313
X0.5858 Y-0.1084
X0.5534 Y-0.0866
X0.5203 Y-0.0661
X0.4864 Y-0.0468
X0.4519 Y-0.0287
X0.4167 Y-0.0119
X0.3809 Y0.0035
X0.3446 Y0.0177
X0.3077 Y0.0305
X0.2704 Y0.0419
X0.2327 Y0.0518
X0.1947 Y0.0604
X0.1564 Y0.0675
X0.1178 Y0.0733
X0.079 Y0.0776
X0.0402 Y0.0805
X0.0012 Y0.082
X-0.0378 Y0.0821
X-0.0768 Y0.0808
X-0.1156 Y0.078
X-0.1544 Y0.0738
X-0.193 Y0.0682
X-0.2313 Y0.0611
X-0.2694 Y0.0526
X-0.3071 Y0.0428
X-0.3445 Y0.0316
X-0.3814 Y0.0191
X-0.4178 Y0.0052
X-0.4538 Y-0.01
X-0.4891 Y-0.0264
X-0.5239 Y-0.0441
X-0.5579 Y-0.0631
X-0.5913 Y-0.0833
X-0.6238 Y-0.1047
X-0.6556 Y-0.1273
X-0.6865 Y-0.151
X-0.7166 Y-0.1759
X-0.7457 Y-0.2018
X-0.774 Y-0.2287
X-0.8012 Y-0.2566
X-0.8274 Y-0.2855
X-0.8526 Y-0.3152
X-0.8766 Y-0.3459
X-0.8996 Y-0.3775
X-0.9213 Y-0.4098
X-0.9419 Y-0.4429
X-0.9613 Y-0.4768
X-0.9795 Y-0.5113
X-0.9964 Y-0.5464
X-1.012 Y-0.5821
X-1.0264 Y-0.6183
X-1.0395 Y-0.6551
X-1.0513 Y-0.6922
X-1.0617 Y-0.7298
X-1.0708 Y-0.7677
X-1.0785 Y-0.806
X-1.0848 Y-0.8444
X-1.0897 Y-0.8831
X-1.0932 Y-0.9219
X-1.0954 Y-0.9609
X-1.0961 Y-0.9999
X-1.0955 Y-1.0388
X-1.0935 Y-1.0778
X-1.0902 Y-1.1166
X-1.0854 Y-1.1553
X-1.0793 Y-1.1938
X-1.0718 Y-1.2321
X-1.0629 Y-1.2701
X-1.0526 Y-1.3077
X-1.041 Y-1.3449
X-1.0281 Y-1.3817
X-1.0139 Y-1.418
X-0.9984 Y-1.4538
X-0.9817 Y-1.489
X-0.9637 Y-1.5236
X-0.9446 Y-1.5576
X-0.9242 Y-1.5908
X-0.9026 Y-1.6233
X-0.8799 Y-1.655
X-0.8561 Y-1.6859
X-0.8312 Y-1.7159
X-0.8052 Y-1.7449
X-0.7782 Y-1.7731
X-0.7503 Y-1.8002
X-0.7214 Y-1.8264
X-0.6915 Y-1.8515
X-0.6609 Y-1.8756
X-0.6294 Y-1.8986
X-0.597 Y-1.9204
X-0.564 Y-1.941
X-0.5302 Y-1.9605
X-0.4957 Y-1.9787
X-0.4606 Y-1.9957
X-0.4249 Y-2.0114
X-0.3887 Y-2.0258
X-0.352 Y-2.039
X-0.3149 Y-2.0509
X-0.2773 Y-2.0614
X-0.2394 Y-2.0707
X-0.2013 Y-2.0785
X-0.1628 Y-2.085
X-0.1242 Y-2.0901
X-0.0853 Y-2.0939
X-0.0464 Y-2.0962
X-0.0074 Y-2.0971
X0.0315 Y-2.0967
X0.0705 Y-2.0949
X0.1094 Y-2.0917
X0.1481 Y-2.0872
X0.1866 Y-2.0814
X0.2249 Y-2.0741
X0.263 Y-2.0655
X0.3007 Y-2.0556
X0.338 Y-2.0444
X0.3749 Y-2.0318
X0.4114 Y-2.018
X0.4473 Y-2.0029
X0.4827 Y-1.9865
X0.5175 Y-1.9689
X0.5517 Y-1.9501
X0.5852 Y-1.9302
X0.618 Y-1.9092
X0.6501 Y-1.887
X0.6814 Y-1.8637
X0.7118 Y-1.8393
X0.7414 Y-1.814
X0.7701 Y-1.7876
X0.7979 Y-1.7602
X0.8247 Y-1.7319
X0.8505 Y-1.7027
X0.8753 Y-1.6726
X0.8991 Y-1.6417
X0.9218 Y-1.61
X0.9435 Y-1.5776
X0.964 Y-1.5444
X0.9834 Y-1.5106
X1.0016 Y-1.4761
X1.0186 Y-1.441
X1.0344 Y-1.4054
X1.049 Y-1.3692
X1.0623 Y-1.3326
X1.0744 Y-1.2955
X1.0852 Y-1.258
X1.0947 Y-1.2202
X1.1029 Y-1.1821
X1.1099 Y-1.1437
X1.1155 Y-1.1052
X1.1198 Y-1.0664
X1.1228 Y-1.0275
X1.1244 Y-0.9886
X1.1247 Y-0.9496
X1.1236 Y-0.9106
X1.1212 Y-0.8717
X1.1175 Y-0.8329
X1.1124 Y-0.7942
X1.1061 Y-0.7557
X1.0984 Y-0.7175
X1.0894 Y-0.6796
X1.0792 Y-0.642
X1.0676 Y-0.6047
X1.0548 Y-0.5679
X1.0407 Y-0.5316
X1.0253 Y-0.4957
X1.0087 Y-0.4604
X0.9909 Y-0.4257
X0.972 Y-0.3917
X0.9519 Y-0.3583
X0.9306 Y-0.3256
X0.9083 Y-0.2936
X0.8849 Y-0.2624
X0.8604 Y-0.2321
X0.8349 Y-0.2026
X0.8084 Y-0.174
X0.7809 Y-0.1463
X0.7525 Y-0.1196
X0.7232 Y-0.0939
X0.693 Y-0.0692
X0.662 Y-0.0456
X0.6302 Y-0.023
X0.5977 Y-0.0015
X0.5644 Y0.0189
X0.5305 Y0.0381
X0.4959 Y0.0561
X0.4608 Y0.073
X0.4251 Y0.0887
X0.3889 Y0.1031
X0.3522 Y0.1163
X0.3151 Y0.1282
X0.2775 Y0.1389
X0.2397 Y0.1483
X0.2016 Y0.1564
X0.1632 Y0.1632
X0.1246 Y0.1688
X0.0858 Y0.173
X0.0469 Y0.1759
X0.008 Y0.1775
X-0.031 Y0.1778
X-0.07 Y0.1768
X-0.1089 Y0.1744
X-0.1477 Y0.1708
X-0.1864 Y0.1658
X-0.2249 Y0.1596
X-0.2631 Y0.1521
X-0.3011 Y0.1433
X-0.3388 Y0.1332
X-0.3761 Y0.1219
X-0.413 Y0.1094
X-0.4495 Y0.0956
X-0.4855 Y0.0806
X-0.521 Y0.0644
X-0.5559 Y0.0471
X-0.5902 Y0.0285
X-0.6239 Y0.0089
X-0.6569 Y-0.0119
X-0.6892 Y-0.0337
X-0.7207 Y-0.0566
X-0.7515 Y-0.0805
X-0.7815 Y-0.1055
X-0.8106 Y-0.1314
X-0.8389 Y-0.1583
X-0.8662 Y-0.1861
X-0.8926 Y-0.2148
X-0.9181 Y-0.2443
X-0.9425 Y-0.2747
X-0.9659 Y-0.3059
X-0.9883 Y-0.3378
X-1.0096 Y-0.3704
X-1.0299 Y-0.4038
X-1.049 Y-0.4377
X-1.067 Y-0.4723
X-1.0839 Y-0.5075
X-1.0995 Y-0.5432
X-1.114 Y-0.5794
X-1.1273 Y-0.616
X-1.1394 Y-0.6531
X-1.1503 Y-0.6906
X-1.1599 Y-0.7283
X-1.1682 Y-0.7664
X-1.1753 Y-0.8048
X-1.1812 Y-0.8433
X-1.1858 Y-0.882
X-1.1891 Y-0.9209
X-1.1911 Y-0.9598
X-1.1919 Y-0.9988
X-1.1914 Y-1.0378
X-1.1895 Y-1.0767
X-1.1865 Y-1.1156
X-1.1821 Y-1.1544
X-1.1765 Y-1.1929
X-1.1696 Y-1.2313
X-1.1614 Y-1.2694
X-1.152 Y-1.3073
X-1.1414 Y-1.3448
X-1.1295 Y-1.3819
X-1.1165 Y-1.4187
X-1.1022 Y-1.455
X-1.0868 Y-1.4908
X-1.0702 Y-1.5261
X-1.0524 Y-1.5608
X-1.0336 Y-1.5949
X-1.0136 Y-1.6284
X-0.9925 Y-1.6612
X-0.9704 Y-1.6933
X-0.9472 Y-1.7246
X-0.923 Y-1.7552
X-0.8979 Y-1.785
X-0.8717 Y-1.814
X-0.8447 Y-1.842
X-0.8167 Y-1.8692
X-0.7879 Y-1.8954
X-0.7582 Y-1.9207
X-0.7277 Y-1.945
X-0.6964 Y-1.9683
X-0.6644 Y-1.9905
X-0.6317 Y-2.0117
X-0.5983 Y-2.0318
X-0.5642 Y-2.0508
X-0.5296 Y-2.0687
X-0.4944 Y-2.0855
X-0.4586 Y-2.1011
X-0.4224 Y-2.1155
X-0.3857 Y-2.1287
X-0.3486 Y-2.1407
X-0.3111 Y-2.1515
X-0.2733 Y-2.161
X-0.2352 Y-2.1694
X-0.1969 Y-2.1764
X-0.1584 Y-2.1823
X-0.1196 Y-2.1868
X-0.0808 Y-2.1901
X-0.0418 Y-2.1921
X-0.0029 Y-2.1929
X0.0361 Y-2.1924
X0.0751 Y-2.1906
X0.114 Y-2.1875
X0.1527 Y-2.1832
X0.1913 Y-2.1776
X0.2297 Y-2.1708
X0.2678 Y-2.1627
X0.3057 Y-2.1534
X0.3432 Y-2.1429
X0.3804 Y-2.1312
X0.4172 Y-2.1183
X0.4536 Y-2.1042
X0.4895 Y-2.089
X0.5248 Y-2.0726
X0.5597 Y-2.055
X0.5939 Y-2.0364
X0.6275 Y-2.0167
X0.6605 Y-1.9959
X0.6928 Y-1.9741
X0.7245 Y-1.9512
X0.7553 Y-1.9274
X0.7854 Y-1.9026
X0.8147 Y-1.8769
X0.8432 Y-1.8502
X0.8708 Y-1.8227
X0.8975 Y-1.7943
X0.9233 Y-1.7651
X0.9482 Y-1.735
X0.9721 Y-1.7042
X0.995 Y-1.6727
X1.0169 Y-1.6405
X1.0378 Y-1.6075
X1.0577 Y-1.574
X1.0765 Y-1.5398
X1.0942 Y-1.5051
X1.1108 Y-1.4698
X1.1263 Y-1.434
X1.1407 Y-1.3978
X1.1539 Y-1.3611
X1.1659 Y-1.324
X1.1768 Y-1.2866
X1.1865 Y-1.2488
X1.195 Y-1.2107
X1.2022 Y-1.1724
X1.2083 Y-1.1339
X1.2132 Y-1.0952
X1.2168 Y-1.0564
X1.2192 Y-1.0175
X1.2204 Y-0.9785
Y-0.9395
X1.2191 Y-0.9006
X1.2166 Y-0.8617
X1.2129 Y-0.8229
X1.2079 Y-0.7842
X1.2017 Y-0.7457
X1.1943 Y-0.7074
X1.1856 Y-0.6694
X1.1758 Y-0.6316
X1.1648 Y-0.5942
X1.1526 Y-0.5572
X1.1393 Y-0.5206
X1.1248 Y-0.4844
X1.1092 Y-0.4486
X1.0924 Y-0.4134
X1.0746 Y-0.3788
X1.0556 Y-0.3447
X1.0356 Y-0.3113
X1.0145 Y-0.2785
X0.9924 Y-0.2464
X0.9692 Y-0.215
X0.9451 Y-0.1843
X0.9201 Y-0.1544
X0.8941 Y-0.1254
X0.8672 Y-0.0971
X0.8395 Y-0.0697
X0.8109 Y-0.0432
X0.7814 Y-0.0177
X0.7512 Y0.007
X0.7202 Y0.0306
X0.6885 Y0.0533
X0.6561 Y0.0749
X0.623 Y0.0956
X0.5892 Y0.1151
X0.5549 Y0.1336
X0.52 Y0.151
X0.4846 Y0.1674
X0.4487 Y0.1826
X0.4124 Y0.1966
X0.3756 Y0.2096
X0.3384 Y0.2214
X0.3009 Y0.232
X0.263 Y0.2414
X0.2249 Y0.2496
X0.1866 Y0.2566
X0.148 Y0.2624
X0.1093 Y0.267
X0.0705 Y0.2705
X0.0315 Y0.2727
X-0.0074 Y0.2737
X-0.0464 Y0.2735
X-0.0854 Y0.272
X-0.1243 Y0.2694
X-0.1631 Y0.2656
X-0.2018 Y0.2606
X-0.2403 Y0.2543
X-0.2785 Y0.2469
X-0.3166 Y0.2383
X-0.3543 Y0.2285
X-0.3917 Y0.2176
X-0.4288 Y0.2055
X-0.4655 Y0.1922
X-0.5017 Y0.1779
X-0.5375 Y0.1624
X-0.5728 Y0.1459
X-0.6076 Y0.1283
X-0.6418 Y0.1096
X-0.6755 Y0.0899
X-0.7085 Y0.0691
X-0.7408 Y0.0473
X-0.7725 Y0.0246
X-0.8034 Y0.0008
X-0.8336 Y-0.0238
X-0.863 Y-0.0494
X-0.8917 Y-0.0759
X-0.9195 Y-0.1032
X-0.9464 Y-0.1314
X-0.9725 Y-0.1604
X-0.9977 Y-0.1901
X-1.022 Y-0.2206
X-1.0454 Y-0.2518
X-1.0677 Y-0.2838
X-1.0891 Y-0.3164
X-1.1094 Y-0.3497
X-1.1288 Y-0.3835
X-1.1471 Y-0.418
X-1.1643 Y-0.4529
X-1.1804 Y-0.4884
X-1.1955 Y-0.5244
X-1.2095 Y-0.5608
X-1.2224 Y-0.5976
X-1.2341 Y-0.6348
X-1.2447 Y-0.6723
X-1.2542 Y-0.7101
X-1.2625 Y-0.7482
X-1.2697 Y-0.7865
X-1.2756 Y-0.8251
X-1.2804 Y-0.8638
X-1.284 Y-0.9026
X-1.2864 Y-0.9415
X-1.2877 Y-0.9805
Y-1.0195
X-1.2866 Y-1.0584
X-1.2843 Y-1.0974
X-1.2808 Y-1.1362
X-1.2762 Y-1.1749
X-1.2704 Y-1.2135
X-1.2634 Y-1.2518
X-1.2553 Y-1.2899
X-1.2459 Y-1.3278
X-1.2355 Y-1.3654
X-1.2239 Y-1.4026
X-1.2111 Y-1.4394
X-1.1973 Y-1.4759
X-1.1824 Y-1.5119
X-1.1663 Y-1.5475
X-1.1493 Y-1.5825
X-1.1311 Y-1.617
X-1.112 Y-1.651
X-1.0918 Y-1.6844
X-1.0707 Y-1.7171
X-1.0485 Y-1.7492
X-1.0254 Y-1.7806
X-1.0013 Y-1.8112
X-0.9763 Y-1.8412
X-0.9504 Y-1.8703
X-0.9236 Y-1.8987
X-0.896 Y-1.9262
X-0.8676 Y-1.9529
X-0.8384 Y-1.9787
X-0.8084 Y-2.0036
X-0.7777 Y-2.0276
X-0.7462 Y-2.0507
X-0.7141 Y-2.0728
X-0.6813 Y-2.094
X-0.6479 Y-2.1141
X-0.6139 Y-2.1332
X-0.5794 Y-2.1512
X-0.5443 Y-2.1682
X-0.5087 Y-2.1841
X-0.4726 Y-2.199
X-0.4362 Y-2.2127
X-0.3993 Y-2.2253
X-0.362 Y-2.2369
X-0.3244 Y-2.2473
X-0.2866 Y-2.2565
X-0.2484 Y-2.2647
X-0.2101 Y-2.2716
X-0.1715 Y-2.2774
X-0.1328 Y-2.282
X-0.094 Y-2.2855
X-0.055 Y-2.2877
X-0.0161 Y-2.2888
X0.0229 Y-2.2887
X0.0619 Y-2.2874
X0.1008 Y-2.285
X0.1396 Y-2.2814
X0.1783 Y-2.2766
X0.2169 Y-2.2707
X0.2552 Y-2.2637
X0.2933 Y-2.2554
X0.3312 Y-2.2461
X0.3687 Y-2.2356
X0.406 Y-2.224
X0.4428 Y-2.2112
X0.4793 Y-2.1974
X0.5153 Y-2.1825
X0.5509 Y-2.1665
X0.5859 Y-2.1495
X0.6205 Y-2.1314
X0.6545 Y-2.1124
X0.6879 Y-2.0923
X0.7208 Y-2.0713
X0.753 Y-2.0493
X0.7845 Y-2.0264
X0.8154 Y-2.0025
X0.8455 Y-1.9778
X0.8749 Y-1.9521
X0.9035 Y-1.9256
X0.9313 Y-1.8983
X0.9583 Y-1.8702
X0.9844 Y-1.8413
X1.0098 Y-1.8116
X1.0342 Y-1.7812
X1.0577 Y-1.7501
X1.0803 Y-1.7184
X1.102 Y-1.686
X1.1228 Y-1.653
X1.1426 Y-1.6193
X1.1613 Y-1.5852
X1.1791 Y-1.5505
X1.1958 Y-1.5152
X1.2115 Y-1.4795
X1.2261 Y-1.4434
X1.2397 Y-1.4069
X1.2522 Y-1.3699
X1.2637 Y-1.3327
X1.274 Y-1.2951
X1.2832 Y-1.2572
X1.2913 Y-1.219
X1.2984 Y-1.1807
X1.3043 Y-1.1421
X1.309 Y-1.1034
X1.3127 Y-1.0646
X1.3151 Y-1.0257
X1.3165 Y-0.9867
X1.3166 Y-0.9478
X1.3157 Y-0.9088
X1.3136 Y-0.8698
X1.3103 Y-0.831
X1.306 Y-0.7922
X1.3004 Y-0.7536
X1.2938 Y-0.7152
X1.286 Y-0.677
X1.2772 Y-0.639
X1.2672 Y-0.6013
X1.2561 Y-0.564
X1.244 Y-0.5269
X1.2307 Y-0.4903
X1.2163 Y-0.454
X1.2009 Y-0.4182
X1.1845 Y-0.3828
X1.167 Y-0.348
X1.1485 Y-0.3137
X1.129 Y-0.2799
X1.1085 Y-0.2467
X1.087 Y-0.2142
X1.0647 Y-0.1822
X1.0413 Y-0.151
X1.0171 Y-0.1204
X0.992 Y-0.0906
X0.9661 Y-0.0615
X0.9393 Y-0.0332
X0.9116 Y-0.0057
X0.8832 Y0.021
X0.854 Y0.0468
X0.824 Y0.0718
X0.7934 Y0.0959
X0.762 Y0.119
X0.73 Y0.1413
X0.6973 Y0.1626
X0.6641 Y0.183
X0.6303 Y0.2024
X0.5959 Y0.2207
X0.561 Y0.2381
X0.5256 Y0.2545
X0.4897 Y0.2698
X0.4534 Y0.284
X0.4167 Y0.2972
X0.3796 Y0.3093
X0.3422 Y0.3203
X0.3045 Y0.3303
X0.2666 Y0.3391
X0.2284 Y0.3468
X0.1899 Y0.3535
X0.1513 Y0.359
X0.1126 Y0.3634
X0.0737 Y0.3667
X0.0348 Y0.3689
X-0.0042 Y0.3699
X-0.0432 Y0.3698
X-0.0821 Y0.3685
X-0.121 Y0.3662
X-0.1599 Y0.3627
X-0.1986 Y0.3581
X-0.2372 Y0.3524
X-0.2756 Y0.3456
X-0.3137 Y0.3377
X-0.3517 Y0.3287
X-0.3893 Y0.3186
X-0.4267 Y0.3074
X-0.4637 Y0.2952
X-0.5004 Y0.282
X-0.5367 Y0.2676
X-0.5725 Y0.2523
X-0.6079 Y0.2359
X-0.6428 Y0.2185
X-0.6771 Y0.2001
X-0.711 Y0.1807
X-0.7443 Y0.1604
X-0.7769 Y0.1391
X-0.809 Y0.1169
X-0.8404 Y0.0938
X-0.8712 Y0.0698
X-0.9012 Y0.045
X-0.9306 Y0.0193
X-0.9591 Y-0.0072
X-0.987 Y-0.0345
X-1.014 Y-0.0626
X-1.0402 Y-0.0915
X-1.0656 Y-0.1211
X-1.0901 Y-0.1514
X-1.1137 Y-0.1824
X-1.1365 Y-0.2141
X-1.1584 Y-0.2463
X-1.1793 Y-0.2792
X-1.1993 Y-0.3127
X-1.2183 Y-0.3467
X-1.2364 Y-0.3813
X-1.2535 Y-0.4163
X-1.2696 Y-0.4519
X-1.2846 Y-0.4878
X-1.2987 Y-0.5242
X-1.3117 Y-0.561
X-1.3236 Y-0.5981
X-1.3345 Y-0.6355
X-1.3444 Y-0.6732
X-1.3531 Y-0.7112
X-1.3608 Y-0.7495
X-1.3674 Y-0.7879
X-1.3729 Y-0.8265
X-1.3773 Y-0.8652
X-1.3806 Y-0.9041
X-1.3829 Y-0.943
X-1.384 Y-0.982
X-1.3841 Y-1.021
X-1.383 Y-1.0599
X-1.3808 Y-1.0989
X-1.3775 Y-1.1377
X-1.3731 Y-1.1765
X-1.3676 Y-1.2151
X-1.3611 Y-1.2535
X-1.3534 Y-1.2917
X-1.3447 Y-1.3297
X-1.3349 Y-1.3675
X-1.3241 Y-1.4049
X-1.3122 Y-1.4421
X-1.2992 Y-1.4788
X-1.2853 Y-1.5153
X-1.2703 Y-1.5513
X-1.2543 Y-1.5868
X-1.2373 Y-1.6219
X-1.2193 Y-1.6565
X-1.2004 Y-1.6906
X-1.1805 Y-1.7241
X-1.1596 Y-1.7571
X-1.1379 Y-1.7894
X-1.1152 Y-1.8211
X-1.0916 Y-1.8522
X-1.0672 Y-1.8826
X-1.042 Y-1.9123
X-1.0159 Y-1.9413
X-0.989 Y-1.9695
X-0.9614 Y-1.997
X-0.9329 Y-2.0237
X-0.9037 Y-2.0496
X-0.8738 Y-2.0746
X-0.8432 Y-2.0988
X-0.812 Y-2.1221
X-0.7801 Y-2.1445
X-0.7475 Y-2.166
X-0.7144 Y-2.1866
X-0.6807 Y-2.2062
X-0.6465 Y-2.2249
X-0.6118 Y-2.2426
X-0.5766 Y-2.2593
X-0.5409 Y-2.2751
X-0.5048 Y-2.2898
X-0.4683 Y-2.3035
X-0.4314 Y-2.3162
X-0.3942 Y-2.3278
X-0.3567 Y-2.3384
X-0.3189 Y-2.3479
X-0.2808 Y-2.3563
X-0.2425 Y-2.3637
X-0.204 Y-2.37
X-0.1654 Y-2.3752
X-0.1266 Y-2.3793
X-0.0878 Y-2.3824
X-0.0488 Y-2.3843
X-0.0098 Y-2.3852
X0.0292 Y-2.3849
X0.0681 Y-2.3836
X0.107 Y-2.3812
X0.1459 Y-2.3776
X0.1846 Y-2.373
X0.2232 Y-2.3673
X0.2616 Y-2.3605
X0.2998 Y-2.3527
X0.3377 Y-2.3438
X0.3754 Y-2.3338
X0.4128 Y-2.3228
X0.4499 Y-2.3108
X0.4866 Y-2.2977
X0.523 Y-2.2837
X0.559 Y-2.2686
X0.5945 Y-2.2525
X0.6296 Y-2.2355
X0.6641 Y-2.2174
X0.6982 Y-2.1985
X0.7317 Y-2.1786
X0.7647 Y-2.1577
X0.7971 Y-2.136
X0.8288 Y-2.1134
X0.86 Y-2.09
X0.8905 Y-2.0656
X0.9203 Y-2.0405
X0.9494 Y-2.0146
X0.9778 Y-1.9878
X1.0054 Y-1.9603
X1.0323 Y-1.9321
X1.0584 Y-1.9032
X1.0837 Y-1.8735
X1.1082 Y-1.8431
X1.1318 Y-1.8121
X1.1546 Y-1.7805
X1.1765 Y-1.7482
X1.1975 Y-1.7154
X1.2177 Y-1.682
X1.2369 Y-1.6481
X1.2552 Y-1.6136
X1.2725 Y-1.5787
X1.2889 Y-1.5433
X1.3043 Y-1.5075
X1.3187 Y-1.4713
X1.3322 Y-1.4347
X1.3446 Y-1.3977
X1.356 Y-1.3605
X1.3664 Y-1.3229
X1.3758 Y-1.285
X1.3841 Y-1.2469
X1.3914 Y-1.2086
X1.3976 Y-1.1701
X1.4028 Y-1.1315
X1.407 Y-1.0927
X1.41 Y-1.0539
X1.412 Y-1.0149
X1.413 Y-0.9759
X1.4129 Y-0.9369
X1.4117 Y-0.898
X1.4095 Y-0.859
X1.4062 Y-0.8202
X1.4018 Y-0.7814
X1.3964 Y-0.7428
X1.3899 Y-0.7044
X1.3823 Y-0.6661
X1.3737 Y-0.6281
X1.3641 Y-0.5903
X1.3535 Y-0.5528
X1.3418 Y-0.5156
X1.3291 Y-0.4787
X1.3154 Y-0.4422
X1.3007 Y-0.4061
X1.2851 Y-0.3704
X1.2684 Y-0.3351
X1.2509 Y-0.3003
X1.2323 Y-0.266
X1.2128 Y-0.2323
X1.1924 Y-0.199
X1.1711 Y-0.1664
X1.1489 Y-0.1343
X1.1259 Y-0.1029
X1.102 Y-0.0721
X1.0772 Y-0.0419
X1.0517 Y-0.0125
X1.0253 Y0.0162
X0.9982 Y0.0443
X0.9703 Y0.0715
X0.9417 Y0.098
X0.9124 Y0.1237
X0.8824 Y0.1486
X0.8517 Y0.1727
X0.8204 Y0.1959
X0.7884 Y0.2182
X0.7559 Y0.2397
X0.7227 Y0.2602
X0.6891 Y0.2799
X0.6549 Y0.2986
X0.6202 Y0.3165
X0.585 Y0.3333
X0.5494 Y0.3492
X0.5134 Y0.3641
X0.477 Y0.3781
X0.4402 Y0.391
X0.4031 Y0.403
X0.3657 Y0.4139
X0.328 Y0.4238
X0.29 Y0.4327
X0.2518 Y0.4406
X0.2134 Y0.4474
X0.1749 Y0.4532
X0.1362 Y0.4579
X0.0973 Y0.4616
X0.0584 Y0.4642
X0.0195 Y0.4658
X-0.0195 Y0.4664
X-0.0585 Y0.4659
X-0.0975 Y0.4643
X-0.1364 Y0.4617
X-0.1752 Y0.4581
X-0.2139 Y0.4534
X-0.2525 Y0.4477
X-0.2909 Y0.4409
X-0.3291 Y0.4331
X-0.367 Y0.4243
X-0.4048 Y0.4145
X-0.4422 Y0.4036
X-0.4794 Y0.3918
X-0.5162 Y0.3789
X-0.5527 Y0.3651
X-0.5887 Y0.3504
X-0.6244 Y0.3346
X-0.6596 Y0.3179
X-0.6944 Y0.3003
X-0.7287 Y0.2818
X-0.7625 Y0.2623
X-0.7958 Y0.242
X-0.8285 Y0.2208
X-0.8606 Y0.1987
X-0.8921 Y0.1757
X-0.923 Y0.1519
X-0.9533 Y0.1273
X-0.9829 Y0.1019
X-1.0118 Y0.0757
X-1.04 Y0.0488
X-1.0674 Y0.0211
X-1.0942 Y-0.0073
X-1.1201 Y-0.0363
X-1.1453 Y-0.0661
X-1.1697 Y-0.0965
X-1.1933 Y-0.1276
X-1.216 Y-0.1593
X-1.2379 Y-0.1915
X-1.2589 Y-0.2244
X-1.279 Y-0.2578
X-1.2982 Y-0.2917
X-1.3166 Y-0.3261
X-1.334 Y-0.361
X-1.3505 Y-0.3963
X-1.366 Y-0.4321
X-1.3806 Y-0.4682
X-1.3943 Y-0.5048
X-1.4069 Y-0.5416
X-1.4186 Y-0.5788
X-1.4293 Y-0.6163
X-1.439 Y-0.6541
X-1.4478 Y-0.6921
X-1.4554 Y-0.7303
X-1.4621 Y-0.7687
X-1.4678 Y-0.8073
X-1.4724 Y-0.846
X-1.476 Y-0.8849
X-1.4786 Y-0.9238
X-1.4801 Y-0.9627
X-1.4806 Y-1.0017
X-1.4801 Y-1.0407
X-1.4786 Y-1.0797
X-1.4761 Y-1.1186
X-1.4725 Y-1.1574
X-1.4679 Y-1.1961
X-1.4623 Y-1.2347
X-1.4556 Y-1.2731
X-1.448 Y-1.3114
X-1.4393 Y-1.3494
X-1.4296 Y-1.3871
X-1.419 Y-1.4246
X-1.4073 Y-1.4618
X-1.3947 Y-1.4987
X-1.3811 Y-1.5353
X-1.3665 Y-1.5715
X-1.351 Y-1.6072
X-1.3346 Y-1.6426
X-1.3173 Y-1.6775
X-1.299 Y-1.712
X-1.2798 Y-1.7459
X-1.2598 Y-1.7794
X-1.2389 Y-1.8123
X-1.2171 Y-1.8446
X-1.1945 Y-1.8764
X-1.171 Y-1.9075
X-1.1467 Y-1.938
X-1.1216 Y-1.9678
X-1.0958 Y-1.997
X-1.0691 Y-2.0255
X-1.0418 Y-2.0533
X-1.0137 Y-2.0804
X-0.9849 Y-2.1067
X-0.9555 Y-2.1322
X-0.9254 Y-2.157
X-0.8946 Y-2.1809
X-0.8632 Y-2.2041
X-0.8313 Y-2.2264
X-0.7987 Y-2.2479
X-0.7656 Y-2.2685
X-0.732 Y-2.2882
X-0.6978 Y-2.307
X-0.6632 Y-2.3249
X-0.6281 Y-2.3419
X-0.5925 Y-2.3579
X-0.5566 Y-2.3731
X-0.5203 Y-2.3872
X-0.4836 Y-2.4004
X-0.4466 Y-2.4127
X-0.4092 Y-2.424
X-0.3716 Y-2.4342
X-0.3338 Y-2.4435
X-0.2957 Y-2.4519
X-0.2574 Y-2.4592
X-0.2189 Y-2.4654
X-0.1803 Y-2.4707
X-0.1415 Y-2.4749
X-0.1026 Y-2.4781
X-0.0637 Y-2.4803
X-0.0247 Y-2.4815
X0.0143 Y-2.4817
X0.0532 Y-2.4808
X0.0922 Y-2.4789
X0.1311 Y-2.476
X0.1699 Y-2.4721
X0.2085 Y-2.4672
X0.2471 Y-2.4612
X0.2854 Y-2.4543
X0.3236 Y-2.4463
X0.3616 Y-2.4374
X0.3993 Y-2.4275
X0.4367 Y-2.4166
X0.4738 Y-2.4047
X0.5106 Y-2.3918
X0.5471 Y-2.378
X0.5832 Y-2.3632
X0.6189 Y-2.3476
X0.6542 Y-2.331
X0.689 Y-2.3135
X0.7234 Y-2.2951
X0.7573 Y-2.2758
X0.7907 Y-2.2557
X0.8235 Y-2.2347
X0.8558 Y-2.2128
X0.8876 Y-2.1902
X0.9187 Y-2.1667
X0.9492 Y-2.1424
X0.9791 Y-2.1174
X1.0083 Y-2.0916
X1.0369 Y-2.065
X1.0648 Y-2.0378
X1.0919 Y-2.0098
X1.1183 Y-1.9811
X1.144 Y-1.9518
X1.169 Y-1.9218
X1.1931 Y-1.8912
X1.2165 Y-1.86
X1.2391 Y-1.8282
X1.2608 Y-1.7959
X1.2818 Y-1.763
X1.3019 Y-1.7295
X1.3211 Y-1.6956
X1.3394 Y-1.6612
X1.3568 Y-1.6263
X1.3734 Y-1.591
X1.389 Y-1.5553
X1.4038 Y-1.5192
X1.4176 Y-1.4827
X1.4304 Y-1.4459
X1.4424 Y-1.4088
X1.4533 Y-1.3714
X1.4633 Y-1.3337
X1.4724 Y-1.2958
X1.4805 Y-1.2576
X1.4876 Y-1.2193
X1.4938 Y-1.1808
X1.4989 Y-1.1422
X1.5031 Y-1.1034
X1.5062 Y-1.0645
X1.5083 Y-1.0256
X1.5095 Y-0.9866
X1.5096 Y-0.9476
X1.5088 Y-0.9086
X1.507 Y-0.8697
X1.5041 Y-0.8308
X1.5003 Y-0.792
X1.4955 Y-0.7533
X1.4897 Y-0.7148
X1.4829 Y-0.6764
X1.4751 Y-0.6382
X1.4664 Y-0.6002
X1.4567 Y-0.5624
X1.446 Y-0.5249
X1.4344 Y-0.4877
X1.4218 Y-0.4508
X1.4082 Y-0.4142
X1.3937 Y-0.378
X1.3783 Y-0.3422
X1.362 Y-0.3068
X1.3448 Y-0.2718
X1.3267 Y-0.2373
X1.3077 Y-0.2032
X1.2879 Y-0.1697
X1.2672 Y-0.1366
X1.2456 Y-0.1041
X1.2233 Y-0.0722
X1.2001 Y-0.0408
X1.1761 Y-0.0101
X1.1514 Y0.0201
X1.1259 Y0.0496
X1.0996 Y0.0784
X1.0726 Y0.1065
X1.0449 Y0.1339
X1.0165 Y0.1606
X0.9874 Y0.1866
X0.9577 Y0.2118
X0.9273 Y0.2363
X0.8963 Y0.26
X0.8647 Y0.2828
X0.8326 Y0.3049
X0.7999 Y0.3262
X0.7667 Y0.3466
X0.7329 Y0.3661
X0.6987 Y0.3848
X0.664 Y0.4026
X0.6289 Y0.4195
X0.5933 Y0.4355
X0.5574 Y0.4506
X0.5211 Y0.4648
X0.4844 Y0.478
X0.4474 Y0.4904
X0.4101 Y0.5017
X0.3725 Y0.5121
X0.3347 Y0.5216
X0.2967 Y0.5301
X0.2584 Y0.5376
X0.22 Y0.5442
X0.1814 Y0.5498
X0.1427 Y0.5544
X0.1038 Y0.5581
X0.0649 Y0.5607
X0.026 Y0.5624
X-0.013 Y0.563
X-0.052 Y0.5627
X-0.091 Y0.5614
X-0.1299 Y0.5591
X-0.1687 Y0.5559
X-0.2075 Y0.5517
X-0.2461 Y0.5464
X-0.2846 Y0.5403
X-0.323 Y0.5331
X-0.3611 Y0.525
X-0.399 Y0.5159
X-0.4367 Y0.5059
X-0.4741 Y0.495
X-0.5113 Y0.4831
X-0.5481 Y0.4703
X-0.5846 Y0.4565
X-0.6207 Y0.4418
X-0.6564 Y0.4263
X-0.6918 Y0.4098
X-0.7267 Y0.3925
X-0.7612 Y0.3743
X-0.7952 Y0.3552
X-0.8287 Y0.3353
X-0.8617 Y0.3145
X-0.8942 Y0.293
X-0.9262 Y0.2706
X-0.9575 Y0.2475
X-0.9883 Y0.2235
X-1.0185 Y0.1988
X-1.0481 Y0.1734
X-1.077 Y0.1472
X-1.1052 Y0.1203
X-1.1327 Y0.0928
X-1.1596 Y0.0645
X-1.1857 Y0.0355
X-1.2111 Y0.006
X-1.2358 Y-0.0242
X-1.2597 Y-0.055
X-1.2828 Y-0.0864
X-1.3052 Y-0.1184
X-1.3267 Y-0.1509
X-1.3475 Y-0.1839
X-1.3674 Y-0.2174
X-1.3864 Y-0.2514
X-1.4047 Y-0.2859
X-1.422 Y-0.3208
X-1.4385 Y-0.3561
X-1.4541 Y-0.3919
X-1.4688 Y-0.428
X-1.4826 Y-0.4645
X-1.4954 Y-0.5013
X-1.5074 Y-0.5384
X-1.5184 Y-0.5758
X-1.5286 Y-0.6134
X-1.5377 Y-0.6513
X-1.546 Y-0.6894
X-1.5532 Y-0.7277
X-1.5596 Y-0.7662
X-1.5649 Y-0.8048
X-1.5694 Y-0.8436
X-1.5728 Y-0.8824
X-1.5753 Y-0.9213
X-1.5769 Y-0.9603
X-1.5774 Y-0.9993
X-1.577 Y-1.0383
X-1.5756 Y-1.0772
X-1.5733 Y-1.1161
X-1.5699 Y-1.155
X-1.5657 Y-1.1938
X-1.5604 Y-1.2324
X-1.5543 Y-1.2709
X-1.5471 Y-1.3092
X-1.539 Y-1.3474
X-1.53 Y-1.3853
X-1.5201 Y-1.423
X-1.5092 Y-1.4604
X-1.4974 Y-1.4976
X-1.4847 Y-1.5345
X-1.471 Y-1.571
X-1.4565 Y-1.6072
X-1.4411 Y-1.643
X-1.4248 Y-1.6784
X-1.4076 Y-1.7134
X-1.3895 Y-1.748
X-1.3706 Y-1.7821
X-1.3509 Y-1.8157
X-1.3304 Y-1.8488
X-1.309 Y-1.8815
X-1.2868 Y-1.9135
X-1.2639 Y-1.9451
X-1.2402 Y-1.976
X-1.2157 Y-2.0063
X-1.1905 Y-2.0361
X-1.1645 Y-2.0652
X-1.1379 Y-2.0937
X-1.1105 Y-2.1214
X-1.0825 Y-2.1485
X-1.0538 Y-2.1749
X-1.0244 Y-2.2006
X-0.9945 Y-2.2255
X-0.9639 Y-2.2497
X-0.9327 Y-2.2732
X-0.901 Y-2.2958
X-0.8687 Y-2.3177
X-0.8359 Y-2.3387
X-0.8026 Y-2.359
X-0.7688 Y-2.3784
X-0.7345 Y-2.397
X-0.6998 Y-2.4147
X-0.6646 Y-2.4316
X-0.629 Y-2.4476
X-0.5931 Y-2.4627
X-0.5568 Y-2.4769
X-0.5201 Y-2.4902
X-0.4832 Y-2.5026
X-0.4459 Y-2.5141
X-0.4084 Y-2.5246
X-0.3706 Y-2.5342
X-0.3326 Y-2.5429
X-0.2944 Y-2.5507
X-0.256 Y-2.5575
X-0.2174 Y-2.5633
X-0.1787 Y-2.5682
X-0.1399 Y-2.5722
X-0.1011 Y-2.5752
X-0.0621 Y-2.5772
X-0.0232 Y-2.5783
X0.0158 Y-2.5784
X0.0548 Y-2.5776
X0.0938 Y-2.5758
X0.1327 Y-2.573
X0.1715 Y-2.5693
X0.2102 Y-2.5646
X0.2488 Y-2.559
X0.2872 Y-2.5524
X0.3254 Y-2.5449
X0.3635 Y-2.5364
X0.4014 Y-2.5271
X0.439 Y-2.5168
X0.4763 Y-2.5055
X0.5134 Y-2.4934
X0.5501 Y-2.4804
X0.5865 Y-2.4665
X0.6226 Y-2.4517
X0.6583 Y-2.436
X0.6936 Y-2.4195
X0.7285 Y-2.402
X0.763 Y-2.3838
X0.797 Y-2.3647
X0.8305 Y-2.3448
X0.8635 Y-2.3241
X0.8961 Y-2.3026
X0.9281 Y-2.2803
X0.9595 Y-2.2573
X0.9904 Y-2.2335
X1.0207 Y-2.2089
X1.0504 Y-2.1837
X1.0795 Y-2.1577
X1.1079 Y-2.131
X1.1357 Y-2.1037
X1.1629 Y-2.0757
X1.1893 Y-2.0471
X1.2151 Y-2.0178
X1.2401 Y-1.9879
X1.2644 Y-1.9574
X1.2879 Y-1.9263
X1.3108 Y-1.8947
X1.3328 Y-1.8625
X1.3541 Y-1.8299
X1.3746 Y-1.7967
X1.3942 Y-1.763
X1.4131 Y-1.7289
X1.4312 Y-1.6943
X1.4484 Y-1.6594
X1.4647 Y-1.624
X1.4803 Y-1.5882
X1.4949 Y-1.5521
X1.5087 Y-1.5156
X1.5216 Y-1.4788
X1.5336 Y-1.4417
X1.5447 Y-1.4043
X1.5549 Y-1.3667
X1.5642 Y-1.3288
X1.5726 Y-1.2907
X1.58 Y-1.2525
X1.5866 Y-1.214
X1.5922 Y-1.1755
X1.5969 Y-1.1367
X1.6007 Y-1.0979
X1.6035 Y-1.0591
X1.6054 Y-1.0201
X1.6064 Y-0.9811
Y-0.9421
X1.6055 Y-0.9032
X1.6037 Y-0.8642
X1.6009 Y-0.8253
X1.5971 Y-0.7865
X1.5925 Y-0.7478
X1.5869 Y-0.7092
X1.5803 Y-0.6708
X1.5729 Y-0.6325
X1.5645 Y-0.5944
X1.5552 Y-0.5565
X1.5451 Y-0.5189
X1.534 Y-0.4815
X1.522 Y-0.4444
X1.5091 Y-0.4076
X1.4953 Y-0.3712
X1.4807 Y-0.335
X1.4652 Y-0.2992
X1.4488 Y-0.2638
X1.4316 Y-0.2289
X1.4136 Y-0.1943
X1.3947 Y-0.1602
X1.375 Y-0.1265
X1.3544 Y-0.0934
X1.3331 Y-0.0607
X1.3111 Y-0.0286
X1.2882 Y0.003
X1.2646 Y0.034
X1.2403 Y0.0645
X1.2152 Y0.0944
X1.1894 Y0.1236
X1.163 Y0.1522
X1.1358 Y0.1802
X1.108 Y0.2075
X1.0795 Y0.2342
X1.0504 Y0.2602
X1.0207 Y0.2854
X0.9904 Y0.3099
X0.9595 Y0.3337
X0.928 Y0.3567
X0.896 Y0.379
X0.8635 Y0.4005
X0.8304 Y0.4212
X0.7969 Y0.4411
X0.7629 Y0.4602
X0.7285 Y0.4785
X0.6936 Y0.4959
X0.6583 Y0.5125
X0.6227 Y0.5283
X0.5867 Y0.5432
X0.5503 Y0.5573
X0.5136 Y0.5704
X0.4766 Y0.5827
X0.4393 Y0.5941
X0.4017 Y0.6046
X0.364 Y0.6142
X0.3259 Y0.6229
X0.2877 Y0.6307
X0.2494 Y0.6375
X0.2108 Y0.6435
X0.1722 Y0.6485
X0.1334 Y0.6527
X0.0945 Y0.6559
X0.0556 Y0.6581
X0.0166 Y0.6595
X-0.0224 Y0.6599
X-0.0613 Y0.6594
X-0.1003 Y0.658
X-0.1392 Y0.6556
X-0.1781 Y0.6523
X-0.2168 Y0.6481
X-0.2555 Y0.643
X-0.294 Y0.6369
X-0.3324 Y0.63
X-0.3706 Y0.6221
X-0.4086 Y0.6134
X-0.4463 Y0.6037
X-0.4839 Y0.5932
X-0.5212 Y0.5817
X-0.5582 Y0.5694
X-0.5948 Y0.5562
X-0.6312 Y0.5422
X-0.6673 Y0.5273
X-0.7029 Y0.5116
X-0.7382 Y0.495
X-0.7731 Y0.4776
X-0.8076 Y0.4594
X-0.8416 Y0.4403
X-0.8752 Y0.4205
X-0.9083 Y0.3999
X-0.9408 Y0.3784
X-0.9729 Y0.3563
X-1.0045 Y0.3334
X-1.0355 Y0.3097
X-1.0659 Y0.2854
X-1.0958 Y0.2603
X-1.125 Y0.2345
X-1.1537 Y0.2081
X-1.1817 Y0.1809
X-1.2091 Y0.1532
X-1.2358 Y0.1248
X-1.2618 Y0.0957
X-1.2872 Y0.0661
X-1.3118 Y0.0359
X-1.3358 Y0.0051
X-1.359 Y-0.0262
X-1.3814 Y-0.0581
X-1.4031 Y-0.0905
X-1.424 Y-0.1234
X-1.4442 Y-0.1568
X-1.4635 Y-0.1906
X-1.4821 Y-0.2249
X-1.4999 Y-0.2596
X-1.5168 Y-0.2947
X-1.533 Y-0.3302
X-1.5483 Y-0.3661
X-1.5627 Y-0.4023
X-1.5763 Y-0.4388
X-1.5891 Y-0.4757
X-1.6009 Y-0.5128
X-1.612 Y-0.5502
X-1.6221 Y-0.5879
X-1.6313 Y-0.6257
X-1.6397 Y-0.6638
X-1.6471 Y-0.7021
X-1.6537 Y-0.7405
X-1.6593 Y-0.7791
X-1.6641 Y-0.8178
X-1.6679 Y-0.8566
X-1.6709 Y-0.8955
X-1.6729 Y-0.9344
X-1.674 Y-0.9734
X-1.6743 Y-1.0124
X-1.6736 Y-1.0514
X-1.672 Y-1.0903
X-1.6695 Y-1.1293
X-1.6661 Y-1.1681
X-1.6617 Y-1.2068
X-1.6565 Y-1.2455
X-1.6504 Y-1.284
X-1.6434 Y-1.3223
X-1.6354 Y-1.3605
X-1.6266 Y-1.3985
X-1.6169 Y-1.4363
X-1.6063 Y-1.4738
X-1.5949 Y-1.5111
X-1.5826 Y-1.5481
X-1.5694 Y-1.5848
X-1.5554 Y-1.6212
X-1.5406 Y-1.6572
X-1.5249 Y-1.6929
X-1.5083 Y-1.7282
X-1.491 Y-1.7631
X-1.4729 Y-1.7977
X-1.4539 Y-1.8317
X-1.4342 Y-1.8654
X-1.4137 Y-1.8985
X-1.3924 Y-1.9312
X-1.3703 Y-1.9633
X-1.3475 Y-1.995
X-1.324 Y-2.0261
X-1.2998 Y-2.0566
X-1.2749 Y-2.0866
X-1.2492 Y-2.116
X-1.2229 Y-2.1448
X-1.196 Y-2.1729
X-1.1683 Y-2.2004
X-1.1401 Y-2.2273
X-1.1112 Y-2.2535
X-1.0818 Y-2.2791
X-1.0517 Y-2.3039
X-1.0211 Y-2.3281
X-0.9899 Y-2.3515
X-0.9582 Y-2.3742
X-0.926 Y-2.3961
X-0.8932 Y-2.4172
X-0.86 Y-2.4376
X-0.8263 Y-2.4573
X-0.7921 Y-2.4761
X-0.7576 Y-2.4941
X-0.7226 Y-2.5114
X-0.6872 Y-2.5278
X-0.6515 Y-2.5434
X-0.6154 Y-2.5581
X-0.579 Y-2.572
X-0.5422 Y-2.5851
X-0.5052 Y-2.5973
X-0.4679 Y-2.6086
X-0.4303 Y-2.6191
X-0.3925 Y-2.6287
X-0.3545 Y-2.6374
X-0.3163 Y-2.6452
X-0.278 Y-2.6521
X-0.2394 Y-2.6581
X-0.2008 Y-2.6633
X-0.162 Y-2.6675
X-0.1232 Y-2.6708
X-0.0843 Y-2.6732
X-0.0453 Y-2.6748
X-0.0063 Y-2.6754
X0.0327 Y-2.6751
X0.0716 Y-2.6739
X0.1106 Y-2.6718
X0.1495 Y-2.6688
X0.1883 Y-2.6649
X0.227 Y-2.6602
X0.2655 Y-2.6545
X0.304 Y-2.6479
X0.3422 Y-2.6405
X0.3803 Y-2.6321
X0.4182 Y-2.6229
X0.4559 Y-2.6128
X0.4933 Y-2.6018
X0.5304 Y-2.5899
X0.5673 Y-2.5773
X0.6039 Y-2.5638
X0.6401 Y-2.5494
X0.676 Y-2.5342
X0.7116 Y-2.5182
X0.7468 Y-2.5014
X0.7815 Y-2.4837
X0.8159 Y-2.4653
X0.8498 Y-2.4461
X0.8833 Y-2.4262
X0.9164 Y-2.4055
X0.9489 Y-2.384
X0.981 Y-2.3618
X1.0125 Y-2.3388
X1.0435 Y-2.3151
X1.0739 Y-2.2908
X1.1038 Y-2.2657
X1.1331 Y-2.24
X1.1618 Y-2.2136
X1.1899 Y-2.1866
X1.2174 Y-2.1589
X1.2442 Y-2.1307
X1.2704 Y-2.1018
X1.296 Y-2.0723
X1.3208 Y-2.0423
X1.345 Y-2.0117
X1.3685 Y-1.9806
X1.3913 Y-1.9489
X1.4133 Y-1.9168
X1.4346 Y-1.8841
X1.4552 Y-1.851
X1.4749 Y-1.8174
X1.494 Y-1.7833
X1.5122 Y-1.7489
X1.5297 Y-1.714
X1.5464 Y-1.6788
X1.5622 Y-1.6432
X1.5773 Y-1.6072
X1.5916 Y-1.5709
X1.605 Y-1.5343
X1.6176 Y-1.4974
X1.6293 Y-1.4602
X1.6402 Y-1.4228
X1.6503 Y-1.3851
X1.6595 Y-1.3472
X1.6679 Y-1.3092
X1.6753 Y-1.2709
X1.6819 Y-1.2325
X1.6877 Y-1.1939
X1.6925 Y-1.1552
X1.6965 Y-1.1164
X1.6995 Y-1.0775
X1.7017 Y-1.0386
X1.7031 Y-0.9996
X1.7035 Y-0.9607
X1.7031 Y-0.9217
X1.7017 Y-0.8827
X1.6995 Y-0.8438
X1.6964 Y-0.8049
X1.6924 Y-0.7661
X1.6876 Y-0.7274
X1.6818 Y-0.6889
X1.6752 Y-0.6504
X1.6678 Y-0.6122
X1.6594 Y-0.5741
X1.6502 Y-0.5362
X1.6401 Y-0.4985
X1.6292 Y-0.4611
X1.6174 Y-0.4239
X1.6047 Y-0.3871
X1.5913 Y-0.3505
X1.577 Y-0.3142
X1.5619 Y-0.2782
X1.546 Y-0.2426
X1.5292 Y-0.2074
X1.5117 Y-0.1726
X1.4934 Y-0.1382
X1.4743 Y-0.1042
X1.4545 Y-0.0706
X1.4339 Y-0.0375
X1.4125 Y-0.0049
X1.3904 Y0.0272
X1.3676 Y0.0589
X1.3441 Y0.0899
X1.3198 Y0.1205
X1.2949 Y0.1505
X1.2693 Y0.1799
X1.243 Y0.2087
X1.2161 Y0.2369
X1.1886 Y0.2645
X1.1604 Y0.2915
X1.1316 Y0.3178
X1.1023 Y0.3434
X1.0724 Y0.3684
X1.0419 Y0.3927
X1.0108 Y0.4164
X0.9793 Y0.4393
X0.9472 Y0.4614
X0.9147 Y0.4829
X0.8816 Y0.5036
X0.8481 Y0.5236
X0.8142 Y0.5427
X0.7798 Y0.5612
X0.745 Y0.5788
X0.7099 Y0.5956
X0.6743 Y0.6116
X0.6384 Y0.6269
X0.6022 Y0.6413
X0.5657 Y0.6549
X0.5288 Y0.6677
X0.4917 Y0.6796
X0.4543 Y0.6907
X0.4167 Y0.701
X0.3789 Y0.7104
X0.3408 Y0.7189
X0.3026 Y0.7266
X0.2642 Y0.7335
X0.2257 Y0.7394
X0.187 Y0.7445
X0.1483 Y0.7487
X0.1094 Y0.7521
X0.0705 Y0.7545
X0.0316 Y0.7561
X-0.0074 Y0.7569
X-0.0464 Y0.7567
X-0.0854 Y0.7557
X-0.1243 Y0.7538
X-0.1632 Y0.751
X-0.2021 Y0.7474
X-0.2408 Y0.7429
X-0.2794 Y0.7375
X-0.3179 Y0.7313
X-0.3562 Y0.7242
X-0.3944 Y0.7163
X-0.4324 Y0.7075
X-0.4702 Y0.6978
X-0.5077 Y0.6873
X-0.545 Y0.676
X-0.5821 Y0.6638
X-0.6188 Y0.6508
X-0.6553 Y0.637
X-0.6915 Y0.6224
X-0.7273 Y0.607
X-0.7627 Y0.5908
X-0.7978 Y0.5738
X-0.8325 Y0.556
X-0.8668 Y0.5375
X-0.9007 Y0.5182
X-0.9341 Y0.4981
X-0.9671 Y0.4774
X-0.9997 Y0.4558
X-1.0317 Y0.4336
X-1.0632 Y0.4107
X-1.0942 Y0.387
X-1.1247 Y0.3627
X-1.1546 Y0.3377
X-1.184 Y0.3121
X-1.2128 Y0.2857
X-1.2409 Y0.2588
X-1.2685 Y0.2312
X-1.2955 Y0.2031
X-1.3218 Y0.1743
X-1.3475 Y0.145
X-1.3726 Y0.1151
X-1.3969 Y0.0847
X-1.4206 Y0.0537
X-1.4436 Y0.0222
X-1.4659 Y-0.0098
X-1.4875 Y-0.0422
X-1.5084 Y-0.0752
X-1.5285 Y-0.1086
X-1.5479 Y-0.1424
X-1.5665 Y-0.1767
X-1.5843 Y-0.2113
X-1.6014 Y-0.2464
X-1.6177 Y-0.2818
X-1.6332 Y-0.3176
X-1.6479 Y-0.3537
X-1.6619 Y-0.3901
X-1.675 Y-0.4268
X-1.6873 Y-0.4638
X-1.6988 Y-0.5011
X-1.7094 Y-0.5386
X-1.7192 Y-0.5763
X-1.7282 Y-0.6143
X-1.7364 Y-0.6524
X-1.7437 Y-0.6907
X-1.7501 Y-0.7291
X-1.7558 Y-0.7677
X-1.7605 Y-0.8064
X-1.7644 Y-0.8452
X-1.7674 Y-0.8841
X-1.7696 Y-0.923
X-1.7709 Y-0.962
X-1.7714 Y-1.001
X-1.771 Y-1.04
X-1.7697 Y-1.0789
X-1.7676 Y-1.1179
X-1.7646 Y-1.1567
X-1.7608 Y-1.1955
X-1.7561 Y-1.2343
X-1.7505 Y-1.2729
X-1.7441 Y-1.3113
X-1.7369 Y-1.3496
X-1.7288 Y-1.3878
X-1.7199 Y-1.4257
X-1.7101 Y-1.4635
X-1.6996 Y-1.501
X-1.6882 Y-1.5383
X-1.6759 Y-1.5753
X-1.6629 Y-1.6121
X-1.649 Y-1.6485
X-1.6344 Y-1.6846
X-1.6189 Y-1.7204
X-1.6027 Y-1.7559
X-1.5857 Y-1.791
X-1.5679 Y-1.8257
X-1.5494 Y-1.86
X-1.5301 Y-1.8939
X-1.5101 Y-1.9273
X-1.4893 Y-1.9603
X-1.4679 Y-1.9929
X-1.4457 Y-2.025
X-1.4228 Y-2.0565
X-1.3992 Y-2.0876
X-1.375 Y-2.1181
X-1.3501 Y-2.1481
X-1.3245 Y-2.1775
X-1.2982 Y-2.2064
X-1.2714 Y-2.2347
X-1.2439 Y-2.2623
X-1.2158 Y-2.2894
X-1.1872 Y-2.3158
X-1.158 Y-2.3416
X-1.1282 Y-2.3668
X-1.0978 Y-2.3913
X-1.067 Y-2.4151
X-1.0356 Y-2.4382
X-1.0037 Y-2.4607
X-0.9713 Y-2.4824
X-0.9385 Y-2.5034
X-0.9052 Y-2.5237
X-0.8715 Y-2.5433
X-0.8373 Y-2.5621
X-0.8027 Y-2.5801
X-0.7678 Y-2.5974
X-0.7325 Y-2.6139
X-0.6968 Y-2.6296
X-0.6608 Y-2.6446
X-0.6244 Y-2.6587
X-0.5878 Y-2.672
X-0.5509 Y-2.6846
X-0.5137 Y-2.6963
X-0.4762 Y-2.7072
X-0.4386 Y-2.7172
X-0.4007 Y-2.7265
X-0.3626 Y-2.7349
X-0.3244 Y-2.7425
X-0.286 Y-2.7492
X-0.2474 Y-2.7551
X-0.2087 Y-2.7601
X-0.17 Y-2.7643
X-0.1311 Y-2.7676
X-0.0922 Y-2.7701
X-0.0533 Y-2.7717
X-0.0143 Y-2.7725
X0.0247 Y-2.7723
X0.0637 Y-2.7714
X0.1026 Y-2.7696
X0.1415 Y-2.7669
X0.1804 Y-2.7634
X0.2191 Y-2.7591
X0.2578 Y-2.7539
X0.2963 Y-2.7478
X0.3347 Y-2.7409
X0.3729 Y-2.7332
X0.4109 Y-2.7246
X0.4488 Y-2.7152
X0.4864 Y-2.705
X0.5238 Y-2.694
X0.5609 Y-2.6822
X0.5978 Y-2.6695
X0.6344 Y-2.6561
X0.6707 Y-2.6418
X0.7067 Y-2.6268
X0.7423 Y-2.611
X0.7776 Y-2.5944
X0.8125 Y-2.577
X0.8471 Y-2.5589
X0.8812 Y-2.5401
X0.9149 Y-2.5205
X0.9482 Y-2.5002
X0.9811 Y-2.4792
X1.0134 Y-2.4575
X1.0454 Y-2.4351
X1.0768 Y-2.412
X1.1077 Y-2.3882
X1.1381 Y-2.3638
X1.1679 Y-2.3387
X1.1972 Y-2.313
X1.226 Y-2.2867
X1.2541 Y-2.2597
X1.2817 Y-2.2321
X1.3087 Y-2.204
X1.3351 Y-2.1753
X1.3608 Y-2.146
X1.3859 Y-2.1162
X1.4104 Y-2.0858
X1.4342 Y-2.0549
X1.4574 Y-2.0235
X1.4798 Y-1.9917
X1.5016 Y-1.9593
X1.5227 Y-1.9265
X1.543 Y-1.8933
X1.5627 Y-1.8596
X1.5816 Y-1.8255
X1.5998 Y-1.791
X1.6173 Y-1.7562
X1.634 Y-1.7209
X1.6499 Y-1.6853
X1.6651 Y-1.6494
X1.6794 Y-1.6132
X1.693 Y-1.5766
X1.7059 Y-1.5398
X1.7179 Y-1.5027
X1.7291 Y-1.4654
X1.7396 Y-1.4278
X1.7492 Y-1.39
X1.758 Y-1.3521
X1.766 Y-1.3139
X1.7732 Y-1.2756
X1.7795 Y-1.2371
X1.785 Y-1.1985
X1.7897 Y-1.1598
X1.7936 Y-1.121
X1.7966 Y-1.0821
X1.7988 Y-1.0432
X1.8002 Y-1.0042
X1.8007 Y-0.9652
X1.8004 Y-0.9263
X1.7992 Y-0.8873
X1.7972 Y-0.8483
X1.7943 Y-0.8095
X1.7907 Y-0.7706
X1.7861 Y-0.7319
X1.7808 Y-0.6933
X1.7747 Y-0.6548
X1.7677 Y-0.6164
X1.7599 Y-0.5782
X1.7512 Y-0.5402
X1.7418 Y-0.5024
X1.7315 Y-0.4648
X1.7204 Y-0.4274
X1.7086 Y-0.3902
X1.6959 Y-0.3533
X1.6825 Y-0.3168
X1.6682 Y-0.2805
X1.6532 Y-0.2445
X1.6374 Y-0.2088
X1.6208 Y-0.1735
X1.6035 Y-0.1386
X1.5854 Y-0.1041
X1.5666 Y-0.0699
X1.5471 Y-0.0362
X1.5268 Y-0.0028
X1.5059 Y0.03
X1.4842 Y0.0625
X1.4618 Y0.0944
X1.4388 Y0.1259
X1.4151 Y0.1568
X1.3907 Y0.1872
X1.3657 Y0.2171
X1.34 Y0.2465
X1.3138 Y0.2753
X1.2869 Y0.3035
X1.2594 Y0.3312
X1.2313 Y0.3582
X1.2026 Y0.3847
X1.1734 Y0.4105
X1.1436 Y0.4356
X1.1133 Y0.4602
X1.0825 Y0.484
X1.0512 Y0.5073
X1.0193 Y0.5298
X0.987 Y0.5517
X0.9543 Y0.5728
X0.9211 Y0.5933
X0.8875 Y0.613
X0.8534 Y0.632
X0.819 Y0.6503
X0.7842 Y0.6678
X0.749 Y0.6846
X0.7134 Y0.7006
X0.6775 Y0.7159
X0.6413 Y0.7304
X0.6048 Y0.7441
X0.5681 Y0.757
X0.531 Y0.7691
X0.4937 Y0.7805
X0.4562 Y0.791
X0.4184 Y0.8008
X0.3804 Y0.8097
X0.3423 Y0.8178
X0.304 Y0.8252
X0.2656 Y0.8317
X0.227 Y0.8373
X0.1883 Y0.8422
X0.1495 Y0.8462
X0.1107 Y0.8494
X0.0718 Y0.8518
X0.0328 Y0.8534
X-0.0062 Y0.8541
X-0.0452 Y0.854
X-0.0842 Y0.853
X-0.1231 Y0.8513
X-0.162 Y0.8486
X-0.2009 Y0.8452
X-0.2396 Y0.841
X-0.2783 Y0.8359
X-0.3168 Y0.83
X-0.3552 Y0.8233
X-0.3935 Y0.8158
X-0.4316 Y0.8075
X-0.4695 Y0.7984
X-0.5072 Y0.7885
X-0.5447 Y0.7777
X-0.5819 Y0.7662
X-0.6189 Y0.7539
X-0.6557 Y0.7409
X-0.6921 Y0.727
X-0.7283 Y0.7124
X-0.7641 Y0.697
X-0.7996 Y0.6809
X-0.8348 Y0.664
X-0.8695 Y0.6464
X-0.9039 Y0.628
X-0.9379 Y0.609
X-0.9715 Y0.5892
X-1.0047 Y0.5687
X-1.0374 Y0.5475
X-1.0697 Y0.5256
X-1.1015 Y0.5031
X-1.1329 Y0.4799
X-1.1637 Y0.456
X-1.194 Y0.4315
X-1.2238 Y0.4064
X-1.2531 Y0.3806
X-1.2818 Y0.3542
X-1.31 Y0.3273
X-1.3376 Y0.2997
X-1.3646 Y0.2716
X-1.391 Y0.2429
X-1.4168 Y0.2137
X-1.4419 Y0.1839
X-1.4664 Y0.1536
X-1.4903 Y0.1227
X-1.5136 Y0.0914
X-1.5362 Y0.0596
X-1.5581 Y0.0274
X-1.5793 Y-0.0053
X-1.5998 Y-0.0385
X-1.6197 Y-0.072
X-1.6388 Y-0.106
X-1.6572 Y-0.1404
X-1.6749 Y-0.1751
X-1.6918 Y-0.2102
X-1.7081 Y-0.2457
X-1.7235 Y-0.2815
X-1.7383 Y-0.3176
X-1.7522 Y-0.354
X-1.7654 Y-0.3907
X-1.7778 Y-0.4276
X-1.7894 Y-0.4649
X-1.8003 Y-0.5023
X-1.8103 Y-0.54
X-1.8196 Y-0.5779
X-1.8281 Y-0.6159
X-1.8358 Y-0.6541
X-1.8427 Y-0.6925
X-1.8488 Y-0.731
X-1.854 Y-0.7697
X-1.8585 Y-0.8084
X-1.8621 Y-0.8472
X-1.865 Y-0.8861
X-1.867 Y-0.925
X-1.8682 Y-0.964
X-1.8686 Y-1.003
X-1.8682 Y-1.042
X-1.867 Y-1.081
X-1.8649 Y-1.1199
X-1.862 Y-1.1588
X-1.8583 Y-1.1976
X-1.8538 Y-1.2363
X-1.8485 Y-1.275
X-1.8424 Y-1.3135
X-1.8355 Y-1.3518
X-1.8278 Y-1.3901
X-1.8193 Y-1.4281
X-1.81 Y-1.466
X-1.7999 Y-1.5036
X-1.789 Y-1.5411
X-1.7774 Y-1.5783
X-1.765 Y-1.6153
X-1.7518 Y-1.6519
X-1.7378 Y-1.6884
X-1.7231 Y-1.7245
X-1.7077 Y-1.7603
X-1.6914 Y-1.7957
X-1.6745 Y-1.8308
X-1.6568 Y-1.8656
X-1.6384 Y-1.9
X-1.6193 Y-1.9339
X-1.5995 Y-1.9675
X-1.5789 Y-2.0007
X-1.5577 Y-2.0334
X-1.5359 Y-2.0657
X-1.5133 Y-2.0975
X-1.4901 Y-2.1288
X-1.4662 Y-2.1596
X-1.4418 Y-2.19
X-1.4166 Y-2.2198
X-1.3909 Y-2.2491
X-1.3645 Y-2.2778
X-1.3376 Y-2.306
X-1.3101 Y-2.3337
X-1.282 Y-2.3607
X-1.2534 Y-2.3871
X-1.2242 Y-2.413
X-1.1944 Y-2.4382
X-1.1642 Y-2.4628
X-1.1334 Y-2.4868
X-1.1022 Y-2.5101
X-1.0704 Y-2.5327
X-1.0382 Y-2.5547
X-1.0056 Y-2.576
X-0.9725 Y-2.5967
X-0.939 Y-2.6166
X-0.9051 Y-2.6359
X-0.8708 Y-2.6544
X-0.8361 Y-2.6722
X-0.801 Y-2.6893
X-0.7656 Y-2.7056
X-0.7299 Y-2.7212
X-0.6938 Y-2.7361
X-0.6575 Y-2.7502
X-0.6209 Y-2.7635
X-0.5839 Y-2.7761
X-0.5468 Y-2.7879
X-0.5094 Y-2.7989
X-0.4718 Y-2.8091
X-0.4339 Y-2.8186
X-0.3959 Y-2.8272
X-0.3577 Y-2.8351
X-0.3194 Y-2.8421
X-0.2809 Y-2.8484
X-0.2423 Y-2.8539
X-0.2036 Y-2.8585
X-0.1648 Y-2.8624
X-0.1259 Y-2.8654
X-0.087 Y-2.8677
X-0.048 Y-2.8691
X-0.009 Y-2.8697
X0.03 Y-2.8695
X0.0689 Y-2.8685
X0.1079 Y-2.8667
X0.1468 Y-2.8641
X0.1856 Y-2.8607
X0.2244 Y-2.8564
X0.2631 Y-2.8514
X0.3016 Y-2.8455
X0.34 Y-2.8389
X0.3783 Y-2.8314
X0.4164 Y-2.8232
X0.4543 Y-2.8142
X0.4921 Y-2.8044
X0.5296 Y-2.7938
X0.5669 Y-2.7824
X0.604 Y-2.7703
X0.6408 Y-2.7574
X0.6773 Y-2.7438
X0.7135 Y-2.7294
X0.7495 Y-2.7143
X0.7851 Y-2.6984
X0.8204 Y-2.6818
X0.8553 Y-2.6645
X0.8899 Y-2.6464
X0.924 Y-2.6277
X0.9578 Y-2.6082
X0.9912 Y-2.5881
X1.0242 Y-2.5672
X1.0567 Y-2.5457
X1.0888 Y-2.5236
X1.1204 Y-2.5008
X1.1516 Y-2.4773
X1.1822 Y-2.4532
X1.2124 Y-2.4285
X1.242 Y-2.4032
X1.2712 Y-2.3773
X1.2998 Y-2.3508
X1.3278 Y-2.3237
X1.3553 Y-2.296
X1.3822 Y-2.2678
X1.4086 Y-2.2391
X1.4343 Y-2.2098
X1.4594 Y-2.18
X1.484 Y-2.1497
X1.5079 Y-2.1189
X1.5311 Y-2.0876
X1.5538 Y-2.0558
X1.5757 Y-2.0236
X1.597 Y-1.991
X1.6177 Y-1.9579
X1.6376 Y-1.9244
X1.6569 Y-1.8905
X1.6755 Y-1.8562
X1.6934 Y-1.8216
X1.7106 Y-1.7866
X1.7271 Y-1.7513
X1.7428 Y-1.7156
X1.7578 Y-1.6796
X1.7721 Y-1.6433
X1.7856 Y-1.6067
X1.7984 Y-1.5699
X1.8105 Y-1.5328
X1.8217 Y-1.4955
X1.8323 Y-1.458
X1.842 Y-1.4202
X1.851 Y-1.3823
X1.8592 Y-1.3441
X1.8666 Y-1.3059
X1.8732 Y-1.2674
X1.8791 Y-1.2289
X1.8841 Y-1.1902
X1.8884 Y-1.1515
X1.8919 Y-1.1126
X1.8946 Y-1.0737
X1.8965 Y-1.0348
X1.8976 Y-0.9958
X1.898 Y-0.9568
X1.8975 Y-0.9178
X1.8962 Y-0.8789
X1.8942 Y-0.8399
X1.8913 Y-0.8011
X1.8877 Y-0.7622
X1.8832 Y-0.7235
X1.878 Y-0.6849
X1.8719 Y-0.6463
X1.8651 Y-0.608
X1.8575 Y-0.5697
X1.8491 Y-0.5316
X1.84 Y-0.4937
X1.8301 Y-0.456
X1.8194 Y-0.4185
X1.8079 Y-0.3813
X1.7957 Y-0.3442
X1.7828 Y-0.3074
X1.769 Y-0.2709
X1.7546 Y-0.2347
X1.7394 Y-0.1988
X1.7235 Y-0.1632
X1.7068 Y-0.128
X1.6895 Y-0.0931
X1.6714 Y-0.0585
X1.6527 Y-0.0243
X1.6332 Y0.0095
X1.613 Y0.0428
X1.5922 Y0.0758
X1.5707 Y0.1083
X1.5485 Y0.1404
X1.5257 Y0.172
X1.5022 Y0.2032
X1.4782 Y0.2338
X1.4535 Y0.264
X1.4282 Y0.2937
X1.4022 Y0.3228
X1.3757 Y0.3514
X1.3487 Y0.3794
X1.321 Y0.4069
X1.2928 Y0.4339
X1.2641 Y0.4602
X1.2348 Y0.486
X1.205 Y0.5111
X1.1747 Y0.5357
X1.1439 Y0.5596
X1.1127 Y0.5829
X1.0809 Y0.6055
X1.0487 Y0.6275
X1.0161 Y0.6488
X0.983 Y0.6695
X0.9495 Y0.6895
X0.9157 Y0.7088
X0.8814 Y0.7274
X0.8468 Y0.7453
X0.8118 Y0.7625
X0.7765 Y0.779
X0.7408 Y0.7948
X0.7048 Y0.8099
X0.6686 Y0.8242
X0.632 Y0.8377
X0.5952 Y0.8506
X0.5581 Y0.8627
X0.5208 Y0.874
X0.4833 Y0.8846
X0.4455 Y0.8944
X0.4076 Y0.9034
X0.3695 Y0.9116
X0.3312 Y0.9191
X0.2928 Y0.9258
X0.2543 Y0.9318
X0.2156 Y0.9369
X0.1769 Y0.9413
X0.1381 Y0.9449
X0.0992 Y0.9477
X0.0602 Y0.9497
X0.0213 Y0.951
X-0.0177 Y0.9514
X-0.0567 Y0.9511
X-0.0957 Y0.95
X-0.1346 Y0.9481
X-0.1735 Y0.9454
X-0.2124 Y0.9419
X-0.2511 Y0.9377
X-0.2898 Y0.9326
X-0.3283 Y0.9268
X-0.3668 Y0.9202
X-0.4051 Y0.9128
X-0.4432 Y0.9047
X-0.4811 Y0.8958
X-0.5189 Y0.8861
X-0.5565 Y0.8757
X-0.5938 Y0.8645
X-0.631 Y0.8526
X-0.6678 Y0.8399
X-0.7045 Y0.8265
X-0.7408 Y0.8124
X-0.7769 Y0.7976
X-0.8126 Y0.782
X-0.848 Y0.7657
X-0.8831 Y0.7487
X-0.9179 Y0.731
X-0.9522 Y0.7126
X-0.9862 Y0.6935
X-1.0199 Y0.6738
X-1.0531 Y0.6533
X-1.0859 Y0.6322
X-1.1182 Y0.6105
X-1.1501 Y0.5881
X-1.1816 Y0.5651
X-1.2126 Y0.5414
X-1.2431 Y0.5171
X-1.2731 Y0.4923
X-1.3027 Y0.4668
X-1.3317 Y0.4407
X-1.3602 Y0.4141
X-1.3881 Y0.3869
X-1.4155 Y0.3592
X-1.4424 Y0.3309
X-1.4686 Y0.3021
X-1.4943 Y0.2728
X-1.5194 Y0.2429
X-1.5439 Y0.2126
X-1.5678 Y0.1818
X-1.5911 Y0.1505
X-1.6137 Y0.1187
X-1.6357 Y0.0865
X-1.657 Y0.0539
X-1.6777 Y0.0209
X-1.6977 Y-0.0126
X-1.7171 Y-0.0464
X-1.7358 Y-0.0807
X-1.7538 Y-0.1153
X-1.7711 Y-0.1502
X-1.7877 Y-0.1855
X-1.8036 Y-0.2211
X-1.8188 Y-0.257
X-1.8332 Y-0.2932
X-1.847 Y-0.3297
X-1.86 Y-0.3664
X-1.8723 Y-0.4034
X-1.8838 Y-0.4407
X-1.8946 Y-0.4781
X-1.9047 Y-0.5158
X-1.914 Y-0.5537
X-1.9225 Y-0.5917
X-1.9303 Y-0.6299
X-1.9373 Y-0.6683
X-1.9436 Y-0.7068
X-1.9491 Y-0.7454
X-1.9538 Y-0.7841
X-1.9577 Y-0.8229
X-1.9609 Y-0.8617
X-1.9633 Y-0.9007
X-1.9649 Y-0.9396
X-1.9658 Y-0.9786
X-1.9659 Y-1.0176
X-1.9652 Y-1.0566
X-1.9637 Y-1.0955
X-1.9615 Y-1.1345
X-1.9585 Y-1.1733
X-1.9547 Y-1.2121
X-1.9502 Y-1.2509
X-1.9448 Y-1.2895
X-1.9388 Y-1.328
X-1.9319 Y-1.3664
X-1.9243 Y-1.4046
X-1.9159 Y-1.4427
X-1.9068 Y-1.4806
X-1.8969 Y-1.5183
X-1.8862 Y-1.5558
X-1.8749 Y-1.5931
X-1.8628 Y-1.6302
X-1.8499 Y-1.667
X-1.8364 Y-1.7036
X-1.8221 Y-1.7398
X-1.8071 Y-1.7758
X-1.7913 Y-1.8115
X-1.7749 Y-1.8469
X-1.7578 Y-1.8819
X-1.74 Y-1.9166
X-1.7215 Y-1.9509
X-1.7023 Y-1.9849
X-1.6825 Y-2.0184
X-1.662 Y-2.0516
X-1.6408 Y-2.0843
X-1.619 Y-2.1167
X-1.5966 Y-2.1485
X-1.5735 Y-2.18
X-1.5498 Y-2.2109
X-1.5255 Y-2.2414
X-1.5006 Y-2.2714
X-1.4751 Y-2.3009
X-1.449 Y-2.3299
X-1.4224 Y-2.3584
X-1.3952 Y-2.3863
X-1.3674 Y-2.4137
X-1.3391 Y-2.4406
X-1.3103 Y-2.4668
X-1.281 Y-2.4925
X-1.2512 Y-2.5176
X-1.2208 Y-2.5421
X-1.19 Y-2.566
X-1.1588 Y-2.5893
X-1.127 Y-2.612
X-1.0949 Y-2.634
X-1.0623 Y-2.6554
X-1.0292 Y-2.6761
X-0.9958 Y-2.6962
X-0.962 Y-2.7156
X-0.9278 Y-2.7343
X-0.8932 Y-2.7524
X-0.8583 Y-2.7697
X-0.8231 Y-2.7864
X-0.7875 Y-2.8024
X-0.7516 Y-2.8176
X-0.7154 Y-2.8322
X-0.679 Y-2.846
X-0.6423 Y-2.8591
X-0.6053 Y-2.8715
X-0.5681 Y-2.8832
X-0.5306 Y-2.8941
X-0.493 Y-2.9042
X-0.4552 Y-2.9136
X-0.4171 Y-2.9223
X-0.379 Y-2.9302
X-0.3406 Y-2.9373
X-0.3022 Y-2.9437
X-0.2636 Y-2.9493
X-0.2249 Y-2.9541
X-0.1861 Y-2.9582
X-0.1473 Y-2.9615
X-0.1084 Y-2.9641
X-0.0694 Y-2.9658
X-0.0304 Y-2.9669
X0.0086 Y-2.9671
X0.0475 Y-2.9666
X0.0865 Y-2.9653
X0.1255 Y-2.9632
X0.1643 Y-2.9604
X0.2032 Y-2.9567
X0.2419 Y-2.9524
X0.2806 Y-2.9472
X0.3191 Y-2.9413
X0.3575 Y-2.9347
X0.3958 Y-2.9273
X0.4339 Y-2.9191
X0.4719 Y-2.9102
X0.5097 Y-2.9005
X0.5472 Y-2.8901
X0.5846 Y-2.8789
X0.6217 Y-2.8671
X0.6586 Y-2.8544
X0.6953 Y-2.8411
X0.7316 Y-2.8271
X0.7677 Y-2.8123
X0.8035 Y-2.7969
X0.839 Y-2.7807
X0.8742 Y-2.7639
X0.909 Y-2.7464
X0.9435 Y-2.7281
X0.9776 Y-2.7093
X1.0113 Y-2.6897
X1.0447 Y-2.6695
X1.0777 Y-2.6487
X1.1102 Y-2.6272
X1.1423 Y-2.6051
X1.174 Y-2.5823
X1.2052 Y-2.559
X1.2359 Y-2.535
X1.2662 Y-2.5105
X1.296 Y-2.4853
X1.3253 Y-2.4596
X1.3541 Y-2.4333
X1.3824 Y-2.4065
X1.4102 Y-2.3791
X1.4374 Y-2.3512
X1.4641 Y-2.3228
X1.4902 Y-2.2938
X1.5158 Y-2.2644
X1.5408 Y-2.2344
X1.5652 Y-2.204
X1.589 Y-2.1731
X1.6122 Y-2.1418
X1.6348 Y-2.11
X1.6567 Y-2.0778
X1.6781 Y-2.0452
X1.6988 Y-2.0121
X1.7188 Y-1.9787
X1.7382 Y-1.9449
X1.7569 Y-1.9107
X1.775 Y-1.8761
X1.7924 Y-1.8412
X1.8091 Y-1.806
X1.8252 Y-1.7705
X1.8405 Y-1.7346
X1.8552 Y-1.6985
X1.8691 Y-1.6621
X1.8824 Y-1.6254
X1.8949 Y-1.5885
X1.9067 Y-1.5513
X1.9178 Y-1.5139
X1.9282 Y-1.4764
X1.9378 Y-1.4386
X1.9467 Y-1.4006
X1.9549 Y-1.3625
X1.9623 Y-1.3242
X1.969 Y-1.2858
X1.9749 Y-1.2473
X1.9801 Y-1.2086
X1.9845 Y-1.1699
X1.9882 Y-1.1311
X1.9911 Y-1.0922
X1.9933 Y-1.0532
X1.9947 Y-1.0143
X1.9953 Y-0.9753
X1.9952 Y-0.9363
X1.9944 Y-0.8973
X1.9928 Y-0.8584
X1.9904 Y-0.8194
X1.9873 Y-0.7806
X1.9834 Y-0.7418
X1.9788 Y-0.7031
X1.9734 Y-0.6645
X1.9673 Y-0.6259
X1.9604 Y-0.5876
X1.9528 Y-0.5493
X1.9444 Y-0.5112
X1.9353 Y-0.4733
X1.9255 Y-0.4356
X1.9149 Y-0.3981
X1.9036 Y-0.3607
X1.8916 Y-0.3237
X1.8789 Y-0.2868
X1.8654 Y-0.2502
X1.8513 Y-0.2139
X1.8364 Y-0.1778
X1.8208 Y-0.1421
X1.8046 Y-0.1066
X1.7877 Y-0.0715
X1.77 Y-0.0367
X1.7518 Y-0.0023
X1.7328 Y0.0318
X1.7132 Y0.0655
X1.6929 Y0.0988
X1.672 Y0.1317
X1.6505 Y0.1642
X1.6283 Y0.1963
X1.6056 Y0.2279
X1.5821 Y0.2591
X1.5581 Y0.2898
X1.5335 Y0.3201
X1.5084 Y0.3499
X1.4826 Y0.3791
X1.4563 Y0.4079
X1.4294 Y0.4362
X1.402 Y0.4639
X1.3741 Y0.4911
X1.3456 Y0.5178
X1.3166 Y0.5438
X1.2872 Y0.5694
X1.2572 Y0.5943
X1.2268 Y0.6187
X1.1959 Y0.6425
X1.1645 Y0.6656
X1.1327 Y0.6882
X1.1005 Y0.7101
X1.0678 Y0.7314
X1.0348 Y0.7521
X1.0013 Y0.7721
X0.9675 Y0.7915
X0.9333 Y0.8102
X0.8987 Y0.8283
X0.8638 Y0.8456
X0.8286 Y0.8623
X0.793 Y0.8783
X0.7571 Y0.8937
X0.721 Y0.9083
X0.6846 Y0.9222
X0.6479 Y0.9355
X0.611 Y0.948
X0.5738 Y0.9598
X0.5364 Y0.9709
X0.4989 Y0.9812
X0.4611 Y0.9909
X0.4231 Y0.9998
X0.385 Y1.0079
X0.3467 Y1.0154
X0.3083 Y1.0221
X0.2698 Y1.028
X0.2311 Y1.0332
X0.1924 Y1.0377
X0.1536 Y1.0414
X0.1147 Y1.0444
X0.0758 Y1.0466
X0.0368 Y1.0481
X-0.0022 Y1.0488
X-0.0412
X-0.0801 Y1.048
X-0.1191 Y1.0465
X-0.158 Y1.0442
X-0.1969 Y1.0412
X-0.2357 Y1.0374
X-0.2744 Y1.0329
X-0.3131 Y1.0277
X-0.3516 Y1.0217
X-0.39 Y1.015
X-0.4283 Y1.0075
X-0.4664 Y0.9994
X-0.5044 Y0.9905
X-0.5422 Y0.9808
X-0.5797 Y0.9704
X-0.6171 Y0.9594
X-0.6543 Y0.9476
X-0.6912 Y0.935
X-0.7279 Y0.9218
X-0.7643 Y0.9079
X-0.8005 Y0.8933
X-0.8363 Y0.878
X-0.8719 Y0.8621
X-0.9072 Y0.8454
X-0.9421 Y0.8281
X-0.9767 Y0.8101
X-1.011 Y0.7915
X-1.0448 Y0.7722
X-1.0783 Y0.7523
X-1.1115 Y0.7317
X-1.1442 Y0.7105
X-1.1765 Y0.6887
X-1.2084 Y0.6662
X-1.2399 Y0.6432
X-1.2709 Y0.6196
X-1.3014 Y0.5954
X-1.3315 Y0.5706
X-1.3611 Y0.5452
X-1.3903 Y0.5193
X-1.4189 Y0.4928
X-1.447 Y0.4658
X-1.4746 Y0.4382
X-1.5016 Y0.4101
X-1.5282 Y0.3816
X-1.5541 Y0.3525
X-1.5796 Y0.3229
X-1.6044 Y0.2929
X-1.6287 Y0.2624
X-1.6524 Y0.2314
X-1.6755 Y0.2
X-1.698 Y0.1682
X-1.7199 Y0.1359
X-1.7412 Y0.1032
X-1.7618 Y0.0702
X-1.7819 Y0.0367
X-1.8012 Y0.0029
X-1.82 Y-0.0313
X-1.838 Y-0.0659
X-1.8555 Y-0.1008
X-1.8722 Y-0.136
X-1.8883 Y-0.1715
X-1.9037 Y-0.2073
X-1.9184 Y-0.2434
X-1.9324 Y-0.2798
X-1.9458 Y-0.3164
X-1.9584 Y-0.3533
X-1.9704 Y-0.3904
X-1.9816 Y-0.4278
X-1.9922 Y-0.4653
X-2.002 Y-0.503
X-2.0111 Y-0.5409
X-2.0195 Y-0.579
X-2.0271 Y-0.6173
X-2.0341 Y-0.6556
X-2.0403 Y-0.6941
X-2.0458 Y-0.7327
X-2.0505 Y-0.7714
X-2.0545 Y-0.8102
X-2.0578 Y-0.8491
X-2.0603 Y-0.888
X-2.0621 Y-0.9269
X-2.0631 Y-0.9659
X-2.0634 Y-1.0049
X-2.063 Y-1.0439
X-2.0619 Y-1.0829
X-2.06 Y-1.1218
X-2.0573 Y-1.1607
X-2.054 Y-1.1995
X-2.0499 Y-1.2383
X-2.045 Y-1.277
X-2.0395 Y-1.3156
X-2.0332 Y-1.3541
X-2.0262 Y-1.3924
X-2.0184 Y-1.4306
X-2.0099 Y-1.4687
X-2.0008 Y-1.5066
X-1.9909 Y-1.5443
X-1.9803 Y-1.5818
X-1.9689 Y-1.6191
X-1.9569 Y-1.6562
X-1.9442 Y-1.6931
X-1.9307 Y-1.7297
X-1.9166 Y-1.766
X-1.9018 Y-1.8021
X-1.8863 Y-1.8379
X-1.8702 Y-1.8734
X-1.8534 Y-1.9086
X-1.8359 Y-1.9434
X-1.8178 Y-1.9779
X-1.799 Y-2.0121
X-1.7796 Y-2.0459
X-1.7595 Y-2.0794
X-1.7388 Y-2.1124
X-1.7175 Y-2.1451
X-1.6956 Y-2.1773
X-1.6731 Y-2.2091
X-1.6499 Y-2.2405
X-1.6262 Y-2.2715
X-1.6019 Y-2.302
X-1.5771 Y-2.332
X-1.5516 Y-2.3616
X-1.5256 Y-2.3906
X-1.4991 Y-2.4192
X-1.472 Y-2.4472
X-1.4444 Y-2.4748
X-1.4163 Y-2.5018
X-1.3877 Y-2.5283
X-1.3586 Y-2.5542
X-1.329 Y-2.5796
X-1.2989 Y-2.6045
X-1.2684 Y-2.6287
X-1.2374 Y-2.6524
X-1.206 Y-2.6755
X-1.1742 Y-2.698
X-1.1419 Y-2.7198
X-1.1092 Y-2.7411
X-1.0761 Y-2.7617
X-1.0427 Y-2.7818
X-1.0088 Y-2.8011
X-0.9746 Y-2.8199
X-0.9401 Y-2.838
X-0.9052 Y-2.8554
X-0.87 Y-2.8722
X-0.8345 Y-2.8882
X-0.7987 Y-2.9037
X-0.7626 Y-2.9184
X-0.7262 Y-2.9325
X-0.6896 Y-2.9458
X-0.6527 Y-2.9585
X-0.6156 Y-2.9705
X-0.5783 Y-2.9818
X-0.5408 Y-2.9924
X-0.5031 Y-3.0022
X-0.4652 Y-3.0114
X-0.4271 Y-3.0198
X-0.3889 Y-3.0275
X-0.3505 Y-3.0345
X-0.312 Y-3.0408
X-0.2734 Y-3.0464
X-0.2347 Y-3.0512
X-0.196 Y-3.0553
X-0.1571 Y-3.0586
X-0.1182 Y-3.0612
X-0.0793 Y-3.0631
X-0.0403 Y-3.0642
X-0.0013 Y-3.0646
X0.0377 Y-3.0643
X0.0767 Y-3.0632
X0.1156 Y-3.0614
X0.1545 Y-3.0589
X0.1934 Y-3.0557
X0.2322 Y-3.0517
X0.2709 Y-3.047
X0.3095 Y-3.0415
X0.348 Y-3.0354
X0.3864 Y-3.0285
X0.4246 Y-3.0209
X0.4627 Y-3.0125
X0.5006 Y-3.0035
X0.5384 Y-2.9938
X0.5759 Y-2.9833
X0.6133 Y-2.9722
X0.6504 Y-2.9603
X0.6874 Y-2.9478
X0.724 Y-2.9345
X0.7604 Y-2.9206
X0.7966 Y-2.906
X0.8325 Y-2.8907
X0.868 Y-2.8747
X0.9033 Y-2.8581
X0.9383 Y-2.8409
X0.9729 Y-2.823
X1.0072 Y-2.8044
X1.0412 Y-2.7852
X1.0747 Y-2.7654
X1.108 Y-2.745
X1.1408 Y-2.7239
X1.1732 Y-2.7023
X1.2052 Y-2.68
X1.2368 Y-2.6572
X1.268 Y-2.6337
X1.2987 Y-2.6097
X1.329 Y-2.5852
X1.3588 Y-2.56
X1.3881 Y-2.5344
X1.417 Y-2.5081
X1.4453 Y-2.4814
X1.4732 Y-2.4541
X1.5005 Y-2.4263
X1.5274 Y-2.398
X1.5537 Y-2.3692
X1.5794 Y-2.34
X1.6047 Y-2.3102
X1.6293 Y-2.28
X1.6534 Y-2.2494
X1.677 Y-2.2183
X1.6999 Y-2.1868
X1.7223 Y-2.1549
X1.7441 Y-2.1225
X1.7653 Y-2.0898
X1.7858 Y-2.0567
X1.8058 Y-2.0232
X1.8251 Y-1.9893
X1.8438 Y-1.9551
X1.8619 Y-1.9205
X1.8793 Y-1.8857
X1.8961 Y-1.8505
X1.9122 Y-1.8149
X1.9277 Y-1.7792
X1.9424 Y-1.7431
X1.9566 Y-1.7067
X1.97 Y-1.6701
X1.9828 Y-1.6333
X1.9949 Y-1.5962
X2.0063 Y-1.5589
X2.017 Y-1.5214
X2.027 Y-1.4838
X2.0363 Y-1.4459
X2.045 Y-1.4079
X2.0529 Y-1.3697
X2.0601 Y-1.3314
X2.0666 Y-1.2929
X2.0724 Y-1.2544
X2.0775 Y-1.2157
X2.0818 Y-1.177
X2.0855 Y-1.1382
X2.0884 Y-1.0993
X2.0906 Y-1.0604
X2.0921 Y-1.0214
X2.0928 Y-0.9824
X2.0929 Y-0.9434
X2.0922 Y-0.9044
X2.0908 Y-0.8655
X2.0886 Y-0.8265
X2.0858 Y-0.7876
X2.0822 Y-0.7488
X2.0779 Y-0.7101
X2.0729 Y-0.6714
X2.0672 Y-0.6328
X2.0608 Y-0.5944
X2.0537 Y-0.556
X2.0458 Y-0.5178
X2.0373 Y-0.4798
X2.028 Y-0.4419
X2.018 Y-0.4042
X2.0074 Y-0.3667
X1.996 Y-0.3294
X1.984 Y-0.2923
X1.9713 Y-0.2555
X1.9579 Y-0.2189
X1.9438 Y-0.1825
X1.929 Y-0.1464
X1.9136 Y-0.1106
X1.8975 Y-0.0751
X1.8808 Y-0.0399
X1.8634 Y-0.005
X1.8454 Y0.0296
X1.8267 Y0.0638
X1.8074 Y0.0977
X1.7875 Y0.1312
X1.7669 Y0.1644
X1.7458 Y0.1971
X1.724 Y0.2295
X1.7017 Y0.2614
X1.6788 Y0.293
X1.6552 Y0.3241
X1.6312 Y0.3547
X1.6065 Y0.3849
X1.5813 Y0.4147
X1.5556 Y0.444
X1.5293 Y0.4728
X1.5024 Y0.5011
X1.4751 Y0.5289
X1.4472 Y0.5561
X1.4189 Y0.5829
X1.39 Y0.6091
X1.3607 Y0.6348
X1.3309 Y0.66
X1.3007 Y0.6846
X1.27 Y0.7086
X1.2388 Y0.7321
X1.2073 Y0.755
X1.1753 Y0.7773
X1.1429 Y0.799
X1.1101 Y0.8201
X1.0769 Y0.8406
X1.0434 Y0.8605
X1.0095 Y0.8797
X0.9753 Y0.8984
X0.9407 Y0.9164
X0.9057 Y0.9337
X0.8705 Y0.9504
X0.835 Y0.9665
X0.7992 Y0.9819
X0.7631 Y0.9966
X0.7267 Y1.0107
X0.6901 Y1.024
X0.6532 Y1.0368
X0.6161 Y1.0488
X0.5788 Y1.0601
X0.5413 Y1.0708
X0.5036 Y1.0808
X0.4657 Y1.09
X0.4277 Y1.0986
X0.3895 Y1.1065
X0.3512 Y1.1137
X0.3127 Y1.1202
X0.2742 Y1.1259
X0.2355 Y1.131
X0.1968 Y1.1353
X0.158 Y1.139
X0.1191 Y1.1419
X0.0801 Y1.1441
X0.0412 Y1.1456
X0.0022 Y1.1464
X-0.0368
X-0.0758 Y1.1457
X-0.1147 Y1.1444
X-0.1537 Y1.1423
X-0.1926 Y1.1395
X-0.2314 Y1.136
X-0.2702 Y1.1317
X-0.3088 Y1.1268
X-0.3474 Y1.1212
X-0.3859 Y1.1148
X-0.4242 Y1.1078
X-0.4625 Y1.1001
X-0.5005 Y1.0916
X-0.5384 Y1.0825
X-0.5762 Y1.0727
X-0.6137 Y1.0622
X-0.6511 Y1.051
X-0.6882 Y1.0391
X-0.7251 Y1.0266
X-0.7618 Y1.0134
X-0.7982 Y0.9995
X-0.8344 Y0.9849
X-0.8703 Y0.9697
X-0.9059 Y0.9538
X-0.9412 Y0.9373
X-0.9763 Y0.9202
X-1.011 Y0.9024
X-1.0453 Y0.884
X-1.0793 Y0.8649
X-1.113 Y0.8453
X-1.1463 Y0.825
X-1.1793 Y0.8041
X-1.2118 Y0.7827
X-1.244 Y0.7606
X-1.2757 Y0.738
X-1.3071 Y0.7148
X-1.338 Y0.691
X-1.3684 Y0.6667
X-1.3984 Y0.6418
X-1.428 Y0.6164
X-1.4571 Y0.5904
X-1.4857 Y0.5639
X-1.5139 Y0.5369
X-1.5415 Y0.5094
X-1.5686 Y0.4814
X-1.5952 Y0.4529
X-1.6213 Y0.4239
X-1.6469 Y0.3945
X-1.6719 Y0.3646
X-1.6964 Y0.3342
X-1.7203 Y0.3034
X-1.7436 Y0.2722
X-1.7664 Y0.2406
X-1.7886 Y0.2085
X-1.8103 Y0.1761
X-1.8313 Y0.1433
X-1.8518 Y0.1101
X-1.8716 Y0.0765
X-1.8908 Y0.0426
X-1.9094 Y0.0083
X-1.9274 Y-0.0263
X-1.9448 Y-0.0612
X-1.9615 Y-0.0964
X-1.9775 Y-0.132
X-1.993 Y-0.1678
X-2.0077 Y-0.2039
X-2.0219 Y-0.2402
X-2.0353 Y-0.2768
X-2.0481 Y-0.3136
X-2.0602 Y-0.3507
X-2.0717 Y-0.388
X-2.0824 Y-0.4254
X-2.0925 Y-0.4631
X-2.1019 Y-0.5009
X-2.1107 Y-0.5389
X-2.1187 Y-0.5771
X-2.126 Y-0.6154
X-2.1327 Y-0.6538
X-2.1387 Y-0.6923
X-2.1439 Y-0.731
X-2.1485 Y-0.7697
X-2.1523 Y-0.8085
X-2.1555 Y-0.8474
X-2.1579 Y-0.8863
X-2.1597 Y-0.9252
X-2.1607 Y-0.9642
X-2.1611 Y-1.0032
X-2.1607 Y-1.0422
X-2.1596 Y-1.0812
X-2.1578 Y-1.1201
X-2.1553 Y-1.159
X-2.1522 Y-1.1979
X-2.1483 Y-1.2367
X-2.1437 Y-1.2754
X-2.1384 Y-1.314
X-2.1324 Y-1.3525
X-2.1257 Y-1.391
X-2.1183 Y-1.4293
X-2.1103 Y-1.4674
X-2.1015 Y-1.5054
X-2.0921 Y-1.5432
X-2.082 Y-1.5809
X-2.0712 Y-1.6184
X-2.0597 Y-1.6556
X-2.0476 Y-1.6927
X-2.0348 Y-1.7295
X-2.0213 Y-1.7661
X-2.0072 Y-1.8024
X-1.9924 Y-1.8385
X-1.977 Y-1.8743
X-1.9609 Y-1.9098
X-1.9442 Y-1.9451
X-1.9268 Y-1.98
X-1.9089 Y-2.0146
X-1.8903 Y-2.0489
X-1.871 Y-2.0828
X-1.8512 Y-2.1164
X-1.8308 Y-2.1496
X-1.8098 Y-2.1824
X-1.7882 Y-2.2149
X-1.766 Y-2.2469
X-1.7432 Y-2.2786
X-1.7199 Y-2.3098
X-1.696 Y-2.3406
X-1.6716 Y-2.371
X-1.6466 Y-2.4009
X-1.621 Y-2.4304
X-1.595 Y-2.4594
X-1.5684 Y-2.488
X-1.5413 Y-2.516
X-1.5138 Y-2.5436
X-1.4857 Y-2.5706
X-1.4571 Y-2.5972
X-1.4281 Y-2.6232
X-1.3986 Y-2.6487
X-1.3686 Y-2.6736
X-1.3382 Y-2.698
X-1.3074 Y-2.7219
X-1.2761 Y-2.7452
X-1.2444 Y-2.7679
X-1.2123 Y-2.7901
X-1.1799 Y-2.8117
X-1.147 Y-2.8326
X-1.1138 Y-2.853
X-1.0802 Y-2.8728
X-1.0462 Y-2.892
X-1.0119 Y-2.9106
X-0.9773 Y-2.9285
X-0.9424 Y-2.9458
X-0.9071 Y-2.9625
X-0.8716 Y-2.9786
X-0.8358 Y-2.994
X-0.7997 Y-3.0087
X-0.7633 Y-3.0228
X-0.7267 Y-3.0363
X-0.6899 Y-3.049
X-0.6528 Y-3.0611
X-0.6156 Y-3.0726
X-0.5781 Y-3.0833
X-0.5404 Y-3.0934
X-0.5026 Y-3.1028
X-0.4646 Y-3.1116
X-0.4264 Y-3.1196
X-0.3881 Y-3.127
X-0.3497 Y-3.1336
X-0.3112 Y-3.1396
X-0.2726 Y-3.1449
X-0.2338 Y-3.1495
X-0.195 Y-3.1533
X-0.1562 Y-3.1565
X-0.1173 Y-3.159
X-0.0783 Y-3.1608
X-0.0393 Y-3.1619
X-0.0004 Y-3.1623
X0.0386 Y-3.1619
X0.0776 Y-3.1609
X0.1166 Y-3.1592
X0.1555 Y-3.1567
X0.1943 Y-3.1536
X0.2331 Y-3.1498
X0.2719 Y-3.1453
X0.3105 Y-3.14
X0.349 Y-3.1341
X0.3875 Y-3.1275
X0.4258 Y-3.1202
X0.4639 Y-3.1123
X0.502 Y-3.1036
X0.5398 Y-3.0943
X0.5775 Y-3.0843
X0.615 Y-3.0736
X0.6523 Y-3.0622
X0.6894 Y-3.0502
X0.7263 Y-3.0375
X0.7629 Y-3.0242
X0.7993 Y-3.0102
X0.8354 Y-2.9956
X0.8713 Y-2.9803
X0.9069 Y-2.9644
X0.9422 Y-2.9478
X0.9772 Y-2.9306
X1.0119 Y-2.9128
X1.0463 Y-2.8944
X1.0803 Y-2.8754
X1.114 Y-2.8557
X1.1473 Y-2.8355
X1.1803 Y-2.8147
X1.2129 Y-2.7933
X1.2451 Y-2.7713
X1.2769 Y-2.7488
X1.3083 Y-2.7257
X1.3393 Y-2.702
X1.3699 Y-2.6778
X1.4 Y-2.6531
X1.4297 Y-2.6278
X1.4589 Y-2.602
X1.4877 Y-2.5757
X1.516 Y-2.5489
X1.5438 Y-2.5216
X1.5712 Y-2.4938
X1.598 Y-2.4655
X1.6244 Y-2.4367
X1.6502 Y-2.4075
X1.6755 Y-2.3778
X1.7002 Y-2.3477
X1.7245 Y-2.3172
X1.7482 Y-2.2862
X1.7713 Y-2.2548
X1.7939 Y-2.223
X1.8159 Y-2.1909
X1.8373 Y-2.1583
X1.8582 Y-2.1254
X1.8785 Y-2.0921
X1.8982 Y-2.0584
X1.9173 Y-2.0244
X1.9358 Y-1.9901
X1.9537 Y-1.9554
X1.9709 Y-1.9205
X1.9876 Y-1.8852
X2.0036 Y-1.8497
X2.019 Y-1.8139
X2.0338 Y-1.7778
X2.0479 Y-1.7414
X2.0614 Y-1.7048
X2.0742 Y-1.668
X2.0863 Y-1.631
X2.0978 Y-1.5937
X2.1087 Y-1.5563
X2.1189 Y-1.5186
X2.1284 Y-1.4808
X2.1373 Y-1.4428
X2.1454 Y-1.4047
X2.1529 Y-1.3665
X2.1598 Y-1.3281
X2.1659 Y-1.2896
X2.1714 Y-1.251
X2.1762 Y-1.2123
X2.1803 Y-1.1735
X2.1837 Y-1.1347
X2.1865 Y-1.0958
X2.1885 Y-1.0568
X2.1899 Y-1.0179
X2.1905 Y-0.9789
Y-0.9399
X2.1898 Y-0.9009
X2.1884 Y-0.8619
X2.1863 Y-0.823
X2.1835 Y-0.7841
X2.18 Y-0.7453
X2.1759 Y-0.7065
X2.171 Y-0.6678
X2.1655 Y-0.6292
X2.1593 Y-0.5907
X2.1524 Y-0.5523
X2.1448 Y-0.5141
X2.1366 Y-0.476
X2.1276 Y-0.438
X2.1181 Y-0.4002
X2.1078 Y-0.3626
X2.0969 Y-0.3252
X2.0853 Y-0.288
X2.0731 Y-0.2509
X2.0602 Y-0.2141
X2.0466 Y-0.1776
X2.0325 Y-0.1413
X2.0176 Y-0.1052
X2.0022 Y-0.0694
X1.9861 Y-0.0339
X1.9694 Y0.0013
X1.952 Y0.0363
X1.934 Y0.0709
X1.9155 Y0.1051
X1.8963 Y0.1391
X1.8765 Y0.1727
X1.8561 Y0.2059
X1.8352 Y0.2388
X1.8137 Y0.2713
X1.7915 Y0.3034
X1.7689 Y0.3352
X1.7457 Y0.3665
X1.7219 Y0.3974
X1.6976 Y0.4279
X1.6727 Y0.4579
X1.6473 Y0.4875
X1.6214 Y0.5167
X1.595 Y0.5454
X1.5681 Y0.5736
X1.5407 Y0.6013
X1.5128 Y0.6286
X1.4845 Y0.6553
X1.4556 Y0.6815
X1.4263 Y0.7073
X1.3966 Y0.7325
X1.3664 Y0.7571
X1.3357 Y0.7813
X1.3047 Y0.8048
X1.2732 Y0.8279
X1.2414 Y0.8504
X1.2091 Y0.8723
X1.1765 Y0.8936
X1.1435 Y0.9144
X1.1101 Y0.9345
X1.0764 Y0.9541
X1.0423 Y0.9731
X1.008 Y0.9915
X0.9733 Y1.0093
X0.9383 Y1.0265
X0.9029 Y1.043
X0.8674 Y1.0589
X0.8315 Y1.0742
X0.7954 Y1.0889
X0.759 Y1.1029
X0.7223 Y1.1163
X0.6855 Y1.129
X0.6484 Y1.141
X0.6111 Y1.1525
X0.5737 Y1.1632
X0.536 Y1.1733
X0.4982 Y1.1827
X0.4602 Y1.1915
X0.422 Y1.1996
X0.3837 Y1.207
X0.3453 Y1.2138
X0.3068 Y1.2199
X0.2682 Y1.2253
X0.2295 Y1.23
X0.1907 Y1.234
X0.1519 Y1.2374
X0.113 Y1.2401
X0.0741 Y1.2421
X0.0351 Y1.2434
X-0.0039 Y1.2441
X-0.0429 Y1.244
X-0.0819 Y1.2433
X-0.1208 Y1.2419
X-0.1598 Y1.2398
X-0.1987 Y1.237
X-0.2375 Y1.2335
X-0.2763 Y1.2294
X-0.315 Y1.2246
X-0.3536 Y1.2191
X-0.3921 Y1.2129
X-0.4305 Y1.2061
X-0.4687 Y1.1985
X-0.5068 Y1.1904
X-0.5448 Y1.1815
X-0.5826 Y1.172
X-0.6203 Y1.1619
X-0.6577 Y1.151
X-0.695 Y1.1396
X-0.7321 Y1.1275
X-0.7689 Y1.1147
X-0.8055 Y1.1013
X-0.8419 Y1.0872
X-0.878 Y1.0726
X-0.9139 Y1.0573
X-0.9495 Y1.0413
X-0.9848 Y1.0248
X-1.0198 Y1.0076
X-1.0545 Y0.9899
X-1.0889 Y0.9715
X-1.1229 Y0.9525
X-1.1567 Y0.933
X-1.1901 Y0.9128
X-1.2231 Y0.8921
X-1.2557 Y0.8708
X-1.288 Y0.8489
X-1.3199 Y0.8265
X-1.3514 Y0.8035
X-1.3825 Y0.78
X-1.4132 Y0.756
X-1.4435 Y0.7314
X-1.4733 Y0.7063
X-1.5027 Y0.6807
X-1.5317 Y0.6546
X-1.5602 Y0.6279
X-1.5882 Y0.6008
X-1.6157 Y0.5732
X-1.6428 Y0.5452
X-1.6693 Y0.5166
X-1.6954 Y0.4876
X-1.721 Y0.4582
X-1.746 Y0.4283
X-1.7705 Y0.398
X-1.7945 Y0.3672
X-1.818 Y0.3361
X-1.8409 Y0.3045
X-1.8632 Y0.2726
X-1.885 Y0.2402
X-1.9062 Y0.2075
X-1.9269 Y0.1745
X-1.947 Y0.1411
X-1.9665 Y0.1073
X-1.9854 Y0.0732
X-2.0037 Y0.0388
X-2.0215 Y0.0041
X-2.0386 Y-0.031
X-2.0551 Y-0.0663
X-2.071 Y-0.1019
X-2.0863 Y-0.1378
X-2.101 Y-0.1739
X-2.115 Y-0.2103
X-2.1284 Y-0.2469
X-2.1411 Y-0.2837
X-2.1533 Y-0.3208
X-2.1647 Y-0.3581
X-2.1756 Y-0.3955
X-2.1857 Y-0.4332
X-2.1952 Y-0.471
X-2.2041 Y-0.5089
X-2.2123 Y-0.5471
X-2.2198 Y-0.5853
X-2.2267 Y-0.6237
X-2.2329 Y-0.6622
X-2.2385 Y-0.7008
X-2.2434 Y-0.7395
X-2.2476 Y-0.7782
X-2.2511 Y-0.8171
X-2.254 Y-0.8559
X-2.2562 Y-0.8949
X-2.2577 Y-0.9338
X-2.2586 Y-0.9728
X-2.2587 Y-1.0118
X-2.2582 Y-1.0508
X-2.2571 Y-1.0898
X-2.2552 Y-1.1287
X-2.2527 Y-1.1676
X-2.2495 Y-1.2065
X-2.2456 Y-1.2453
X-2.2411 Y-1.284
X-2.2359 Y-1.3226
X-2.23 Y-1.3612
X-2.2235 Y-1.3996
X-2.2163 Y-1.4379
X-2.2084 Y-1.4761
X-2.1999 Y-1.5142
X-2.1907 Y-1.5521
X-2.1808 Y-1.5898
X-2.1704 Y-1.6274
X-2.1592 Y-1.6647
X-2.1475 Y-1.7019
X-2.135 Y-1.7389
X-2.122 Y-1.7756
X-2.1083 Y-1.8121
X-2.094 Y-1.8484
X-2.0791 Y-1.8844
X-2.0635 Y-1.9202
X-2.0474 Y-1.9556
X-2.0306 Y-1.9908
X-2.0132 Y-2.0257
X-1.9952 Y-2.0603
X-1.9766 Y-2.0946
X-1.9575 Y-2.1286
X-1.9377 Y-2.1622
X-1.9174 Y-2.1954
X-1.8965 Y-2.2284
X-1.875 Y-2.2609
X-1.853 Y-2.2931
X-1.8304 Y-2.3249
X-1.8072 Y-2.3562
X-1.7836 Y-2.3872
X-1.7594 Y-2.4178
X-1.7347 Y-2.448
X-1.7094 Y-2.4777
X-1.6837 Y-2.507
X-1.6574 Y-2.5358
X-1.6307 Y-2.5642
X-1.6035 Y-2.5921
X-1.5758 Y-2.6195
X-1.5476 Y-2.6465
X-1.519 Y-2.673
X-1.4899 Y-2.6989
X-1.4604 Y-2.7244
X-1.4304 Y-2.7493
X-1.4 Y-2.7738
X-1.3692 Y-2.7977
X-1.338 Y-2.821
X-1.3064 Y-2.8438
X-1.2743 Y-2.8661
X-1.242 Y-2.8878
X-1.2092 Y-2.9089
X-1.1761 Y-2.9295
X-1.1426 Y-2.9495
X-1.1088 Y-2.969
X-1.0747 Y-2.9878
X-1.0402 Y-3.006
X-1.0054 Y-3.0237
X-0.9704 Y-3.0408
X-0.935 Y-3.0572
X-0.8994 Y-3.073
X-0.8635 Y-3.0883
X-0.8273 Y-3.1029
X-0.7909 Y-3.1168
X-0.7543 Y-3.1302
X-0.7174 Y-3.1429
X-0.6804 Y-3.1549
X-0.6431 Y-3.1664
X-0.6056 Y-3.1771
X-0.568 Y-3.1873
X-0.5301 Y-3.1967
X-0.4922 Y-3.2056
X-0.454 Y-3.2137
X-0.4158 Y-3.2212
X-0.3774 Y-3.2281
X-0.3389 Y-3.2343
X-0.3003 Y-3.2398
X-0.2616 Y-3.2446
X-0.2228 Y-3.2488
X-0.184 Y-3.2523
X-0.1451 Y-3.2552
X-0.1062 Y-3.2574
X-0.0672 Y-3.2589
X-0.0283 Y-3.2598
X0.0107 Y-3.2599
X0.0497 Y-3.2594
X0.0887 Y-3.2583
X0.1276 Y-3.2564
X0.1666 Y-3.2539
X0.2054 Y-3.2507
X0.2442 Y-3.2469
X0.2829 Y-3.2424
X0.3216 Y-3.2372
X0.3601 Y-3.2313
X0.3986 Y-3.2248
X0.4369 Y-3.2177
X0.4751 Y-3.2098
X0.5132 Y-3.2014
X0.5511 Y-3.1922
X0.5888 Y-3.1824
X0.6264 Y-3.172
X0.6638 Y-3.161
X0.701 Y-3.1493
X0.738 Y-3.1369
X0.7747 Y-3.124
X0.8113 Y-3.1104
X0.8476 Y-3.0962
X0.8836 Y-3.0813
X0.9194 Y-3.0659
X0.955 Y-3.0498
X0.9902 Y-3.0332
X1.0252 Y-3.0159
X1.0598 Y-2.998
X1.0942 Y-2.9796
X1.1282 Y-2.9606
X1.1619 Y-2.941
X1.1953 Y-2.9208
X1.2283 Y-2.9
X1.261 Y-2.8787
X1.2932 Y-2.8569
X1.3252 Y-2.8345
X1.3567 Y-2.8115
X1.3878 Y-2.788
X1.4185 Y-2.764
X1.4489 Y-2.7395
X1.4787 Y-2.7145
X1.5082 Y-2.6889
X1.5372 Y-2.6629
X1.5658 Y-2.6364
X1.594 Y-2.6094
X1.6216 Y-2.5819
X1.6488 Y-2.554
X1.6756 Y-2.5256
X1.7018 Y-2.4968
X1.7275 Y-2.4675
X1.7528 Y-2.4378
X1.7775 Y-2.4076
X1.8018 Y-2.3771
X1.8255 Y-2.3461
X1.8486 Y-2.3148
X1.8713 Y-2.283
X1.8934 Y-2.2509
X1.9149 Y-2.2184
X1.9359 Y-2.1855
X1.9563 Y-2.1523
X1.9762 Y-2.1188
X1.9955 Y-2.0849
X2.0142 Y-2.0507
X2.0324 Y-2.0162
X2.0499 Y-1.9814
X2.0669 Y-1.9463
X2.0833 Y-1.9109
X2.0991 Y-1.8752
X2.1143 Y-1.8393
X2.1288 Y-1.8032
X2.1428 Y-1.7667
X2.1561 Y-1.7301
X2.1688 Y-1.6932
X2.1809 Y-1.6562
X2.1924 Y-1.6189
X2.2032 Y-1.5814
X2.2134 Y-1.5438
X2.2229 Y-1.506
X2.2318 Y-1.468
X2.2401 Y-1.4299
X2.2477 Y-1.3917
X2.2547 Y-1.3533
X2.261 Y-1.3149
X2.2666 Y-1.2763
X2.2716 Y-1.2376
X2.276 Y-1.1989
X2.2797 Y-1.16
X2.2827 Y-1.1212
X2.2851 Y-1.0823
X2.2868 Y-1.0433
X2.2879 Y-1.0043
X2.2883 Y-0.9653
X2.2881 Y-0.9264
X2.2872 Y-0.8874
X2.2856 Y-0.8484
X2.2834 Y-0.8095
X2.2805 Y-0.7706
X2.2769 Y-0.7318
X2.2727 Y-0.693
X2.2679 Y-0.6543
X2.2623 Y-0.6157
X2.2562 Y-0.5772
X2.2493 Y-0.5388
X2.2418 Y-0.5006
X2.2337 Y-0.4624
X2.2249 Y-0.4244
X2.2155 Y-0.3866
X2.2055 Y-0.3489
X2.1948 Y-0.3114
X2.1834 Y-0.2741
X2.1715 Y-0.237
X2.1589 Y-0.2001
X2.1457 Y-0.1634
X2.1319 Y-0.127
X2.1174 Y-0.0908
X2.1024 Y-0.0548
X2.0867 Y-0.0191
X2.0705 Y0.0164
X2.0536 Y0.0515
X2.0362 Y0.0864
X2.0181 Y0.1209
X1.9995 Y0.1552
X1.9803 Y0.1891
X1.9605 Y0.2227
X1.9402 Y0.256
X1.9193 Y0.2889
X1.8978 Y0.3215
X1.8758 Y0.3536
X1.8532 Y0.3854
X1.8301 Y0.4169
X1.8065 Y0.4479
X1.7823 Y0.4785
X1.7577 Y0.5087
X1.7325 Y0.5385
X1.7069 Y0.5678
X1.6807 Y0.5967
X1.654 Y0.6252
X1.6269 Y0.6532
X1.5993 Y0.6808
X1.5713 Y0.7079
X1.5428 Y0.7345
X1.5138 Y0.7606
X1.4844 Y0.7862
X1.4546 Y0.8113
X1.4244 Y0.8359
X1.3937 Y0.86
X1.3627 Y0.8836
X1.3312 Y0.9066
X1.2994 Y0.9291
X1.2672 Y0.9511
X1.2346 Y0.9725
X1.2016 Y0.9934
X1.1683 Y1.0137
X1.1347 Y1.0334
X1.1007 Y1.0526
X1.0665 Y1.0712
X1.0319 Y1.0892
X0.997 Y1.1066
X0.9618 Y1.1234
X0.9264 Y1.1397
X0.8907 Y1.1553
X0.8547 Y1.1703
X0.8185 Y1.1848
X0.782 Y1.1986
X0.7453 Y1.2118
X0.7084 Y1.2244
X0.6713 Y1.2363
X0.634 Y1.2476
X0.5965 Y1.2583
X0.5588 Y1.2684
X0.521 Y1.2778
X0.483 Y1.2866
X0.4449 Y1.2948
X0.4066 Y1.3022
X0.3682 Y1.3091
X0.3297 Y1.3153
X0.2911 Y1.3209
X0.2525 Y1.3258
X0.2137 Y1.33
X0.1749 Y1.3336
X0.136 Y1.3366
X0.0971 Y1.3389
X0.0581 Y1.3405
X0.0191 Y1.3415
X-0.0198 Y1.3419
X-0.0588 Y1.3416
X-0.0978 Y1.3406
X-0.1368 Y1.339
X-0.1757 Y1.3367
X-0.2146 Y1.3338
X-0.2534 Y1.3302
X-0.2922 Y1.326
X-0.3308 Y1.3211
X-0.3694 Y1.3156
X-0.4079 Y1.3094
X-0.4463 Y1.3026
X-0.4846 Y1.2951
X-0.5227 Y1.287
X-0.5607 Y1.2783
X-0.5986 Y1.2689
X-0.6363 Y1.2589
X-0.6738 Y1.2483
X-0.7111 Y1.237
X-0.7482 Y1.2251
X-0.7852 Y1.2126
X-0.8219 Y1.1995
X-0.8584 Y1.1858
X-0.8946 Y1.1714
X-0.9307 Y1.1565
X-0.9664 Y1.1409
X-1.0019 Y1.1248
X-1.0371 Y1.1081
X-1.0721 Y1.0908
X-1.1067 Y1.0729
X-1.1411 Y1.0544
X-1.1751 Y1.0354
X-1.2088 Y1.0158
X-1.2422 Y0.9956
X-1.2752 Y0.9749
X-1.3079 Y0.9536
X-1.3402 Y0.9318
X-1.3721 Y0.9094
X-1.4037 Y0.8866
X-1.4349 Y0.8631
X-1.4657 Y0.8392
X-1.4961 Y0.8148
X-1.526 Y0.7899
X-1.5556 Y0.7644
X-1.5847 Y0.7385
X-1.6134 Y0.7121
X-1.6417 Y0.6852
X-1.6695 Y0.6579
X-1.6968 Y0.6301
X-1.7237 Y0.6018
X-1.7501 Y0.5732
X-1.776 Y0.544
X-1.8014 Y0.5145
X-1.8264 Y0.4845
X-1.8508 Y0.4541
X-1.8747 Y0.4233
X-1.8981 Y0.3921
X-1.921 Y0.3606
X-1.9434 Y0.3286
X-1.9652 Y0.2963
X-1.9865 Y0.2637
X-2.0072 Y0.2306
X-2.0274 Y0.1973
X-2.047 Y0.1636
X-2.0661 Y0.1296
X-2.0846 Y0.0952
X-2.1025 Y0.0606
X-2.1198 Y0.0257
X-2.1366 Y-0.0095
X-2.1528 Y-0.045
X-2.1684 Y-0.0807
X-2.1834 Y-0.1167
X-2.1978 Y-0.153
X-2.2115 Y-0.1894
X-2.2247 Y-0.2261
X-2.2373 Y-0.263
X-2.2493 Y-0.3002
X-2.2606 Y-0.3375
X-2.2713 Y-0.3749
X-2.2814 Y-0.4126
X-2.2909 Y-0.4504
X-2.2997 Y-0.4884
X-2.3079 Y-0.5265
X-2.3155 Y-0.5648
X-2.3224 Y-0.6031
X-2.3287 Y-0.6416
X-2.3344 Y-0.6802
X-2.3394 Y-0.7189
X-2.3438 Y-0.7576
X-2.3475 Y-0.7964
X-2.3506 Y-0.8353
X-2.353 Y-0.8742
X-2.3548 Y-0.9132
X-2.356 Y-0.9521
X-2.3565 Y-0.9911
X-2.3564 Y-1.0301
X-2.3556 Y-1.0691
X-2.3542 Y-1.1081
X-2.3521 Y-1.147
X-2.3494 Y-1.1859
X-2.346 Y-1.2247
X-2.342 Y-1.2635
X-2.3374 Y-1.3022
X-2.3321 Y-1.3409
X-2.3261 Y-1.3794
X-2.3196 Y-1.4178
X-2.3124 Y-1.4561
X-2.3045 Y-1.4943
X-2.2961 Y-1.5324
X-2.287 Y-1.5703
X-2.2772 Y-1.6081
X-2.2669 Y-1.6457
X-2.2559 Y-1.6831
X-2.2443 Y-1.7203
X-2.2321 Y-1.7573
X-2.2193 Y-1.7942
X-2.2059 Y-1.8308
X-2.1918 Y-1.8671
X-2.1772 Y-1.9033
X-2.162 Y-1.9392
X-2.1462 Y-1.9748
X-2.1298 Y-2.0102
X-2.1128 Y-2.0453
X-2.0952 Y-2.0801
X-2.0771 Y-2.1146
X-2.0584 Y-2.1488
X-2.0391 Y-2.1827
X-2.0193 Y-2.2163
X-1.9989 Y-2.2495
X-1.978 Y-2.2824
X-1.9565 Y-2.315
X-1.9345 Y-2.3472
X-1.912 Y-2.379
X-1.8889 Y-2.4104
X-1.8653 Y-2.4415
X-1.8412 Y-2.4721
X-1.8166 Y-2.5024
X-1.7915 Y-2.5322
X-1.7659 Y-2.5617
X-1.7399 Y-2.5907
X-1.7133 Y-2.6192
X-1.6863 Y-2.6473
X-1.6589 Y-2.675
X-1.6309 Y-2.7022
X-1.6026 Y-2.729
X-1.5738 Y-2.7552
X-1.5445 Y-2.781
X-1.5149 Y-2.8063
X-1.4848 Y-2.8312
X-1.4543 Y-2.8555
X-1.4234 Y-2.8793
X-1.3921 Y-2.9026
X-1.3605 Y-2.9253
X-1.3285 Y-2.9476
X-1.2961 Y-2.9693
X-1.2633 Y-2.9905
X-1.2302 Y-3.0111
X-1.1968 Y-3.0312
X-1.1631 Y-3.0507
X-1.129 Y-3.0696
X-1.0946 Y-3.088
X-1.0599 Y-3.1058
X-1.0249 Y-3.1231
X-0.9897 Y-3.1397
X-0.9542 Y-3.1558
X-0.9184 Y-3.1713
X-0.8824 Y-3.1862
X-0.8461 Y-3.2005
X-0.8096 Y-3.2142
X-0.7729 Y-3.2273
X-0.7359 Y-3.2398
X-0.6988 Y-3.2516
X-0.6614 Y-3.2629
X-0.6239 Y-3.2735
X-0.5863 Y-3.2835
X-0.5484 Y-3.2929
X-0.5104 Y-3.3017
X-0.4723 Y-3.3098
X-0.434 Y-3.3174
X-0.3956 Y-3.3242
X-0.3572 Y-3.3305
X-0.3186 Y-3.336
X-0.2799 Y-3.341
X-0.2411 Y-3.3453
X-0.2023 Y-3.349
X-0.1634 Y-3.352
X-0.1245 Y-3.3544
X-0.0856 Y-3.3561
X-0.0466 Y-3.3573
X-0.0076 Y-3.3577
X0.0314 Y-3.3575
X0.0704 Y-3.3567
X0.1093 Y-3.3553
X0.1483 Y-3.3532
X0.1871 Y-3.3504
X0.226 Y-3.347
X0.2648 Y-3.343
X0.3035 Y-3.3383
X0.3421 Y-3.333
X0.3806 Y-3.3271
X0.4191 Y-3.3205
X0.4574 Y-3.3133
X0.4956 Y-3.3055
X0.5337 Y-3.297
X0.5716 Y-3.288
X0.6093 Y-3.2782
X0.6469 Y-3.2679
X0.6844 Y-3.257
X0.7216 Y-3.2454
X0.7586 Y-3.2332
X0.7955 Y-3.2204
X0.8321 Y-3.2071
X0.8685 Y-3.1931
X0.9047 Y-3.1785
X0.9406 Y-3.1634
X0.9763 Y-3.1476
X1.0117 Y-3.1313
X1.0468 Y-3.1144
X1.0817 Y-3.0969
X1.1162 Y-3.0789
X1.1505 Y-3.0603
X1.1844 Y-3.0411
X1.2181 Y-3.0214
X1.2514 Y-3.0011
X1.2844 Y-2.9803
X1.317 Y-2.959
X1.3493 Y-2.9371
X1.3812 Y-2.9147
X1.4127 Y-2.8918
X1.4439 Y-2.8683
X1.4747 Y-2.8444
X1.5051 Y-2.82
X1.535 Y-2.795
X1.5646 Y-2.7696
X1.5938 Y-2.7437
X1.6225 Y-2.7174
X1.6508 Y-2.6906
X1.6787 Y-2.6633
X1.7061 Y-2.6355
X1.733 Y-2.6074
X1.7595 Y-2.5788
X1.7856 Y-2.5497
X1.8111 Y-2.5203
X1.8362 Y-2.4904
X1.8608 Y-2.4602
X1.8849 Y-2.4295
X1.9085 Y-2.3985
X1.9315 Y-2.3671
X1.9541 Y-2.3353
X1.9762 Y-2.3031
X1.9977 Y-2.2706
X2.0187 Y-2.2377
X2.0391 Y-2.2045
X2.0591 Y-2.171
X2.0784 Y-2.1372
X2.0972 Y-2.103
X2.1155 Y-2.0686
X2.1332 Y-2.0338
X2.1503 Y-1.9988
X2.1669 Y-1.9635
X2.1828 Y-1.9279
X2.1982 Y-1.8921
X2.2131 Y-1.856
X2.2273 Y-1.8198
X2.241 Y-1.7832
X2.254 Y-1.7465
X2.2665 Y-1.7095
X2.2783 Y-1.6724
X2.2896 Y-1.6351
X2.3002 Y-1.5976
X2.3103 Y-1.5599
X2.3197 Y-1.522
X2.3285 Y-1.4841
X2.3367 Y-1.4459
X2.3443 Y-1.4077
X2.3512 Y-1.3693
X2.3575 Y-1.3309
X2.3632 Y-1.2923
X2.3683 Y-1.2536
X2.3727 Y-1.2149
X2.3765 Y-1.1761
X2.3797 Y-1.1372
X2.3822 Y-1.0983
X2.3841 Y-1.0594
X2.3854 Y-1.0204
X2.3861 Y-0.9814
Y-0.9424
X2.3855 Y-0.9034
X2.3842 Y-0.8645
X2.3823 Y-0.8255
X2.3798 Y-0.7866
X2.3767 Y-0.7477
X2.3729 Y-0.7089
X2.3685 Y-0.6702
X2.3635 Y-0.6315
X2.3578 Y-0.5929
X2.3515 Y-0.5545
X2.3446 Y-0.5161
X2.3371 Y-0.4778
X2.3289 Y-0.4397
X2.3201 Y-0.4017
X2.3107 Y-0.3639
X2.3007 Y-0.3262
X2.2901 Y-0.2887
X2.2789 Y-0.2513
X2.267 Y-0.2142
X2.2546 Y-0.1773
X2.2415 Y-0.1405
X2.2279 Y-0.104
X2.2136 Y-0.0677
X2.1988 Y-0.0316
X2.1834 Y0.0042
X2.1674 Y0.0398
X2.1509 Y0.0751
X2.1338 Y0.1101
X2.1161 Y0.1448
X2.0978 Y0.1793
X2.079 Y0.2134
X2.0596 Y0.2473
X2.0397 Y0.2808
X2.0193 Y0.314
X1.9983 Y0.3469
X1.9767 Y0.3794
X1.9547 Y0.4115
X1.9321 Y0.4433
X1.909 Y0.4747
X1.8854 Y0.5058
X1.8613 Y0.5364
X1.8367 Y0.5667
X1.8116 Y0.5965
X1.7861 Y0.626
X1.76 Y0.655
X1.7335 Y0.6836
X1.7066 Y0.7117
X1.6791 Y0.7395
X1.6513 Y0.7667
X1.623 Y0.7935
X1.5942 Y0.8199
X1.5651 Y0.8458
X1.5355 Y0.8712
X1.5055 Y0.8961
X1.4751 Y0.9205
X1.4443 Y0.9445
X1.4132 Y0.9679
X1.3816 Y0.9908
X1.3497 Y1.0133
X1.3175 Y1.0351
X1.2849 Y1.0565
X1.2519 Y1.0773
X1.2186 Y1.0976
X1.185 Y1.1174
X1.1511 Y1.1366
X1.1168 Y1.1552
X1.0823 Y1.1733
X1.0474 Y1.1909
X1.0123 Y1.2078
X0.977 Y1.2242
X0.9413 Y1.24
X0.9054 Y1.2553
X0.8693 Y1.2699
X0.8329 Y1.284
X0.7963 Y1.2975
X0.7595 Y1.3104
X0.7225 Y1.3227
X0.6853 Y1.3344
X0.648 Y1.3455
X0.6104 Y1.3559
X0.5727 Y1.3658
X0.5348 Y1.3751
X0.4968 Y1.3838
X0.4587 Y1.3918
X0.4204 Y1.3992
X0.382 Y1.406
X0.3435 Y1.4122
X0.3049 Y1.4178
X0.2662 Y1.4227
X0.2275 Y1.427
X0.1886 Y1.4307
X0.1498 Y1.4337
X0.1109 Y1.4362
X0.0719 Y1.438
X0.0329 Y1.4391
X-0.006 Y1.4397
X-0.045 Y1.4396
X-0.084 Y1.4389
X-0.123 Y1.4376
X-0.1619 Y1.4356
X-0.2008 Y1.433
X-0.2397 Y1.4298
X-0.2785 Y1.426
X-0.3172 Y1.4215
X-0.3559 Y1.4164
X-0.3945 Y1.4107
X-0.4329 Y1.4044
X-0.4713 Y1.3975
X-0.5096 Y1.3899
X-0.5477 Y1.3817
X-0.5857 Y1.3729
X-0.6235 Y1.3636
X-0.6612 Y1.3536
X-0.6987 Y1.343
X-0.7361 Y1.3317
X-0.7732 Y1.3199
X-0.8102 Y1.3075
X-0.8469 Y1.2945
X-0.8835 Y1.2809
X-0.9198 Y1.2668
X-0.9559 Y1.252
X-0.9918 Y1.2367
X-1.0274 Y1.2208
X-1.0627 Y1.2043
X-1.0978 Y1.1873
X-1.1326 Y1.1697
X-1.1671 Y1.1516
X-1.2013 Y1.1329
X-1.2352 Y1.1137
X-1.2688 Y1.0939
X-1.3021 Y1.0736
X-1.3351 Y1.0527
X-1.3677 Y1.0313
X-1.3999 Y1.0095
X-1.4319 Y0.9871
X-1.4634 Y0.9641
X-1.4946 Y0.9407
X-1.5254 Y0.9168
X-1.5558 Y0.8924
X-1.5858 Y0.8675
X-1.6154 Y0.8422
X-1.6446 Y0.8163
X-1.6734 Y0.79
X-1.7018 Y0.7633
X-1.7297 Y0.736
X-1.7572 Y0.7084
X-1.7842 Y0.6803
X-1.8108 Y0.6518
X-1.837 Y0.6229
X-1.8626 Y0.5935
X-1.8878 Y0.5638
X-1.9125 Y0.5336
X-1.9368 Y0.5031
X-1.9605 Y0.4721
X-1.9838 Y0.4408
X-2.0065 Y0.4092
X-2.0288 Y0.3772
X-2.0505 Y0.3448
X-2.0717 Y0.3121
X-2.0924 Y0.279
X-2.1125 Y0.2456
X-2.1322 Y0.2119
X-2.1512 Y0.1779
X-2.1698 Y0.1436
X-2.1877 Y0.109
X-2.2051 Y0.0741
X-2.222 Y0.039
X-2.2383 Y0.0035
X-2.254 Y-0.0321
X-2.2692 Y-0.0681
X-2.2838 Y-0.1042
X-2.2978 Y-0.1406
X-2.3112 Y-0.1772
X-2.3241 Y-0.214
X-2.3363 Y-0.251
X-2.348 Y-0.2882
X-2.3591 Y-0.3256
X-2.3696 Y-0.3632
X-2.3794 Y-0.4009
X-2.3887 Y-0.4388
X-2.3974 Y-0.4768
X-2.4055 Y-0.5149
X-2.4129 Y-0.5532
X-2.4198 Y-0.5916
X-2.426 Y-0.6301
X-2.4316 Y-0.6687
X-2.4366 Y-0.7073
X-2.441 Y-0.7461
X-2.4448 Y-0.7849
X-2.4479 Y-0.8237
X-2.4505 Y-0.8626
X-2.4524 Y-0.9016
X-2.4537 Y-0.9406
X-2.4543 Y-0.9795
X-2.4544 Y-1.0185
X-2.4538 Y-1.0575
X-2.4526 Y-1.0965
X-2.4508 Y-1.1354
X-2.4484 Y-1.1744
X-2.4453 Y-1.2132
X-2.4417 Y-1.252
X-2.4374 Y-1.2908
X-2.4325 Y-1.3295
X-2.427 Y-1.3681
X-2.4208 Y-1.4066
X-2.4141 Y-1.445
X-2.4068 Y-1.4833
X-2.3988 Y-1.5215
X-2.3903 Y-1.5595
X-2.3811 Y-1.5974
X-2.3713 Y-1.6351
X-2.361 Y-1.6727
X-2.35 Y-1.7102
X-2.3384 Y-1.7474
X-2.3263 Y-1.7844
X-2.3136 Y-1.8213
X-2.3002 Y-1.8579
X-2.2863 Y-1.8944
X-2.2718 Y-1.9306
X-2.2568 Y-1.9665
X-2.2412 Y-2.0023
X-2.225 Y-2.0377
X-2.2082 Y-2.0729
X-2.1909 Y-2.1079
X-2.1731 Y-2.1425
X-2.1547 Y-2.1769
X-2.1357 Y-2.211
X-2.1162 Y-2.2448
X-2.0962 Y-2.2782
X-2.0757 Y-2.3114
X-2.0546 Y-2.3442
X-2.033 Y-2.3766
X-2.0109 Y-2.4087
X-1.9883 Y-2.4405
X-1.9652 Y-2.4719
X-1.9415 Y-2.5029
X-1.9174 Y-2.5336
X-1.8929 Y-2.5638
X-1.8678 Y-2.5937
X-1.8423 Y-2.6232
X-1.8162 Y-2.6522
X-1.7898 Y-2.6809
X-1.7629 Y-2.7091
X-1.7355 Y-2.7368
X-1.7077 Y-2.7642
X-1.6795 Y-2.7911
X-1.6508 Y-2.8175
X-1.6218 Y-2.8435
X-1.5923 Y-2.869
X-1.5624 Y-2.8941
X-1.5321 Y-2.9187
X-1.5015 Y-2.9428
X-1.4704 Y-2.9664
X-1.439 Y-2.9895
X-1.4073 Y-3.0121
X-1.3751 Y-3.0342
X-1.3427 Y-3.0558
X-1.3099 Y-3.0768
X-1.2767 Y-3.0974
X-1.2433 Y-3.1174
X-1.2095 Y-3.1369
X-1.1754 Y-3.1558
X-1.141 Y-3.1742
X-1.1064 Y-3.1921
X-1.0714 Y-3.2094
X-1.0362 Y-3.2261
X-1.0007 Y-3.2423
X-0.965 Y-3.2579
X-0.929 Y-3.2729
X-0.8928 Y-3.2874
X-0.8564 Y-3.3013
X-0.8197 Y-3.3146
X-0.7829 Y-3.3273
X-0.7458 Y-3.3394
X-0.7086 Y-3.351
X-0.6712 Y-3.3619
X-0.6336 Y-3.3723
X-0.5958 Y-3.3821
X-0.5579 Y-3.3913
X-0.5199 Y-3.3998
X-0.4817 Y-3.4078
X-0.4434 Y-3.4151
X-0.405 Y-3.4219
X-0.3665 Y-3.428
X-0.3279 Y-3.4336
X-0.2892 Y-3.4385
X-0.2505 Y-3.4428
X-0.2117 Y-3.4465
X-0.1728 Y-3.4495
X-0.1339 Y-3.452
X-0.0949 Y-3.4538
X-0.056 Y-3.455
X-0.017 Y-3.4556
X0.022
X0.061 Y-3.4549
X0.1 Y-3.4536
X0.1389 Y-3.4518
X0.1778 Y-3.4493
X0.2167 Y-3.4462
X0.2555 Y-3.4424
X0.2942 Y-3.4381
X0.3329 Y-3.4332
X0.3715 Y-3.4276
X0.41 Y-3.4215
X0.4484 Y-3.4147
X0.4867 Y-3.4073
X0.5249 Y-3.3993
X0.5629 Y-3.3907
X0.6008 Y-3.3816
X0.6385 Y-3.3718
X0.6761 Y-3.3614
X0.7135 Y-3.3504
X0.7508 Y-3.3389
X0.7878 Y-3.3267
X0.8247 Y-3.314
X0.8613 Y-3.3007
X0.8978 Y-3.2868
X0.934 Y-3.2723
X0.97 Y-3.2573
X1.0057 Y-3.2417
X1.0412 Y-3.2256
X1.0764 Y-3.2089
X1.1114 Y-3.1916
X1.1461 Y-3.1738
X1.1805 Y-3.1555
X1.2146 Y-3.1366
X1.2484 Y-3.1172
X1.2819 Y-3.0972
X1.3151 Y-3.0767
X1.3479 Y-3.0558
X1.3805 Y-3.0343
X1.4127 Y-3.0123
X1.4445 Y-2.9898
X1.476 Y-2.9668
X1.5071 Y-2.9433
X1.5379 Y-2.9193
X1.5682 Y-2.8948
X1.5982 Y-2.8699
X1.6278 Y-2.8445
X1.657 Y-2.8186
X1.6857 Y-2.7923
X1.7141 Y-2.7656
X1.742 Y-2.7384
X1.7695 Y-2.7107
X1.7966 Y-2.6827
X1.8232 Y-2.6542
X1.8494 Y-2.6253
X1.8752 Y-2.596
X1.9004 Y-2.5663
X1.9252 Y-2.5362
X1.9496 Y-2.5058
X1.9734 Y-2.4749
X1.9968 Y-2.4437
X2.0197 Y-2.4121
X2.0421 Y-2.3802
X2.064 Y-2.348
X2.0853 Y-2.3154
X2.1062 Y-2.2824
X2.1266 Y-2.2492
X2.1464 Y-2.2156
X2.1657 Y-2.1817
X2.1845 Y-2.1475
X2.2027 Y-2.1131
X2.2204 Y-2.0783
X2.2376 Y-2.0433
X2.2542 Y-2.0081
X2.2702 Y-1.9725
X2.2857 Y-1.9367
X2.3007 Y-1.9007
X2.315 Y-1.8645
X2.3288 Y-1.828
X2.3421 Y-1.7913
X2.3547 Y-1.7545
X2.3668 Y-1.7174
X2.3783 Y-1.6801
X2.3893 Y-1.6427
X2.3996 Y-1.6051
X2.4094 Y-1.5674
X2.4185 Y-1.5295
X2.4271 Y-1.4914
X2.4351 Y-1.4533
X2.4425 Y-1.415
X2.4493 Y-1.3766
X2.4555 Y-1.3381
X2.4611 Y-1.2995
X2.466 Y-1.2608
X2.4704 Y-1.2221
X2.4742 Y-1.1833
X2.4774 Y-1.1444
X2.4799 Y-1.1055
X2.4819 Y-1.0666
X2.4832 Y-1.0276
X2.484 Y-0.9886
X2.4841 Y-0.9496
X2.4836 Y-0.9106
X2.4825 Y-0.8717
X2.4808 Y-0.8327
X2.4785 Y-0.7938
X2.4756 Y-0.7549
X2.4721 Y-0.7161
X2.4679 Y-0.6773
X2.4632 Y-0.6386
X2.4579 Y-0.6
X2.4519 Y-0.5614
X2.4454 Y-0.523
X2.4383 Y-0.4847
X2.4305 Y-0.4465
X2.4222 Y-0.4084
X2.4133 Y-0.3704
X2.4038 Y-0.3326
X2.3937 Y-0.2949
X2.383 Y-0.2574
X2.3717 Y-0.2201
X2.3598 Y-0.183
X2.3474 Y-0.146
X2.3344 Y-0.1093
X2.3208 Y-0.0727
X2.3066 Y-0.0364
X2.2919 Y-0.0003
X2.2766 Y0.0356
X2.2608 Y0.0712
X2.2444 Y0.1066
X2.2274 Y0.1417
X2.2099 Y0.1765
X2.1919 Y0.2111
X2.1733 Y0.2454
X2.1542 Y0.2794
X2.1345 Y0.313
X2.1144 Y0.3464
X2.0937 Y0.3795
X2.0725 Y0.4122
X2.0508 Y0.4446
X2.0286 Y0.4766
X2.0059 Y0.5083
X1.9827 Y0.5397
X1.959 Y0.5707
X1.9349 Y0.6013
X1.9102 Y0.6315
X1.8851 Y0.6613
X1.8595 Y0.6908
X1.8335 Y0.7198
X1.807 Y0.7484
X1.7801 Y0.7766
X1.7527 Y0.8044
X1.725 Y0.8317
X1.6967 Y0.8586
X1.6681 Y0.8851
X1.6391 Y0.9111
X1.6096 Y0.9367
X1.5798 Y0.9618
X1.5496 Y0.9864
X1.519 Y1.0106
X1.488 Y1.0343
X1.4566 Y1.0575
X1.4249 Y1.0802
X1.3929 Y1.1024
X1.3605 Y1.1241
X1.3278 Y1.1453
X1.2947 Y1.166
X1.2614 Y1.1861
X1.2277 Y1.2058
X1.1937 Y1.2249
X1.1594 Y1.2435
X1.1249 Y1.2616
X1.09 Y1.2791
X1.0549 Y1.296
X1.0196 Y1.3125
X0.9839 Y1.3283
X0.9481 Y1.3436
X0.912 Y1.3584
X0.8757 Y1.3725
X0.8391 Y1.3862
X0.8024 Y1.3992
X0.7655 Y1.4117
X0.7283 Y1.4236
X0.691 Y1.4349
X0.6535 Y1.4457
X0.6159 Y1.4558
X0.5781 Y1.4654
X0.5401 Y1.4744
X0.5021 Y1.4828
X0.4639 Y1.4906
X0.4256 Y1.4978
X0.3871 Y1.5044
X0.3486 Y1.5105
X0.31 Y1.5159
X0.2713 Y1.5207
X0.2325 Y1.5249
X0.1937 Y1.5286
X0.1549 Y1.5316
X0.1159 Y1.534
X0.077 Y1.5358
X0.038 Y1.537
X-0.001 Y1.5376
X-0.04
X-0.0789 Y1.537
X-0.1179 Y1.5358
X-0.1569 Y1.534
X-0.1958 Y1.5316
X-0.2347 Y1.5286
X-0.2735 Y1.5249
X-0.3122 Y1.5207
X-0.3509 Y1.5159
X-0.3896 Y1.5105
X-0.4281 Y1.5045
X-0.4665 Y1.4979
X-0.5048 Y1.4907
X-0.543 Y1.4829
X-0.5811 Y1.4746
X-0.6191 Y1.4656
X-0.6569 Y1.4561
X-0.6945 Y1.446
X-0.732 Y1.4353
X-0.7693 Y1.424
X-0.8065 Y1.4121
X-0.8434 Y1.3997
X-0.8802 Y1.3867
X-0.9168 Y1.3731
X-0.9531 Y1.359
X-0.9892 Y1.3443
X-1.0251 Y1.3291
X-1.0607 Y1.3133
X-1.0961 Y1.2969
X-1.1313 Y1.28
X-1.1662 Y1.2626
X-1.2008 Y1.2446
X-1.2351 Y1.2261
X-1.2691 Y1.2071
X-1.3029 Y1.1876
X-1.3363 Y1.1675
X-1.3694 Y1.1469
X-1.4022 Y1.1259
X-1.4347 Y1.1043
X-1.4669 Y1.0822
X-1.4987 Y1.0597
X-1.5301 Y1.0366
X-1.5612 Y1.0131
X-1.5919 Y0.9891
X-1.6223 Y0.9646
X-1.6522 Y0.9396
X-1.6818 Y0.9142
X-1.711 Y0.8884
X-1.7398 Y0.8621
X-1.7682 Y0.8353
X-1.7961 Y0.8082
X-1.8237 Y0.7806
X-1.8508 Y0.7525
X-1.8774 Y0.7241
X-1.9037 Y0.6952
X-1.9295 Y0.666
X-1.9548 Y0.6364
X-1.9797 Y0.6063
X-2.0041 Y0.5759
X-2.028 Y0.5452
X-2.0515 Y0.514
X-2.0745 Y0.4826
X-2.097 Y0.4507
X-2.119 Y0.4185
X-2.1406 Y0.386
X-2.1616 Y0.3532
X-2.1821 Y0.32
X-2.2021 Y0.2866
X-2.2216 Y0.2528
X-2.2406 Y0.2187
X-2.259 Y0.1844
X-2.2769 Y0.1497
X-2.2943 Y0.1148
X-2.3111 Y0.0797
X-2.3274 Y0.0443
X-2.3432 Y0.0086
X-2.3584 Y-0.0273
X-2.373 Y-0.0635
X-2.3871 Y-0.0998
X-2.4007 Y-0.1364
X-2.4136 Y-0.1731
X-2.4261 Y-0.2101
X-2.4379 Y-0.2473
X-2.4492 Y-0.2846
X-2.4599 Y-0.3221
X-2.47 Y-0.3597
X-2.4795 Y-0.3975
X-2.4885 Y-0.4355
X-2.4969 Y-0.4736
X-2.5047 Y-0.5118
X-2.5119 Y-0.5501
X-2.5186 Y-0.5885
X-2.5246 Y-0.627
X-2.5301 Y-0.6656
X-2.5349 Y-0.7043
X-2.5392 Y-0.7431
X-2.5429 Y-0.7819
X-2.5459 Y-0.8208
X-2.5484 Y-0.8597
X-2.5503 Y-0.8986
X-2.5516 Y-0.9376
X-2.5523 Y-0.9766
X-2.5524 Y-1.0156
X-2.5519 Y-1.0545
X-2.5508 Y-1.0935
X-2.5491 Y-1.1325
X-2.5468 Y-1.1714
X-2.5439 Y-1.2103
X-2.5404 Y-1.2491
X-2.5363 Y-1.2879
X-2.5317 Y-1.3266
X-2.5264 Y-1.3652
X-2.5205 Y-1.4038
X-2.5141 Y-1.4422
X-2.5071 Y-1.4806
X-2.4995 Y-1.5188
X-2.4913 Y-1.557
X-2.4825 Y-1.5949
X-2.4732 Y-1.6328
X-2.4632 Y-1.6705
X-2.4527 Y-1.7081
X-2.4417 Y-1.7454
X-2.43 Y-1.7826
X-2.4178 Y-1.8197
X-2.405 Y-1.8565
X-2.3917 Y-1.8931
X-2.3778 Y-1.9296
X-2.3633 Y-1.9658
X-2.3483 Y-2.0018
X-2.3327 Y-2.0375
X-2.3166 Y-2.073
X-2.3 Y-2.1083
X-2.2828 Y-2.1433
X-2.2651 Y-2.178
X-2.2468 Y-2.2125
X-2.2281 Y-2.2466
X-2.2088 Y-2.2805
X-2.189 Y-2.3141
X-2.1686 Y-2.3474
X-2.1478 Y-2.3804
X-2.1265 Y-2.413
X-2.1047 Y-2.4453
X-2.0824 Y-2.4773
X-2.0596 Y-2.5089
X-2.0363 Y-2.5402
X-2.0126 Y-2.5712
X-1.9884 Y-2.6017
X-1.9637 Y-2.6319
X-1.9385 Y-2.6617
X-1.9129 Y-2.6911
X-1.8869 Y-2.7201
X-1.8604 Y-2.7488
X-1.8335 Y-2.777
X-1.8062 Y-2.8048
X-1.7784 Y-2.8321
X-1.7502 Y-2.8591
X-1.7216 Y-2.8856
X-1.6926 Y-2.9117
X-1.6632 Y-2.9373
X-1.6335 Y-2.9625
X-1.6033 Y-2.9872
X-1.5728 Y-3.0114
X-1.5419 Y-3.0352
X-1.5106 Y-3.0585
X-1.479 Y-3.0813
X-1.4471 Y-3.1037
X-1.4148 Y-3.1256
X-1.3822 Y-3.1469
X-1.3492 Y-3.1678
X-1.316 Y-3.1881
X-1.2824 Y-3.208
X-1.2485 Y-3.2273
X-1.2144 Y-3.2461
X-1.1799 Y-3.2644
X-1.1452 Y-3.2822
X-1.1103 Y-3.2994
X-1.075 Y-3.3161
X-1.0395 Y-3.3322
X-1.0038 Y-3.3478
X-0.9678 Y-3.3629
X-0.9316 Y-3.3774
X-0.8952 Y-3.3914
X-0.8586 Y-3.4047
X-0.8218 Y-3.4176
X-0.7848 Y-3.4298
X-0.7476 Y-3.4415
X-0.7102 Y-3.4527
X-0.6727 Y-3.4632
X-0.635 Y-3.4732
X-0.5972 Y-3.4826
X-0.5592 Y-3.4915
X-0.5211 Y-3.4997
X-0.4828 Y-3.5074
X-0.4445 Y-3.5145
X-0.4061 Y-3.521
X-0.3675 Y-3.5269
X-0.3289 Y-3.5322
X-0.2902 Y-3.537
X-0.2514 Y-3.5411
X-0.2126 Y-3.5447
X-0.1737 Y-3.5476
X-0.1348 Y-3.55
X-0.0959 Y-3.5518
X-0.0569 Y-3.553
X-0.0179 Y-3.5536
X0.0211
X0.0601 Y-3.553
X0.0991 Y-3.5518
X0.138 Y-3.55
X0.1769 Y-3.5476
X0.2158 Y-3.5446
X0.2546 Y-3.541
X0.2934 Y-3.5369
X0.3321 Y-3.5321
X0.3707 Y-3.5268
X0.4093 Y-3.5209
X0.4477 Y-3.5144
X0.486 Y-3.5073
X0.5243 Y-3.4996
X0.5624 Y-3.4914
X0.6004 Y-3.4825
X0.6382 Y-3.4731
X0.6759 Y-3.4632
X0.7134 Y-3.4526
X0.7508 Y-3.4415
X0.788 Y-3.4298
X0.825 Y-3.4176
X0.8619 Y-3.4048
X0.8985 Y-3.3914
X0.9349 Y-3.3775
X0.9711 Y-3.363
X1.0071 Y-3.348
X1.0429 Y-3.3325
X1.0784 Y-3.3164
X1.1136 Y-3.2997
X1.1486 Y-3.2826
X1.1834 Y-3.2649
X1.2179 Y-3.2466
X1.252 Y-3.2279
X1.286 Y-3.2087
X1.3196 Y-3.1889
X1.3529 Y-3.1686
X1.3859 Y-3.1479
X1.4186 Y-3.1266
X1.4509 Y-3.1049
X1.483 Y-3.0826
X1.5147 Y-3.0599
X1.546 Y-3.0367
X1.577 Y-3.0131
X1.6076 Y-2.989
X1.6379 Y-2.9644
X1.6678 Y-2.9394
X1.6973 Y-2.9139
X1.7264 Y-2.8879
X1.7552 Y-2.8616
X1.7835 Y-2.8348
X1.8114 Y-2.8076
X1.8389 Y-2.78
X1.866 Y-2.7519
X1.8927 Y-2.7235
X1.9189 Y-2.6946
X1.9447 Y-2.6654
X1.9701 Y-2.6358
X1.995 Y-2.6058
X2.0195 Y-2.5754
X2.0435 Y-2.5447
X2.067 Y-2.5136
X2.0901 Y-2.4822
X2.1126 Y-2.4504
X2.1348 Y-2.4183
X2.1564 Y-2.3858
X2.1775 Y-2.3531
X2.1982 Y-2.32
X2.2183 Y-2.2866
X2.238 Y-2.2529
X2.2571 Y-2.219
X2.2757 Y-2.1847
X2.2939 Y-2.1502
X2.3114 Y-2.1154
X2.3285 Y-2.0803
X2.3451 Y-2.045
X2.3611 Y-2.0095
X2.3765 Y-1.9737
X2.3915 Y-1.9377
X2.4059 Y-1.9014
X2.4197 Y-1.865
X2.433 Y-1.8283
X2.4457 Y-1.7915
X2.4579 Y-1.7544
X2.4695 Y-1.7172
X2.4806 Y-1.6798
X2.4911 Y-1.6423
X2.501 Y-1.6046
X2.5104 Y-1.5667
X2.5192 Y-1.5287
X2.5275 Y-1.4906
X2.5351 Y-1.4524
X2.5422 Y-1.4141
X2.5488 Y-1.3756
X2.5547 Y-1.3371
X2.5601 Y-1.2985
X2.5648 Y-1.2598
X2.569 Y-1.221
X2.5727 Y-1.1822
X2.5757 Y-1.1433
X2.5782 Y-1.1044
X2.58 Y-1.0654
X2.5813 Y-1.0265
X2.582 Y-0.9875
X2.5821 Y-0.9485
X2.5816 Y-0.9095
X2.5806 Y-0.8705
X2.5789 Y-0.8316
X2.5767 Y-0.7927
X2.5738 Y-0.7538
X2.5704 Y-0.7149
X2.5664 Y-0.6761
X2.5619 Y-0.6374
X2.5567 Y-0.5988
X2.551 Y-0.5602
X2.5447 Y-0.5217
X2.5378 Y-0.4833
X2.5303 Y-0.4451
X2.5223 Y-0.4069
X2.5137 Y-0.3689
X2.5045 Y-0.331
X2.4947 Y-0.2932
X2.4844 Y-0.2556
X2.4735 Y-0.2182
X2.4621 Y-0.1809
X2.4501 Y-0.1438
X2.4376 Y-0.1069
X2.4244 Y-0.0702
X2.4108 Y-0.0337
X2.3966 Y0.0026
X2.3818 Y0.0387
X2.3665 Y0.0746
X2.3507 Y0.1102
X2.3343 Y0.1456
X2.3174 Y0.1808
X2.3 Y0.2156
X2.282 Y0.2502
X2.2636 Y0.2846
X2.2446 Y0.3186
X2.2251 Y0.3524
X2.2051 Y0.3859
X2.1846 Y0.419
X2.1636 Y0.4519
X2.1421 Y0.4844
X2.1202 Y0.5167
X2.0977 Y0.5485
X2.0748 Y0.5801
X2.0514 Y0.6113
X2.0275 Y0.6421
X2.0032 Y0.6726
X1.9784 Y0.7027
X1.9532 Y0.7324
X1.9275 Y0.7618
X1.9014 Y0.7907
X1.8749 Y0.8193
X1.8479 Y0.8475
X1.8205 Y0.8752
X1.7927 Y0.9025
X1.7645 Y0.9295
X1.7359 Y0.956
X1.7069 Y0.982
X1.6775 Y1.0076
X1.6477 Y1.0328
X1.6176 Y1.0575
X1.5871 Y1.0818
X1.5562 Y1.1056
X1.5249 Y1.1289
X1.4934 Y1.1518
X1.4614 Y1.1742
X1.4292 Y1.1961
X1.3966 Y1.2175
X1.3637 Y1.2385
X1.3305 Y1.2589
X1.297 Y1.2789
X1.2632 Y1.2983
X1.2291 Y1.3172
X1.1948 Y1.3357
X1.1601 Y1.3536
X1.1252 Y1.3709
X1.0901 Y1.3878
X1.0547 Y1.4041
X1.019 Y1.4199
X0.9832 Y1.4352
X0.947 Y1.4499
X0.9107 Y1.4641
X0.8742 Y1.4777
X0.8375 Y1.4908
X0.8005 Y1.5033
X0.7634 Y1.5153
X0.7262 Y1.5267
X0.6887 Y1.5376
X0.6511 Y1.5479
X0.6133 Y1.5576
X0.5755 Y1.5668
X0.5374 Y1.5754
X0.4993 Y1.5835
X0.461 Y1.5909
X0.4226 Y1.5978
X0.3842 Y1.6042
X0.3456 Y1.6099
X0.3069 Y1.6151
X0.2682 Y1.6197
X0.2294 Y1.6237
X0.1906 Y1.6272
X0.1517 Y1.63
X0.1128 Y1.6323
X0.0738 Y1.634
X0.0349 Y1.6351
X-0.0041 Y1.6357
X-0.0431 Y1.6356
X-0.0821 Y1.635
X-0.1211 Y1.6338
X-0.16 Y1.632
X-0.1989 Y1.6296
X-0.2378 Y1.6267
X-0.2766 Y1.6232
X-0.3154 Y1.6191
X-0.3541 Y1.6144
X-0.3928 Y1.6091
X-0.4313 Y1.6033
X-0.4698 Y1.5969
X-0.5081 Y1.5899
