%
(Idealab Coin x5)
(T1  D=0.0787 CR=0 - ZMIN=-0.29 - bullnose end mill)
G90 G94
G17
G20
G28 G91 Z0
G90

(2D Contour4)
M9
T1 M6
S5000 M3
G54
M8
G0 X2.6403 Y-0.215
Z0.6
Z0.2
G1 Z0.0394 F13.33
Z-0.0421
X2.6406 Y-0.2149 Z-0.0442
X2.6414 Y-0.2148 Z-0.0461
X2.6426 Y-0.2146 Z-0.0477
X2.6442 Y-0.2143 Z-0.0489
X2.6461 Y-0.214 Z-0.0497
X2.6481 Y-0.2137 Z-0.05
X2.6559 Y-0.2124 F40
G3 X2.6623 Y-0.2033 I-0.0013 J0.0078
G2 X2.6618 Y-0.1969 I0.0388 J0.0065
G1 Y0.2438
X2.5358
Y-0.2775
X2.7747
Y-0.2362
X2.7012
G2 X2.6623 Y-0.2033 J0.0394
G3 X2.6533 Y-0.1969 I-0.0078 J-0.0013
G1 X2.6455 Y-0.1982
X2.6435 Y-0.1985 Z-0.0497
X2.6416 Y-0.1988 Z-0.0489
X2.64 Y-0.1991 Z-0.0477
X2.6388 Y-0.1993 Z-0.0461
X2.638 Y-0.1994 Z-0.0442
X2.6377 Y-0.1995 Z-0.0421
G0 Z0.2
X2.3558 Y-0.2224
G1 Z0.0394 F13.33
Z-0.0421
G18 G2 X2.3637 Z-0.05 I0.0079
G1 X2.3716 F40
G17 G3 X2.3795 Y-0.2145 J0.0079
G1 Y0.2438
X2.2535
Y-0.2775
X2.3795
Y-0.2145
G3 X2.3716 Y-0.2066 I-0.0079
G1 X2.3637
G18 G3 X2.3558 Z-0.0421 K0.0079
G0 Z0.2
X1.3903 Y-0.215
G1 Z0.0394 F13.33
Z-0.0421
X1.3906 Y-0.2149 Z-0.0442
X1.3914 Y-0.2148 Z-0.0461
X1.3926 Y-0.2146 Z-0.0477
X1.3942 Y-0.2143 Z-0.0489
X1.3961 Y-0.214 Z-0.0497
X1.3981 Y-0.2137 Z-0.05
X1.4059 Y-0.2124 F40
G17 G3 X1.4123 Y-0.2033 I-0.0013 J0.0078
G2 X1.4118 Y-0.1969 I0.0388 J0.0065
G1 Y0.2438
X1.2858
Y-0.2775
X1.5247
Y-0.2362
X1.4512
G2 X1.4123 Y-0.2033 J0.0394
G3 X1.4033 Y-0.1969 I-0.0078 J-0.0013
G1 X1.3955 Y-0.1982
X1.3935 Y-0.1985 Z-0.0497
X1.3916 Y-0.1988 Z-0.0489
X1.39 Y-0.1991 Z-0.0477
X1.3888 Y-0.1993 Z-0.0461
X1.388 Y-0.1994 Z-0.0442
X1.3877 Y-0.1995 Z-0.0421
G0 Z0.2
X1.1058 Y-0.2224
G1 Z0.0394 F13.33
Z-0.0421
G18 G2 X1.1137 Z-0.05 I0.0079
G1 X1.1216 F40
G17 G3 X1.1295 Y-0.2145 J0.0079
G1 Y0.2438
X1.0035
Y-0.2775
X1.1295
Y-0.2145
G3 X1.1216 Y-0.2066 I-0.0079
G1 X1.1137
G18 G3 X1.1058 Z-0.0421 K0.0079
G0 Z0.2
X0.1403 Y-0.215
G1 Z0.0394 F13.33
Z-0.0421
X0.1406 Y-0.2149 Z-0.0442
X0.1414 Y-0.2148 Z-0.0461
X0.1426 Y-0.2146 Z-0.0477
X0.1442 Y-0.2143 Z-0.0489
X0.1461 Y-0.214 Z-0.0497
X0.1481 Y-0.2137 Z-0.05
X0.1559 Y-0.2124 F40
G17 G3 X0.1623 Y-0.2033 I-0.0013 J0.0078
G2 X0.1618 Y-0.1969 I0.0388 J0.0065
G1 Y0.2438
X0.0358
Y-0.1969
Y-0.2775
X0.2747
Y-0.2362
X0.2012
G2 X0.1623 Y-0.2033 J0.0394
G3 X0.1533 Y-0.1969 I-0.0078 J-0.0013
G1 X0.1455 Y-0.1982
X0.1435 Y-0.1985 Z-0.0497
X0.1416 Y-0.1988 Z-0.0489
X0.14 Y-0.1991 Z-0.0477
X0.1388 Y-0.1993 Z-0.0461
X0.138 Y-0.1994 Z-0.0442
X0.1377 Y-0.1995 Z-0.0421
G0 Z0.2
X-0.1442 Y0.1729
G1 Z0.0394 F13.33
Z-0.0421
G18 G2 X-0.1363 Z-0.05 I0.0079
G1 X-0.1284 F40
G17 G3 X-0.1205 Y0.1808 J0.0079
G1 Y0.2438
X-0.2465
Y-0.2775
X-0.1205
Y0.1808
G3 X-0.1284 Y0.1887 I-0.0079
G1 X-0.1363
G18 G3 X-0.1442 Z-0.0421 K0.0079
G0 Z0.2
X3.6058 Y0.1729
G1 Z0.0394 F13.33
Z-0.0421
G2 X3.6137 Z-0.05 I0.0079
G1 X3.6216 F40
G17 G3 X3.6295 Y0.1808 J0.0079
G1 Y0.2438
X3.5035
Y-0.2775
X3.6295
Y0.1808
G3 X3.6216 Y0.1887 I-0.0079
G1 X3.6137
G18 G3 X3.6058 Z-0.0421 K0.0079
G0 Z0.2
X3.8903 Y-0.215
G1 Z0.0394 F13.33
Z-0.0421
X3.8906 Y-0.2149 Z-0.0442
X3.8914 Y-0.2148 Z-0.0461
X3.8926 Y-0.2146 Z-0.0477
X3.8942 Y-0.2143 Z-0.0489
X3.8961 Y-0.214 Z-0.0497
X3.8981 Y-0.2137 Z-0.05
X3.9059 Y-0.2124 F40
G17 G3 X3.9123 Y-0.2033 I-0.0013 J0.0078
G2 X3.9118 Y-0.1969 I0.0388 J0.0065
G1 Y0.2438
X3.7858
Y-0.2775
X4.0248
Y-0.2362
X3.9512
G2 X3.9123 Y-0.2033 J0.0394
G3 X3.9033 Y-0.1969 I-0.0078 J-0.0013
G1 X3.8955 Y-0.1982
X3.8935 Y-0.1985 Z-0.0497
X3.8916 Y-0.1988 Z-0.0489
X3.89 Y-0.1991 Z-0.0477
X3.8888 Y-0.1993 Z-0.0461
X3.888 Y-0.1994 Z-0.0442
X3.8878 Y-0.1995 Z-0.0421
G0 Z0.2
X4.8558 Y-0.2224
G1 Z0.0394 F13.33
Z-0.0421
G18 G2 X4.8637 Z-0.05 I0.0079
G1 X4.8716 F40
G17 G3 X4.8794 Y-0.2145 J0.0079
G1 Y0.2438
X4.7535
Y-0.2775
X4.8794
Y-0.2145
G3 X4.8716 Y-0.2066 I-0.0079
G1 X4.8637
G18 G3 X4.8558 Z-0.0421 K0.0079
G0 Z0.2
X5.1403 Y-0.215
G1 Z0.0394 F13.33
Z-0.0421
X5.1406 Y-0.2149 Z-0.0442
X5.1414 Y-0.2148 Z-0.0461
X5.1426 Y-0.2146 Z-0.0477
X5.1442 Y-0.2143 Z-0.0489
X5.1461 Y-0.214 Z-0.0497
X5.1481 Y-0.2137 Z-0.05
X5.1559 Y-0.2124 F40
G17 G3 X5.1623 Y-0.2033 I-0.0013 J0.0078
G2 X5.1618 Y-0.1969 I0.0388 J0.0065
G1 Y0.2438
X5.0358
Y-0.2775
X5.2748
Y-0.2362
X5.2012
G2 X5.1623 Y-0.2033 J0.0394
G3 X5.1533 Y-0.1969 I-0.0078 J-0.0013
G1 X5.1455 Y-0.1982
X5.1435 Y-0.1985 Z-0.0497
X5.1416 Y-0.1988 Z-0.0489
X5.14 Y-0.1991 Z-0.0477
X5.1388 Y-0.1993 Z-0.0461
X5.138 Y-0.1994 Z-0.0442
X5.1378 Z-0.0421
G0 Z0.6

(2D Contour5)
M8
X2.5079 Y-0.563
Z0.6
Z0.2
G1 Z0.0794 F13.33
Z-0.0321
G19 G3 Y-0.5551 Z-0.04 J0.0079
G1 Y-0.5472 F40
G17 G3 X2.5 Y-0.5394 I-0.0079
G2 Y0.5394 J0.5394
Y-0.5394 J-0.5394
G3 X2.4921 Y-0.5472 J-0.0079
G1 Y-0.5551
G19 G2 Y-0.563 Z-0.0321 K0.0079
G1 X2.5079
Z-0.0721 F13.33
G3 Y-0.5551 Z-0.08 J0.0079
G1 Y-0.5472 F40
G17 G3 X2.5 Y-0.5394 I-0.0079
G2 Y0.5394 J0.5394
Y-0.5394 J-0.5394
G3 X2.4921 Y-0.5472 J-0.0079
G1 Y-0.5551
G19 G2 Y-0.563 Z-0.0721 K0.0079
G1 X2.5079
Z-0.1121 F13.33
G3 Y-0.5551 Z-0.12 J0.0079
G1 Y-0.5472 F40
G17 G3 X2.5 Y-0.5394 I-0.0079
G2 Y0.5394 J0.5394
Y-0.5394 J-0.5394
G3 X2.4921 Y-0.5472 J-0.0079
G1 Y-0.5551
G19 G2 Y-0.563 Z-0.1121 K0.0079
G1 X2.5079
Z-0.1521 F13.33
G3 Y-0.5551 Z-0.16 J0.0079
G1 Y-0.5472 F40
G17 G3 X2.5 Y-0.5394 I-0.0079
G2 Y0.5394 J0.5394
Y-0.5394 J-0.5394
G3 X2.4921 Y-0.5472 J-0.0079
G1 Y-0.5551
G19 G2 Y-0.563 Z-0.1521 K0.0079
G1 X2.5079
Z-0.1921 F13.33
G3 Y-0.5551 Z-0.2 J0.0079
G1 Y-0.5472 F40
G17 G3 X2.5 Y-0.5394 I-0.0079
G2 Y0.5394 J0.5394
Y-0.5394 J-0.5394
G3 X2.4921 Y-0.5472 J-0.0079
G1 Y-0.5551
G19 G2 Y-0.563 Z-0.1921 K0.0079
G1 X2.5079
Z-0.2321 F13.33
G3 Y-0.5551 Z-0.24 J0.0079
G1 Y-0.5472 F40
G17 G3 X2.5 Y-0.5394 I-0.0079
G2 Y0.5394 J0.5394
Y-0.5394 J-0.5394
G3 X2.4921 Y-0.5472 J-0.0079
G1 Y-0.5551
G19 G2 Y-0.563 Z-0.2321 K0.0079
G1 X2.5079
Z-0.2581 F13.33
G3 Y-0.5551 Z-0.266 J0.0079
G1 Y-0.5472 F40
G17 G3 X2.5 Y-0.5394 I-0.0079
G2 Y0.5394 J0.5394
Y-0.5394 J-0.5394
G3 X2.4921 Y-0.5472 J-0.0079
G1 Y-0.5551
G19 G2 Y-0.563 Z-0.2581 K0.0079
G1 X2.5079
Z-0.2661 F13.33
G3 Y-0.5551 Z-0.274 J0.0079
G1 Y-0.5472 F40
G17 G3 X2.5 Y-0.5394 I-0.0079
G2 Y0.5394 J0.5394
Y-0.5394 J-0.5394
G3 X2.4921 Y-0.5472 J-0.0079
G1 Y-0.5551
G19 G2 Y-0.563 Z-0.2661 K0.0079
G1 X2.5079
Z-0.2741 F13.33
G3 Y-0.5551 Z-0.282 J0.0079
G1 Y-0.5472 F40
G17 G3 X2.5 Y-0.5394 I-0.0079
G2 Y0.5394 J0.5394
Y-0.5394 J-0.5394
G3 X2.4921 Y-0.5472 J-0.0079
G1 Y-0.5551
G19 G2 Y-0.563 Z-0.2741 K0.0079
G1 X2.5079
Z-0.2821 F13.33
G3 Y-0.5551 Z-0.29 J0.0079
G1 Y-0.5472 F40
G17 G3 X2.5 Y-0.5394 I-0.0079
G2 Y0.5394 J0.5394
Y-0.5394 J-0.5394
G3 X2.4921 Y-0.5472 J-0.0079
G1 Y-0.5551
G19 G2 Y-0.563 Z-0.2821 K0.0079
G1 Z-0.0321
X1.2835 Y-0.5621
Y-0.5618 Z-0.0342 F13.33
Y-0.561 Z-0.0361
X1.2834 Y-0.5597 Z-0.0377
Y-0.5581 Z-0.0389
X1.2833 Y-0.5562 Z-0.0397
X1.2832 Y-0.5542 Z-0.04
X1.2828 Y-0.5463 F40
G17 G3 X1.2746 Y-0.5388 I-0.0079 J-0.0004
G2 X1.0667 Y-0.5073 I-0.0246 J0.5388
X1.4333 Y0.5073 I0.1833 J0.5073
X1.7658 Y0.1577 I-0.1833 J-0.5073
X1.7894 Y-0.0003 I-0.5158 J-0.1577
X1.2746 Y-0.5388 I-0.5394 J0.0003
G3 X1.2671 Y-0.547 I0.0004 J-0.0079
G1 X1.2674 Y-0.5549
X1.2675 Y-0.5569 Z-0.0397
X1.2676 Y-0.5588 Z-0.0389
X1.2677 Y-0.5605 Z-0.0377
X1.2678 Y-0.5617 Z-0.0361
Y-0.5625 Z-0.0342
Y-0.5628 Z-0.0321
X1.2835 Y-0.5621
Z-0.0721 F13.33
Y-0.5618 Z-0.0742
Y-0.561 Z-0.0761
X1.2834 Y-0.5597 Z-0.0777
Y-0.5581 Z-0.0789
X1.2833 Y-0.5562 Z-0.0797
X1.2832 Y-0.5542 Z-0.08
X1.2828 Y-0.5463 F40
G3 X1.2746 Y-0.5388 I-0.0079 J-0.0004
G2 X1.0667 Y-0.5073 I-0.0246 J0.5388
X1.4333 Y0.5073 I0.1833 J0.5073
X1.7658 Y0.1577 I-0.1833 J-0.5073
X1.7894 Y-0.0003 I-0.5158 J-0.1577
X1.2746 Y-0.5388 I-0.5394 J0.0003
G3 X1.2671 Y-0.547 I0.0004 J-0.0079
G1 X1.2674 Y-0.5549
X1.2675 Y-0.5569 Z-0.0797
X1.2676 Y-0.5588 Z-0.0789
X1.2677 Y-0.5605 Z-0.0777
X1.2678 Y-0.5617 Z-0.0761
Y-0.5625 Z-0.0742
Y-0.5628 Z-0.0721
X1.2835 Y-0.5621
Z-0.1121 F13.33
Y-0.5618 Z-0.1142
Y-0.561 Z-0.1161
X1.2834 Y-0.5597 Z-0.1177
Y-0.5581 Z-0.1189
X1.2833 Y-0.5562 Z-0.1197
X1.2832 Y-0.5542 Z-0.12
X1.2828 Y-0.5463 F40
G3 X1.2746 Y-0.5388 I-0.0079 J-0.0004
G2 X1.0667 Y-0.5073 I-0.0246 J0.5388
X1.4333 Y0.5073 I0.1833 J0.5073
X1.7658 Y0.1577 I-0.1833 J-0.5073
X1.7894 Y-0.0003 I-0.5158 J-0.1577
X1.2746 Y-0.5388 I-0.5394 J0.0003
G3 X1.2671 Y-0.547 I0.0004 J-0.0079
G1 X1.2674 Y-0.5549
X1.2675 Y-0.5569 Z-0.1197
X1.2676 Y-0.5588 Z-0.1189
X1.2677 Y-0.5605 Z-0.1177
X1.2678 Y-0.5617 Z-0.1161
Y-0.5625 Z-0.1142
Y-0.5628 Z-0.1121
X1.2835 Y-0.5621
Z-0.1521 F13.33
Y-0.5618 Z-0.1542
Y-0.561 Z-0.1561
X1.2834 Y-0.5597 Z-0.1577
Y-0.5581 Z-0.1589
X1.2833 Y-0.5562 Z-0.1597
X1.2832 Y-0.5542 Z-0.16
X1.2828 Y-0.5463 F40
G3 X1.2746 Y-0.5388 I-0.0079 J-0.0004
G2 X1.0667 Y-0.5073 I-0.0246 J0.5388
X1.4333 Y0.5073 I0.1833 J0.5073
X1.7658 Y0.1577 I-0.1833 J-0.5073
X1.7894 Y-0.0003 I-0.5158 J-0.1577
X1.2746 Y-0.5388 I-0.5394 J0.0003
G3 X1.2671 Y-0.547 I0.0004 J-0.0079
G1 X1.2674 Y-0.5549
X1.2675 Y-0.5569 Z-0.1597
X1.2676 Y-0.5588 Z-0.1589
X1.2677 Y-0.5605 Z-0.1577
X1.2678 Y-0.5617 Z-0.1561
Y-0.5625 Z-0.1542
Y-0.5628 Z-0.1521
X1.2835 Y-0.5621
Z-0.1921 F13.33
Y-0.5618 Z-0.1942
Y-0.561 Z-0.1961
X1.2834 Y-0.5597 Z-0.1977
Y-0.5581 Z-0.1989
X1.2833 Y-0.5562 Z-0.1997
X1.2832 Y-0.5542 Z-0.2
X1.2828 Y-0.5463 F40
G3 X1.2746 Y-0.5388 I-0.0079 J-0.0004
G2 X1.0667 Y-0.5073 I-0.0246 J0.5388
X1.4333 Y0.5073 I0.1833 J0.5073
X1.7658 Y0.1577 I-0.1833 J-0.5073
X1.7894 Y-0.0003 I-0.5158 J-0.1577
X1.2746 Y-0.5388 I-0.5394 J0.0003
G3 X1.2671 Y-0.547 I0.0004 J-0.0079
G1 X1.2674 Y-0.5549
X1.2675 Y-0.5569 Z-0.1997
X1.2676 Y-0.5588 Z-0.1989
X1.2677 Y-0.5605 Z-0.1977
X1.2678 Y-0.5617 Z-0.1961
Y-0.5625 Z-0.1942
Y-0.5628 Z-0.1921
X1.2835 Y-0.5621
Z-0.2321 F13.33
Y-0.5618 Z-0.2342
Y-0.561 Z-0.2361
X1.2834 Y-0.5597 Z-0.2377
Y-0.5581 Z-0.2389
X1.2833 Y-0.5562 Z-0.2397
X1.2832 Y-0.5542 Z-0.24
X1.2828 Y-0.5463 F40
G3 X1.2746 Y-0.5388 I-0.0079 J-0.0004
G2 X1.0667 Y-0.5073 I-0.0246 J0.5388
X1.4333 Y0.5073 I0.1833 J0.5073
X1.7658 Y0.1577 I-0.1833 J-0.5073
X1.7894 Y-0.0003 I-0.5158 J-0.1577
X1.2746 Y-0.5388 I-0.5394 J0.0003
G3 X1.2671 Y-0.547 I0.0004 J-0.0079
G1 X1.2674 Y-0.5549
X1.2675 Y-0.5569 Z-0.2397
X1.2676 Y-0.5588 Z-0.2389
X1.2677 Y-0.5605 Z-0.2377
X1.2678 Y-0.5617 Z-0.2361
Y-0.5625 Z-0.2342
Y-0.5628 Z-0.2321
X1.2835 Y-0.5621
Z-0.2581 F13.33
Y-0.5618 Z-0.2602
Y-0.561 Z-0.2621
X1.2834 Y-0.5597 Z-0.2637
Y-0.5581 Z-0.2649
X1.2833 Y-0.5562 Z-0.2657
X1.2832 Y-0.5542 Z-0.266
X1.2828 Y-0.5463 F40
G3 X1.2746 Y-0.5388 I-0.0079 J-0.0004
G2 X1.0667 Y-0.5073 I-0.0246 J0.5388
X1.4333 Y0.5073 I0.1833 J0.5073
X1.7658 Y0.1577 I-0.1833 J-0.5073
X1.7894 Y-0.0003 I-0.5158 J-0.1577
X1.2746 Y-0.5388 I-0.5394 J0.0003
G3 X1.2671 Y-0.547 I0.0004 J-0.0079
G1 X1.2674 Y-0.5549
X1.2675 Y-0.5569 Z-0.2657
X1.2676 Y-0.5588 Z-0.2649
X1.2677 Y-0.5605 Z-0.2637
X1.2678 Y-0.5617 Z-0.2621
Y-0.5625 Z-0.2602
Y-0.5628 Z-0.2581
X1.2835 Y-0.5621
Z-0.2661 F13.33
Y-0.5618 Z-0.2682
Y-0.561 Z-0.2701
X1.2834 Y-0.5597 Z-0.2717
Y-0.5581 Z-0.2729
X1.2833 Y-0.5562 Z-0.2737
X1.2832 Y-0.5542 Z-0.274
X1.2828 Y-0.5463 F40
G3 X1.2746 Y-0.5388 I-0.0079 J-0.0004
G2 X1.0667 Y-0.5073 I-0.0246 J0.5388
X1.4333 Y0.5073 I0.1833 J0.5073
X1.7658 Y0.1577 I-0.1833 J-0.5073
X1.7894 Y-0.0003 I-0.5158 J-0.1577
X1.2746 Y-0.5388 I-0.5394 J0.0003
G3 X1.2671 Y-0.547 I0.0004 J-0.0079
G1 X1.2674 Y-0.5549
X1.2675 Y-0.5569 Z-0.2737
X1.2676 Y-0.5588 Z-0.2729
X1.2677 Y-0.5605 Z-0.2717
X1.2678 Y-0.5617 Z-0.2701
Y-0.5625 Z-0.2682
Y-0.5628 Z-0.2661
X1.2835 Y-0.5621
Z-0.2741 F13.33
Y-0.5618 Z-0.2762
Y-0.561 Z-0.2781
X1.2834 Y-0.5597 Z-0.2797
Y-0.5581 Z-0.2809
X1.2833 Y-0.5562 Z-0.2817
X1.2832 Y-0.5542 Z-0.282
X1.2828 Y-0.5463 F40
G3 X1.2746 Y-0.5388 I-0.0079 J-0.0004
G2 X1.0667 Y-0.5073 I-0.0246 J0.5388
X1.4333 Y0.5073 I0.1833 J0.5073
X1.7658 Y0.1577 I-0.1833 J-0.5073
X1.7894 Y-0.0003 I-0.5158 J-0.1577
X1.2746 Y-0.5388 I-0.5394 J0.0003
G3 X1.2671 Y-0.547 I0.0004 J-0.0079
G1 X1.2674 Y-0.5549
X1.2675 Y-0.5569 Z-0.2817
X1.2676 Y-0.5588 Z-0.2809
X1.2677 Y-0.5605 Z-0.2797
X1.2678 Y-0.5617 Z-0.2781
Y-0.5625 Z-0.2762
Y-0.5628 Z-0.2741
X1.2835 Y-0.5621
Z-0.2821 F13.33
Y-0.5618 Z-0.2842
Y-0.561 Z-0.2861
X1.2834 Y-0.5597 Z-0.2877
Y-0.5581 Z-0.2889
X1.2833 Y-0.5562 Z-0.2897
X1.2832 Y-0.5542 Z-0.29
X1.2828 Y-0.5463 F40
G3 X1.2746 Y-0.5388 I-0.0079 J-0.0004
G2 X1.0667 Y-0.5073 I-0.0246 J0.5388
X1.4333 Y0.5073 I0.1833 J0.5073
X1.7658 Y0.1577 I-0.1833 J-0.5073
X1.7894 Y-0.0003 I-0.5158 J-0.1577
X1.2746 Y-0.5388 I-0.5394 J0.0003
G3 X1.2671 Y-0.547 I0.0004 J-0.0079
G1 X1.2674 Y-0.5549
X1.2675 Y-0.5569 Z-0.2897
X1.2676 Y-0.5588 Z-0.2889
X1.2677 Y-0.5605 Z-0.2877
X1.2678 Y-0.5617 Z-0.2861
Y-0.5625 Z-0.2842
Y-0.5628 Z-0.2821
G0 Z0.2
X-0.563 Y-0.0079
G1 Z0.0794 F13.33
Z-0.0321
G18 G2 X-0.5551 Z-0.04 I0.0079
G1 X-0.5473 F40
G17 G3 X-0.5394 Y0 J0.0079
G2 X-0.4356 Y0.318 I0.5394
X0.4356 Y-0.318 I0.4356 J-0.318
X-0.1833 Y-0.5073 I-0.4356 J0.318
X-0.4738 Y-0.2577 I0.1833 J0.5073
X-0.5394 Y0 I0.4738 J0.2577
G3 X-0.5473 Y0.0079 I-0.0079
G1 X-0.5551
G18 G3 X-0.563 Z-0.0321 K0.0079
G1 Y-0.0079
Z-0.0721 F13.33
G2 X-0.5551 Z-0.08 I0.0079
G1 X-0.5473 F40
G17 G3 X-0.5394 Y0 J0.0079
G2 X-0.4356 Y0.318 I0.5394
X0.4356 Y-0.318 I0.4356 J-0.318
X-0.1833 Y-0.5073 I-0.4356 J0.318
X-0.4738 Y-0.2577 I0.1833 J0.5073
X-0.5394 Y0 I0.4738 J0.2577
G3 X-0.5473 Y0.0079 I-0.0079
G1 X-0.5551
G18 G3 X-0.563 Z-0.0721 K0.0079
G1 Y-0.0079
Z-0.1121 F13.33
G2 X-0.5551 Z-0.12 I0.0079
G1 X-0.5473 F40
G17 G3 X-0.5394 Y0 J0.0079
G2 X-0.4356 Y0.318 I0.5394
X0.4356 Y-0.318 I0.4356 J-0.318
X-0.1833 Y-0.5073 I-0.4356 J0.318
X-0.4738 Y-0.2577 I0.1833 J0.5073
X-0.5394 Y0 I0.4738 J0.2577
G3 X-0.5473 Y0.0079 I-0.0079
G1 X-0.5551
G18 G3 X-0.563 Z-0.1121 K0.0079
G1 Y-0.0079
Z-0.1521 F13.33
G2 X-0.5551 Z-0.16 I0.0079
G1 X-0.5473 F40
G17 G3 X-0.5394 Y0 J0.0079
G2 X-0.4356 Y0.318 I0.5394
X0.4356 Y-0.318 I0.4356 J-0.318
X-0.1833 Y-0.5073 I-0.4356 J0.318
X-0.4738 Y-0.2577 I0.1833 J0.5073
X-0.5394 Y0 I0.4738 J0.2577
G3 X-0.5473 Y0.0079 I-0.0079
G1 X-0.5551
G18 G3 X-0.563 Z-0.1521 K0.0079
G1 Y-0.0079
Z-0.1921 F13.33
G2 X-0.5551 Z-0.2 I0.0079
G1 X-0.5473 F40
G17 G3 X-0.5394 Y0 J0.0079
G2 X-0.4356 Y0.318 I0.5394
X0.4356 Y-0.318 I0.4356 J-0.318
X-0.1833 Y-0.5073 I-0.4356 J0.318
X-0.4738 Y-0.2577 I0.1833 J0.5073
X-0.5394 Y0 I0.4738 J0.2577
G3 X-0.5473 Y0.0079 I-0.0079
G1 X-0.5551
G18 G3 X-0.563 Z-0.1921 K0.0079
G1 Y-0.0079
Z-0.2321 F13.33
G2 X-0.5551 Z-0.24 I0.0079
G1 X-0.5473 F40
G17 G3 X-0.5394 Y0 J0.0079
G2 X-0.4356 Y0.318 I0.5394
X0.4356 Y-0.318 I0.4356 J-0.318
X-0.1833 Y-0.5073 I-0.4356 J0.318
X-0.4738 Y-0.2577 I0.1833 J0.5073
X-0.5394 Y0 I0.4738 J0.2577
G3 X-0.5473 Y0.0079 I-0.0079
G1 X-0.5551
G18 G3 X-0.563 Z-0.2321 K0.0079
G1 Y-0.0079
Z-0.2581 F13.33
G2 X-0.5551 Z-0.266 I0.0079
G1 X-0.5473 F40
G17 G3 X-0.5394 Y0 J0.0079
G2 X-0.4356 Y0.318 I0.5394
X0.4356 Y-0.318 I0.4356 J-0.318
X-0.1833 Y-0.5073 I-0.4356 J0.318
X-0.4738 Y-0.2577 I0.1833 J0.5073
X-0.5394 Y0 I0.4738 J0.2577
G3 X-0.5473 Y0.0079 I-0.0079
G1 X-0.5551
G18 G3 X-0.563 Z-0.2581 K0.0079
G1 Y-0.0079
Z-0.2661 F13.33
G2 X-0.5551 Z-0.274 I0.0079
G1 X-0.5473 F40
G17 G3 X-0.5394 Y0 J0.0079
G2 X-0.4356 Y0.318 I0.5394
X0.4356 Y-0.318 I0.4356 J-0.318
X-0.1833 Y-0.5073 I-0.4356 J0.318
X-0.4738 Y-0.2577 I0.1833 J0.5073
X-0.5394 Y0 I0.4738 J0.2577
G3 X-0.5473 Y0.0079 I-0.0079
G1 X-0.5551
G18 G3 X-0.563 Z-0.2661 K0.0079
G1 Y-0.0079
Z-0.2741 F13.33
G2 X-0.5551 Z-0.282 I0.0079
G1 X-0.5473 F40
G17 G3 X-0.5394 Y0 J0.0079
G2 X-0.4356 Y0.318 I0.5394
X0.4356 Y-0.318 I0.4356 J-0.318
X-0.1833 Y-0.5073 I-0.4356 J0.318
X-0.4738 Y-0.2577 I0.1833 J0.5073
X-0.5394 Y0 I0.4738 J0.2577
G3 X-0.5473 Y0.0079 I-0.0079
G1 X-0.5551
G18 G3 X-0.563 Z-0.2741 K0.0079
G1 Y-0.0079
Z-0.2821 F13.33
G2 X-0.5551 Z-0.29 I0.0079
G1 X-0.5473 F40
G17 G3 X-0.5394 Y0 J0.0079
G2 X-0.4356 Y0.318 I0.5394
X0.4356 Y-0.318 I0.4356 J-0.318
X-0.1833 Y-0.5073 I-0.4356 J0.318
X-0.4738 Y-0.2577 I0.1833 J0.5073
X-0.5394 Y0 I0.4738 J0.2577
G3 X-0.5473 Y0.0079 I-0.0079
G1 X-0.5551
G18 G3 X-0.563 Z-0.2821 K0.0079
G0 Z0.2
X3.7322 Y-0.5628
G1 Z0.0794 F13.33
Z-0.0321
Y-0.5625 Z-0.0342
Y-0.5617 Z-0.0361
X3.7323 Y-0.5605 Z-0.0377
X3.7324 Y-0.5588 Z-0.0389
X3.7325 Y-0.5569 Z-0.0397
X3.7326 Y-0.5549 Z-0.04
X3.7329 Y-0.547 F40
G17 G3 X3.7254 Y-0.5388 I-0.0079 J0.0004
G2 X3.7746 Y0.5388 I0.0246 J0.5388
X3.7254 Y-0.5388 I-0.0246 J-0.5388
G3 X3.7172 Y-0.5463 I-0.0004 J-0.0079
G1 X3.7168 Y-0.5542
X3.7167 Y-0.5562 Z-0.0397
X3.7166 Y-0.5581 Z-0.0389
Y-0.5597 Z-0.0377
X3.7165 Y-0.561 Z-0.0361
Y-0.5618 Z-0.0342
Y-0.562 Z-0.0321
X3.7322 Y-0.5628
Z-0.0721 F13.33
Y-0.5625 Z-0.0742
Y-0.5617 Z-0.0761
X3.7323 Y-0.5605 Z-0.0777
X3.7324 Y-0.5588 Z-0.0789
X3.7325 Y-0.5569 Z-0.0797
X3.7326 Y-0.5549 Z-0.08
X3.7329 Y-0.547 F40
G3 X3.7254 Y-0.5388 I-0.0079 J0.0004
G2 X3.7746 Y0.5388 I0.0246 J0.5388
X3.7254 Y-0.5388 I-0.0246 J-0.5388
G3 X3.7172 Y-0.5463 I-0.0004 J-0.0079
G1 X3.7168 Y-0.5542
X3.7167 Y-0.5562 Z-0.0797
X3.7166 Y-0.5581 Z-0.0789
Y-0.5597 Z-0.0777
X3.7165 Y-0.561 Z-0.0761
Y-0.5618 Z-0.0742
Y-0.562 Z-0.0721
X3.7322 Y-0.5628
Z-0.1121 F13.33
Y-0.5625 Z-0.1142
Y-0.5617 Z-0.1161
X3.7323 Y-0.5605 Z-0.1177
X3.7324 Y-0.5588 Z-0.1189
X3.7325 Y-0.5569 Z-0.1197
X3.7326 Y-0.5549 Z-0.12
X3.7329 Y-0.547 F40
G3 X3.7254 Y-0.5388 I-0.0079 J0.0004
G2 X3.7746 Y0.5388 I0.0246 J0.5388
X3.7254 Y-0.5388 I-0.0246 J-0.5388
G3 X3.7172 Y-0.5463 I-0.0004 J-0.0079
G1 X3.7168 Y-0.5542
X3.7167 Y-0.5562 Z-0.1197
X3.7166 Y-0.5581 Z-0.1189
Y-0.5597 Z-0.1177
X3.7165 Y-0.561 Z-0.1161
Y-0.5618 Z-0.1142
Y-0.562 Z-0.1121
X3.7322 Y-0.5628
Z-0.1521 F13.33
Y-0.5625 Z-0.1542
Y-0.5617 Z-0.1561
X3.7323 Y-0.5605 Z-0.1577
X3.7324 Y-0.5588 Z-0.1589
X3.7325 Y-0.5569 Z-0.1597
X3.7326 Y-0.5549 Z-0.16
X3.7329 Y-0.547 F40
G3 X3.7254 Y-0.5388 I-0.0079 J0.0004
G2 X3.7746 Y0.5388 I0.0246 J0.5388
X3.7254 Y-0.5388 I-0.0246 J-0.5388
G3 X3.7172 Y-0.5463 I-0.0004 J-0.0079
G1 X3.7168 Y-0.5542
X3.7167 Y-0.5562 Z-0.1597
X3.7166 Y-0.5581 Z-0.1589
Y-0.5597 Z-0.1577
X3.7165 Y-0.561 Z-0.1561
Y-0.5618 Z-0.1542
Y-0.562 Z-0.1521
X3.7322 Y-0.5628
Z-0.1921 F13.33
Y-0.5625 Z-0.1942
Y-0.5617 Z-0.1961
X3.7323 Y-0.5605 Z-0.1977
X3.7324 Y-0.5588 Z-0.1989
X3.7325 Y-0.5569 Z-0.1997
X3.7326 Y-0.5549 Z-0.2
X3.7329 Y-0.547 F40
G3 X3.7254 Y-0.5388 I-0.0079 J0.0004
G2 X3.7746 Y0.5388 I0.0246 J0.5388
X3.7254 Y-0.5388 I-0.0246 J-0.5388
G3 X3.7172 Y-0.5463 I-0.0004 J-0.0079
G1 X3.7168 Y-0.5542
X3.7167 Y-0.5562 Z-0.1997
X3.7166 Y-0.5581 Z-0.1989
Y-0.5597 Z-0.1977
X3.7165 Y-0.561 Z-0.1961
Y-0.5618 Z-0.1942
Y-0.562 Z-0.1921
X3.7322 Y-0.5628
Z-0.2321 F13.33
Y-0.5625 Z-0.2342
Y-0.5617 Z-0.2361
X3.7323 Y-0.5605 Z-0.2377
X3.7324 Y-0.5588 Z-0.2389
X3.7325 Y-0.5569 Z-0.2397
X3.7326 Y-0.5549 Z-0.24
X3.7329 Y-0.547 F40
G3 X3.7254 Y-0.5388 I-0.0079 J0.0004
G2 X3.7746 Y0.5388 I0.0246 J0.5388
X3.7254 Y-0.5388 I-0.0246 J-0.5388
G3 X3.7172 Y-0.5463 I-0.0004 J-0.0079
G1 X3.7168 Y-0.5542
X3.7167 Y-0.5562 Z-0.2397
X3.7166 Y-0.5581 Z-0.2389
Y-0.5597 Z-0.2377
X3.7165 Y-0.561 Z-0.2361
Y-0.5618 Z-0.2342
Y-0.562 Z-0.2321
X3.7322 Y-0.5628
Z-0.2581 F13.33
Y-0.5625 Z-0.2602
Y-0.5617 Z-0.2621
X3.7323 Y-0.5605 Z-0.2637
X3.7324 Y-0.5588 Z-0.2649
X3.7325 Y-0.5569 Z-0.2657
X3.7326 Y-0.5549 Z-0.266
X3.7329 Y-0.547 F40
G3 X3.7254 Y-0.5388 I-0.0079 J0.0004
G2 X3.7746 Y0.5388 I0.0246 J0.5388
X3.7254 Y-0.5388 I-0.0246 J-0.5388
G3 X3.7172 Y-0.5463 I-0.0004 J-0.0079
G1 X3.7168 Y-0.5542
X3.7167 Y-0.5562 Z-0.2657
X3.7166 Y-0.5581 Z-0.2649
Y-0.5597 Z-0.2637
X3.7165 Y-0.561 Z-0.2621
Y-0.5618 Z-0.2602
Y-0.562 Z-0.2581
X3.7322 Y-0.5628
Z-0.2661 F13.33
Y-0.5625 Z-0.2682
Y-0.5617 Z-0.2701
X3.7323 Y-0.5605 Z-0.2717
X3.7324 Y-0.5588 Z-0.2729
X3.7325 Y-0.5569 Z-0.2737
X3.7326 Y-0.5549 Z-0.274
X3.7329 Y-0.547 F40
G3 X3.7254 Y-0.5388 I-0.0079 J0.0004
G2 X3.7746 Y0.5388 I0.0246 J0.5388
X3.7254 Y-0.5388 I-0.0246 J-0.5388
G3 X3.7172 Y-0.5463 I-0.0004 J-0.0079
G1 X3.7168 Y-0.5542
X3.7167 Y-0.5562 Z-0.2737
X3.7166 Y-0.5581 Z-0.2729
Y-0.5597 Z-0.2717
X3.7165 Y-0.561 Z-0.2701
Y-0.5618 Z-0.2682
Y-0.562 Z-0.2661
X3.7322 Y-0.5628
Z-0.2741 F13.33
Y-0.5625 Z-0.2762
Y-0.5617 Z-0.2781
X3.7323 Y-0.5605 Z-0.2797
X3.7324 Y-0.5588 Z-0.2809
X3.7325 Y-0.5569 Z-0.2817
X3.7326 Y-0.5549 Z-0.282
X3.7329 Y-0.547 F40
G3 X3.7254 Y-0.5388 I-0.0079 J0.0004
G2 X3.7746 Y0.5388 I0.0246 J0.5388
X3.7254 Y-0.5388 I-0.0246 J-0.5388
G3 X3.7172 Y-0.5463 I-0.0004 J-0.0079
G1 X3.7168 Y-0.5542
X3.7167 Y-0.5562 Z-0.2817
X3.7166 Y-0.5581 Z-0.2809
Y-0.5597 Z-0.2797
X3.7165 Y-0.561 Z-0.2781
Y-0.5618 Z-0.2762
Y-0.562 Z-0.2741
X3.7322 Y-0.5628
Z-0.2821 F13.33
Y-0.5625 Z-0.2842
Y-0.5617 Z-0.2861
X3.7323 Y-0.5605 Z-0.2877
X3.7324 Y-0.5588 Z-0.2889
X3.7325 Y-0.5569 Z-0.2897
X3.7326 Y-0.5549 Z-0.29
X3.7329 Y-0.547 F40
G3 X3.7254 Y-0.5388 I-0.0079 J0.0004
G2 X3.7746 Y0.5388 I0.0246 J0.5388
X3.7254 Y-0.5388 I-0.0246 J-0.5388
G3 X3.7172 Y-0.5463 I-0.0004 J-0.0079
G1 X3.7168 Y-0.5542
X3.7167 Y-0.5562 Z-0.2897
X3.7166 Y-0.5581 Z-0.2889
Y-0.5597 Z-0.2877
X3.7165 Y-0.561 Z-0.2861
Y-0.5618 Z-0.2842
Y-0.562 Z-0.2821
Z-0.0321
X4.9743 Y-0.5625
Y-0.5622 Z-0.0342 F13.33
X4.9744 Y-0.5614 Z-0.0361
X4.9745 Y-0.5602 Z-0.0377
X4.9746 Y-0.5585 Z-0.0389
X4.9747 Y-0.5566 Z-0.0397
X4.9748 Y-0.5546 Z-0.04
X4.9753 Y-0.5467 F40
G3 X4.9679 Y-0.5384 I-0.0079 J0.0005
G2 X4.8167 Y-0.5073 I0.0321 J0.5384
X5.1833 Y0.5073 I0.1833 J0.5073
X5.5158 Y0.1577 I-0.1833 J-0.5073
X5.4749 Y-0.2558 I-0.5158 J-0.1577
X4.9679 Y-0.5384 I-0.4749 J0.2558
G3 X4.9595 Y-0.5458 I-0.0005 J-0.0079
G1 X4.9591 Y-0.5537
X4.959 Y-0.5557 Z-0.0397
X4.9588 Y-0.5576 Z-0.0389
X4.9587 Y-0.5592 Z-0.0377
Y-0.5605 Z-0.0361
X4.9586 Y-0.5613 Z-0.0342
Y-0.5615 Z-0.0321
X4.9743 Y-0.5625
Z-0.0721 F13.33
Y-0.5622 Z-0.0742
X4.9744 Y-0.5614 Z-0.0761
X4.9745 Y-0.5602 Z-0.0777
X4.9746 Y-0.5585 Z-0.0789
X4.9747 Y-0.5566 Z-0.0797
X4.9748 Y-0.5546 Z-0.08
X4.9753 Y-0.5467 F40
G3 X4.9679 Y-0.5384 I-0.0079 J0.0005
G2 X4.8167 Y-0.5073 I0.0321 J0.5384
X5.1833 Y0.5073 I0.1833 J0.5073
X5.5158 Y0.1577 I-0.1833 J-0.5073
X5.4749 Y-0.2558 I-0.5158 J-0.1577
X4.9679 Y-0.5384 I-0.4749 J0.2558
G3 X4.9595 Y-0.5458 I-0.0005 J-0.0079
G1 X4.9591 Y-0.5537
X4.959 Y-0.5557 Z-0.0797
X4.9588 Y-0.5576 Z-0.0789
X4.9587 Y-0.5592 Z-0.0777
Y-0.5605 Z-0.0761
X4.9586 Y-0.5613 Z-0.0742
Y-0.5615 Z-0.0721
X4.9743 Y-0.5625
Z-0.1121 F13.33
Y-0.5622 Z-0.1142
X4.9744 Y-0.5614 Z-0.1161
X4.9745 Y-0.5602 Z-0.1177
X4.9746 Y-0.5585 Z-0.1189
X4.9747 Y-0.5566 Z-0.1197
X4.9748 Y-0.5546 Z-0.12
X4.9753 Y-0.5467 F40
G3 X4.9679 Y-0.5384 I-0.0079 J0.0005
G2 X4.8167 Y-0.5073 I0.0321 J0.5384
X5.1833 Y0.5073 I0.1833 J0.5073
X5.5158 Y0.1577 I-0.1833 J-0.5073
X5.4749 Y-0.2558 I-0.5158 J-0.1577
X4.9679 Y-0.5384 I-0.4749 J0.2558
G3 X4.9595 Y-0.5458 I-0.0005 J-0.0079
G1 X4.9591 Y-0.5537
X4.959 Y-0.5557 Z-0.1197
X4.9588 Y-0.5576 Z-0.1189
X4.9587 Y-0.5592 Z-0.1177
Y-0.5605 Z-0.1161
X4.9586 Y-0.5613 Z-0.1142
Y-0.5615 Z-0.1121
X4.9743 Y-0.5625
Z-0.1521 F13.33
Y-0.5622 Z-0.1542
X4.9744 Y-0.5614 Z-0.1561
X4.9745 Y-0.5602 Z-0.1577
X4.9746 Y-0.5585 Z-0.1589
X4.9747 Y-0.5566 Z-0.1597
X4.9748 Y-0.5546 Z-0.16
X4.9753 Y-0.5467 F40
G3 X4.9679 Y-0.5384 I-0.0079 J0.0005
G2 X4.8167 Y-0.5073 I0.0321 J0.5384
X5.1833 Y0.5073 I0.1833 J0.5073
X5.5158 Y0.1577 I-0.1833 J-0.5073
X5.4749 Y-0.2558 I-0.5158 J-0.1577
X4.9679 Y-0.5384 I-0.4749 J0.2558
G3 X4.9595 Y-0.5458 I-0.0005 J-0.0079
G1 X4.9591 Y-0.5537
X4.959 Y-0.5557 Z-0.1597
X4.9588 Y-0.5576 Z-0.1589
X4.9587 Y-0.5592 Z-0.1577
Y-0.5605 Z-0.1561
X4.9586 Y-0.5613 Z-0.1542
Y-0.5615 Z-0.1521
X4.9743 Y-0.5625
Z-0.1921 F13.33
Y-0.5622 Z-0.1942
X4.9744 Y-0.5614 Z-0.1961
X4.9745 Y-0.5602 Z-0.1977
X4.9746 Y-0.5585 Z-0.1989
X4.9747 Y-0.5566 Z-0.1997
X4.9748 Y-0.5546 Z-0.2
X4.9753 Y-0.5467 F40
G3 X4.9679 Y-0.5384 I-0.0079 J0.0005
G2 X4.8167 Y-0.5073 I0.0321 J0.5384
X5.1833 Y0.5073 I0.1833 J0.5073
X5.5158 Y0.1577 I-0.1833 J-0.5073
X5.4749 Y-0.2558 I-0.5158 J-0.1577
X4.9679 Y-0.5384 I-0.4749 J0.2558
G3 X4.9595 Y-0.5458 I-0.0005 J-0.0079
G1 X4.9591 Y-0.5537
X4.959 Y-0.5557 Z-0.1997
X4.9588 Y-0.5576 Z-0.1989
X4.9587 Y-0.5592 Z-0.1977
Y-0.5605 Z-0.1961
X4.9586 Y-0.5613 Z-0.1942
Y-0.5615 Z-0.1921
X4.9743 Y-0.5625
Z-0.2321 F13.33
Y-0.5622 Z-0.2342
X4.9744 Y-0.5614 Z-0.2361
X4.9745 Y-0.5602 Z-0.2377
X4.9746 Y-0.5585 Z-0.2389
X4.9747 Y-0.5566 Z-0.2397
X4.9748 Y-0.5546 Z-0.24
X4.9753 Y-0.5467 F40
G3 X4.9679 Y-0.5384 I-0.0079 J0.0005
G2 X4.8167 Y-0.5073 I0.0321 J0.5384
X5.1833 Y0.5073 I0.1833 J0.5073
X5.5158 Y0.1577 I-0.1833 J-0.5073
X5.4749 Y-0.2558 I-0.5158 J-0.1577
X4.9679 Y-0.5384 I-0.4749 J0.2558
G3 X4.9595 Y-0.5458 I-0.0005 J-0.0079
G1 X4.9591 Y-0.5537
X4.959 Y-0.5557 Z-0.2397
X4.9588 Y-0.5576 Z-0.2389
X4.9587 Y-0.5592 Z-0.2377
Y-0.5605 Z-0.2361
X4.9586 Y-0.5613 Z-0.2342
Y-0.5615 Z-0.2321
X4.9743 Y-0.5625
Z-0.2581 F13.33
Y-0.5622 Z-0.2602
X4.9744 Y-0.5614 Z-0.2621
X4.9745 Y-0.5602 Z-0.2637
X4.9746 Y-0.5585 Z-0.2649
X4.9747 Y-0.5566 Z-0.2657
X4.9748 Y-0.5546 Z-0.266
X4.9753 Y-0.5467 F40
G3 X4.9679 Y-0.5384 I-0.0079 J0.0005
G2 X4.8167 Y-0.5073 I0.0321 J0.5384
X5.1833 Y0.5073 I0.1833 J0.5073
X5.5158 Y0.1577 I-0.1833 J-0.5073
X5.4749 Y-0.2558 I-0.5158 J-0.1577
X4.9679 Y-0.5384 I-0.4749 J0.2558
G3 X4.9595 Y-0.5458 I-0.0005 J-0.0079
G1 X4.9591 Y-0.5537
X4.959 Y-0.5557 Z-0.2657
X4.9588 Y-0.5576 Z-0.2649
X4.9587 Y-0.5592 Z-0.2637
Y-0.5605 Z-0.2621
X4.9586 Y-0.5613 Z-0.2602
Y-0.5615 Z-0.2581
X4.9743 Y-0.5625
Z-0.2661 F13.33
Y-0.5622 Z-0.2682
X4.9744 Y-0.5614 Z-0.2701
X4.9745 Y-0.5602 Z-0.2717
X4.9746 Y-0.5585 Z-0.2729
X4.9747 Y-0.5566 Z-0.2737
X4.9748 Y-0.5546 Z-0.274
X4.9753 Y-0.5467 F40
G3 X4.9679 Y-0.5384 I-0.0079 J0.0005
G2 X4.8167 Y-0.5073 I0.0321 J0.5384
X5.1833 Y0.5073 I0.1833 J0.5073
X5.5158 Y0.1577 I-0.1833 J-0.5073
X5.4749 Y-0.2558 I-0.5158 J-0.1577
X4.9679 Y-0.5384 I-0.4749 J0.2558
G3 X4.9595 Y-0.5458 I-0.0005 J-0.0079
G1 X4.9591 Y-0.5537
X4.959 Y-0.5557 Z-0.2737
X4.9588 Y-0.5576 Z-0.2729
X4.9587 Y-0.5592 Z-0.2717
Y-0.5605 Z-0.2701
X4.9586 Y-0.5613 Z-0.2682
Y-0.5615 Z-0.2661
X4.9743 Y-0.5625
Z-0.2741 F13.33
Y-0.5622 Z-0.2762
X4.9744 Y-0.5614 Z-0.2781
X4.9745 Y-0.5602 Z-0.2797
X4.9746 Y-0.5585 Z-0.2809
X4.9747 Y-0.5566 Z-0.2817
X4.9748 Y-0.5546 Z-0.282
X4.9753 Y-0.5467 F40
G3 X4.9679 Y-0.5384 I-0.0079 J0.0005
G2 X4.8167 Y-0.5073 I0.0321 J0.5384
X5.1833 Y0.5073 I0.1833 J0.5073
X5.5158 Y0.1577 I-0.1833 J-0.5073
X5.4749 Y-0.2558 I-0.5158 J-0.1577
X4.9679 Y-0.5384 I-0.4749 J0.2558
G3 X4.9595 Y-0.5458 I-0.0005 J-0.0079
G1 X4.9591 Y-0.5537
X4.959 Y-0.5557 Z-0.2817
X4.9588 Y-0.5576 Z-0.2809
X4.9587 Y-0.5592 Z-0.2797
Y-0.5605 Z-0.2781
X4.9586 Y-0.5613 Z-0.2762
Y-0.5615 Z-0.2741
X4.9743 Y-0.5625
Z-0.2821 F13.33
Y-0.5622 Z-0.2842
X4.9744 Y-0.5614 Z-0.2861
X4.9745 Y-0.5602 Z-0.2877
X4.9746 Y-0.5585 Z-0.2889
X4.9747 Y-0.5566 Z-0.2897
X4.9748 Y-0.5546 Z-0.29
X4.9753 Y-0.5467 F40
G3 X4.9679 Y-0.5384 I-0.0079 J0.0005
G2 X4.8167 Y-0.5073 I0.0321 J0.5384
X5.1833 Y0.5073 I0.1833 J0.5073
X5.5158 Y0.1577 I-0.1833 J-0.5073
X5.4749 Y-0.2558 I-0.5158 J-0.1577
X4.9679 Y-0.5384 I-0.4749 J0.2558
G3 X4.9595 Y-0.5458 I-0.0005 J-0.0079
G1 X4.9591 Y-0.5537
X4.959 Y-0.5557 Z-0.2897
X4.9588 Y-0.5576 Z-0.2889
X4.9587 Y-0.5592 Z-0.2877
Y-0.5605 Z-0.2861
X4.9586 Y-0.5613 Z-0.2842
Y-0.5615 Z-0.2821
G0 Z0.6
M9
G28 G91 Z0
G28 X0 Y0
M30
%
