%
(IDEALAB ETCH)
(ahhhh!!!!)
(T1  D=2 CR=0 - ZMIN=-0.5 - bullnose end mill)
G90 G94
G17
G21
G28 G91 Z0
G90

(2D Contour1)
M9
T1 M6
S5000 M3
G54
M8
G0 X10.122 Y-48.341
Z15
Z5
G1 Z1 F1000
Z-0.3 F333.3
X10.125 Y-48.347 Z-0.352
X10.132 Y-48.366 Z-0.4
X10.143 Y-48.396 Z-0.441
X10.157 Y-48.435 Z-0.473
X10.174 Y-48.48 Z-0.493
X10.193 Y-48.528 Z-0.5
X10.263 Y-48.715 F1000
G3 X10.521 Y-48.832 I0.187 J0.071
G1 X12.669 Y-48.022
X12.671
X12.826 Y-47.963
X12.982 Y-47.905
X12.983
X13.139 Y-47.847
X13.295 Y-47.789
X13.297 Y-47.788
X13.366 Y-47.762
X13.279 Y-47.733
X13.278 Y-47.732
X13.136 Y-47.683
X13.134
X12.992 Y-47.633
G2 X12.969 Y-47.625 I0.327 J0.945
G1 X8.986 Y-46.134
Y-49.41
X10.521 Y-48.832
G3 X10.637 Y-48.574 I-0.071 J0.187
G1 X10.567 Y-48.387
X10.549 Y-48.339 Z-0.493
X10.532 Y-48.293 Z-0.473
X10.517 Y-48.255 Z-0.441
X10.506 Y-48.225 Z-0.4
X10.499 Y-48.206 Z-0.352
X10.496 Y-48.2 Z-0.3
G0 Z5
X15.42 Y-38.841
G1 Z1 F1000
Z-0.3 F333.3
X15.426 Y-38.837 Z-0.352
X15.442 Y-38.825 Z-0.4
X15.467 Y-38.805 Z-0.441
X15.499 Y-38.78 Z-0.473
X15.537 Y-38.75 Z-0.493
X15.578 Y-38.718 Z-0.5
X15.735 Y-38.595 F1000
G3 X15.769 Y-38.314 I-0.123 J0.157
G2 X15.556 Y-37.697 I0.787 J0.617
G1 Y-27.956
X11.988
Y-37.015
G2 X10.988 Y-38.015 I-1
G1 X8.854
G2 X7.854 Y-37.015 J1
G1 Y-27.956
X3.666
Y-38.118
G2 X2.666 Y-39.118 I-1
G1 X2.458
X19.06 Y-45.495
G2 X19.702 Y-46.428 I-0.359 J-0.934
G1 Y-49.02
G2 X19.081 Y-49.946 I-1
G1 X1.149 Y-57.285
X18.702
G2 X19.702 Y-58.285 J-1
G1 Y-60.691
G2 X18.702 Y-61.691 I-1
G1 X3.666
Y-69.645
G2 X3.219 Y-70.479 I-1
G1 X19.06 Y-76.562
G2 X19.702 Y-77.496 I-0.359 J-0.934
G1 Y-80.088
G2 X19.081 Y-81.013 I-1
G1 X1.149 Y-88.353
X18.702
G2 X19.702 Y-89.353 J-1
G1 Y-96.174
G2 Y-96.192 I-1
G1 X19.699 Y-96.335
Y-96.337
X19.696 Y-96.48
Y-96.484
X19.692 Y-96.627
Y-96.632
X19.688 Y-96.774
Y-96.782
X19.683 Y-96.924
X19.682 Y-96.934
X19.675 Y-97.076
G2 Y-97.087 I-0.999 J0.047
G1 X19.667 Y-97.229
G2 X19.666 Y-97.242 I-0.998 J0.058
G1 X19.656 Y-97.384
G2 X19.655 Y-97.399 I-0.997 J0.071
G1 X19.642 Y-97.54
G2 X19.641 Y-97.557 I-0.996 J0.086
G1 X19.626 Y-97.698
G2 X19.624 Y-97.716 I-0.995 J0.103
G1 X19.607 Y-97.857
G2 X19.604 Y-97.878 I-0.993 J0.122
G1 X19.584 Y-98.018
G2 X19.58 Y-98.04 I-0.99 J0.143
G1 X19.557 Y-98.18
G2 X19.553 Y-98.203 I-0.986 J0.166
G1 X19.526 Y-98.342
G2 X19.521 Y-98.366 I-0.982 J0.189
G1 X19.491 Y-98.504
G2 X19.486 Y-98.524 I-0.977 J0.213
G1 X19.453 Y-98.661
G2 X19.449 Y-98.679 I-0.972 J0.233
G1 X19.413 Y-98.816
G2 X19.409 Y-98.833 I-0.968 J0.251
G1 X19.371 Y-98.97
G2 X19.367 Y-98.982 I-0.963 J0.268
G1 X19.327 Y-99.118
G2 X19.324 Y-99.131 I-0.96 J0.28
G1 X19.282 Y-99.267
X19.28 Y-99.275
X19.237 Y-99.41
X19.234 Y-99.418
X19.191 Y-99.553
X19.189 Y-99.557
X19.145 Y-99.693
X19.144 Y-99.695
X19.099 Y-99.83
G2 X19.036 Y-99.981 I-0.949 J0.314
G1 X18.984 Y-100.079
X18.982 Y-100.083
X18.93 Y-100.182
X18.927 Y-100.186
X18.875 Y-100.284
G2 X18.87 Y-100.293 I-0.881 J0.473
G1 X18.817 Y-100.39
G2 X18.812 Y-100.399 I-0.876 J0.481
G1 X18.757 Y-100.495
G2 X18.748 Y-100.511 I-0.872 J0.49
G1 X18.693 Y-100.606
G2 X18.684 Y-100.621 I-0.863 J0.506
G1 X18.626 Y-100.715
G2 X18.614 Y-100.734 I-0.853 J0.521
G1 X18.555 Y-100.826
G2 X18.54 Y-100.849 I-0.841 J0.54
G1 X18.479 Y-100.939
G2 X18.465 Y-100.958 I-0.826 J0.563
G1 X18.402 Y-101.047
G2 X18.381 Y-101.075 I-0.813 J0.582
G1 X18.315 Y-101.161
G2 X18.29 Y-101.191 I-0.792 J0.61
G1 X18.221 Y-101.274
G2 X18.199 Y-101.3 I-0.768 J0.64
G1 X18.127 Y-101.381
G2 X18.1 Y-101.41 I-0.746 J0.666
G1 X18.025 Y-101.488
G2 X18.004 Y-101.508 I-0.719 J0.695
G1 X17.927 Y-101.584
G2 X17.905 Y-101.604 I-0.699 J0.715
G1 X17.825 Y-101.678
G2 X17.81 Y-101.692 I-0.678 J0.735
G1 X17.728 Y-101.765
G2 X17.704 Y-101.785 I-0.663 J0.749
G1 X17.62 Y-101.855
G2 X17.607 Y-101.866 I-0.639 J0.769
G1 X17.521 Y-101.935
G2 X17.51 Y-101.944 I-0.626 J0.78
G1 X17.423 Y-102.012
G2 X17.412 Y-102.02 I-0.615 J0.789
G1 X17.324 Y-102.087
X17.32 Y-102.089
X17.231 Y-102.156
X17.223 Y-102.162
X17.134 Y-102.228
X17.127 Y-102.233
X17.037 Y-102.298
G2 X16.929 Y-102.366 I-0.586 J0.81
G1 X16.835 Y-102.417
X16.74 Y-102.469
X16.733 Y-102.473
X16.639 Y-102.523
X16.63 Y-102.527
X16.536 Y-102.576
X16.527 Y-102.581
X16.433 Y-102.629
G2 X16.424 Y-102.633 I-0.452 J0.892
G1 X16.329 Y-102.68
G2 X16.303 Y-102.692 I-0.443 J0.896
G1 X16.208 Y-102.736
G2 X16.198 Y-102.741 I-0.418 J0.908
G1 X16.102 Y-102.784
G2 X16.083 Y-102.792 I-0.408 J0.913
G1 X15.986 Y-102.833
G2 X15.951 Y-102.847 I-0.39 J0.921
G1 X15.854 Y-102.884
G2 X15.834 Y-102.891 I-0.354 J0.935
G1 X15.735 Y-102.926
G2 X15.707 Y-102.936 I-0.335 J0.942
G1 X15.608 Y-102.968
G2 X15.57 Y-102.979 I-0.306 J0.952
G1 X15.469 Y-103.007
G2 X15.44 Y-103.015 I-0.269 J0.963
G1 X15.339 Y-103.04
G2 X15.31 Y-103.047 I-0.239 J0.971
G1 X15.207 Y-103.069
G2 X15.178 Y-103.074 I-0.21 J0.978
G1 X15.075 Y-103.093
G2 X15.056 Y-103.097 I-0.181 J0.983
G1 X14.952 Y-103.114
G2 X14.923 Y-103.118 I-0.162 J0.987
G1 X14.818 Y-103.132
X14.809 Y-103.133
X14.704 Y-103.146
G2 X14.685 Y-103.149 I-0.123 J0.992
G1 X14.579 Y-103.16
X14.473 Y-103.171
G2 X14.454 Y-103.172 I-0.103 J0.995
G1 X14.348 Y-103.181
X14.339 Y-103.182
X14.232 Y-103.19
X14.126 Y-103.198
G2 X13.979 I-0.075 J0.997
G1 X13.882 Y-103.191
X13.785 Y-103.184
G2 X13.775 I0.072 J0.997
G1 X13.678 Y-103.176
X13.581 Y-103.168
G2 X13.56 Y-103.166 I0.083 J0.997
G1 X13.464 Y-103.156
G2 X13.453 Y-103.154 I0.103 J0.995
G1 X13.358 Y-103.143
G2 X13.347 Y-103.142 I0.114 J0.993
G1 X13.251 Y-103.13
G2 X13.22 Y-103.126 I0.125 J0.992
G1 X13.125 Y-103.111
G2 X13.104 Y-103.107 I0.156 J0.988
G1 X13.009 Y-103.09
G2 X12.988 Y-103.086 I0.178 J0.984
G1 X12.894 Y-103.067
G2 X12.863 Y-103.06 I0.199 J0.98
G1 X12.77 Y-103.038
G2 X12.738 Y-103.03 I0.231 J0.973
G1 X12.646 Y-103.005
G2 X12.615 Y-102.996 I0.262 J0.965
G1 X12.524 Y-102.968
G2 X12.493 Y-102.958 I0.294 J0.956
G1 X12.403 Y-102.927
G2 X12.381 Y-102.919 I0.325 J0.946
G1 X12.292 Y-102.886
G2 X12.262 Y-102.875 I0.347 J0.938
G1 X12.174 Y-102.839
G2 X12.145 Y-102.826 I0.376 J0.927
G1 X12.057 Y-102.787
G2 X12.046 Y-102.783 I0.405 J0.914
G1 X11.959 Y-102.743
G2 X11.948 Y-102.738 I0.415 J0.91
G1 X11.861 Y-102.697
G2 X11.843 Y-102.688 I0.426 J0.905
G1 X11.756 Y-102.645
G2 X11.746 Y-102.64 I0.444 J0.896
G1 X11.66 Y-102.596
G2 X11.651 Y-102.591 I0.454 J0.891
G1 X11.565 Y-102.546
X11.478 Y-102.501
X11.47 Y-102.497
X11.384 Y-102.451
G2 X11.255 Y-102.368 I0.472 J0.882
G1 X11.171 Y-102.305
X11.087 Y-102.243
G2 X11.079 Y-102.237 I0.596 J0.803
G1 X10.993 Y-102.172
G2 X10.984 Y-102.165 I0.604 J0.797
G1 X10.899 Y-102.099
G2 X10.889 Y-102.091 I0.614 J0.79
G1 X10.805 Y-102.024
X10.799 Y-102.019
X10.716 Y-101.952
G2 X10.699 Y-101.937 I0.629 J0.777
G1 X10.617 Y-101.868
G2 X10.598 Y-101.852 I0.647 J0.762
G1 X10.519 Y-101.781
G2 X10.504 Y-101.768 I0.666 J0.746
G1 X10.427 Y-101.696
G2 X10.407 Y-101.677 I0.681 J0.733
G1 X10.383 Y-101.654
X10.337 Y-101.723
G2 X10.314 Y-101.756 I-0.832 J0.555
G1 X10.239 Y-101.858
G2 X10.219 Y-101.885 I-0.809 J0.588
G1 X10.141 Y-101.985
G2 X10.119 Y-102.013 I-0.789 J0.615
G1 X10.038 Y-102.11
G2 X10.019 Y-102.131 I-0.766 J0.643
G1 X9.935 Y-102.226
G2 X9.921 Y-102.241 I-0.748 J0.664
G1 X9.834 Y-102.335
G2 X9.818 Y-102.352 I-0.734 J0.679
G1 X9.729 Y-102.444
G2 X9.718 Y-102.455 I-0.718 J0.696
G1 X9.627 Y-102.546
G2 X9.617 Y-102.556 I-0.707 J0.707
G1 X9.524 Y-102.646
G2 X9.516 Y-102.654 I-0.697 J0.717
G1 X9.422 Y-102.743
X9.419 Y-102.746
X9.325 Y-102.835
X9.319 Y-102.84
X9.224 Y-102.928
G2 X9.076 Y-103.042 I-0.68 J0.733
G1 X8.97 Y-103.108
X8.864 Y-103.174
X8.858 Y-103.179
X8.752 Y-103.244
G2 X8.739 Y-103.252 I-0.524 J0.852
G1 X8.633 Y-103.315
X8.625 Y-103.319
X8.518 Y-103.381
G2 X8.504 Y-103.39 I-0.503 J0.864
G1 X8.396 Y-103.45
G2 X8.375 Y-103.461 I-0.488 J0.873
G1 X8.267 Y-103.518
G2 X8.251 Y-103.527 I-0.467 J0.884
G1 X8.142 Y-103.582
G2 X8.112 Y-103.596 I-0.451 J0.893
G1 X8.002 Y-103.647
G2 X7.977 Y-103.658 I-0.42 J0.907
G1 X7.866 Y-103.706
G2 X7.827 Y-103.722 I-0.396 J0.918
G1 X7.714 Y-103.765
G2 X7.681 Y-103.777 I-0.357 J0.934
G1 X7.567 Y-103.816
G2 X7.525 Y-103.829 I-0.323 J0.946
G1 X7.41 Y-103.863
G2 X7.376 Y-103.873 I-0.282 J0.959
G1 X7.259 Y-103.903
G2 X7.225 Y-103.911 I-0.248 J0.969
G1 X7.107 Y-103.937
G2 X7.081 Y-103.942 I-0.215 J0.977
G1 X6.962 Y-103.965
G2 X6.929 Y-103.971 I-0.189 J0.982
G1 X6.808 Y-103.99
G2 X6.783 Y-103.993 I-0.156 J0.988
G1 X6.662 Y-104.009
X6.653 Y-104.011
X6.531 Y-104.026
G2 X6.506 Y-104.028 I-0.122 J0.993
G1 X6.383 Y-104.04
X6.375 Y-104.041
X6.252 Y-104.052
G2 X6.235 Y-104.053 I-0.089 J0.996
G1 X6.112 Y-104.062
X5.987 Y-104.071
X5.979 Y-104.072
X5.855 Y-104.08
G2 X5.742 Y-104.081 I-0.064 J0.998
G1 X5.64 Y-104.076
X5.63 Y-104.075
X5.527 Y-104.069
X5.424 Y-104.063
X5.414
X5.312 Y-104.056
X5.209 Y-104.049
G2 X5.19 Y-104.047 I0.068 J0.998
G1 X5.088 Y-104.038
G2 X5.068 Y-104.036 I0.088 J0.996
G1 X4.966 Y-104.025
G2 X4.956 Y-104.024 I0.107 J0.994
G1 X4.855 Y-104.012
G2 X4.835 Y-104.01 I0.118 J0.993
G1 X4.734 Y-103.996
G2 X4.714 Y-103.993 I0.137 J0.991
G1 X4.614 Y-103.977
G2 X4.594 Y-103.973 I0.157 J0.988
G1 X4.494 Y-103.955
G2 X4.464 Y-103.949 I0.177 J0.984
G1 X4.365 Y-103.928
G2 X4.336 Y-103.922 I0.207 J0.978
G1 X4.237 Y-103.898
G2 X4.217 Y-103.893 I0.236 J0.972
G1 X4.119 Y-103.867
G2 X4.09 Y-103.858 I0.256 J0.967
G1 X3.993 Y-103.829
G2 X3.973 Y-103.824 I0.285 J0.958
G1 X3.876 Y-103.793
G2 X3.857 Y-103.786 I0.304 J0.953
G1 X3.761 Y-103.753
G2 X3.742 Y-103.747 I0.323 J0.946
G1 X3.646 Y-103.712
G2 X3.636 Y-103.708 I0.342 J0.94
G1 X3.541 Y-103.672
G2 X3.531 Y-103.669 I0.352 J0.936
G1 X3.435 Y-103.632
X3.426 Y-103.628
X3.331 Y-103.59
X3.322 Y-103.586
X3.227 Y-103.547
X3.218 Y-103.544
X3.123 Y-103.504
X3.028 Y-103.464
G2 X2.944 Y-103.424 I0.388 J0.922
G1 X2.864 Y-103.381
X2.783 Y-103.337
G2 X2.773 Y-103.332 I0.473 J0.881
G1 X2.693 Y-103.288
X2.691 Y-103.287
X2.612 Y-103.243
G2 X2.601 Y-103.237 I0.484 J0.875
G1 X2.522 Y-103.192
G2 X2.511 Y-103.185 I0.495 J0.869
G1 X2.432 Y-103.139
G2 X2.42 Y-103.132 I0.506 J0.862
G1 X2.343 Y-103.085
G2 X2.33 Y-103.077 I0.518 J0.855
G1 X2.254 Y-103.029
G2 X2.241 Y-103.021 I0.531 J0.847
G1 X2.165 Y-102.972
G2 X2.143 Y-102.958 I0.544 J0.839
G1 X2.069 Y-102.907
G2 X2.055 Y-102.897 I0.565 J0.825
G1 X1.982 Y-102.845
G2 X1.959 Y-102.829 I0.58 J0.815
G1 X1.888 Y-102.775
G2 X1.865 Y-102.757 I0.602 J0.799
G1 X1.795 Y-102.701
G2 X1.767 Y-102.678 I0.624 J0.781
G1 X1.698 Y-102.619
G2 X1.684 Y-102.606 I0.653 J0.758
G1 X1.617 Y-102.546
G2 X1.604 Y-102.534 I0.667 J0.745
G1 X1.538 Y-102.473
G2 X1.52 Y-102.455 I0.681 J0.733
G1 X1.455 Y-102.392
G2 X1.439 Y-102.376 I0.699 J0.715
G1 X1.375 Y-102.311
X1.37 Y-102.306
X1.308 Y-102.241
G2 X1.293 Y-102.225 I0.72 J0.694
G1 X1.231 Y-102.158
X1.228 Y-102.155
X1.167 Y-102.088
X1.165 Y-102.085
X1.104 Y-102.018
G2 X1.092 Y-102.006 I0.74 J0.672
G1 X1.034 Y-101.939
X0.975 Y-101.873
G2 X0.884 Y-101.753 I0.748 J0.664
G1 X0.834 Y-101.676
X0.833 Y-101.675
X0.783 Y-101.598
X0.779 Y-101.59
X0.729 Y-101.513
X0.681 Y-101.436
G2 X0.674 Y-101.425 I0.844 J0.536
G1 X0.626 Y-101.347
G2 X0.619 Y-101.335 I0.851 J0.525
G1 X0.571 Y-101.256
G2 X0.566 Y-101.247 I0.858 J0.513
G1 X0.52 Y-101.168
G2 X0.514 Y-101.158 I0.863 J0.504
G1 X0.469 Y-101.079
G2 X0.457 Y-101.058 I0.869 J0.494
G1 X0.414 Y-100.977
G2 X0.407 Y-100.963 I0.881 J0.473
G1 X0.365 Y-100.882
G2 X0.357 Y-100.866 I0.889 J0.459
G1 X0.317 Y-100.785
G2 X0.304 Y-100.759 I0.897 J0.443
G1 X0.266 Y-100.676
G2 X0.256 Y-100.654 I0.909 J0.417
G1 X0.22 Y-100.57
G2 X0.213 Y-100.553 I0.919 J0.395
G1 X0.179 Y-100.469
G2 X0.172 Y-100.45 I0.926 J0.378
G1 X0.139 Y-100.365
G2 X0.132 Y-100.348 I0.933 J0.359
G1 X0.101 Y-100.262
G2 X0.096 Y-100.248 I0.94 J0.342
G1 X0.066 Y-100.161
G2 X0.062 Y-100.148 I0.945 J0.328
G1 X0.033 Y-100.062
G2 X0.029 Y-100.051 I0.949 J0.315
G1 X0.002 Y-99.963
G2 X-0.001 Y-99.954 I0.953 J0.304
G1 X-0.029 Y-99.866
X-0.031 Y-99.859
X-0.057 Y-99.771
X-0.059 Y-99.766
X-0.085 Y-99.677
X-0.086 Y-99.674
X-0.111 Y-99.585
X-0.112 Y-99.583
X-0.137 Y-99.495
G2 X-0.157 Y-99.414 I0.961 J0.276
G1 X-0.181 Y-99.294
Y-99.292
X-0.205 Y-99.171
X-0.206 Y-99.168
X-0.229 Y-99.047
X-0.23 Y-99.043
X-0.253 Y-98.922
X-0.254 Y-98.917
X-0.277 Y-98.796
X-0.278 Y-98.789
X-0.3 Y-98.668
X-0.301 Y-98.659
X-0.322 Y-98.538
X-0.323 Y-98.528
X-0.343 Y-98.407
G2 X-0.344 Y-98.396 I0.988 J0.158
G1 X-0.362 Y-98.274
G2 X-0.364 Y-98.262 I0.989 J0.147
G1 X-0.381 Y-98.14
G2 X-0.382 Y-98.126 I0.991 J0.134
G1 X-0.397 Y-98.004
G2 X-0.399 Y-97.99 I0.993 J0.12
G1 X-0.412 Y-97.867
G2 X-0.413 Y-97.853 I0.994 J0.106
G1 X-0.424 Y-97.731
G2 X-0.426 Y-97.718 I0.996 J0.092
G1 X-0.435 Y-97.596
G2 X-0.436 Y-97.584 I0.997 J0.079
G1 X-0.444 Y-97.461
G2 X-0.445 Y-97.451 I0.998 J0.067
G1 X-0.452 Y-97.328
Y-97.319
X-0.458 Y-97.196
X-0.459 Y-97.187
X-0.463 Y-97.064
X-0.464 Y-97.057
X-0.468 Y-96.934
Y-96.928
X-0.471 Y-96.805
Y-96.801
X-0.474 Y-96.677
Y-96.674
X-0.476 Y-96.55
Y-96.548
X-0.478 Y-96.425
Y-96.424
X-0.48 Y-96.3
G2 Y-96.285 I1 J0.015
G1 Y-89.353
G2 X0.109 Y-88.441 I1
X-0.48 Y-87.529 I0.411 J0.912
G1 Y-84.788
G2 X0.161 Y-83.855 I1
G1 X5.027 Y-81.981
Y-75.766
X0.179 Y-74.008
G2 X-0.48 Y-73.068 I0.341 J0.94
G1 Y-70.513
G2 X-0.381 Y-70.079 I1
X-0.48 Y-69.645 I0.901 J0.434
G1 Y-58.285
G2 X0.109 Y-57.373 I1
X-0.48 Y-56.462 I0.411 J0.912
G1 Y-53.721
G2 X0.161 Y-52.787 I1
G1 X5.027 Y-50.913
Y-44.698
X0.179 Y-42.941
G2 X-0.48 Y-42 I0.341 J0.94
G1 Y-39.445
G2 X-0.228 Y-38.782 I1
X-0.48 Y-38.118 I0.748 J0.664
G1 Y-24.55
G2 X0.52 Y-23.55 I1
G1 X9.71
X18.702
G2 X19.702 Y-24.55 J-1
G1 Y-37.697
G2 X18.702 Y-38.697 I-1
G1 X16.556
G2 X15.769 Y-38.314 J1
G3 X15.488 Y-38.28 I-0.157 J-0.123
G1 X15.331 Y-38.403
X15.29 Y-38.435 Z-0.493
X15.252 Y-38.465 Z-0.473
X15.22 Y-38.49 Z-0.441
X15.195 Y-38.51 Z-0.4
X15.179 Y-38.522 Z-0.352
X15.174 Y-38.527 Z-0.3
G0 Z5
X20.302 Y-5.958
G1 Z1 F1000
Z-0.3 F333.3
G18 G3 X20.102 Z-0.5 I-0.2
G1 X19.902 F1000
G17 G3 X19.702 Y-6.158 J-0.2
G1 Y-12.421
Y-12.424
X19.701 Y-12.56
Y-12.562
X19.7 Y-12.698
Y-12.835
Y-12.838
X19.698 Y-12.974
Y-12.978
X19.696 Y-13.114
Y-13.118
X19.694 Y-13.254
X19.693 Y-13.26
X19.69 Y-13.396
Y-13.402
X19.686 Y-13.537
X19.685 Y-13.545
X19.68 Y-13.681
Y-13.689
X19.673 Y-13.825
Y-13.834
X19.665 Y-13.969
G2 X19.664 Y-13.981 I-0.998 J0.057
G1 X19.655 Y-14.116
G2 X19.654 Y-14.126 I-0.998 J0.069
G1 X19.644 Y-14.261
G2 X19.642 Y-14.274 I-0.997 J0.079
G1 X19.63 Y-14.409
G2 X19.629 Y-14.422 I-0.996 J0.092
G1 X19.614 Y-14.557
G2 X19.613 Y-14.568 I-0.994 J0.106
G1 X19.597 Y-14.702
G2 X19.596 Y-14.713 I-0.993 J0.117
G1 X19.579 Y-14.847
X19.578 Y-14.856
X19.559 Y-14.991
X19.558 Y-14.999
X19.538 Y-15.133
X19.537 Y-15.139
X19.517 Y-15.273
X19.516 Y-15.278
X19.495 Y-15.412
X19.494 Y-15.416
X19.473 Y-15.55
X19.472 Y-15.552
X19.45 Y-15.686
Y-15.688
X19.428 Y-15.821
G2 X19.404 Y-15.93 I-0.987 J0.164
G1 X19.37 Y-16.051
X19.369 Y-16.053
X19.335 Y-16.174
X19.333 Y-16.178
X19.298 Y-16.298
X19.296 Y-16.306
X19.26 Y-16.426
X19.258 Y-16.435
X19.221 Y-16.555
G2 X19.217 Y-16.567 I-0.956 J0.295
G1 X19.179 Y-16.686
G2 X19.174 Y-16.699 I-0.952 J0.306
G1 X19.134 Y-16.817
G2 X19.129 Y-16.833 I-0.947 J0.32
G1 X19.087 Y-16.95
G2 X19.08 Y-16.97 I-0.942 J0.336
G1 X19.036 Y-17.086
G2 X19.028 Y-17.106 I-0.935 J0.355
G1 X18.982 Y-17.221
G2 X18.972 Y-17.244 I-0.927 J0.375
G1 X18.923 Y-17.358
G2 X18.912 Y-17.382 I-0.917 J0.398
G1 X18.859 Y-17.494
G2 X18.846 Y-17.521 I-0.906 J0.423
G1 X18.791 Y-17.631
G2 X18.777 Y-17.657 I-0.893 J0.449
G1 X18.718 Y-17.766
G2 X18.706 Y-17.788 I-0.88 J0.475
G1 X18.644 Y-17.896
G2 X18.632 Y-17.916 I-0.867 J0.498
G1 X18.568 Y-18.022
G2 X18.557 Y-18.04 I-0.855 J0.518
G1 X18.49 Y-18.145
G2 X18.481 Y-18.16 I-0.844 J0.536
G1 X18.412 Y-18.264
G2 X18.403 Y-18.277 I-0.835 J0.551
G1 X18.333 Y-18.38
G2 X18.326 Y-18.391 I-0.826 J0.564
G1 X18.254 Y-18.493
G2 X18.248 Y-18.501 I-0.819 J0.574
G1 X18.175 Y-18.603
X18.171 Y-18.609
X18.097 Y-18.711
X18.094 Y-18.715
X18.019 Y-18.816
X18.018 Y-18.818
X17.943 Y-18.919
G2 X17.856 Y-19.022 I-0.804 J0.595
G1 X17.744 Y-19.137
X17.742 Y-19.139
X17.63 Y-19.253
X17.626 Y-19.257
X17.513 Y-19.371
X17.508 Y-19.377
X17.394 Y-19.489
G2 X17.387 Y-19.497 I-0.705 J0.709
G1 X17.273 Y-19.608
G2 X17.263 Y-19.618 I-0.698 J0.716
G1 X17.147 Y-19.727
G2 X17.136 Y-19.738 I-0.688 J0.726
G1 X17.019 Y-19.846
G2 X17.005 Y-19.858 I-0.676 J0.737
G1 X16.886 Y-19.963
G2 X16.869 Y-19.978 I-0.662 J0.749
G1 X16.748 Y-20.08
G2 X16.729 Y-20.095 I-0.646 J0.764
G1 X16.606 Y-20.194
G2 X16.584 Y-20.211 I-0.627 J0.779
G1 X16.459 Y-20.307
G2 X16.434 Y-20.325 I-0.605 J0.796
G1 X16.306 Y-20.416
G2 X16.281 Y-20.433 I-0.58 J0.814
G1 X16.15 Y-20.521
G2 X16.125 Y-20.537 I-0.555 J0.832
G1 X15.991 Y-20.62
G2 X15.968 Y-20.634 I-0.53 J0.848
G1 X15.832 Y-20.715
G2 X15.812 Y-20.726 I-0.507 J0.862
G1 X15.674 Y-20.803
G2 X15.655 Y-20.813 I-0.487 J0.873
G1 X15.515 Y-20.888
G2 X15.499 Y-20.896 I-0.469 J0.883
G1 X15.357 Y-20.968
G2 X15.343 Y-20.975 I-0.452 J0.892
G1 X15.2 Y-21.045
G2 X15.188 Y-21.05 I-0.438 J0.899
G1 X15.044 Y-21.118
G2 X15.035 Y-21.123 I-0.427 J0.904
G1 X14.889 Y-21.189
X14.882 Y-21.193
X14.736 Y-21.258
X14.732 Y-21.26
X14.585 Y-21.325
X14.583 Y-21.327
X14.436 Y-21.391
G2 X14.328 Y-21.432 I-0.403 J0.915
G1 X14.152 Y-21.486
X14.151
X13.975 Y-21.541
X13.971 Y-21.542
X13.795 Y-21.595
X13.789 Y-21.597
X13.613 Y-21.649
X13.605 Y-21.651
X13.429 Y-21.702
X13.42 Y-21.705
X13.243 Y-21.754
G2 X13.231 Y-21.757 I-0.268 J0.963
G1 X13.054 Y-21.804
G2 X13.041 Y-21.808 I-0.256 J0.967
G1 X12.863 Y-21.852
G2 X12.848 Y-21.856 I-0.243 J0.97
G1 X12.669 Y-21.897
G2 X12.653 Y-21.901 I-0.227 J0.974
G1 X12.474 Y-21.94
G2 X12.455 Y-21.944 I-0.211 J0.978
G1 X12.275 Y-21.979
G2 X12.253 Y-21.983 I-0.191 J0.982
G1 X12.074 Y-22.014
G2 X12.053 Y-22.017 I-0.169 J0.986
G1 X11.872 Y-22.044
G2 X11.853 Y-22.047 I-0.148 J0.989
G1 X11.672 Y-22.07
G2 X11.654 Y-22.073 I-0.129 J0.992
G1 X11.472 Y-22.093
G2 X11.456 Y-22.094 I-0.111 J0.994
G1 X11.274 Y-22.112
G2 X11.26 Y-22.113 I-0.095 J0.995
G1 X11.077 Y-22.128
G2 X11.064 Y-22.129 I-0.081 J0.997
G1 X10.881 Y-22.141
G2 X10.871 Y-22.142 I-0.068 J0.998
G1 X10.688 Y-22.153
X10.678
X10.495 Y-22.162
X10.488
X10.304 Y-22.17
X10.298
X10.114 Y-22.177
X10.112
X9.927 Y-22.183
X9.925
X9.741 Y-22.189
G2 X9.686 I-0.031 J1
G1 X9.531 Y-22.185
X9.53
X9.375 Y-22.181
X9.371
X9.216 Y-22.177
X9.212
X9.057 Y-22.172
X9.052
X8.897 Y-22.166
X8.89 Y-22.165
X8.735 Y-22.158
X8.726
X8.572 Y-22.15
G2 X8.561 Y-22.149 I0.054 J0.999
G1 X8.407 Y-22.139
G2 X8.395 Y-22.138 I0.064 J0.998
G1 X8.241 Y-22.127
G2 X8.229 Y-22.126 I0.076 J0.997
G1 X8.075 Y-22.112
G2 X8.06 Y-22.111 I0.088 J0.996
G1 X7.907 Y-22.095
G2 X7.891 Y-22.093 I0.103 J0.995
G1 X7.738 Y-22.075
G2 X7.721 Y-22.072 I0.119 J0.993
G1 X7.568 Y-22.052
G2 X7.55 Y-22.049 I0.135 J0.991
G1 X7.397 Y-22.025
G2 X7.382 Y-22.023 I0.154 J0.988
G1 X7.23 Y-21.997
G2 X7.216 Y-21.994 I0.169 J0.986
G1 X7.064 Y-21.966
G2 X7.05 Y-21.963 I0.183 J0.983
G1 X6.899 Y-21.933
G2 X6.889 Y-21.931 I0.197 J0.98
G1 X6.737 Y-21.899
X6.728 Y-21.897
X6.577 Y-21.863
X6.568 Y-21.861
X6.417 Y-21.826
X6.412 Y-21.825
X6.261 Y-21.789
X6.256 Y-21.788
X6.105 Y-21.752
X6.102 Y-21.751
X5.951 Y-21.714
X5.95
X5.799 Y-21.676
G2 X5.726 Y-21.655 I0.24 J0.971
G1 X5.61 Y-21.617
X5.492 Y-21.578
X5.489 Y-21.577
X5.372 Y-21.538
X5.368 Y-21.537
X5.252 Y-21.497
X5.245 Y-21.495
X5.13 Y-21.455
X5.123 Y-21.452
X5.007 Y-21.411
X4.998 Y-21.408
X4.883 Y-21.366
G2 X4.873 Y-21.362 I0.344 J0.939
G1 X4.759 Y-21.319
G2 X4.746 Y-21.314 I0.354 J0.935
G1 X4.632 Y-21.269
G2 X4.619 Y-21.264 I0.367 J0.93
G1 X4.506 Y-21.217
G2 X4.492 Y-21.211 I0.38 J0.925
G1 X4.38 Y-21.163
G2 X4.363 Y-21.156 I0.395 J0.919
G1 X4.252 Y-21.106
G2 X4.235 Y-21.098 I0.411 J0.912
G1 X4.125 Y-21.046
G2 X4.106 Y-21.037 I0.429 J0.904
G1 X3.997 Y-20.982
G2 X3.982 Y-20.974 I0.447 J0.894
G1 X3.874 Y-20.918
G2 X3.858 Y-20.91 I0.463 J0.887
G1 X3.751 Y-20.851
G2 X3.739 Y-20.844 I0.478 J0.878
G1 X3.632 Y-20.785
G2 X3.621 Y-20.778 I0.491 J0.871
G1 X3.515 Y-20.717
G2 X3.505 Y-20.711 I0.502 J0.865
G1 X3.4 Y-20.648
X3.393 Y-20.644
X3.288 Y-20.581
X3.282 Y-20.577
X3.177 Y-20.512
X3.173 Y-20.509
X3.069 Y-20.444
X3.066 Y-20.443
X2.962 Y-20.377
X2.96 Y-20.376
X2.857 Y-20.311
G2 X2.781 Y-20.257 I0.534 J0.845
G1 X2.703 Y-20.197
X2.702
X2.624 Y-20.136
X2.621 Y-20.134
X2.544 Y-20.074
X2.54 Y-20.071
X2.462 Y-20.01
X2.457 Y-20.006
X2.38 Y-19.944
X2.373 Y-19.939
X2.297 Y-19.877
G2 X2.289 Y-19.871 I0.631 J0.776
G1 X2.214 Y-19.808
G2 X2.204 Y-19.8 I0.639 J0.769
G1 X2.13 Y-19.737
G2 X2.119 Y-19.727 I0.649 J0.761
G1 X2.046 Y-19.663
G2 X2.034 Y-19.653 I0.659 J0.752
G1 X1.962 Y-19.587
G2 X1.949 Y-19.575 I0.671 J0.742
G1 X1.878 Y-19.508
G2 X1.864 Y-19.495 I0.684 J0.729
G1 X1.794 Y-19.427
G2 X1.779 Y-19.412 I0.698 J0.716
G1 X1.71 Y-19.342
G2 X1.696 Y-19.327 I0.714 J0.701
G1 X1.629 Y-19.256
G2 X1.616 Y-19.241 I0.728 J0.685
G1 X1.55 Y-19.169
G2 X1.539 Y-19.156 I0.742 J0.671
G1 X1.474 Y-19.082
G2 X1.465 Y-19.071 I0.753 J0.658
G1 X1.401 Y-18.997
G2 X1.392 Y-18.986 I0.763 J0.646
G1 X1.33 Y-18.91
G2 X1.323 Y-18.901 I0.772 J0.636
G1 X1.262 Y-18.825
X1.256 Y-18.818
X1.195 Y-18.741
X1.19 Y-18.735
X1.13 Y-18.657
X1.127 Y-18.652
X1.067 Y-18.575
X1.064 Y-18.571
X1.005 Y-18.493
X1.004 Y-18.492
X0.945 Y-18.414
G2 X0.879 Y-18.316 I0.797 J0.604
G1 X0.829 Y-18.23
X0.828 Y-18.229
X0.778 Y-18.143
X0.776 Y-18.14
X0.727 Y-18.054
X0.724 Y-18.05
X0.675 Y-17.964
X0.671 Y-17.957
X0.623 Y-17.871
G2 X0.618 Y-17.863 I0.872 J0.49
G1 X0.571 Y-17.776
G2 X0.566 Y-17.767 I0.877 J0.481
G1 X0.519 Y-17.68
G2 X0.513 Y-17.668 I0.882 J0.471
G1 X0.468 Y-17.58
G2 X0.461 Y-17.567 I0.888 J0.459
G1 X0.417 Y-17.479
G2 X0.409 Y-17.463 I0.895 J0.446
G1 X0.367 Y-17.375
G2 X0.359 Y-17.357 I0.903 J0.43
G1 X0.318 Y-17.268
G2 X0.31 Y-17.249 I0.911 J0.413
G1 X0.272 Y-17.159
G2 X0.263 Y-17.139 I0.919 J0.394
G1 X0.227 Y-17.048
G2 X0.22 Y-17.03 I0.927 J0.374
G1 X0.185 Y-16.939
G2 X0.179 Y-16.922 I0.934 J0.356
G1 X0.145 Y-16.83
G2 X0.14 Y-16.815 I0.94 J0.34
G1 X0.108 Y-16.722
G2 X0.104 Y-16.709 I0.946 J0.325
G1 X0.073 Y-16.615
G2 X0.069 Y-16.604 I0.95 J0.312
G1 X0.04 Y-16.51
G2 X0.037 Y-16.5 I0.954 J0.3
G1 X0.008 Y-16.405
X0.005 Y-16.397
X-0.022 Y-16.303
X-0.024 Y-16.296
X-0.052 Y-16.201
X-0.053 Y-16.196
X-0.08 Y-16.101
X-0.081 Y-16.097
X-0.107 Y-16.002
X-0.108 Y-16
X-0.134 Y-15.905
G2 X-0.151 Y-15.834 I0.964 J0.266
G1 X-0.175 Y-15.714
Y-15.713
X-0.199 Y-15.592
Y-15.589
X-0.223 Y-15.469
Y-15.465
X-0.246 Y-15.344
X-0.247 Y-15.339
X-0.27 Y-15.219
X-0.271 Y-15.212
X-0.293 Y-15.091
X-0.294 Y-15.084
X-0.314 Y-14.963
X-0.316 Y-14.954
X-0.335 Y-14.833
G2 X-0.337 Y-14.822 I0.987 J0.159
G1 X-0.355 Y-14.701
G2 X-0.357 Y-14.69 I0.989 J0.149
G1 X-0.374 Y-14.568
G2 X-0.375 Y-14.555 I0.991 J0.137
G1 X-0.391 Y-14.434
G2 X-0.392 Y-14.42 I0.992 J0.124
G1 X-0.406 Y-14.298
G2 X-0.407 Y-14.284 I0.994 J0.11
G1 X-0.419 Y-14.162
G2 X-0.42 Y-14.149 I0.995 J0.096
G1 X-0.43 Y-14.027
G2 X-0.431 Y-14.016 I0.997 J0.083
G1 X-0.44 Y-13.894
G2 Y-13.883 I0.997 J0.071
G1 X-0.448 Y-13.761
Y-13.751
X-0.455 Y-13.629
Y-13.621
X-0.46 Y-13.498
X-0.461 Y-13.491
X-0.465 Y-13.369
Y-13.363
X-0.469 Y-13.24
Y-13.235
X-0.472 Y-13.113
Y-13.109
X-0.475 Y-12.986
Y-12.984
X-0.478 Y-12.861
Y-12.86
X-0.48 Y-12.737
G2 Y-12.719 I1 J0.019
G1 Y-6.158
G2 X0.52 Y-5.158 I1
G1 X18.702
G2 X19.702 Y-6.158 J-1
G3 X19.902 Y-6.358 I0.2
G1 X20.102
G18 G2 X20.302 Z-0.3 K0.2
G0 Z5
Y0.69
G1 Z1 F1000
Z-0.3 F333.3
G3 X20.102 Z-0.5 I-0.2
G1 X19.902 F1000
G17 G3 X19.702 Y0.49 J-0.2
G1 Y-1.916
G2 X18.702 Y-2.916 I-1
G1 X0.52
G2 X-0.48 Y-1.916 J1
G1 Y0.49
G2 X0.52 Y1.49 I1
G1 X18.702
G2 X19.702 Y0.49 J-1
G3 X19.902 Y0.29 I0.2
G1 X20.102
G18 G2 X20.302 Z-0.3 K0.2
G0 Z5
X9.617 Y-17.111
G1 Z1 F1000
Z-0.3 F333.3
Y-17.118 Z-0.352
Y-17.138 Z-0.4
X9.618 Y-17.17 Z-0.441
X9.619 Y-17.211 Z-0.473
X9.62 Y-17.259 Z-0.493
X9.621 Y-17.311 Z-0.5
X9.625 Y-17.511 F1000
G17 G3 X9.828 Y-17.707 I0.2 J0.004
G1 X9.917 Y-17.705
X10.105 Y-17.701
X10.289 Y-17.696
X10.471 Y-17.69
X10.649 Y-17.682
X10.825 Y-17.672
X10.998 Y-17.66
X11.168 Y-17.645
X11.334 Y-17.627
X11.496 Y-17.606
X11.655 Y-17.581
X11.811 Y-17.553
X11.963 Y-17.52
X12.113 Y-17.482
X12.264 Y-17.44
X12.417 Y-17.391
X12.572 Y-17.338
X12.73 Y-17.28
X12.889 Y-17.218
X13.052 Y-17.152
X13.216 Y-17.082
X13.384 Y-17.01
X13.553 Y-16.935
X13.644 Y-16.895
X13.677 Y-16.872
X13.782 Y-16.801
X13.883 Y-16.73
X13.982 Y-16.66
X14.076 Y-16.592
X14.166 Y-16.524
X14.253 Y-16.457
X14.334 Y-16.39
X14.411 Y-16.324
X14.483 Y-16.258
X14.55 Y-16.193
X14.612 Y-16.128
X14.671 Y-16.062
X14.727 Y-15.993
X14.783 Y-15.918
X14.839 Y-15.838
X14.895 Y-15.754
X14.951 Y-15.664
X15.008 Y-15.569
X15.064 Y-15.469
X15.122 Y-15.366
X15.179 Y-15.258
X15.238 Y-15.147
X15.245 Y-15.135
X15.248 Y-15.122
X15.28 Y-14.997
X15.31 Y-14.875
X15.34 Y-14.754
X15.367 Y-14.636
X15.394 Y-14.519
X15.418 Y-14.404
X15.44 Y-14.292
X15.459 Y-14.181
X15.476 Y-14.071
X15.492 Y-13.961
X15.505 Y-13.85
X15.516 Y-13.737
X15.525 Y-13.622
X15.533 Y-13.505
X15.54 Y-13.387
X15.545 Y-13.267
X15.549 Y-13.146
X15.551 Y-13.022
X15.554 Y-12.897
X15.555 Y-12.771
X15.556 Y-12.643
Y-12.513
Y-12.383
Y-9.564
X3.666
Y-12.441
X3.667 Y-12.554
X3.668 Y-12.671
X3.67 Y-12.787
X3.672 Y-12.901
X3.674 Y-13.014
X3.678 Y-13.125
X3.682 Y-13.235
X3.687 Y-13.343
X3.694 Y-13.45
X3.702 Y-13.555
X3.711 Y-13.658
X3.721 Y-13.76
X3.733 Y-13.86
X3.747 Y-13.96
X3.762 Y-14.06
X3.78 Y-14.161
X3.799 Y-14.264
X3.82 Y-14.369
X3.843 Y-14.476
X3.867 Y-14.584
X3.892 Y-14.694
X3.918 Y-14.805
X3.945 Y-14.918
X3.959 Y-14.977
X3.966 Y-14.996
X3.993 Y-15.068
X4.019 Y-15.137
X4.044 Y-15.204
X4.07 Y-15.268
X4.095 Y-15.33
X4.12 Y-15.389
X4.145 Y-15.446
X4.17 Y-15.499
X4.195 Y-15.55
X4.22 Y-15.599
X4.245 Y-15.644
X4.27 Y-15.687
X4.297 Y-15.73
X4.327 Y-15.775
X4.36 Y-15.822
X4.395 Y-15.87
X4.432 Y-15.919
X4.472 Y-15.97
X4.515 Y-16.023
X4.56 Y-16.078
X4.607 Y-16.134
X4.653 Y-16.189
X4.674 Y-16.207
X4.757 Y-16.277
X4.839 Y-16.345
X4.919 Y-16.41
X4.997 Y-16.473
X5.074 Y-16.534
X5.149 Y-16.591
X5.223 Y-16.645
X5.296 Y-16.696
X5.368 Y-16.744
X5.439 Y-16.789
X5.511 Y-16.831
X5.584 Y-16.872
X5.661 Y-16.912
X5.741 Y-16.951
X5.824 Y-16.99
X5.911 Y-17.028
X6 Y-17.066
X6.092 Y-17.104
X6.187 Y-17.141
X6.284 Y-17.179
X6.384 Y-17.217
X6.486 Y-17.255
X6.545 Y-17.276
X6.64 Y-17.301
X6.781 Y-17.338
X6.92 Y-17.374
X7.058 Y-17.408
X7.194 Y-17.441
X7.328 Y-17.473
X7.462 Y-17.503
X7.593 Y-17.53
X7.723 Y-17.555
X7.851 Y-17.578
X7.978 Y-17.599
X8.105 Y-17.616
X8.235 Y-17.632
X8.365 Y-17.646
X8.498 Y-17.658
X8.632 Y-17.668
X8.768 Y-17.676
X8.906 Y-17.684
X9.046 Y-17.69
X9.187 Y-17.695
X9.33 Y-17.699
X9.475 Y-17.703
X9.62 Y-17.706
X9.748 Y-17.709
X9.828 Y-17.707
G3 X10.024 Y-17.503 I-0.004 J0.2
G1 X10.021 Y-17.303
X10.02 Y-17.251 Z-0.493
X10.019 Y-17.203 Z-0.473
X10.018 Y-17.162 Z-0.441
X10.017 Y-17.13 Z-0.4
Y-17.11 Z-0.352
Y-17.103 Z-0.3
G0 Z5
X10.122 Y-79.409
G1 Z1 F1000
Z-0.3 F333.3
X10.125 Y-79.415 Z-0.352
X10.132 Y-79.434 Z-0.4
X10.143 Y-79.464 Z-0.441
X10.157 Y-79.502 Z-0.473
X10.174 Y-79.548 Z-0.493
X10.193 Y-79.596 Z-0.5
X10.263 Y-79.783 F1000
G3 X10.521 Y-79.9 I0.187 J0.071
G1 X12.669 Y-79.09
X12.671
X12.826 Y-79.031
X12.982 Y-78.973
X13.138 Y-78.915
X13.14 Y-78.914
X13.295 Y-78.856
X13.297
X13.365 Y-78.83
X13.279 Y-78.801
X13.277 Y-78.8
X13.135 Y-78.751
X12.992 Y-78.702
G2 X12.969 Y-78.693 I0.327 J0.945
G1 X8.986 Y-77.202
Y-80.478
X10.521 Y-79.9
G3 X10.637 Y-79.642 I-0.071 J0.187
G1 X10.567 Y-79.455
X10.549 Y-79.406 Z-0.493
X10.532 Y-79.361 Z-0.473
X10.517 Y-79.323 Z-0.441
X10.506 Y-79.293 Z-0.4
X10.499 Y-79.274 Z-0.352
X10.496 Y-79.268 Z-0.3
G0 Z5
X14.957 Y-95.712
G1 Z1 F1000
Z-0.3 F333.3
G18 G2 X15.156 Z-0.5 I0.2
G1 X15.356 F1000
G17 G3 X15.557 Y-95.512 J0.2
G1 Y-95.51
X15.556 Y-95.395
Y-95.393
Y-92.759
X12.062
Y-95.69
Y-95.787
Y-95.882
Y-95.975
X12.063 Y-96.067
X12.064 Y-96.159
X12.065 Y-96.249
X12.068 Y-96.338
X12.07 Y-96.426
X12.074 Y-96.511
X12.078 Y-96.596
X12.083 Y-96.681
X12.09 Y-96.763
X12.097 Y-96.844
X12.105 Y-96.924
X12.115 Y-97.004
X12.126 Y-97.085
X12.138 Y-97.167
X12.152 Y-97.251
X12.167 Y-97.337
X12.183 Y-97.424
X12.199 Y-97.513
X12.217 Y-97.604
X12.235 Y-97.696
X12.24 Y-97.719
X12.261 Y-97.779
X12.283 Y-97.838
X12.304 Y-97.895
X12.324 Y-97.946
X12.344 Y-97.996
X12.364 Y-98.041
X12.382 Y-98.083
X12.401 Y-98.12
X12.419 Y-98.154
X12.436 Y-98.185
X12.452 Y-98.211
X12.469 Y-98.235
X12.487 Y-98.26
X12.508 Y-98.287
X12.533 Y-98.316
X12.561 Y-98.348
X12.593 Y-98.382
X12.629 Y-98.418
X12.667 Y-98.456
X12.71 Y-98.497
X12.755 Y-98.539
X12.775 Y-98.558
X12.799 Y-98.572
X12.853 Y-98.602
X12.904 Y-98.631
X12.953 Y-98.657
X12.998 Y-98.681
X13.04 Y-98.701
X13.079 Y-98.719
X13.115 Y-98.735
X13.149 Y-98.748
X13.178 Y-98.758
X13.207 Y-98.767
X13.238 Y-98.775
X13.273 Y-98.783
X13.311 Y-98.79
X13.352 Y-98.797
X13.399 Y-98.803
X13.449 Y-98.809
X13.501 Y-98.814
X13.557 Y-98.819
X13.618 Y-98.823
X13.681 Y-98.827
X13.747 Y-98.83
X13.763 Y-98.831
X13.778 Y-98.83
X13.845 Y-98.826
X13.909 Y-98.822
X13.968 Y-98.818
X14.025 Y-98.813
X14.08 Y-98.808
X14.131 Y-98.802
X14.178 Y-98.796
X14.222 Y-98.789
X14.263 Y-98.781
X14.3 Y-98.773
X14.335 Y-98.764
X14.368 Y-98.755
X14.403 Y-98.743
X14.44 Y-98.73
X14.48 Y-98.714
X14.524 Y-98.696
X14.569 Y-98.676
X14.617 Y-98.654
X14.669 Y-98.629
X14.721 Y-98.603
X14.777 Y-98.574
X14.821 Y-98.552
X14.853 Y-98.526
X14.9 Y-98.49
X14.942 Y-98.457
X14.98 Y-98.425
X15.016 Y-98.395
X15.047 Y-98.367
X15.074 Y-98.341
X15.097 Y-98.318
X15.117 Y-98.297
X15.133 Y-98.278
X15.147 Y-98.261
X15.16 Y-98.243
X15.174 Y-98.222
X15.189 Y-98.197
X15.206 Y-98.167
X15.224 Y-98.133
X15.243 Y-98.095
X15.262 Y-98.053
X15.283 Y-98.006
X15.304 Y-97.956
X15.327 Y-97.903
X15.34 Y-97.87
X15.344 Y-97.848
X15.367 Y-97.736
X15.388 Y-97.627
X15.409 Y-97.518
X15.428 Y-97.412
X15.447 Y-97.307
X15.464 Y-97.204
X15.479 Y-97.102
X15.493 Y-97.002
X15.505 Y-96.903
X15.515 Y-96.804
X15.524 Y-96.703
X15.532 Y-96.601
X15.538 Y-96.498
X15.543 Y-96.393
X15.547 Y-96.287
X15.551 Y-96.18
X15.553 Y-96.071
X15.555 Y-95.962
X15.556 Y-95.851
Y-95.739
X15.557 Y-95.625
Y-95.512
G3 X15.356 Y-95.312 I-0.2
G1 X15.156
G18 G3 X14.957 Z-0.3 K0.2
G0 Z5
X7.316 Y-96.152
G1 Z1 F1000
Z-0.3 F333.3
G2 X7.516 Z-0.5 I0.2
G1 X7.716 F1000
G17 G3 X7.916 Y-95.952 J0.2
G1 Y-92.759
X3.666
Y-96.285
Y-96.287
X3.665 Y-96.355
Y-96.423
Y-96.49
X3.666 Y-96.556
Y-96.621
Y-96.686
X3.667 Y-96.75
X3.668 Y-96.813
X3.67 Y-96.875
X3.672 Y-96.937
X3.674 Y-96.999
X3.676 Y-97.059
X3.679 Y-97.119
X3.683 Y-97.178
X3.687 Y-97.237
X3.692 Y-97.296
X3.697 Y-97.356
X3.703 Y-97.418
X3.709 Y-97.48
X3.716 Y-97.543
X3.723 Y-97.608
X3.73 Y-97.673
X3.738 Y-97.74
X3.741 Y-97.763
X3.744 Y-97.779
X3.756 Y-97.837
X3.768 Y-97.893
X3.78 Y-97.948
X3.792 Y-98
X3.804 Y-98.05
X3.816 Y-98.099
X3.828 Y-98.145
X3.84 Y-98.189
X3.853 Y-98.231
X3.866 Y-98.272
X3.878 Y-98.31
X3.892 Y-98.346
X3.906 Y-98.383
X3.922 Y-98.421
X3.939 Y-98.461
X3.958 Y-98.503
X3.979 Y-98.546
X4.001 Y-98.592
X4.025 Y-98.639
X4.05 Y-98.687
X4.076 Y-98.738
X4.097 Y-98.777
X4.118 Y-98.806
X4.149 Y-98.847
X4.178 Y-98.885
X4.206 Y-98.921
X4.233 Y-98.954
X4.258 Y-98.983
X4.281 Y-99.011
X4.304 Y-99.036
X4.325 Y-99.057
X4.343 Y-99.076
X4.362 Y-99.093
X4.382 Y-99.111
X4.405 Y-99.13
X4.431 Y-99.15
X4.46 Y-99.171
X4.488 Y-99.191
X4.522 Y-99.214
X4.559 Y-99.239
X4.598 Y-99.264
X4.638 Y-99.289
X4.679 Y-99.314
X4.728 Y-99.344
X4.732 Y-99.346
X4.78 Y-99.367
X4.834 Y-99.39
X4.894 Y-99.416
X4.942 Y-99.436
X4.989 Y-99.454
X5.036 Y-99.472
X5.077 Y-99.487
X5.124 Y-99.503
X5.157 Y-99.513
X5.19 Y-99.522
X5.231 Y-99.532
X5.264 Y-99.54
X5.298 Y-99.546
X5.34 Y-99.552
X5.382 Y-99.558
X5.432 Y-99.564
X5.483 Y-99.569
X5.534 Y-99.573
X5.592 Y-99.577
X5.651 Y-99.581
X5.71 Y-99.584
X5.769 Y-99.587
X5.782 Y-99.588
X5.806 Y-99.586
G2 X5.819 Y-99.585 I0.063 J-0.998
G1 X5.885 Y-99.582
X5.951 Y-99.577
X6.022 Y-99.571
X6.087 Y-99.566
X6.146 Y-99.56
X6.203 Y-99.552
X6.26 Y-99.544
X6.31 Y-99.535
X6.353 Y-99.527
X6.395 Y-99.517
X6.442 Y-99.504
X6.477 Y-99.494
X6.511 Y-99.481
X6.557 Y-99.463
X6.604 Y-99.444
X6.65 Y-99.423
X6.702 Y-99.398
X6.754 Y-99.371
X6.807 Y-99.343
X6.869 Y-99.309
X6.932 Y-99.274
X6.987 Y-99.243
X7.032 Y-99.205
X7.083 Y-99.161
X7.133 Y-99.119
X7.178 Y-99.078
X7.22 Y-99.04
X7.259 Y-99.002
X7.293 Y-98.968
X7.324 Y-98.935
X7.352 Y-98.903
X7.376 Y-98.874
X7.397 Y-98.847
X7.417 Y-98.818
X7.438 Y-98.785
X7.46 Y-98.748
X7.482 Y-98.708
X7.505 Y-98.663
X7.529 Y-98.614
X7.553 Y-98.562
X7.578 Y-98.506
X7.604 Y-98.446
X7.631 Y-98.383
X7.657 Y-98.318
X7.665 Y-98.286
X7.69 Y-98.179
X7.714 Y-98.075
X7.737 Y-97.971
X7.759 Y-97.87
X7.779 Y-97.77
X7.798 Y-97.672
X7.816 Y-97.575
X7.832 Y-97.481
X7.846 Y-97.387
X7.858 Y-97.294
X7.869 Y-97.201
X7.878 Y-97.105
X7.886 Y-97.008
X7.893 Y-96.91
X7.898 Y-96.81
X7.903 Y-96.708
X7.907 Y-96.605
X7.91 Y-96.5
X7.912 Y-96.394
X7.913 Y-96.287
X7.915 Y-96.178
X7.916 Y-96.068
Y-95.959
Y-95.952
G3 X7.716 Y-95.752 I-0.2
G1 X7.516
G18 G3 X7.316 Z-0.3 K0.2
G0 Z15
G17
M9
G28 G91 Z0
G28 X0 Y0
M30
%
