%
(IDEALAB TOKEN PRATHER)
(T4  D=0.01 CR=0 - ZMIN=0 - flat end mill)
G90 G94
G17
G20
G28 G91 Z0
G90

(2D Contour1)
M9
T4 M6
S5000 M3
G54
M8
G0 X-0.008 Y-0.1852
Z0.6
Z0.2
G1 Z0.0394 F13.33
Z0.001
G18 G2 X-0.007 Z0 I0.001
G1 X-0.006 F40
G17 G3 X-0.005 Y-0.1842 J0.001
G1 Y-0.1442
G3 X-0.006 Y-0.1432 I-0.001
G1 X-0.007
G18 G3 X-0.008 Z0.001 K0.001
G0 Z0.2
X-0.0272 Y-0.233
G1 Z0.0394 F13.33
Z0.001
X-0.0273 Y-0.2327 Z0.0003
X-0.0276 Y-0.2321 Z0
X-0.028 Y-0.2312 F40
G17 G3 X-0.0294 Y-0.2307 I-0.0009 J-0.0004
X-0.068 Y-0.311 I0.0294 J-0.0635
G1 X-0.0679 Y-0.3112
X-0.0663 Y-0.3191
X-0.064 Y-0.3259
X-0.061 Y-0.3322
X-0.0575 Y-0.3382
X-0.0536 Y-0.344
X-0.0494 Y-0.3498
X-0.0461 Y-0.3544
X-0.046 Y-0.3545
X-0.0429 Y-0.3591
X-0.0427 Y-0.3594
X-0.0399 Y-0.3643
G2 X-0.0396 Y-0.3648 I-0.0043 J-0.0025
G1 X-0.0373 Y-0.3701
G2 X-0.0371 Y-0.3708 I-0.0046 J-0.002
G1 X-0.0355 Y-0.3766
G2 X-0.0354 Y-0.3775 I-0.0048 J-0.0013
G1 X-0.0348 Y-0.3841
G2 Y-0.3845 I-0.005 J-0.0004
G1 Y-0.3998
G3 X0.0348 Y-0.4134 I0.048 J0.0607
G1 Y-0.3845
G2 Y-0.3841 I0.005
G1 X0.0353 Y-0.3778
G2 X0.0355 Y-0.377 I0.005 J-0.0004
G1 X0.0369 Y-0.3713
G2 X0.0371 Y-0.3706 I0.0048 J-0.0012
G1 X0.0392 Y-0.3656
G2 X0.0395 Y-0.365 I0.0046 J-0.0019
G1 X0.0421 Y-0.3604
X0.0423 Y-0.36
X0.0453 Y-0.3556
X0.0454 Y-0.3554
X0.0485 Y-0.3511
Y-0.351
X0.0517 Y-0.3467
X0.0547 Y-0.3424
X0.0584 Y-0.3369
X0.0616 Y-0.3312
X0.0643 Y-0.3251
X0.0665 Y-0.3187
X0.0679 Y-0.3113
X0.068 Y-0.311
G3 X-0.0294 Y-0.2307 I-0.068 J0.0168
X-0.0299 Y-0.232 I0.0004 J-0.0009
G1 X-0.0294 Y-0.2329
X-0.0291 Y-0.2336 Z0.0003
X-0.029 Y-0.2338 Z0.001
G0 Z0.2
X0.0293 Y-0.2499
G1 Z0.0394 F13.33
Z0.001
X0.0292 Y-0.2497 Z0.0003
X0.0291 Y-0.249 Z0
X0.0288 Y-0.248 F40
G3 X0.0276 Y-0.2473 I-0.001 J-0.0003
G1 X0.017 Y-0.2501
X0.0076 Y-0.2528
X-0.0005 Y-0.2554
X-0.0075 Y-0.2579
X-0.0134 Y-0.2603
X-0.0183 Y-0.2625
X-0.0221 Y-0.2646
X-0.0249 Y-0.2666
X-0.0267 Y-0.2682
X-0.0277 Y-0.2695
X-0.028 Y-0.2703
X-0.0281 Y-0.2707
X-0.0278 Y-0.2716
X-0.0269 Y-0.273
X-0.0251 Y-0.2749
X-0.0224 Y-0.2769
X-0.0177 Y-0.2799
X-0.012 Y-0.2829
X-0.0057 Y-0.286
X0.0011 Y-0.2892
X0.008 Y-0.2925
X0.0081
X0.0148 Y-0.2959
X0.015 Y-0.296
X0.0212 Y-0.2994
X0.0215 Y-0.2996
X0.0271 Y-0.3032
G2 X0.0275 Y-0.3035 I-0.0027 J-0.0042
G1 X0.0322 Y-0.3072
G2 X0.0327 Y-0.3077 I-0.0031 J-0.0039
G1 X0.0352 Y-0.3103
G2 X0.0357 Y-0.3109 I-0.0036 J-0.0034
G1 X0.0375 Y-0.3136
G2 X0.038 Y-0.3144 I-0.0041 J-0.0029
G1 X0.0392 Y-0.3172
G2 X0.0396 Y-0.3184 I-0.0046 J-0.002
G1 X0.04 Y-0.3213
G2 Y-0.3227 I-0.0049 J-0.0008
G1 X0.0397 Y-0.3257
G2 X0.0393 Y-0.327 I-0.005 J0.0006
G1 X0.0381 Y-0.3301
G2 X0.0376 Y-0.331 I-0.0046 J0.0019
G1 X0.0356 Y-0.3339
G2 X0.0352 Y-0.3345 I-0.0041 J0.0028
G1 X0.0324 Y-0.3375
G2 X0.0319 Y-0.3379 I-0.0037 J0.0034
G1 X0.0283 Y-0.341
G2 X0.0279 Y-0.3413 I-0.0032 J0.0038
G1 X0.0233 Y-0.3445
X0.023 Y-0.3447
X0.0174 Y-0.3481
X0.0172 Y-0.3482
X0.0107 Y-0.3516
X0.0104 Y-0.3517
X0.0029 Y-0.3552
X0.0027 Y-0.3553
X-0.006 Y-0.359
X-0.0061
X-0.016 Y-0.3628
G3 X-0.0165 Y-0.3641 I0.0004 J-0.0009
G1 X-0.0162 Y-0.3651
X-0.0159 Y-0.3657 Z0.0003
X-0.0158 Y-0.366 Z0.001
G0 Z0.2
X-0.0145 Y-0.465
G1 Z0.0394 F13.33
Z0.001
Y-0.4653 Z0.0003
X-0.0147 Y-0.466 Z0
X-0.015 Y-0.467 F40
G3 X-0.0143 Y-0.4682 I0.001 J-0.0003
X-0.0068 Y-0.4692 I0.0075 J0.027
G1 X0.0068
G3 X0.0315 Y-0.4545 J0.028
G2 X-0.0348 Y-0.4421 I-0.0183 J0.0854
G3 X-0.0143 Y-0.4682 I0.028 J0.0009
X-0.0131 Y-0.4675 I0.0003 J0.001
G1 X-0.0128 Y-0.4665
X-0.0126 Y-0.4659 Z0.0003
X-0.0125 Y-0.4656 Z0.001
G0 Z0.2
X-0.1104 Y-0.307
G1 Z0.0394 F13.33
Z0.001
X-0.1103 Y-0.3068 Z0.0003
X-0.1102 Y-0.3061 Z0
X-0.11 Y-0.3051 F40
G3 X-0.1108 Y-0.3039 I-0.001 J0.0002
G1 X-0.1501 Y-0.2965
G3 X-0.1513 Y-0.2973 I-0.0002 J-0.001
G1 X-0.1515 Y-0.2983
X-0.1516 Y-0.299 Z0.0003
X-0.1517 Y-0.2993 Z0.001
G0 Z0.2
X-0.095 Y-0.2372
G1 Z0.0394 F13.33
Z0.001
X-0.0948 Y-0.237 Z0.0003
X-0.0943 Y-0.2365 Z0
X-0.0936 Y-0.2358 F40
G3 Y-0.2344 I-0.0007 J0.0007
G1 X-0.1214 Y-0.2057
G3 X-0.1228 I-0.0007 J-0.0007
G1 X-0.1235 Y-0.2063
X-0.124 Y-0.2068 Z0.0003
X-0.1242 Y-0.207 Z0.001
G0 Z0.2
X-0.2542 Y-0.18
G1 Z0.0394 F13.33
Z0.001
X-0.2541 Y-0.1802 Z0.0003
X-0.2538 Y-0.1809 Z0
X-0.2534 Y-0.1818 F40
G3 X-0.252 Y-0.1822 I0.0009 J0.0004
G1 X-0.1675 Y-0.1421
X-0.1896 Y-0.0955
X-0.2585 Y-0.1282
G2 X-0.2652 Y-0.1258 I-0.0021 J0.0045
G1 X-0.2722 Y-0.1109
X-0.2748 Y-0.1058
X-0.2775 Y-0.1008
X-0.2805 Y-0.096
X-0.2837 Y-0.0915
X-0.2872 Y-0.0873
X-0.291 Y-0.0836
X-0.2951 Y-0.0804
X-0.2995 Y-0.0781
X-0.3035 Y-0.0769
X-0.3078 Y-0.0766
X-0.3123 Y-0.0772
X-0.3169 Y-0.0784
X-0.3217 Y-0.08
X-0.3264 Y-0.0818
X-0.331 Y-0.084
X-0.3468 Y-0.0915
X-0.3547 Y-0.0954
X-0.3623 Y-0.0996
X-0.3692 Y-0.1043
X-0.3734 Y-0.1083
X-0.3765 Y-0.113
X-0.3786 Y-0.1183
X-0.3796 Y-0.124
X-0.3794 Y-0.1309
X-0.3783 Y-0.1379
X-0.3764 Y-0.145
X-0.3741 Y-0.152
X-0.3714 Y-0.159
X-0.3684 Y-0.1659
X-0.3652 Y-0.1729
X-0.3407 Y-0.2243
X-0.252 Y-0.1822
G3 X-0.2516 Y-0.1809 I-0.0004 J0.0009
G1 X-0.252 Y-0.18
X-0.2523 Y-0.1794 Z0.0003
X-0.2524 Y-0.1791 Z0.001
X-0.2847 Y-0.1421
X-0.285 Y-0.1419 Z0.0003 F13.33
X-0.2856 Y-0.1415 Z0
X-0.2864 Y-0.141 F40
G3 X-0.2878 Y-0.1413 I-0.0005 J-0.0008
G2 X-0.2898 Y-0.1431 I-0.0042 J0.0027
G1 X-0.3362 Y-0.1651
G2 X-0.3429 Y-0.1626 I-0.0021 J0.0045
G1 X-0.3449 Y-0.1581
G2 X-0.345 Y-0.1578 I0.0046 J0.002
G1 X-0.3466 Y-0.1532
G2 X-0.3467 Y-0.1526 I0.0047 J0.0016
G1 X-0.3472 Y-0.1502
G2 X-0.3473 Y-0.1495 I0.0049 J0.001
G1 X-0.3475 Y-0.147
G2 X-0.3474 Y-0.1456 I0.005 J0.0004
G1 X-0.347 Y-0.1432
G2 X-0.3462 Y-0.1414 I0.0049 J-0.001
G1 X-0.3444 Y-0.1386
G2 X-0.3435 Y-0.1375 I0.0042 J-0.0028
G1 X-0.3409 Y-0.1353
G2 X-0.3403 Y-0.1349 I0.0033 J-0.0038
G1 X-0.3374 Y-0.1331
X-0.3371 Y-0.1329
X-0.3341 Y-0.1314
X-0.3339 Y-0.1313
X-0.3189 Y-0.1241
X-0.3187
X-0.3147 Y-0.1223
G2 X-0.3143 Y-0.1222 I0.002 J-0.0046
G1 X-0.3101 Y-0.1208
G2 X-0.3095 Y-0.1206 I0.0016 J-0.0047
G1 X-0.3073 Y-0.1202
G2 X-0.3066 Y-0.1201 I0.001 J-0.0049
G1 X-0.3043 Y-0.12
G2 X-0.3031 Y-0.1201 I0.0002 J-0.005
G1 X-0.3008 Y-0.1205
G2 X-0.2993 Y-0.1211 I-0.0009 J-0.0049
G1 X-0.2966 Y-0.1226
G2 X-0.2955 Y-0.1234 I-0.0025 J-0.0043
G1 X-0.2934 Y-0.1256
G2 X-0.2928 Y-0.1264 I-0.0036 J-0.0035
G1 X-0.2911 Y-0.129
G2 X-0.2908 Y-0.1293 I-0.0042 J-0.0028
G1 X-0.2894 Y-0.132
X-0.2892 Y-0.1324
X-0.2882 Y-0.1347
X-0.2881 Y-0.1348
X-0.2874 Y-0.1366
G2 X-0.2878 Y-0.1413 I-0.0046 J-0.002
G3 X-0.2875 Y-0.1427 I0.0008 J-0.0005
G1 X-0.2867 Y-0.1432
X-0.2861 Y-0.1436 Z0.0003
X-0.2858 Y-0.1438 Z0.001
G0 Z0.2
X-0.2913 Y0.0668
G1 Z0.0394 F13.33
Z0.001
X-0.2911 Y0.067 Z0.0003
X-0.2906 Y0.0675 Z0
X-0.2899 Y0.0682 F40
G3 Y0.0696 I-0.0007 J0.0007
G2 X-0.2912 Y0.0747 I0.0035 J0.0036
G1 X-0.2899 Y0.0791
G2 X-0.2897 Y0.0796 I0.0048 J-0.0015
G1 X-0.2879 Y0.0839
G2 X-0.2877 Y0.0844 I0.0046 J-0.0019
G1 X-0.2865 Y0.0864
G2 X-0.2862 Y0.087 I0.0044 J-0.0024
G1 X-0.2848 Y0.0888
G2 X-0.2839 Y0.0897 I0.004 J-0.003
G1 X-0.2821 Y0.0912
G2 X-0.2804 Y0.0921 I0.0031 J-0.0039
G1 X-0.2781 Y0.0927
G2 X-0.2767 Y0.0929 I0.0014 J-0.0048
G1 X-0.2721
G2 X-0.2714 Y0.0928 J-0.005
G1 X-0.2668 Y0.0921
X-0.2665 Y0.092
X-0.262 Y0.0911
X-0.2618 Y0.091
X-0.2573 Y0.0898
X-0.2572
X-0.1977 Y0.0735
X-0.1852 Y0.1191
X-0.2314 Y0.1318
X-0.2368 Y0.1333
X-0.2423 Y0.1347
X-0.2477 Y0.136
X-0.2531 Y0.1372
X-0.2579 Y0.1379
X-0.2623 Y0.1375
X-0.2667 Y0.1359
X-0.2713 Y0.1334
X-0.2752 Y0.1299
X-0.2786 Y0.1255
X-0.2817 Y0.1205
X-0.2846 Y0.1152
G2 X-0.294 Y0.1184 I-0.0044 J0.0024
G1 X-0.2932 Y0.1232
X-0.2927 Y0.1278
X-0.2925 Y0.1323
X-0.2929 Y0.1366
X-0.2938 Y0.1404
X-0.2955 Y0.1437
X-0.2981 Y0.1464
X-0.303 Y0.1497
X-0.3086 Y0.1523
X-0.3147 Y0.1546
X-0.321 Y0.1565
X-0.3269 Y0.158
X-0.3329 Y0.159
X-0.3389 Y0.1597
X-0.3447 Y0.1598
X-0.3503 Y0.1591
X-0.3556 Y0.1575
X-0.3606 Y0.1549
X-0.3651 Y0.1516
X-0.3691 Y0.1476
X-0.3724 Y0.1431
X-0.3762 Y0.1355
X-0.3794 Y0.1272
X-0.3823 Y0.1187
X-0.385 Y0.11
X-0.3877 Y0.1013
X-0.3902 Y0.0926
X-0.3927 Y0.0838
X-0.4029 Y0.0465
X-0.2191 Y-0.0041
X-0.2054 Y0.0457
X-0.2878 Y0.0684
G2 X-0.2899 Y0.0696 I0.0013 J0.0048
G3 X-0.2913 I-0.0007 J-0.0007
G1 X-0.292 Y0.0689
X-0.2925 Y0.0684 Z0.0003
X-0.2927 Y0.0682 Z0.001
X-0.3138 Y0.074
X-0.3139 Y0.0743 Z0.0003 F13.33
X-0.314 Y0.075 Z0
X-0.3142 Y0.0759 F40
G3 X-0.3154 Y0.0767 I-0.001 J-0.0002
G2 X-0.3179 I-0.0011 J0.0049
G1 X-0.3609 Y0.0886
G2 X-0.3644 Y0.0949 I0.0013 J0.0048
G1 X-0.363 Y0.0992
G2 X-0.3629 Y0.0997 I0.0048 J-0.0015
G1 X-0.3611 Y0.1038
G2 X-0.3609 Y0.1043 I0.0046 J-0.002
G1 X-0.3597 Y0.1064
G2 X-0.3593 Y0.107 I0.0044 J-0.0024
G1 X-0.3579 Y0.1088
G2 X-0.357 Y0.1097 I0.004 J-0.003
G1 X-0.3552 Y0.1112
G2 X-0.3537 Y0.112 I0.0031 J-0.0039
G1 X-0.3507 Y0.1131
G2 X-0.3493 Y0.1133 I0.0016 J-0.0047
G1 X-0.3461 Y0.1135
G2 X-0.3452 Y0.1134 I0.0002 J-0.005
G1 X-0.3421 Y0.113
G2 X-0.3416 Y0.1129 I-0.0007 J-0.005
G1 X-0.3385 Y0.1122
X-0.3383
X-0.3277 Y0.1092
X-0.3252 Y0.1085
X-0.325 Y0.1084
X-0.3226 Y0.1076
X-0.3224 Y0.1075
X-0.32 Y0.1066
G2 X-0.3196 Y0.1064 I-0.0018 J-0.0047
G1 X-0.3173 Y0.1053
G2 X-0.3169 Y0.105 I-0.0022 J-0.0045
G1 X-0.3147 Y0.1037
G2 X-0.3138 Y0.1029 I-0.0027 J-0.0042
G1 X-0.3121 Y0.1011
G2 X-0.311 Y0.0994 I-0.0036 J-0.0035
G1 X-0.3101 Y0.097
G2 X-0.3098 Y0.0955 I-0.0047 J-0.0017
G1 X-0.3097 Y0.092
G2 Y0.0913 I-0.005 J-0.0002
G1 X-0.3101 Y0.0878
G2 Y0.0874 I-0.005 J0.0005
G1 X-0.3108 Y0.084
X-0.3109 Y0.0837
X-0.3117 Y0.0803
G2 X-0.3154 Y0.0767 I-0.0048 J0.0012
G3 X-0.3162 Y0.0755 I0.0002 J-0.001
G1 X-0.316 Y0.0745
X-0.3158 Y0.0738 Z0.0003
X-0.3157 Y0.0735 Z0.001
G0 Z0.2
X-0.1502 Y0.1962
G1 Z0.0394 F13.33
Z0.001
X-0.15 Z0.0003
X-0.1492 Y0.1963 Z0
X-0.1482 F40
G3 X-0.1473 Y0.1973 J0.001
G2 X-0.145 Y0.2015 I0.005 J0.0001
G1 X-0.1266 Y0.2138
G2 X-0.1199 Y0.2128 I0.0028 J-0.0042
G1 X-0.1002 Y0.188
X-0.0565 Y0.2171
X-0.1905 Y0.3576
X-0.2576 Y0.3128
X-0.1762 Y0.1373
X-0.1317 Y0.1669
X-0.1467 Y0.195
G2 X-0.1473 Y0.1973 I0.0044 J0.0023
G3 X-0.1483 Y0.1983 I-0.001
G1 X-0.1493
X-0.15 Y0.1982 Z0.0003
X-0.1503 Z0.001
X-0.1646 Y0.2189
X-0.1645 Y0.2191 Z0.0003 F13.33
X-0.1643 Y0.2198 Z0
X-0.1639 Y0.2207 F40
G3 X-0.1645 Y0.222 I-0.0009 J0.0004
G2 X-0.1671 Y0.2244 I0.0018 J0.0047
G1 X-0.1781 Y0.2456
Y0.2457
X-0.1885 Y0.2672
Y0.2673
X-0.2043 Y0.3013
G2 X-0.1959 Y0.3065 I0.0045 J0.0021
G1 X-0.1808 Y0.2882
X-0.1657 Y0.2699
X-0.1536 Y0.2557
X-0.1414 Y0.2417
G2 X-0.1424 Y0.2342 I-0.0038 J-0.0033
G1 X-0.1599 Y0.2225
G2 X-0.1645 Y0.222 I-0.0028 J0.0042
G3 X-0.1658 Y0.2215 I-0.0004 J-0.0009
G1 X-0.1661 Y0.2205
X-0.1664 Y0.2199 Z0.0003
X-0.1665 Y0.2196 Z0.001
G0 Z0.2
X0.052 Y0.3685
G1 Z0.0394 F13.33
Z0.001
X0.0523 Y0.3684 Z0.0003
X0.0529 Y0.3682 Z0
X0.0539 Y0.3679 F40
G3 X0.0551 Y0.3685 I0.0003 J0.0009
G2 X0.0602 Y0.3718 I0.0047 J-0.0017
G1 X0.0917 Y0.3693
X0.094 Y0.3996
X-0.0302 Y0.4091
X-0.0325 Y0.3789
X-0.0012 Y0.3765
G2 X0.0034 Y0.3711 I-0.0004 J-0.005
G1 X-0.0086 Y0.2154
X0.0429 Y0.2114
X0.0549 Y0.3672
G2 X0.0551 Y0.3685 I0.005 J-0.0004
G3 X0.0545 Y0.3697 I-0.0009 J0.0003
G1 X0.0536 Y0.3701
X0.0529 Y0.3703 Z0.0003
X0.0527 Y0.3704 Z0.001
G0 Z0.2
X0.2184 Y0.2435
G1 Z0.0394 F13.33
Z0.001
X0.2187 Z0.0003
X0.2194 Z0
X0.2204 Y0.2434 F40
G3 X0.2214 Y0.2443 I0.0001 J0.001
G2 X0.2228 Y0.2474 I0.005 J-0.0004
G1 X0.2692 Y0.295
X0.2323 Y0.3309
X0.1 Y0.1948
X0.1368 Y0.159
X0.1918 Y0.2155
G2 X0.1989 Y0.2156 I0.0036 J-0.0035
G1 X0.2121 Y0.2028
G2 X0.2122 Y0.1958 I-0.0035 J-0.0036
G1 X0.1572 Y0.1392
X0.194 Y0.1034
X0.3264 Y0.2394
X0.2895 Y0.2753
X0.2432 Y0.2277
G2 X0.2361 Y0.2276 I-0.0036 J0.0035
G1 X0.2229 Y0.2403
G2 X0.2214 Y0.2443 I0.0035 J0.0036
G3 X0.2205 Y0.2454 I-0.001 J0.0001
G1 X0.2195 Y0.2455
X0.2188 Z0.0003
X0.2185 Z0.001
G0 Z0.2
X0.2466 Y0.0288
G1 Z0.0394 F13.33
Z0.001
X0.2467 Y0.0285 Z0.0003
X0.247 Y0.0279 Z0
X0.2474 Y0.0269 F40
G3 X0.2487 Y0.0264 I0.0009 J0.0004
G2 X0.2501 Y0.0268 I0.002 J-0.0046
G1 X0.2939 Y0.0329
G2 X0.2995 Y0.0286 I0.0007 J-0.005
G1 X0.3041 Y-0.0045
X0.332 Y-0.0007
X0.3275 Y0.0324
G2 X0.3318 Y0.038 I0.005 J0.0007
G1 X0.3695 Y0.0432
G2 X0.3751 Y0.0389 I0.0007 J-0.005
G1 X0.38 Y0.0032
X0.41 Y0.0073
X0.3974 Y0.099
X0.2082 Y0.0731
X0.2214 Y-0.0227
X0.2513 Y-0.0186
X0.2458 Y0.0212
G2 X0.2487 Y0.0264 I0.005 J0.0007
G3 X0.2492 Y0.0278 I-0.0004 J0.0009
G1 X0.2488 Y0.0287
X0.2485 Y0.0293 Z0.0003
X0.2484 Y0.0296 Z0.001
G0 Z0.2
X0.3156 Y-0.0797
G1 Z0.0394 F13.33
Z0.001
X0.3157 Y-0.0794 Z0.0003
X0.3159 Y-0.0787 Z0
X0.3161 Y-0.0778 F40
G3 X0.3154 Y-0.0766 I-0.001 J0.0003
G1 X0.2179 Y-0.0504
X0.2046 Y-0.1003
X0.287 Y-0.1223
G2 X0.2905 Y-0.1286 I-0.0013 J-0.0048
G1 X0.2892 Y-0.133
G2 X0.289 Y-0.1335 I-0.0048 J0.0014
G1 X0.2873 Y-0.1378
G2 X0.287 Y-0.1383 I-0.0046 J0.0019
G1 X0.2859 Y-0.1403
G2 X0.2855 Y-0.1409 I-0.0044 J0.0024
G1 X0.2841 Y-0.1428
G2 X0.2833 Y-0.1436 I-0.004 J0.003
G1 X0.2815 Y-0.1451
G2 X0.2797 Y-0.146 I-0.0032 J0.0039
G1 X0.2775 Y-0.1467
G2 X0.2761 Y-0.1469 I-0.0014 J0.0048
G1 X0.2715
G2 X0.2708 Y-0.1468 J0.005
G1 X0.2662 Y-0.1462
X0.2659 Y-0.1461
X0.2614 Y-0.1452
X0.2612 Y-0.1451
X0.2567 Y-0.144
X0.2566
X0.1972 Y-0.128
X0.1849 Y-0.1736
X0.2311 Y-0.186
X0.2366 Y-0.1874
X0.242 Y-0.1888
X0.2475 Y-0.1901
X0.2528 Y-0.1912
X0.2576 Y-0.1919
X0.262 Y-0.1914
X0.2664 Y-0.1899
X0.271 Y-0.1874
X0.2748 Y-0.1838
X0.2782 Y-0.1794
X0.2813 Y-0.1744
X0.2841 Y-0.169
G2 X0.2935 Y-0.1722 I0.0044 J-0.0024
G1 X0.2927 Y-0.1769
X0.2923 Y-0.1816
X0.2922 Y-0.1861
X0.2926 Y-0.1903
X0.2935 Y-0.1942
X0.2952 Y-0.1974
X0.2978 Y-0.2001
X0.3016 Y-0.2027
X0.306 Y-0.2049
X0.3108 Y-0.2069
X0.3157 Y-0.2085
X0.3207 Y-0.21
X0.3282 Y-0.2117
X0.3356 Y-0.2128
X0.343 Y-0.2132
X0.3501 Y-0.2124
X0.3553 Y-0.2108
X0.3602 Y-0.2082
X0.3647 Y-0.2048
X0.3686 Y-0.2008
X0.3719 Y-0.1962
X0.3757 Y-0.1886
X0.3788 Y-0.1804
X0.3817 Y-0.1719
X0.3843 Y-0.1632
X0.3869 Y-0.1545
X0.3894 Y-0.1457
X0.3918 Y-0.1369
X0.4017 Y-0.0997
X0.3154 Y-0.0766
G3 X0.3142 Y-0.0773 I-0.0003 J-0.001
G1 X0.3139 Y-0.0782
X0.3137 Y-0.0789 Z0.0003
Y-0.0792 Z0.001
X0.313 Y-0.1277
X0.3131 Y-0.128 Z0.0003 F13.33
X0.3132 Y-0.1287 Z0
X0.3135 Y-0.1296 F40
G3 X0.3147 Y-0.1304 I0.001 J0.0002
G2 X0.3171 I0.0012 J-0.0049
G1 X0.3601 Y-0.1419
G2 X0.3636 Y-0.1482 I-0.0013 J-0.0048
G1 X0.3626 Y-0.1517
X0.3625 Y-0.1519
X0.3613 Y-0.1553
G2 X0.361 Y-0.1558 I-0.0047 J0.0017
G1 X0.3594 Y-0.1591
G2 X0.3589 Y-0.1598 I-0.0045 J0.0022
G1 X0.3568 Y-0.1627
G2 X0.3557 Y-0.1638 I-0.004 J0.003
G1 X0.3537 Y-0.1651
G2 X0.3523 Y-0.1658 I-0.0029 J0.0041
G1 X0.35 Y-0.1665
G2 X0.3489 Y-0.1668 I-0.0015 J0.0048
G1 X0.3465 Y-0.1669
G2 X0.3457 I-0.0004 J0.005
G1 X0.3421 Y-0.1666
G2 X0.3415 Y-0.1665 I0.0004 J0.005
G1 X0.338 Y-0.1657
X0.3377
X0.3271 Y-0.1628
X0.327
X0.3246 Y-0.1621
X0.3244 Y-0.162
X0.322 Y-0.1612
X0.3218
X0.3194 Y-0.1603
G2 X0.319 Y-0.1601 I0.0018 J0.0047
G1 X0.3168 Y-0.159
G2 X0.3162 Y-0.1587 I0.0022 J0.0045
G1 X0.3141 Y-0.1573
G2 X0.3132 Y-0.1567 I0.0027 J0.0042
G1 X0.3115 Y-0.1549
G2 X0.3103 Y-0.1531 I0.0035 J0.0035
G1 X0.3094 Y-0.1507
G2 X0.3091 Y-0.1492 I0.0047 J0.0017
G1 X0.309 Y-0.1457
G2 Y-0.145 I0.005 J0.0002
G1 X0.3094 Y-0.1415
G2 X0.3095 Y-0.1411 I0.005 J-0.0005
G1 X0.3101 Y-0.1377
Y-0.1374
X0.311 Y-0.134
G2 X0.3147 Y-0.1304 I0.0049 J-0.0012
G3 X0.3154 Y-0.1292 I-0.0002 J0.001
G1 X0.3152 Y-0.1282
X0.315 Y-0.1275 Z0.0003
X0.3149 Y-0.1272 Z0.001
G0 Z0.2
X0.0835 Y-0.2261
G1 Z0.0394 F13.33
Z0.001
X0.0837 Y-0.2263 Z0.0003
X0.0842 Y-0.2268 Z0
X0.085 Y-0.2275 F40
G3 X0.0864 Y-0.2274 I0.0007 J0.0007
G1 X0.1142 Y-0.1987
G3 Y-0.1973 I-0.0007 J0.0007
G1 X0.1135 Y-0.1966
X0.113 Y-0.1961 Z0.0003
X0.1127 Y-0.1959 Z0.001
G0 Z0.2
X0.1074 Y-0.2913
G1 Z0.0394 F13.33
Z0.001
X0.1075 Y-0.2916 Z0.0003
X0.1076 Y-0.2923 Z0
X0.1078 Y-0.2933 F40
G3 X0.109 Y-0.2941 I0.001 J0.0002
G1 X0.1483 Y-0.2867
G3 X0.1491 Y-0.2855 I-0.0002 J0.001
G1 X0.1489 Y-0.2846
X0.1488 Y-0.2839 Z0.0003
X0.1487 Y-0.2836 Z0.001
G0 Z0.6
M9
G28 G91 Z0
G28 X0 Y0
M30
%
