%
(IDEALAB)
(ahhhh!!!!)
(T1  D=2 CR=0.45 - ZMIN=-5.5 - bullnose end mill)
G90 G94
G17
G21
G28 G91 Z0
G90

(2D Contour1)
M9
T1 M6
S5000 M3
G54
M8
G0 X-8.586 Y48.57
Z15
Z5
G1 Z2 F1000
Z-0.8 F333.3
G18 G2 X-8.386 Z-1 I0.2
G1 X-8.186 F1000
G17 G3 X-7.986 Y48.77 J0.2
G1 Y50.41 F800
X-11.669 Y49.022
X-11.671
X-11.826 Y48.963
X-11.982 Y48.905
X-11.983
X-12.139 Y48.847
X-12.295 Y48.789
X-12.297 Y48.788
X-12.366 Y48.762
X-12.279 Y48.733
X-12.278 Y48.732
X-12.136 Y48.683
X-12.134
X-11.992 Y48.633
G2 X-11.969 Y48.625 I-0.327 J-0.945
G1 X-7.986 Y47.134
Y48.77
G3 X-8.186 Y48.97 I-0.2 F1000
G1 X-8.386
G18 G3 X-8.586 Z-0.8 K0.2
G0 Z5
Y48.57
G1 Z1.302 F1000
Z-1.8 F333.3
G2 X-8.386 Z-2 I0.2
G1 X-8.186 F1000
G17 G3 X-7.986 Y48.77 J0.2
G1 Y50.41 F800
X-11.669 Y49.022
X-11.671
X-11.826 Y48.963
X-11.982 Y48.905
X-11.983
X-12.139 Y48.847
X-12.295 Y48.789
X-12.297 Y48.788
X-12.366 Y48.762
X-12.279 Y48.733
X-12.278 Y48.732
X-12.136 Y48.683
X-12.134
X-11.992 Y48.633
G2 X-11.969 Y48.625 I-0.327 J-0.945
G1 X-7.986 Y47.134
Y48.77
G3 X-8.186 Y48.97 I-0.2 F1000
G1 X-8.386
G18 G3 X-8.586 Z-1.8 K0.2
G0 Z5
Y48.57
G1 Z0.302 F1000
Z-2.8 F333.3
G2 X-8.386 Z-3 I0.2
G1 X-8.186 F1000
G17 G3 X-7.986 Y48.77 J0.2
G1 Y50.41 F800
X-11.669 Y49.022
X-11.671
X-11.826 Y48.963
X-11.982 Y48.905
X-11.983
X-12.139 Y48.847
X-12.295 Y48.789
X-12.297 Y48.788
X-12.366 Y48.762
X-12.279 Y48.733
X-12.278 Y48.732
X-12.136 Y48.683
X-12.134
X-11.992 Y48.633
G2 X-11.969 Y48.625 I-0.327 J-0.945
G1 X-7.986 Y47.134
Y48.77
G3 X-8.186 Y48.97 I-0.2 F1000
G1 X-8.386
G18 G3 X-8.586 Z-2.8 K0.2
G0 Z5
Y48.57
G1 Z-0.698 F1000
Z-3.8 F333.3
G2 X-8.386 Z-4 I0.2
G1 X-8.186 F1000
G17 G3 X-7.986 Y48.77 J0.2
G1 Y50.41 F800
X-11.669 Y49.022
X-11.671
X-11.826 Y48.963
X-11.982 Y48.905
X-11.983
X-12.139 Y48.847
X-12.295 Y48.789
X-12.297 Y48.788
X-12.366 Y48.762
X-12.279 Y48.733
X-12.278 Y48.732
X-12.136 Y48.683
X-12.134
X-11.992 Y48.633
G2 X-11.969 Y48.625 I-0.327 J-0.945
G1 X-7.986 Y47.134
Y48.77
G3 X-8.186 Y48.97 I-0.2 F1000
G1 X-8.386
G18 G3 X-8.586 Z-3.8 K0.2
G0 Z5
Y48.57
G1 Z-1.698 F1000
Z-4.8 F333.3
G2 X-8.386 Z-5 I0.2
G1 X-8.186 F1000
G17 G3 X-7.986 Y48.77 J0.2
G1 Y50.41 F800
X-11.669 Y49.022
X-11.671
X-11.826 Y48.963
X-11.982 Y48.905
X-11.983
X-12.139 Y48.847
X-12.295 Y48.789
X-12.297 Y48.788
X-12.366 Y48.762
X-12.279 Y48.733
X-12.278 Y48.732
X-12.136 Y48.683
X-12.134
X-11.992 Y48.633
G2 X-11.969 Y48.625 I-0.327 J-0.945
G1 X-7.986 Y47.134
Y48.77
G3 X-8.186 Y48.97 I-0.2 F1000
G1 X-8.386
G18 G3 X-8.586 Z-4.8 K0.2
G0 Z5
Y48.57
G1 Z-2.698 F1000
Z-5.3 F333.3
G2 X-8.386 Z-5.5 I0.2
G1 X-8.186 F1000
G17 G3 X-7.986 Y48.77 J0.2
G1 Y50.41 F800
X-11.669 Y49.022
X-11.671
X-11.826 Y48.963
X-11.982 Y48.905
X-11.983
X-12.139 Y48.847
X-12.295 Y48.789
X-12.297 Y48.788
X-12.366 Y48.762
X-12.279 Y48.733
X-12.278 Y48.732
X-12.136 Y48.683
X-12.134
X-11.992 Y48.633
G2 X-11.969 Y48.625 I-0.327 J-0.945
G1 X-7.986 Y47.134
Y48.77
G3 X-8.186 Y48.97 I-0.2 F1000
G1 X-8.386
G18 G3 X-8.586 Z-5.3 K0.2
G0 Z5
X-11.129 Y39.154
G1 Z2 F1000
Z-0.8 F333.3
X-11.125 Y39.148 Z-0.852
X-11.112 Y39.133 Z-0.9
X-11.093 Y39.107 Z-0.941
X-11.067 Y39.075 Z-0.973
X-11.038 Y39.037 Z-0.993
X-11.006 Y38.996 Z-1
X-10.883 Y38.838 F1000
G17 G3 X-10.602 Y38.803 I0.158 J0.123
G2 X-9.988 Y39.015 I0.615 J-0.789 F800
G1 X-7.854
G2 X-6.854 Y38.015 J-1
G1 Y28.956
X-2.666
Y39.118
G2 X-1.666 Y40.118 I1
G1 X-1.458
X-18.06 Y46.495
G2 X-18.702 Y47.428 I0.359 J0.934
G1 Y50.02
G2 X-18.081 Y50.946 I1
G1 X-0.149 Y58.285
X-17.702
G2 X-18.702 Y59.285 J1
G1 Y61.691
G2 X-17.702 Y62.691 I1
G1 X-2.666
Y70.645
G2 X-2.219 Y71.479 I1
G1 X-18.06 Y77.562
G2 X-18.702 Y78.496 I0.359 J0.934
G1 Y81.088
G2 X-18.081 Y82.013 I1
G1 X-0.149 Y89.353
X-17.702
G2 X-18.702 Y90.353 J1
G1 Y97.174
G2 Y97.192 I1
G1 X-18.699 Y97.335
Y97.337
X-18.696 Y97.48
Y97.484
X-18.692 Y97.627
Y97.632
X-18.688 Y97.774
Y97.782
X-18.683 Y97.924
X-18.682 Y97.934
X-18.675 Y98.076
G2 Y98.087 I0.999 J-0.047
G1 X-18.667 Y98.229
G2 X-18.666 Y98.242 I0.998 J-0.058
G1 X-18.656 Y98.384
G2 X-18.655 Y98.399 I0.997 J-0.071
G1 X-18.642 Y98.54
G2 X-18.641 Y98.557 I0.996 J-0.086
G1 X-18.626 Y98.698
G2 X-18.624 Y98.716 I0.995 J-0.103
G1 X-18.607 Y98.857
G2 X-18.604 Y98.878 I0.993 J-0.122
G1 X-18.584 Y99.018
G2 X-18.58 Y99.04 I0.99 J-0.143
G1 X-18.557 Y99.18
G2 X-18.553 Y99.203 I0.986 J-0.166
G1 X-18.526 Y99.342
G2 X-18.521 Y99.366 I0.982 J-0.189
G1 X-18.491 Y99.504
G2 X-18.486 Y99.524 I0.977 J-0.213
G1 X-18.453 Y99.661
G2 X-18.449 Y99.679 I0.972 J-0.233
G1 X-18.413 Y99.816
G2 X-18.409 Y99.833 I0.968 J-0.251
G1 X-18.371 Y99.97
G2 X-18.367 Y99.982 I0.963 J-0.268
G1 X-18.327 Y100.118
G2 X-18.324 Y100.131 I0.96 J-0.28
G1 X-18.282 Y100.267
X-18.28 Y100.274
X-18.237 Y100.41
X-18.234 Y100.419
X-18.19 Y100.554
Y100.556
X-18.145 Y100.692
X-18.144 Y100.696
X-18.099 Y100.831
G2 X-18.036 Y100.979 I0.949 J-0.315
G1 X-17.985 Y101.078
X-17.981 Y101.084
X-17.929 Y101.182
X-17.928 Y101.185
X-17.875 Y101.283
G2 X-17.87 Y101.293 I0.881 J-0.472
G1 X-17.816 Y101.39
X-17.812 Y101.397
X-17.758 Y101.494
G2 X-17.748 Y101.511 I0.872 J-0.489
G1 X-17.693 Y101.606
G2 X-17.684 Y101.621 I0.863 J-0.506
G1 X-17.626 Y101.715
G2 X-17.614 Y101.734 I0.853 J-0.521
G1 X-17.555 Y101.826
G2 X-17.54 Y101.849 I0.841 J-0.54
G1 X-17.479 Y101.939
G2 X-17.465 Y101.958 I0.826 J-0.563
G1 X-17.402 Y102.047
G2 X-17.381 Y102.075 I0.813 J-0.582
G1 X-17.315 Y102.161
G2 X-17.29 Y102.191 I0.792 J-0.61
G1 X-17.221 Y102.274
G2 X-17.199 Y102.3 I0.768 J-0.64
G1 X-17.127 Y102.381
G2 X-17.1 Y102.41 I0.746 J-0.666
G1 X-17.025 Y102.488
G2 X-17.004 Y102.508 I0.719 J-0.695
G1 X-16.927 Y102.584
G2 X-16.905 Y102.604 I0.699 J-0.715
G1 X-16.825 Y102.678
G2 X-16.81 Y102.692 I0.678 J-0.735
G1 X-16.728 Y102.765
G2 X-16.704 Y102.785 I0.663 J-0.749
G1 X-16.62 Y102.855
G2 X-16.607 Y102.866 I0.639 J-0.769
G1 X-16.521 Y102.935
G2 X-16.51 Y102.944 I0.626 J-0.78
G1 X-16.423 Y103.012
G2 X-16.412 Y103.02 I0.615 J-0.789
G1 X-16.324 Y103.087
X-16.32 Y103.089
X-16.231 Y103.156
X-16.223 Y103.162
X-16.134 Y103.228
X-16.127 Y103.233
X-16.037 Y103.298
G2 X-15.929 Y103.366 I0.586 J-0.81
G1 X-15.835 Y103.417
X-15.74 Y103.469
X-15.733 Y103.473
X-15.639 Y103.523
X-15.63 Y103.527
X-15.536 Y103.576
X-15.527 Y103.581
X-15.433 Y103.629
G2 X-15.424 Y103.633 I0.452 J-0.892
G1 X-15.329 Y103.68
G2 X-15.303 Y103.692 I0.443 J-0.896
G1 X-15.208 Y103.736
G2 X-15.198 Y103.741 I0.418 J-0.908
G1 X-15.102 Y103.784
G2 X-15.083 Y103.792 I0.408 J-0.913
G1 X-14.986 Y103.833
G2 X-14.951 Y103.847 I0.39 J-0.921
G1 X-14.854 Y103.884
G2 X-14.834 Y103.891 I0.354 J-0.935
G1 X-14.735 Y103.926
G2 X-14.707 Y103.936 I0.335 J-0.942
G1 X-14.608 Y103.968
G2 X-14.57 Y103.979 I0.306 J-0.952
G1 X-14.469 Y104.007
G2 X-14.44 Y104.015 I0.269 J-0.963
G1 X-14.339 Y104.04
G2 X-14.31 Y104.047 I0.239 J-0.971
G1 X-14.207 Y104.069
G2 X-14.178 Y104.074 I0.21 J-0.978
G1 X-14.075 Y104.093
G2 X-14.056 Y104.097 I0.181 J-0.983
G1 X-13.952 Y104.114
G2 X-13.923 Y104.118 I0.162 J-0.987
G1 X-13.818 Y104.132
X-13.809 Y104.133
X-13.704 Y104.146
G2 X-13.685 Y104.149 I0.123 J-0.992
G1 X-13.579 Y104.16
X-13.473 Y104.171
G2 X-13.454 Y104.172 I0.103 J-0.995
G1 X-13.348 Y104.181
X-13.339 Y104.182
X-13.232 Y104.19
X-13.126 Y104.198
G2 X-12.979 I0.075 J-0.997
G1 X-12.882 Y104.191
X-12.785 Y104.184
G2 X-12.775 I-0.072 J-0.997
G1 X-12.678 Y104.176
X-12.581 Y104.168
G2 X-12.56 Y104.166 I-0.083 J-0.997
G1 X-12.464 Y104.156
G2 X-12.453 Y104.154 I-0.103 J-0.995
G1 X-12.358 Y104.143
G2 X-12.347 Y104.142 I-0.114 J-0.993
G1 X-12.251 Y104.13
G2 X-12.22 Y104.126 I-0.125 J-0.992
G1 X-12.125 Y104.111
G2 X-12.104 Y104.107 I-0.156 J-0.988
G1 X-12.009 Y104.09
G2 X-11.988 Y104.086 I-0.178 J-0.984
G1 X-11.894 Y104.067
G2 X-11.863 Y104.06 I-0.199 J-0.98
G1 X-11.77 Y104.038
G2 X-11.738 Y104.03 I-0.231 J-0.973
G1 X-11.646 Y104.005
G2 X-11.615 Y103.996 I-0.262 J-0.965
G1 X-11.524 Y103.968
G2 X-11.493 Y103.958 I-0.294 J-0.956
G1 X-11.403 Y103.927
G2 X-11.381 Y103.919 I-0.325 J-0.946
G1 X-11.292 Y103.886
G2 X-11.262 Y103.875 I-0.347 J-0.938
G1 X-11.174 Y103.839
G2 X-11.145 Y103.826 I-0.376 J-0.927
G1 X-11.057 Y103.787
G2 X-11.046 Y103.783 I-0.405 J-0.914
G1 X-10.959 Y103.743
G2 X-10.948 Y103.738 I-0.415 J-0.91
G1 X-10.861 Y103.697
G2 X-10.843 Y103.688 I-0.426 J-0.905
G1 X-10.756 Y103.645
G2 X-10.746 Y103.64 I-0.444 J-0.896
G1 X-10.66 Y103.596
G2 X-10.651 Y103.591 I-0.454 J-0.891
G1 X-10.565 Y103.546
X-10.478 Y103.501
X-10.47 Y103.497
X-10.384 Y103.451
G2 X-10.255 Y103.368 I-0.472 J-0.882
G1 X-10.171 Y103.305
X-10.087 Y103.243
G2 X-10.079 Y103.237 I-0.596 J-0.803
G1 X-9.993 Y103.172
G2 X-9.984 Y103.165 I-0.604 J-0.797
G1 X-9.899 Y103.099
G2 X-9.889 Y103.091 I-0.614 J-0.79
G1 X-9.805 Y103.024
X-9.799 Y103.019
X-9.716 Y102.952
G2 X-9.699 Y102.937 I-0.629 J-0.777
G1 X-9.617 Y102.868
G2 X-9.598 Y102.852 I-0.647 J-0.762
G1 X-9.519 Y102.781
G2 X-9.504 Y102.768 I-0.666 J-0.746
G1 X-9.427 Y102.696
G2 X-9.407 Y102.677 I-0.681 J-0.733
G1 X-9.383 Y102.654
X-9.337 Y102.723
G2 X-9.314 Y102.756 I0.832 J-0.555
G1 X-9.239 Y102.858
G2 X-9.219 Y102.885 I0.809 J-0.588
G1 X-9.141 Y102.985
G2 X-9.119 Y103.013 I0.789 J-0.615
G1 X-9.038 Y103.11
G2 X-9.019 Y103.131 I0.766 J-0.643
G1 X-8.935 Y103.226
G2 X-8.921 Y103.241 I0.748 J-0.664
G1 X-8.834 Y103.335
G2 X-8.818 Y103.352 I0.734 J-0.679
G1 X-8.729 Y103.444
G2 X-8.718 Y103.455 I0.718 J-0.696
G1 X-8.627 Y103.546
G2 X-8.617 Y103.556 I0.707 J-0.707
G1 X-8.524 Y103.646
G2 X-8.516 Y103.654 I0.697 J-0.717
G1 X-8.422 Y103.743
X-8.419 Y103.746
X-8.325 Y103.835
X-8.319 Y103.84
X-8.224 Y103.928
G2 X-8.076 Y104.042 I0.68 J-0.733
G1 X-7.97 Y104.108
X-7.864 Y104.174
X-7.858 Y104.179
X-7.752 Y104.244
G2 X-7.739 Y104.252 I0.524 J-0.852
G1 X-7.633 Y104.315
X-7.625 Y104.319
X-7.518 Y104.381
G2 X-7.504 Y104.39 I0.503 J-0.864
G1 X-7.396 Y104.45
G2 X-7.375 Y104.461 I0.488 J-0.873
G1 X-7.267 Y104.518
G2 X-7.251 Y104.527 I0.467 J-0.884
G1 X-7.142 Y104.582
G2 X-7.112 Y104.596 I0.451 J-0.893
G1 X-7.002 Y104.647
G2 X-6.977 Y104.658 I0.42 J-0.907
G1 X-6.866 Y104.706
G2 X-6.827 Y104.722 I0.396 J-0.918
G1 X-6.714 Y104.765
G2 X-6.681 Y104.777 I0.357 J-0.934
G1 X-6.567 Y104.816
G2 X-6.525 Y104.829 I0.323 J-0.946
G1 X-6.41 Y104.863
G2 X-6.376 Y104.873 I0.282 J-0.959
G1 X-6.259 Y104.903
G2 X-6.225 Y104.911 I0.248 J-0.969
G1 X-6.107 Y104.937
G2 X-6.081 Y104.942 I0.215 J-0.977
G1 X-5.962 Y104.965
G2 X-5.929 Y104.971 I0.189 J-0.982
G1 X-5.808 Y104.99
G2 X-5.783 Y104.993 I0.156 J-0.988
G1 X-5.662 Y105.009
X-5.653 Y105.011
X-5.531 Y105.026
G2 X-5.506 Y105.028 I0.122 J-0.993
G1 X-5.383 Y105.04
X-5.375 Y105.041
X-5.252 Y105.052
G2 X-5.235 Y105.053 I0.089 J-0.996
G1 X-5.112 Y105.062
X-4.987 Y105.071
X-4.979 Y105.072
X-4.855 Y105.08
G2 X-4.742 Y105.081 I0.064 J-0.998
G1 X-4.64 Y105.076
X-4.63 Y105.075
X-4.527 Y105.069
X-4.424 Y105.063
X-4.414
X-4.312 Y105.056
X-4.209 Y105.049
G2 X-4.19 Y105.047 I-0.068 J-0.998
G1 X-4.088 Y105.038
G2 X-4.068 Y105.036 I-0.088 J-0.996
G1 X-3.966 Y105.025
G2 X-3.956 Y105.024 I-0.107 J-0.994
G1 X-3.855 Y105.012
G2 X-3.835 Y105.01 I-0.118 J-0.993
G1 X-3.734 Y104.996
G2 X-3.714 Y104.993 I-0.137 J-0.991
G1 X-3.614 Y104.977
G2 X-3.594 Y104.973 I-0.157 J-0.988
G1 X-3.494 Y104.955
G2 X-3.464 Y104.949 I-0.177 J-0.984
G1 X-3.365 Y104.928
G2 X-3.336 Y104.922 I-0.207 J-0.978
G1 X-3.237 Y104.898
G2 X-3.217 Y104.893 I-0.236 J-0.972
G1 X-3.119 Y104.867
G2 X-3.09 Y104.858 I-0.256 J-0.967
G1 X-2.993 Y104.829
G2 X-2.973 Y104.824 I-0.285 J-0.958
G1 X-2.876 Y104.793
G2 X-2.857 Y104.786 I-0.304 J-0.953
G1 X-2.761 Y104.753
G2 X-2.742 Y104.747 I-0.323 J-0.946
G1 X-2.646 Y104.712
G2 X-2.636 Y104.708 I-0.342 J-0.94
G1 X-2.541 Y104.672
G2 X-2.531 Y104.669 I-0.352 J-0.936
G1 X-2.435 Y104.632
X-2.426 Y104.628
X-2.331 Y104.59
X-2.322 Y104.586
X-2.227 Y104.547
X-2.218 Y104.544
X-2.123 Y104.504
X-2.028 Y104.464
G2 X-1.944 Y104.424 I-0.388 J-0.922
G1 X-1.864 Y104.381
X-1.783 Y104.337
G2 X-1.773 Y104.332 I-0.473 J-0.881
G1 X-1.693 Y104.288
X-1.691 Y104.287
X-1.612 Y104.243
G2 X-1.601 Y104.237 I-0.484 J-0.875
G1 X-1.522 Y104.192
G2 X-1.511 Y104.185 I-0.495 J-0.869
G1 X-1.432 Y104.139
G2 X-1.42 Y104.132 I-0.506 J-0.862
G1 X-1.343 Y104.085
G2 X-1.33 Y104.077 I-0.518 J-0.855
G1 X-1.254 Y104.029
G2 X-1.241 Y104.021 I-0.531 J-0.847
G1 X-1.165 Y103.972
G2 X-1.143 Y103.958 I-0.544 J-0.839
G1 X-1.069 Y103.907
G2 X-1.055 Y103.897 I-0.565 J-0.825
G1 X-0.982 Y103.845
G2 X-0.959 Y103.829 I-0.58 J-0.815
G1 X-0.888 Y103.775
G2 X-0.865 Y103.757 I-0.602 J-0.799
G1 X-0.795 Y103.701
G2 X-0.767 Y103.678 I-0.624 J-0.781
G1 X-0.698 Y103.619
G2 X-0.684 Y103.606 I-0.653 J-0.758
G1 X-0.617 Y103.546
G2 X-0.604 Y103.534 I-0.667 J-0.745
G1 X-0.538 Y103.473
G2 X-0.52 Y103.455 I-0.681 J-0.733
G1 X-0.455 Y103.392
G2 X-0.439 Y103.376 I-0.699 J-0.715
G1 X-0.375 Y103.311
X-0.37 Y103.306
X-0.308 Y103.241
G2 X-0.293 Y103.225 I-0.72 J-0.694
G1 X-0.231 Y103.158
X-0.228 Y103.155
X-0.167 Y103.088
X-0.164 Y103.085
X-0.104 Y103.018
G2 X-0.092 Y103.006 I-0.74 J-0.672
G1 X-0.034 Y102.939
X0.025 Y102.873
G2 X0.116 Y102.753 I-0.748 J-0.664
G1 X0.166 Y102.676
X0.167 Y102.675
X0.216 Y102.598
X0.221 Y102.59
X0.271 Y102.513
X0.319 Y102.436
G2 X0.326 Y102.425 I-0.844 J-0.536
G1 X0.374 Y102.347
G2 X0.381 Y102.335 I-0.851 J-0.525
G1 X0.429 Y102.256
G2 X0.434 Y102.248 I-0.858 J-0.513
G1 X0.48 Y102.169
G2 X0.486 Y102.158 I-0.863 J-0.505
G1 X0.531 Y102.079
G2 X0.543 Y102.058 I-0.869 J-0.494
G1 X0.586 Y101.977
G2 X0.593 Y101.963 I-0.881 J-0.473
G1 X0.635 Y101.882
G2 X0.643 Y101.866 I-0.889 J-0.459
G1 X0.683 Y101.785
G2 X0.696 Y101.759 I-0.897 J-0.443
G1 X0.734 Y101.676
G2 X0.744 Y101.654 I-0.909 J-0.417
G1 X0.78 Y101.57
G2 X0.787 Y101.553 I-0.919 J-0.395
G1 X0.821 Y101.469
G2 X0.829 Y101.45 I-0.926 J-0.378
G1 X0.861 Y101.365
G2 X0.868 Y101.347 I-0.933 J-0.359
G1 X0.899 Y101.261
G2 X0.904 Y101.249 I-0.94 J-0.341
G1 X0.933 Y101.163
G2 X0.938 Y101.148 I-0.944 J-0.329
G1 X0.967 Y101.061
G2 X0.971 Y101.049 I-0.949 J-0.314
G1 X0.999 Y100.961
X1.001 Y100.956
X1.028 Y100.869
X1.031 Y100.859
X1.057 Y100.771
X1.059 Y100.764
X1.085 Y100.675
X1.111 Y100.586
Y100.585
X1.137 Y100.497
G2 X1.157 Y100.415 I-0.961 J-0.278
G1 X1.181 Y100.294
Y100.292
X1.205 Y100.171
X1.206 Y100.168
X1.229 Y100.047
X1.23 Y100.043
X1.253 Y99.922
X1.254 Y99.917
X1.277 Y99.796
X1.278 Y99.789
X1.3 Y99.668
X1.301 Y99.659
X1.322 Y99.538
X1.323 Y99.528
X1.343 Y99.407
G2 X1.344 Y99.396 I-0.988 J-0.158
G1 X1.362 Y99.274
G2 X1.364 Y99.262 I-0.989 J-0.147
G1 X1.381 Y99.14
G2 X1.382 Y99.126 I-0.991 J-0.134
G1 X1.397 Y99.004
G2 X1.399 Y98.99 I-0.993 J-0.12
G1 X1.412 Y98.867
G2 X1.413 Y98.853 I-0.994 J-0.106
G1 X1.424 Y98.731
G2 X1.426 Y98.718 I-0.996 J-0.092
G1 X1.435 Y98.596
G2 X1.436 Y98.584 I-0.997 J-0.079
G1 X1.444 Y98.461
G2 X1.445 Y98.451 I-0.998 J-0.067
G1 X1.452 Y98.328
Y98.319
X1.458 Y98.196
X1.459 Y98.187
X1.463 Y98.064
X1.464 Y98.057
X1.468 Y97.934
Y97.928
X1.471 Y97.805
Y97.801
X1.474 Y97.677
Y97.674
X1.476 Y97.55
Y97.548
X1.478 Y97.425
Y97.424
X1.48 Y97.3
G2 Y97.285 I-1 J-0.015
G1 Y90.353
G2 X0.891 Y89.441 I-1
X1.48 Y88.529 I-0.411 J-0.912
G1 Y85.788
G2 X0.839 Y84.855 I-1
G1 X-4.027 Y82.981
Y76.766
X0.821 Y75.008
G2 X1.48 Y74.068 I-0.341 J-0.94
G1 Y71.513
G2 X1.381 Y71.079 I-1
X1.48 Y70.645 I-0.901 J-0.434
G1 Y59.285
G2 X0.891 Y58.373 I-1
X1.48 Y57.462 I-0.411 J-0.912
G1 Y54.721
G2 X0.839 Y53.787 I-1
G1 X-4.027 Y51.913
Y45.698
X0.821 Y43.941
G2 X1.48 Y43 I-0.341 J-0.94
G1 Y40.445
G2 X1.228 Y39.782 I-1
X1.48 Y39.118 I-0.748 J-0.664
G1 Y25.55
G2 X0.48 Y24.55 I-1
G1 X-8.71
X-17.702
G2 X-18.702 Y25.55 J1
G1 Y38.697
G2 X-17.702 Y39.697 I1
G1 X-15.556
G2 X-14.556 Y38.697 J-1
G1 Y28.956
X-10.988
Y38.015
G2 X-10.602 Y38.803 I1
G3 X-10.568 Y39.084 I-0.123 J0.158 F1000
G1 X-10.691 Y39.242
X-10.722 Y39.283 Z-0.993
X-10.752 Y39.321 Z-0.973
X-10.777 Y39.353 Z-0.941
X-10.797 Y39.378 Z-0.9
X-10.809 Y39.394 Z-0.852
X-10.813 Y39.4 Z-0.8
G0 Z5
X-11.129 Y39.154
G1 Z1.302 F1000
Z-1.8 F333.3
X-11.125 Y39.148 Z-1.852
X-11.112 Y39.133 Z-1.9
X-11.093 Y39.107 Z-1.941
X-11.067 Y39.075 Z-1.973
X-11.038 Y39.037 Z-1.993
X-11.006 Y38.996 Z-2
X-10.883 Y38.838 F1000
G3 X-10.602 Y38.803 I0.158 J0.123
G2 X-9.988 Y39.015 I0.615 J-0.789 F800
G1 X-7.854
G2 X-6.854 Y38.015 J-1
G1 Y28.956
X-2.666
Y39.118
G2 X-1.666 Y40.118 I1
G1 X-1.458
X-18.06 Y46.495
G2 X-18.702 Y47.428 I0.359 J0.934
G1 Y50.02
G2 X-18.081 Y50.946 I1
G1 X-0.149 Y58.285
X-17.702
G2 X-18.702 Y59.285 J1
G1 Y61.691
G2 X-17.702 Y62.691 I1
G1 X-2.666
Y70.645
G2 X-2.219 Y71.479 I1
G1 X-18.06 Y77.562
G2 X-18.702 Y78.496 I0.359 J0.934
G1 Y81.088
G2 X-18.081 Y82.013 I1
G1 X-0.149 Y89.353
X-17.702
G2 X-18.702 Y90.353 J1
G1 Y97.174
G2 Y97.192 I1
G1 X-18.699 Y97.335
Y97.337
X-18.696 Y97.48
Y97.484
X-18.692 Y97.627
Y97.632
X-18.688 Y97.774
Y97.782
X-18.683 Y97.924
X-18.682 Y97.934
X-18.675 Y98.076
G2 Y98.087 I0.999 J-0.047
G1 X-18.667 Y98.229
G2 X-18.666 Y98.242 I0.998 J-0.058
G1 X-18.656 Y98.384
G2 X-18.655 Y98.399 I0.997 J-0.071
G1 X-18.642 Y98.54
G2 X-18.641 Y98.557 I0.996 J-0.086
G1 X-18.626 Y98.698
G2 X-18.624 Y98.716 I0.995 J-0.103
G1 X-18.607 Y98.857
G2 X-18.604 Y98.878 I0.993 J-0.122
G1 X-18.584 Y99.018
G2 X-18.58 Y99.04 I0.99 J-0.143
G1 X-18.557 Y99.18
G2 X-18.553 Y99.203 I0.986 J-0.166
G1 X-18.526 Y99.342
G2 X-18.521 Y99.366 I0.982 J-0.189
G1 X-18.491 Y99.504
G2 X-18.486 Y99.524 I0.977 J-0.213
G1 X-18.453 Y99.661
G2 X-18.449 Y99.679 I0.972 J-0.233
G1 X-18.413 Y99.816
G2 X-18.409 Y99.833 I0.968 J-0.251
G1 X-18.371 Y99.97
G2 X-18.367 Y99.982 I0.963 J-0.268
G1 X-18.327 Y100.118
G2 X-18.324 Y100.131 I0.96 J-0.28
G1 X-18.282 Y100.267
X-18.28 Y100.274
X-18.237 Y100.41
X-18.234 Y100.419
X-18.19 Y100.554
Y100.556
X-18.145 Y100.692
X-18.144 Y100.696
X-18.099 Y100.831
G2 X-18.036 Y100.979 I0.949 J-0.315
G1 X-17.985 Y101.078
X-17.981 Y101.084
X-17.929 Y101.182
X-17.928 Y101.185
X-17.875 Y101.283
G2 X-17.87 Y101.293 I0.881 J-0.472
G1 X-17.816 Y101.39
X-17.812 Y101.397
X-17.758 Y101.494
G2 X-17.748 Y101.511 I0.872 J-0.489
G1 X-17.693 Y101.606
G2 X-17.684 Y101.621 I0.863 J-0.506
G1 X-17.626 Y101.715
G2 X-17.614 Y101.734 I0.853 J-0.521
G1 X-17.555 Y101.826
G2 X-17.54 Y101.849 I0.841 J-0.54
G1 X-17.479 Y101.939
G2 X-17.465 Y101.958 I0.826 J-0.563
G1 X-17.402 Y102.047
G2 X-17.381 Y102.075 I0.813 J-0.582
G1 X-17.315 Y102.161
G2 X-17.29 Y102.191 I0.792 J-0.61
G1 X-17.221 Y102.274
G2 X-17.199 Y102.3 I0.768 J-0.64
G1 X-17.127 Y102.381
G2 X-17.1 Y102.41 I0.746 J-0.666
G1 X-17.025 Y102.488
G2 X-17.004 Y102.508 I0.719 J-0.695
G1 X-16.927 Y102.584
G2 X-16.905 Y102.604 I0.699 J-0.715
G1 X-16.825 Y102.678
G2 X-16.81 Y102.692 I0.678 J-0.735
G1 X-16.728 Y102.765
G2 X-16.704 Y102.785 I0.663 J-0.749
G1 X-16.62 Y102.855
G2 X-16.607 Y102.866 I0.639 J-0.769
G1 X-16.521 Y102.935
G2 X-16.51 Y102.944 I0.626 J-0.78
G1 X-16.423 Y103.012
G2 X-16.412 Y103.02 I0.615 J-0.789
G1 X-16.324 Y103.087
X-16.32 Y103.089
X-16.231 Y103.156
X-16.223 Y103.162
X-16.134 Y103.228
X-16.127 Y103.233
X-16.037 Y103.298
G2 X-15.929 Y103.366 I0.586 J-0.81
G1 X-15.835 Y103.417
X-15.74 Y103.469
X-15.733 Y103.473
X-15.639 Y103.523
X-15.63 Y103.527
X-15.536 Y103.576
X-15.527 Y103.581
X-15.433 Y103.629
G2 X-15.424 Y103.633 I0.452 J-0.892
G1 X-15.329 Y103.68
G2 X-15.303 Y103.692 I0.443 J-0.896
G1 X-15.208 Y103.736
G2 X-15.198 Y103.741 I0.418 J-0.908
G1 X-15.102 Y103.784
G2 X-15.083 Y103.792 I0.408 J-0.913
G1 X-14.986 Y103.833
G2 X-14.951 Y103.847 I0.39 J-0.921
G1 X-14.854 Y103.884
G2 X-14.834 Y103.891 I0.354 J-0.935
G1 X-14.735 Y103.926
G2 X-14.707 Y103.936 I0.335 J-0.942
G1 X-14.608 Y103.968
G2 X-14.57 Y103.979 I0.306 J-0.952
G1 X-14.469 Y104.007
G2 X-14.44 Y104.015 I0.269 J-0.963
G1 X-14.339 Y104.04
G2 X-14.31 Y104.047 I0.239 J-0.971
G1 X-14.207 Y104.069
G2 X-14.178 Y104.074 I0.21 J-0.978
G1 X-14.075 Y104.093
G2 X-14.056 Y104.097 I0.181 J-0.983
G1 X-13.952 Y104.114
G2 X-13.923 Y104.118 I0.162 J-0.987
G1 X-13.818 Y104.132
X-13.809 Y104.133
X-13.704 Y104.146
G2 X-13.685 Y104.149 I0.123 J-0.992
G1 X-13.579 Y104.16
X-13.473 Y104.171
G2 X-13.454 Y104.172 I0.103 J-0.995
G1 X-13.348 Y104.181
X-13.339 Y104.182
X-13.232 Y104.19
X-13.126 Y104.198
G2 X-12.979 I0.075 J-0.997
G1 X-12.882 Y104.191
X-12.785 Y104.184
G2 X-12.775 I-0.072 J-0.997
G1 X-12.678 Y104.176
X-12.581 Y104.168
G2 X-12.56 Y104.166 I-0.083 J-0.997
G1 X-12.464 Y104.156
G2 X-12.453 Y104.154 I-0.103 J-0.995
G1 X-12.358 Y104.143
G2 X-12.347 Y104.142 I-0.114 J-0.993
G1 X-12.251 Y104.13
G2 X-12.22 Y104.126 I-0.125 J-0.992
G1 X-12.125 Y104.111
G2 X-12.104 Y104.107 I-0.156 J-0.988
G1 X-12.009 Y104.09
G2 X-11.988 Y104.086 I-0.178 J-0.984
G1 X-11.894 Y104.067
G2 X-11.863 Y104.06 I-0.199 J-0.98
G1 X-11.77 Y104.038
G2 X-11.738 Y104.03 I-0.231 J-0.973
G1 X-11.646 Y104.005
G2 X-11.615 Y103.996 I-0.262 J-0.965
G1 X-11.524 Y103.968
G2 X-11.493 Y103.958 I-0.294 J-0.956
G1 X-11.403 Y103.927
G2 X-11.381 Y103.919 I-0.325 J-0.946
G1 X-11.292 Y103.886
G2 X-11.262 Y103.875 I-0.347 J-0.938
G1 X-11.174 Y103.839
G2 X-11.145 Y103.826 I-0.376 J-0.927
G1 X-11.057 Y103.787
G2 X-11.046 Y103.783 I-0.405 J-0.914
G1 X-10.959 Y103.743
G2 X-10.948 Y103.738 I-0.415 J-0.91
G1 X-10.861 Y103.697
G2 X-10.843 Y103.688 I-0.426 J-0.905
G1 X-10.756 Y103.645
G2 X-10.746 Y103.64 I-0.444 J-0.896
G1 X-10.66 Y103.596
G2 X-10.651 Y103.591 I-0.454 J-0.891
G1 X-10.565 Y103.546
X-10.478 Y103.501
X-10.47 Y103.497
X-10.384 Y103.451
G2 X-10.255 Y103.368 I-0.472 J-0.882
G1 X-10.171 Y103.305
X-10.087 Y103.243
G2 X-10.079 Y103.237 I-0.596 J-0.803
G1 X-9.993 Y103.172
G2 X-9.984 Y103.165 I-0.604 J-0.797
G1 X-9.899 Y103.099
G2 X-9.889 Y103.091 I-0.614 J-0.79
G1 X-9.805 Y103.024
X-9.799 Y103.019
X-9.716 Y102.952
G2 X-9.699 Y102.937 I-0.629 J-0.777
G1 X-9.617 Y102.868
G2 X-9.598 Y102.852 I-0.647 J-0.762
G1 X-9.519 Y102.781
G2 X-9.504 Y102.768 I-0.666 J-0.746
G1 X-9.427 Y102.696
G2 X-9.407 Y102.677 I-0.681 J-0.733
G1 X-9.383 Y102.654
X-9.337 Y102.723
G2 X-9.314 Y102.756 I0.832 J-0.555
G1 X-9.239 Y102.858
G2 X-9.219 Y102.885 I0.809 J-0.588
G1 X-9.141 Y102.985
G2 X-9.119 Y103.013 I0.789 J-0.615
G1 X-9.038 Y103.11
G2 X-9.019 Y103.131 I0.766 J-0.643
G1 X-8.935 Y103.226
G2 X-8.921 Y103.241 I0.748 J-0.664
G1 X-8.834 Y103.335
G2 X-8.818 Y103.352 I0.734 J-0.679
G1 X-8.729 Y103.444
G2 X-8.718 Y103.455 I0.718 J-0.696
G1 X-8.627 Y103.546
G2 X-8.617 Y103.556 I0.707 J-0.707
G1 X-8.524 Y103.646
G2 X-8.516 Y103.654 I0.697 J-0.717
G1 X-8.422 Y103.743
X-8.419 Y103.746
X-8.325 Y103.835
X-8.319 Y103.84
X-8.224 Y103.928
G2 X-8.076 Y104.042 I0.68 J-0.733
G1 X-7.97 Y104.108
X-7.864 Y104.174
X-7.858 Y104.179
X-7.752 Y104.244
G2 X-7.739 Y104.252 I0.524 J-0.852
G1 X-7.633 Y104.315
X-7.625 Y104.319
X-7.518 Y104.381
G2 X-7.504 Y104.39 I0.503 J-0.864
G1 X-7.396 Y104.45
G2 X-7.375 Y104.461 I0.488 J-0.873
G1 X-7.267 Y104.518
G2 X-7.251 Y104.527 I0.467 J-0.884
G1 X-7.142 Y104.582
G2 X-7.112 Y104.596 I0.451 J-0.893
G1 X-7.002 Y104.647
G2 X-6.977 Y104.658 I0.42 J-0.907
G1 X-6.866 Y104.706
G2 X-6.827 Y104.722 I0.396 J-0.918
G1 X-6.714 Y104.765
G2 X-6.681 Y104.777 I0.357 J-0.934
G1 X-6.567 Y104.816
G2 X-6.525 Y104.829 I0.323 J-0.946
G1 X-6.41 Y104.863
G2 X-6.376 Y104.873 I0.282 J-0.959
G1 X-6.259 Y104.903
G2 X-6.225 Y104.911 I0.248 J-0.969
G1 X-6.107 Y104.937
G2 X-6.081 Y104.942 I0.215 J-0.977
G1 X-5.962 Y104.965
G2 X-5.929 Y104.971 I0.189 J-0.982
G1 X-5.808 Y104.99
G2 X-5.783 Y104.993 I0.156 J-0.988
G1 X-5.662 Y105.009
X-5.653 Y105.011
X-5.531 Y105.026
G2 X-5.506 Y105.028 I0.122 J-0.993
G1 X-5.383 Y105.04
X-5.375 Y105.041
X-5.252 Y105.052
G2 X-5.235 Y105.053 I0.089 J-0.996
G1 X-5.112 Y105.062
X-4.987 Y105.071
X-4.979 Y105.072
X-4.855 Y105.08
G2 X-4.742 Y105.081 I0.064 J-0.998
G1 X-4.64 Y105.076
X-4.63 Y105.075
X-4.527 Y105.069
X-4.424 Y105.063
X-4.414
X-4.312 Y105.056
X-4.209 Y105.049
G2 X-4.19 Y105.047 I-0.068 J-0.998
G1 X-4.088 Y105.038
G2 X-4.068 Y105.036 I-0.088 J-0.996
G1 X-3.966 Y105.025
G2 X-3.956 Y105.024 I-0.107 J-0.994
G1 X-3.855 Y105.012
G2 X-3.835 Y105.01 I-0.118 J-0.993
G1 X-3.734 Y104.996
G2 X-3.714 Y104.993 I-0.137 J-0.991
G1 X-3.614 Y104.977
G2 X-3.594 Y104.973 I-0.157 J-0.988
G1 X-3.494 Y104.955
G2 X-3.464 Y104.949 I-0.177 J-0.984
G1 X-3.365 Y104.928
G2 X-3.336 Y104.922 I-0.207 J-0.978
G1 X-3.237 Y104.898
G2 X-3.217 Y104.893 I-0.236 J-0.972
G1 X-3.119 Y104.867
G2 X-3.09 Y104.858 I-0.256 J-0.967
G1 X-2.993 Y104.829
G2 X-2.973 Y104.824 I-0.285 J-0.958
G1 X-2.876 Y104.793
G2 X-2.857 Y104.786 I-0.304 J-0.953
G1 X-2.761 Y104.753
G2 X-2.742 Y104.747 I-0.323 J-0.946
G1 X-2.646 Y104.712
G2 X-2.636 Y104.708 I-0.342 J-0.94
G1 X-2.541 Y104.672
G2 X-2.531 Y104.669 I-0.352 J-0.936
G1 X-2.435 Y104.632
X-2.426 Y104.628
X-2.331 Y104.59
X-2.322 Y104.586
X-2.227 Y104.547
X-2.218 Y104.544
X-2.123 Y104.504
X-2.028 Y104.464
G2 X-1.944 Y104.424 I-0.388 J-0.922
G1 X-1.864 Y104.381
X-1.783 Y104.337
G2 X-1.773 Y104.332 I-0.473 J-0.881
G1 X-1.693 Y104.288
X-1.691 Y104.287
X-1.612 Y104.243
G2 X-1.601 Y104.237 I-0.484 J-0.875
G1 X-1.522 Y104.192
G2 X-1.511 Y104.185 I-0.495 J-0.869
G1 X-1.432 Y104.139
G2 X-1.42 Y104.132 I-0.506 J-0.862
G1 X-1.343 Y104.085
G2 X-1.33 Y104.077 I-0.518 J-0.855
G1 X-1.254 Y104.029
G2 X-1.241 Y104.021 I-0.531 J-0.847
G1 X-1.165 Y103.972
G2 X-1.143 Y103.958 I-0.544 J-0.839
G1 X-1.069 Y103.907
G2 X-1.055 Y103.897 I-0.565 J-0.825
G1 X-0.982 Y103.845
G2 X-0.959 Y103.829 I-0.58 J-0.815
G1 X-0.888 Y103.775
G2 X-0.865 Y103.757 I-0.602 J-0.799
G1 X-0.795 Y103.701
G2 X-0.767 Y103.678 I-0.624 J-0.781
G1 X-0.698 Y103.619
G2 X-0.684 Y103.606 I-0.653 J-0.758
G1 X-0.617 Y103.546
G2 X-0.604 Y103.534 I-0.667 J-0.745
G1 X-0.538 Y103.473
G2 X-0.52 Y103.455 I-0.681 J-0.733
G1 X-0.455 Y103.392
G2 X-0.439 Y103.376 I-0.699 J-0.715
G1 X-0.375 Y103.311
X-0.37 Y103.306
X-0.308 Y103.241
G2 X-0.293 Y103.225 I-0.72 J-0.694
G1 X-0.231 Y103.158
X-0.228 Y103.155
X-0.167 Y103.088
X-0.164 Y103.085
X-0.104 Y103.018
G2 X-0.092 Y103.006 I-0.74 J-0.672
G1 X-0.034 Y102.939
X0.025 Y102.873
G2 X0.116 Y102.753 I-0.748 J-0.664
G1 X0.166 Y102.676
X0.167 Y102.675
X0.216 Y102.598
X0.221 Y102.59
X0.271 Y102.513
X0.319 Y102.436
G2 X0.326 Y102.425 I-0.844 J-0.536
G1 X0.374 Y102.347
G2 X0.381 Y102.335 I-0.851 J-0.525
G1 X0.429 Y102.256
G2 X0.434 Y102.248 I-0.858 J-0.513
G1 X0.48 Y102.169
G2 X0.486 Y102.158 I-0.863 J-0.505
G1 X0.531 Y102.079
G2 X0.543 Y102.058 I-0.869 J-0.494
G1 X0.586 Y101.977
G2 X0.593 Y101.963 I-0.881 J-0.473
G1 X0.635 Y101.882
G2 X0.643 Y101.866 I-0.889 J-0.459
G1 X0.683 Y101.785
G2 X0.696 Y101.759 I-0.897 J-0.443
G1 X0.734 Y101.676
G2 X0.744 Y101.654 I-0.909 J-0.417
G1 X0.78 Y101.57
G2 X0.787 Y101.553 I-0.919 J-0.395
G1 X0.821 Y101.469
G2 X0.829 Y101.45 I-0.926 J-0.378
G1 X0.861 Y101.365
G2 X0.868 Y101.347 I-0.933 J-0.359
G1 X0.899 Y101.261
G2 X0.904 Y101.249 I-0.94 J-0.341
G1 X0.933 Y101.163
G2 X0.938 Y101.148 I-0.944 J-0.329
G1 X0.967 Y101.061
G2 X0.971 Y101.049 I-0.949 J-0.314
G1 X0.999 Y100.961
X1.001 Y100.956
X1.028 Y100.869
X1.031 Y100.859
X1.057 Y100.771
X1.059 Y100.764
X1.085 Y100.675
X1.111 Y100.586
Y100.585
X1.137 Y100.497
G2 X1.157 Y100.415 I-0.961 J-0.278
G1 X1.181 Y100.294
Y100.292
X1.205 Y100.171
X1.206 Y100.168
X1.229 Y100.047
X1.23 Y100.043
X1.253 Y99.922
X1.254 Y99.917
X1.277 Y99.796
X1.278 Y99.789
X1.3 Y99.668
X1.301 Y99.659
X1.322 Y99.538
X1.323 Y99.528
X1.343 Y99.407
G2 X1.344 Y99.396 I-0.988 J-0.158
G1 X1.362 Y99.274
G2 X1.364 Y99.262 I-0.989 J-0.147
G1 X1.381 Y99.14
G2 X1.382 Y99.126 I-0.991 J-0.134
G1 X1.397 Y99.004
G2 X1.399 Y98.99 I-0.993 J-0.12
G1 X1.412 Y98.867
G2 X1.413 Y98.853 I-0.994 J-0.106
G1 X1.424 Y98.731
G2 X1.426 Y98.718 I-0.996 J-0.092
G1 X1.435 Y98.596
G2 X1.436 Y98.584 I-0.997 J-0.079
G1 X1.444 Y98.461
G2 X1.445 Y98.451 I-0.998 J-0.067
G1 X1.452 Y98.328
Y98.319
X1.458 Y98.196
X1.459 Y98.187
X1.463 Y98.064
X1.464 Y98.057
X1.468 Y97.934
Y97.928
X1.471 Y97.805
Y97.801
X1.474 Y97.677
Y97.674
X1.476 Y97.55
Y97.548
X1.478 Y97.425
Y97.424
X1.48 Y97.3
G2 Y97.285 I-1 J-0.015
G1 Y90.353
G2 X0.891 Y89.441 I-1
X1.48 Y88.529 I-0.411 J-0.912
G1 Y85.788
G2 X0.839 Y84.855 I-1
G1 X-4.027 Y82.981
Y76.766
X0.821 Y75.008
G2 X1.48 Y74.068 I-0.341 J-0.94
G1 Y71.513
G2 X1.381 Y71.079 I-1
X1.48 Y70.645 I-0.901 J-0.434
G1 Y59.285
G2 X0.891 Y58.373 I-1
X1.48 Y57.462 I-0.411 J-0.912
G1 Y54.721
G2 X0.839 Y53.787 I-1
G1 X-4.027 Y51.913
Y45.698
X0.821 Y43.941
G2 X1.48 Y43 I-0.341 J-0.94
G1 Y40.445
G2 X1.228 Y39.782 I-1
X1.48 Y39.118 I-0.748 J-0.664
G1 Y25.55
G2 X0.48 Y24.55 I-1
G1 X-8.71
X-17.702
G2 X-18.702 Y25.55 J1
G1 Y38.697
G2 X-17.702 Y39.697 I1
G1 X-15.556
G2 X-14.556 Y38.697 J-1
G1 Y28.956
X-10.988
Y38.015
G2 X-10.602 Y38.803 I1
G3 X-10.568 Y39.084 I-0.123 J0.158 F1000
G1 X-10.691 Y39.242
X-10.722 Y39.283 Z-1.993
X-10.752 Y39.321 Z-1.973
X-10.777 Y39.353 Z-1.941
X-10.797 Y39.378 Z-1.9
X-10.809 Y39.394 Z-1.852
X-10.813 Y39.4 Z-1.8
G0 Z5
X-11.129 Y39.154
G1 Z0.302 F1000
Z-2.8 F333.3
X-11.125 Y39.148 Z-2.852
X-11.112 Y39.133 Z-2.9
X-11.093 Y39.107 Z-2.941
X-11.067 Y39.075 Z-2.973
X-11.038 Y39.037 Z-2.993
X-11.006 Y38.996 Z-3
X-10.883 Y38.838 F1000
G3 X-10.602 Y38.803 I0.158 J0.123
G2 X-9.988 Y39.015 I0.615 J-0.789 F800
G1 X-7.854
G2 X-6.854 Y38.015 J-1
G1 Y28.956
X-2.666
Y39.118
G2 X-1.666 Y40.118 I1
G1 X-1.458
X-18.06 Y46.495
G2 X-18.702 Y47.428 I0.359 J0.934
G1 Y50.02
G2 X-18.081 Y50.946 I1
G1 X-0.149 Y58.285
X-17.702
G2 X-18.702 Y59.285 J1
G1 Y61.691
G2 X-17.702 Y62.691 I1
G1 X-2.666
Y70.645
G2 X-2.219 Y71.479 I1
G1 X-18.06 Y77.562
G2 X-18.702 Y78.496 I0.359 J0.934
G1 Y81.088
G2 X-18.081 Y82.013 I1
G1 X-0.149 Y89.353
X-17.702
G2 X-18.702 Y90.353 J1
G1 Y97.174
G2 Y97.192 I1
G1 X-18.699 Y97.335
Y97.337
X-18.696 Y97.48
Y97.484
X-18.692 Y97.627
Y97.632
X-18.688 Y97.774
Y97.782
X-18.683 Y97.924
X-18.682 Y97.934
X-18.675 Y98.076
G2 Y98.087 I0.999 J-0.047
G1 X-18.667 Y98.229
G2 X-18.666 Y98.242 I0.998 J-0.058
G1 X-18.656 Y98.384
G2 X-18.655 Y98.399 I0.997 J-0.071
G1 X-18.642 Y98.54
G2 X-18.641 Y98.557 I0.996 J-0.086
G1 X-18.626 Y98.698
G2 X-18.624 Y98.716 I0.995 J-0.103
G1 X-18.607 Y98.857
G2 X-18.604 Y98.878 I0.993 J-0.122
G1 X-18.584 Y99.018
G2 X-18.58 Y99.04 I0.99 J-0.143
G1 X-18.557 Y99.18
G2 X-18.553 Y99.203 I0.986 J-0.166
G1 X-18.526 Y99.342
G2 X-18.521 Y99.366 I0.982 J-0.189
G1 X-18.491 Y99.504
G2 X-18.486 Y99.524 I0.977 J-0.213
G1 X-18.453 Y99.661
G2 X-18.449 Y99.679 I0.972 J-0.233
G1 X-18.413 Y99.816
G2 X-18.409 Y99.833 I0.968 J-0.251
G1 X-18.371 Y99.97
G2 X-18.367 Y99.982 I0.963 J-0.268
G1 X-18.327 Y100.118
G2 X-18.324 Y100.131 I0.96 J-0.28
G1 X-18.282 Y100.267
X-18.28 Y100.274
X-18.237 Y100.41
X-18.234 Y100.419
X-18.19 Y100.554
Y100.556
X-18.145 Y100.692
X-18.144 Y100.696
X-18.099 Y100.831
G2 X-18.036 Y100.979 I0.949 J-0.315
G1 X-17.985 Y101.078
X-17.981 Y101.084
X-17.929 Y101.182
X-17.928 Y101.185
X-17.875 Y101.283
G2 X-17.87 Y101.293 I0.881 J-0.472
G1 X-17.816 Y101.39
X-17.812 Y101.397
X-17.758 Y101.494
G2 X-17.748 Y101.511 I0.872 J-0.489
G1 X-17.693 Y101.606
G2 X-17.684 Y101.621 I0.863 J-0.506
G1 X-17.626 Y101.715
G2 X-17.614 Y101.734 I0.853 J-0.521
G1 X-17.555 Y101.826
G2 X-17.54 Y101.849 I0.841 J-0.54
G1 X-17.479 Y101.939
G2 X-17.465 Y101.958 I0.826 J-0.563
G1 X-17.402 Y102.047
G2 X-17.381 Y102.075 I0.813 J-0.582
G1 X-17.315 Y102.161
G2 X-17.29 Y102.191 I0.792 J-0.61
G1 X-17.221 Y102.274
G2 X-17.199 Y102.3 I0.768 J-0.64
G1 X-17.127 Y102.381
G2 X-17.1 Y102.41 I0.746 J-0.666
G1 X-17.025 Y102.488
G2 X-17.004 Y102.508 I0.719 J-0.695
G1 X-16.927 Y102.584
G2 X-16.905 Y102.604 I0.699 J-0.715
G1 X-16.825 Y102.678
G2 X-16.81 Y102.692 I0.678 J-0.735
G1 X-16.728 Y102.765
G2 X-16.704 Y102.785 I0.663 J-0.749
G1 X-16.62 Y102.855
G2 X-16.607 Y102.866 I0.639 J-0.769
G1 X-16.521 Y102.935
G2 X-16.51 Y102.944 I0.626 J-0.78
G1 X-16.423 Y103.012
G2 X-16.412 Y103.02 I0.615 J-0.789
G1 X-16.324 Y103.087
X-16.32 Y103.089
X-16.231 Y103.156
X-16.223 Y103.162
X-16.134 Y103.228
X-16.127 Y103.233
X-16.037 Y103.298
G2 X-15.929 Y103.366 I0.586 J-0.81
G1 X-15.835 Y103.417
X-15.74 Y103.469
X-15.733 Y103.473
X-15.639 Y103.523
X-15.63 Y103.527
X-15.536 Y103.576
X-15.527 Y103.581
X-15.433 Y103.629
G2 X-15.424 Y103.633 I0.452 J-0.892
G1 X-15.329 Y103.68
G2 X-15.303 Y103.692 I0.443 J-0.896
G1 X-15.208 Y103.736
G2 X-15.198 Y103.741 I0.418 J-0.908
G1 X-15.102 Y103.784
G2 X-15.083 Y103.792 I0.408 J-0.913
G1 X-14.986 Y103.833
G2 X-14.951 Y103.847 I0.39 J-0.921
G1 X-14.854 Y103.884
G2 X-14.834 Y103.891 I0.354 J-0.935
G1 X-14.735 Y103.926
G2 X-14.707 Y103.936 I0.335 J-0.942
G1 X-14.608 Y103.968
G2 X-14.57 Y103.979 I0.306 J-0.952
G1 X-14.469 Y104.007
G2 X-14.44 Y104.015 I0.269 J-0.963
G1 X-14.339 Y104.04
G2 X-14.31 Y104.047 I0.239 J-0.971
G1 X-14.207 Y104.069
G2 X-14.178 Y104.074 I0.21 J-0.978
G1 X-14.075 Y104.093
G2 X-14.056 Y104.097 I0.181 J-0.983
G1 X-13.952 Y104.114
G2 X-13.923 Y104.118 I0.162 J-0.987
G1 X-13.818 Y104.132
X-13.809 Y104.133
X-13.704 Y104.146
G2 X-13.685 Y104.149 I0.123 J-0.992
G1 X-13.579 Y104.16
X-13.473 Y104.171
G2 X-13.454 Y104.172 I0.103 J-0.995
G1 X-13.348 Y104.181
X-13.339 Y104.182
X-13.232 Y104.19
X-13.126 Y104.198
G2 X-12.979 I0.075 J-0.997
G1 X-12.882 Y104.191
X-12.785 Y104.184
G2 X-12.775 I-0.072 J-0.997
G1 X-12.678 Y104.176
X-12.581 Y104.168
G2 X-12.56 Y104.166 I-0.083 J-0.997
G1 X-12.464 Y104.156
G2 X-12.453 Y104.154 I-0.103 J-0.995
G1 X-12.358 Y104.143
G2 X-12.347 Y104.142 I-0.114 J-0.993
G1 X-12.251 Y104.13
G2 X-12.22 Y104.126 I-0.125 J-0.992
G1 X-12.125 Y104.111
G2 X-12.104 Y104.107 I-0.156 J-0.988
G1 X-12.009 Y104.09
G2 X-11.988 Y104.086 I-0.178 J-0.984
G1 X-11.894 Y104.067
G2 X-11.863 Y104.06 I-0.199 J-0.98
G1 X-11.77 Y104.038
G2 X-11.738 Y104.03 I-0.231 J-0.973
G1 X-11.646 Y104.005
G2 X-11.615 Y103.996 I-0.262 J-0.965
G1 X-11.524 Y103.968
G2 X-11.493 Y103.958 I-0.294 J-0.956
G1 X-11.403 Y103.927
G2 X-11.381 Y103.919 I-0.325 J-0.946
G1 X-11.292 Y103.886
G2 X-11.262 Y103.875 I-0.347 J-0.938
G1 X-11.174 Y103.839
G2 X-11.145 Y103.826 I-0.376 J-0.927
G1 X-11.057 Y103.787
G2 X-11.046 Y103.783 I-0.405 J-0.914
G1 X-10.959 Y103.743
G2 X-10.948 Y103.738 I-0.415 J-0.91
G1 X-10.861 Y103.697
G2 X-10.843 Y103.688 I-0.426 J-0.905
G1 X-10.756 Y103.645
G2 X-10.746 Y103.64 I-0.444 J-0.896
G1 X-10.66 Y103.596
G2 X-10.651 Y103.591 I-0.454 J-0.891
G1 X-10.565 Y103.546
X-10.478 Y103.501
X-10.47 Y103.497
X-10.384 Y103.451
G2 X-10.255 Y103.368 I-0.472 J-0.882
G1 X-10.171 Y103.305
X-10.087 Y103.243
G2 X-10.079 Y103.237 I-0.596 J-0.803
G1 X-9.993 Y103.172
G2 X-9.984 Y103.165 I-0.604 J-0.797
G1 X-9.899 Y103.099
G2 X-9.889 Y103.091 I-0.614 J-0.79
G1 X-9.805 Y103.024
X-9.799 Y103.019
X-9.716 Y102.952
G2 X-9.699 Y102.937 I-0.629 J-0.777
G1 X-9.617 Y102.868
G2 X-9.598 Y102.852 I-0.647 J-0.762
G1 X-9.519 Y102.781
G2 X-9.504 Y102.768 I-0.666 J-0.746
G1 X-9.427 Y102.696
G2 X-9.407 Y102.677 I-0.681 J-0.733
G1 X-9.383 Y102.654
X-9.337 Y102.723
G2 X-9.314 Y102.756 I0.832 J-0.555
G1 X-9.239 Y102.858
G2 X-9.219 Y102.885 I0.809 J-0.588
G1 X-9.141 Y102.985
G2 X-9.119 Y103.013 I0.789 J-0.615
G1 X-9.038 Y103.11
G2 X-9.019 Y103.131 I0.766 J-0.643
G1 X-8.935 Y103.226
G2 X-8.921 Y103.241 I0.748 J-0.664
G1 X-8.834 Y103.335
G2 X-8.818 Y103.352 I0.734 J-0.679
G1 X-8.729 Y103.444
G2 X-8.718 Y103.455 I0.718 J-0.696
G1 X-8.627 Y103.546
G2 X-8.617 Y103.556 I0.707 J-0.707
G1 X-8.524 Y103.646
G2 X-8.516 Y103.654 I0.697 J-0.717
G1 X-8.422 Y103.743
X-8.419 Y103.746
X-8.325 Y103.835
X-8.319 Y103.84
X-8.224 Y103.928
G2 X-8.076 Y104.042 I0.68 J-0.733
G1 X-7.97 Y104.108
X-7.864 Y104.174
X-7.858 Y104.179
X-7.752 Y104.244
G2 X-7.739 Y104.252 I0.524 J-0.852
G1 X-7.633 Y104.315
X-7.625 Y104.319
X-7.518 Y104.381
G2 X-7.504 Y104.39 I0.503 J-0.864
G1 X-7.396 Y104.45
G2 X-7.375 Y104.461 I0.488 J-0.873
G1 X-7.267 Y104.518
G2 X-7.251 Y104.527 I0.467 J-0.884
G1 X-7.142 Y104.582
G2 X-7.112 Y104.596 I0.451 J-0.893
G1 X-7.002 Y104.647
G2 X-6.977 Y104.658 I0.42 J-0.907
G1 X-6.866 Y104.706
G2 X-6.827 Y104.722 I0.396 J-0.918
G1 X-6.714 Y104.765
G2 X-6.681 Y104.777 I0.357 J-0.934
G1 X-6.567 Y104.816
G2 X-6.525 Y104.829 I0.323 J-0.946
G1 X-6.41 Y104.863
G2 X-6.376 Y104.873 I0.282 J-0.959
G1 X-6.259 Y104.903
G2 X-6.225 Y104.911 I0.248 J-0.969
G1 X-6.107 Y104.937
G2 X-6.081 Y104.942 I0.215 J-0.977
G1 X-5.962 Y104.965
G2 X-5.929 Y104.971 I0.189 J-0.982
G1 X-5.808 Y104.99
G2 X-5.783 Y104.993 I0.156 J-0.988
G1 X-5.662 Y105.009
X-5.653 Y105.011
X-5.531 Y105.026
G2 X-5.506 Y105.028 I0.122 J-0.993
G1 X-5.383 Y105.04
X-5.375 Y105.041
X-5.252 Y105.052
G2 X-5.235 Y105.053 I0.089 J-0.996
G1 X-5.112 Y105.062
X-4.987 Y105.071
X-4.979 Y105.072
X-4.855 Y105.08
G2 X-4.742 Y105.081 I0.064 J-0.998
G1 X-4.64 Y105.076
X-4.63 Y105.075
X-4.527 Y105.069
X-4.424 Y105.063
X-4.414
X-4.312 Y105.056
X-4.209 Y105.049
G2 X-4.19 Y105.047 I-0.068 J-0.998
G1 X-4.088 Y105.038
G2 X-4.068 Y105.036 I-0.088 J-0.996
G1 X-3.966 Y105.025
G2 X-3.956 Y105.024 I-0.107 J-0.994
G1 X-3.855 Y105.012
G2 X-3.835 Y105.01 I-0.118 J-0.993
G1 X-3.734 Y104.996
G2 X-3.714 Y104.993 I-0.137 J-0.991
G1 X-3.614 Y104.977
G2 X-3.594 Y104.973 I-0.157 J-0.988
G1 X-3.494 Y104.955
G2 X-3.464 Y104.949 I-0.177 J-0.984
G1 X-3.365 Y104.928
G2 X-3.336 Y104.922 I-0.207 J-0.978
G1 X-3.237 Y104.898
G2 X-3.217 Y104.893 I-0.236 J-0.972
G1 X-3.119 Y104.867
G2 X-3.09 Y104.858 I-0.256 J-0.967
G1 X-2.993 Y104.829
G2 X-2.973 Y104.824 I-0.285 J-0.958
G1 X-2.876 Y104.793
G2 X-2.857 Y104.786 I-0.304 J-0.953
G1 X-2.761 Y104.753
G2 X-2.742 Y104.747 I-0.323 J-0.946
G1 X-2.646 Y104.712
G2 X-2.636 Y104.708 I-0.342 J-0.94
G1 X-2.541 Y104.672
G2 X-2.531 Y104.669 I-0.352 J-0.936
G1 X-2.435 Y104.632
X-2.426 Y104.628
X-2.331 Y104.59
X-2.322 Y104.586
X-2.227 Y104.547
X-2.218 Y104.544
X-2.123 Y104.504
X-2.028 Y104.464
G2 X-1.944 Y104.424 I-0.388 J-0.922
G1 X-1.864 Y104.381
X-1.783 Y104.337
G2 X-1.773 Y104.332 I-0.473 J-0.881
G1 X-1.693 Y104.288
X-1.691 Y104.287
X-1.612 Y104.243
G2 X-1.601 Y104.237 I-0.484 J-0.875
G1 X-1.522 Y104.192
G2 X-1.511 Y104.185 I-0.495 J-0.869
G1 X-1.432 Y104.139
G2 X-1.42 Y104.132 I-0.506 J-0.862
G1 X-1.343 Y104.085
G2 X-1.33 Y104.077 I-0.518 J-0.855
G1 X-1.254 Y104.029
G2 X-1.241 Y104.021 I-0.531 J-0.847
G1 X-1.165 Y103.972
G2 X-1.143 Y103.958 I-0.544 J-0.839
G1 X-1.069 Y103.907
G2 X-1.055 Y103.897 I-0.565 J-0.825
G1 X-0.982 Y103.845
G2 X-0.959 Y103.829 I-0.58 J-0.815
G1 X-0.888 Y103.775
G2 X-0.865 Y103.757 I-0.602 J-0.799
G1 X-0.795 Y103.701
G2 X-0.767 Y103.678 I-0.624 J-0.781
G1 X-0.698 Y103.619
G2 X-0.684 Y103.606 I-0.653 J-0.758
G1 X-0.617 Y103.546
G2 X-0.604 Y103.534 I-0.667 J-0.745
G1 X-0.538 Y103.473
G2 X-0.52 Y103.455 I-0.681 J-0.733
G1 X-0.455 Y103.392
G2 X-0.439 Y103.376 I-0.699 J-0.715
G1 X-0.375 Y103.311
X-0.37 Y103.306
X-0.308 Y103.241
G2 X-0.293 Y103.225 I-0.72 J-0.694
G1 X-0.231 Y103.158
X-0.228 Y103.155
X-0.167 Y103.088
X-0.164 Y103.085
X-0.104 Y103.018
G2 X-0.092 Y103.006 I-0.74 J-0.672
G1 X-0.034 Y102.939
X0.025 Y102.873
G2 X0.116 Y102.753 I-0.748 J-0.664
G1 X0.166 Y102.676
X0.167 Y102.675
X0.216 Y102.598
X0.221 Y102.59
X0.271 Y102.513
X0.319 Y102.436
G2 X0.326 Y102.425 I-0.844 J-0.536
G1 X0.374 Y102.347
G2 X0.381 Y102.335 I-0.851 J-0.525
G1 X0.429 Y102.256
G2 X0.434 Y102.248 I-0.858 J-0.513
G1 X0.48 Y102.169
G2 X0.486 Y102.158 I-0.863 J-0.505
G1 X0.531 Y102.079
G2 X0.543 Y102.058 I-0.869 J-0.494
G1 X0.586 Y101.977
G2 X0.593 Y101.963 I-0.881 J-0.473
G1 X0.635 Y101.882
G2 X0.643 Y101.866 I-0.889 J-0.459
G1 X0.683 Y101.785
G2 X0.696 Y101.759 I-0.897 J-0.443
G1 X0.734 Y101.676
G2 X0.744 Y101.654 I-0.909 J-0.417
G1 X0.78 Y101.57
G2 X0.787 Y101.553 I-0.919 J-0.395
G1 X0.821 Y101.469
G2 X0.829 Y101.45 I-0.926 J-0.378
G1 X0.861 Y101.365
G2 X0.868 Y101.347 I-0.933 J-0.359
G1 X0.899 Y101.261
G2 X0.904 Y101.249 I-0.94 J-0.341
G1 X0.933 Y101.163
G2 X0.938 Y101.148 I-0.944 J-0.329
G1 X0.967 Y101.061
G2 X0.971 Y101.049 I-0.949 J-0.314
G1 X0.999 Y100.961
X1.001 Y100.956
X1.028 Y100.869
X1.031 Y100.859
X1.057 Y100.771
X1.059 Y100.764
X1.085 Y100.675
X1.111 Y100.586
Y100.585
X1.137 Y100.497
G2 X1.157 Y100.415 I-0.961 J-0.278
G1 X1.181 Y100.294
Y100.292
X1.205 Y100.171
X1.206 Y100.168
X1.229 Y100.047
X1.23 Y100.043
X1.253 Y99.922
X1.254 Y99.917
X1.277 Y99.796
X1.278 Y99.789
X1.3 Y99.668
X1.301 Y99.659
X1.322 Y99.538
X1.323 Y99.528
X1.343 Y99.407
G2 X1.344 Y99.396 I-0.988 J-0.158
G1 X1.362 Y99.274
G2 X1.364 Y99.262 I-0.989 J-0.147
G1 X1.381 Y99.14
G2 X1.382 Y99.126 I-0.991 J-0.134
G1 X1.397 Y99.004
G2 X1.399 Y98.99 I-0.993 J-0.12
G1 X1.412 Y98.867
G2 X1.413 Y98.853 I-0.994 J-0.106
G1 X1.424 Y98.731
G2 X1.426 Y98.718 I-0.996 J-0.092
G1 X1.435 Y98.596
G2 X1.436 Y98.584 I-0.997 J-0.079
G1 X1.444 Y98.461
G2 X1.445 Y98.451 I-0.998 J-0.067
G1 X1.452 Y98.328
Y98.319
X1.458 Y98.196
X1.459 Y98.187
X1.463 Y98.064
X1.464 Y98.057
X1.468 Y97.934
Y97.928
X1.471 Y97.805
Y97.801
X1.474 Y97.677
Y97.674
X1.476 Y97.55
Y97.548
X1.478 Y97.425
Y97.424
X1.48 Y97.3
G2 Y97.285 I-1 J-0.015
G1 Y90.353
G2 X0.891 Y89.441 I-1
X1.48 Y88.529 I-0.411 J-0.912
G1 Y85.788
G2 X0.839 Y84.855 I-1
G1 X-4.027 Y82.981
Y76.766
X0.821 Y75.008
G2 X1.48 Y74.068 I-0.341 J-0.94
G1 Y71.513
G2 X1.381 Y71.079 I-1
X1.48 Y70.645 I-0.901 J-0.434
G1 Y59.285
G2 X0.891 Y58.373 I-1
X1.48 Y57.462 I-0.411 J-0.912
G1 Y54.721
G2 X0.839 Y53.787 I-1
G1 X-4.027 Y51.913
Y45.698
X0.821 Y43.941
G2 X1.48 Y43 I-0.341 J-0.94
G1 Y40.445
G2 X1.228 Y39.782 I-1
X1.48 Y39.118 I-0.748 J-0.664
G1 Y25.55
G2 X0.48 Y24.55 I-1
G1 X-8.71
X-17.702
G2 X-18.702 Y25.55 J1
G1 Y38.697
G2 X-17.702 Y39.697 I1
G1 X-15.556
G2 X-14.556 Y38.697 J-1
G1 Y28.956
X-10.988
Y38.015
G2 X-10.602 Y38.803 I1
G3 X-10.568 Y39.084 I-0.123 J0.158 F1000
G1 X-10.691 Y39.242
X-10.722 Y39.283 Z-2.993
X-10.752 Y39.321 Z-2.973
X-10.777 Y39.353 Z-2.941
X-10.797 Y39.378 Z-2.9
X-10.809 Y39.394 Z-2.852
X-10.813 Y39.4 Z-2.8
G0 Z5
X-11.129 Y39.154
G1 Z-0.698 F1000
Z-3.8 F333.3
X-11.125 Y39.148 Z-3.852
X-11.112 Y39.133 Z-3.9
X-11.093 Y39.107 Z-3.941
X-11.067 Y39.075 Z-3.973
X-11.038 Y39.037 Z-3.993
X-11.006 Y38.996 Z-4
X-10.883 Y38.838 F1000
G3 X-10.602 Y38.803 I0.158 J0.123
G2 X-9.988 Y39.015 I0.615 J-0.789 F800
G1 X-7.854
G2 X-6.854 Y38.015 J-1
G1 Y28.956
X-2.666
Y39.118
G2 X-1.666 Y40.118 I1
G1 X-1.458
X-7.102 Y42.286
Z-3.5
X-10.836 Y43.72
Z-4 F333.3
X-18.06 Y46.495 F800
G2 X-18.702 Y47.428 I0.359 J0.934
G1 Y50.02
G2 X-18.081 Y50.946 I1
G1 X-10.841 Y53.909
Z-3.5
X-7.139 Y55.424
Z-4 F333.3
X-0.149 Y58.285 F800
X-6.611
Z-3.5
X-10.611
Z-4 F333.3
X-17.702 F800
G2 X-18.702 Y59.285 J1
G1 Y61.691
G2 X-17.702 Y62.691 I1
G1 X-11.684
Z-3.5
X-7.684
Z-4 F333.3
X-2.666 F800
Y70.645
G2 X-2.219 Y71.479 I1
G1 X-7.102 Y73.354
Z-3.5
X-10.836 Y74.788
Z-4 F333.3
X-18.06 Y77.562 F800
G2 X-18.702 Y78.496 I0.359 J0.934
G1 Y81.088
G2 X-18.081 Y82.013 I1
G1 X-10.841 Y84.977
Z-3.5
X-7.139 Y86.492
Z-4 F333.3
X-0.149 Y89.353 F800
X-6.611
Z-3.5
X-10.611
Z-4 F333.3
X-17.702 F800
G2 X-18.702 Y90.353 J1
G1 Y97.174
G2 Y97.192 I1
G1 X-18.699 Y97.335
Y97.337
X-18.696 Y97.48
Y97.484
X-18.692 Y97.627
Y97.632
X-18.688 Y97.774
Y97.782
X-18.683 Y97.924
X-18.682 Y97.934
X-18.675 Y98.076
G2 Y98.087 I0.999 J-0.047
G1 X-18.667 Y98.229
G2 X-18.666 Y98.242 I0.998 J-0.058
G1 X-18.656 Y98.384
G2 X-18.655 Y98.399 I0.997 J-0.071
G1 X-18.642 Y98.54
G2 X-18.641 Y98.557 I0.996 J-0.086
G1 X-18.626 Y98.698
G2 X-18.624 Y98.716 I0.995 J-0.103
G1 X-18.607 Y98.857
G2 X-18.604 Y98.878 I0.993 J-0.122
G1 X-18.584 Y99.018
G2 X-18.58 Y99.04 I0.99 J-0.143
G1 X-18.557 Y99.18
G2 X-18.553 Y99.203 I0.986 J-0.166
G1 X-18.526 Y99.342
G2 X-18.521 Y99.366 I0.982 J-0.189
G1 X-18.491 Y99.504
G2 X-18.486 Y99.524 I0.977 J-0.213
G1 X-18.453 Y99.661
G2 X-18.449 Y99.679 I0.972 J-0.233
G1 X-18.413 Y99.816
G2 X-18.409 Y99.833 I0.968 J-0.251
G1 X-18.371 Y99.97
G2 X-18.367 Y99.982 I0.963 J-0.268
G1 X-18.327 Y100.118
G2 X-18.324 Y100.131 I0.96 J-0.28
G1 X-18.282 Y100.267
X-18.28 Y100.274
X-18.237 Y100.41
X-18.234 Y100.419
X-18.19 Y100.554
Y100.556
X-18.145 Y100.692
X-18.144 Y100.696
X-18.099 Y100.831
G2 X-18.036 Y100.979 I0.949 J-0.315
G1 X-17.985 Y101.078
X-17.981 Y101.084
X-17.929 Y101.182
X-17.928 Y101.185
X-17.875 Y101.283
G2 X-17.87 Y101.293 I0.881 J-0.472
G1 X-17.816 Y101.39
X-17.812 Y101.397
X-17.758 Y101.494
G2 X-17.748 Y101.511 I0.872 J-0.489
G1 X-17.693 Y101.606
G2 X-17.684 Y101.621 I0.863 J-0.506
G1 X-17.626 Y101.715
G2 X-17.614 Y101.734 I0.853 J-0.521
G1 X-17.555 Y101.826
G2 X-17.54 Y101.849 I0.841 J-0.54
G1 X-17.479 Y101.939
G2 X-17.465 Y101.958 I0.826 J-0.563
G1 X-17.402 Y102.047
G2 X-17.381 Y102.075 I0.813 J-0.582
G1 X-17.315 Y102.161
G2 X-17.29 Y102.191 I0.792 J-0.61
G1 X-17.221 Y102.274
G2 X-17.199 Y102.3 I0.768 J-0.64
G1 X-17.127 Y102.381
G2 X-17.1 Y102.41 I0.746 J-0.666
G1 X-17.025 Y102.488
G2 X-17.004 Y102.508 I0.719 J-0.695
G1 X-16.927 Y102.584
G2 X-16.905 Y102.604 I0.699 J-0.715
G1 X-16.825 Y102.678
G2 X-16.81 Y102.692 I0.678 J-0.735
G1 X-16.728 Y102.765
G2 X-16.704 Y102.785 I0.663 J-0.749
G1 X-16.62 Y102.855
G2 X-16.607 Y102.866 I0.639 J-0.769
G1 X-16.521 Y102.935
G2 X-16.51 Y102.944 I0.626 J-0.78
G1 X-16.423 Y103.012
G2 X-16.412 Y103.02 I0.615 J-0.789
G1 X-16.324 Y103.087
X-16.32 Y103.089
X-16.231 Y103.156
X-16.223 Y103.162
X-16.134 Y103.228
X-16.127 Y103.233
X-16.037 Y103.298
G2 X-15.929 Y103.366 I0.586 J-0.81
G1 X-15.835 Y103.417
X-15.74 Y103.469
X-15.733 Y103.473
X-15.639 Y103.523
X-15.63 Y103.527
X-15.536 Y103.576
X-15.527 Y103.581
X-15.433 Y103.629
G2 X-15.424 Y103.633 I0.452 J-0.892
G1 X-15.329 Y103.68
G2 X-15.303 Y103.692 I0.443 J-0.896
G1 X-15.208 Y103.736
G2 X-15.198 Y103.741 I0.418 J-0.908
G1 X-15.102 Y103.784
G2 X-15.083 Y103.792 I0.408 J-0.913
G1 X-14.986 Y103.833
G2 X-14.951 Y103.847 I0.39 J-0.921
G1 X-14.854 Y103.884
G2 X-14.834 Y103.891 I0.354 J-0.935
G1 X-14.735 Y103.926
G2 X-14.707 Y103.936 I0.335 J-0.942
G1 X-14.608 Y103.968
G2 X-14.57 Y103.979 I0.306 J-0.952
G1 X-14.469 Y104.007
G2 X-14.44 Y104.015 I0.269 J-0.963
G1 X-14.339 Y104.04
G2 X-14.31 Y104.047 I0.239 J-0.971
G1 X-14.207 Y104.069
G2 X-14.178 Y104.074 I0.21 J-0.978
G1 X-14.075 Y104.093
G2 X-14.056 Y104.097 I0.181 J-0.983
G1 X-13.952 Y104.114
G2 X-13.923 Y104.118 I0.162 J-0.987
G1 X-13.818 Y104.132
X-13.809 Y104.133
X-13.704 Y104.146
G2 X-13.685 Y104.149 I0.123 J-0.992
G1 X-13.579 Y104.16
X-13.473 Y104.171
G2 X-13.454 Y104.172 I0.103 J-0.995
G1 X-13.348 Y104.181
X-13.339 Y104.182
X-13.232 Y104.19
X-13.126 Y104.198
G2 X-12.979 I0.075 J-0.997
G1 X-12.882 Y104.191
X-12.785 Y104.184
G2 X-12.775 I-0.072 J-0.997
G1 X-12.678 Y104.176
X-12.581 Y104.168
G2 X-12.56 Y104.166 I-0.083 J-0.997
G1 X-12.464 Y104.156
G2 X-12.453 Y104.154 I-0.103 J-0.995
G1 X-12.358 Y104.143
G2 X-12.347 Y104.142 I-0.114 J-0.993
G1 X-12.251 Y104.13
G2 X-12.22 Y104.126 I-0.125 J-0.992
G1 X-12.125 Y104.111
G2 X-12.104 Y104.107 I-0.156 J-0.988
G1 X-12.009 Y104.09
G2 X-11.988 Y104.086 I-0.178 J-0.984
G1 X-11.894 Y104.067
G2 X-11.863 Y104.06 I-0.199 J-0.98
G1 X-11.77 Y104.038
G2 X-11.738 Y104.03 I-0.231 J-0.973
G1 X-11.646 Y104.005
G2 X-11.615 Y103.996 I-0.262 J-0.965
G1 X-11.524 Y103.968
G2 X-11.493 Y103.958 I-0.294 J-0.956
G1 X-11.403 Y103.927
G2 X-11.381 Y103.919 I-0.325 J-0.946
G1 X-11.292 Y103.886
G2 X-11.262 Y103.875 I-0.347 J-0.938
G1 X-11.174 Y103.839
G2 X-11.145 Y103.826 I-0.376 J-0.927
G1 X-11.057 Y103.787
G2 X-11.046 Y103.783 I-0.405 J-0.914
G1 X-10.959 Y103.743
G2 X-10.948 Y103.738 I-0.415 J-0.91
G1 X-10.861 Y103.697
G2 X-10.843 Y103.688 I-0.426 J-0.905
G1 X-10.756 Y103.645
G2 X-10.746 Y103.64 I-0.444 J-0.896
G1 X-10.66 Y103.596
G2 X-10.651 Y103.591 I-0.454 J-0.891
G1 X-10.565 Y103.546
X-10.478 Y103.501
X-10.47 Y103.497
X-10.384 Y103.451
G2 X-10.255 Y103.368 I-0.472 J-0.882
G1 X-10.171 Y103.305
X-10.087 Y103.243
G2 X-10.079 Y103.237 I-0.596 J-0.803
G1 X-9.993 Y103.172
G2 X-9.984 Y103.165 I-0.604 J-0.797
G1 X-9.899 Y103.099
G2 X-9.889 Y103.091 I-0.614 J-0.79
G1 X-9.805 Y103.024
X-9.799 Y103.019
X-9.716 Y102.952
G2 X-9.699 Y102.937 I-0.629 J-0.777
G1 X-9.617 Y102.868
G2 X-9.598 Y102.852 I-0.647 J-0.762
G1 X-9.519 Y102.781
G2 X-9.504 Y102.768 I-0.666 J-0.746
G1 X-9.427 Y102.696
G2 X-9.407 Y102.677 I-0.681 J-0.733
G1 X-9.383 Y102.654
X-9.337 Y102.723
G2 X-9.314 Y102.756 I0.832 J-0.555
G1 X-9.239 Y102.858
G2 X-9.219 Y102.885 I0.809 J-0.588
G1 X-9.141 Y102.985
G2 X-9.119 Y103.013 I0.789 J-0.615
G1 X-9.038 Y103.11
G2 X-9.019 Y103.131 I0.766 J-0.643
G1 X-8.935 Y103.226
G2 X-8.921 Y103.241 I0.748 J-0.664
G1 X-8.834 Y103.335
G2 X-8.818 Y103.352 I0.734 J-0.679
G1 X-8.729 Y103.444
G2 X-8.718 Y103.455 I0.718 J-0.696
G1 X-8.627 Y103.546
G2 X-8.617 Y103.556 I0.707 J-0.707
G1 X-8.524 Y103.646
G2 X-8.516 Y103.654 I0.697 J-0.717
G1 X-8.422 Y103.743
X-8.419 Y103.746
X-8.325 Y103.835
X-8.319 Y103.84
X-8.224 Y103.928
G2 X-8.076 Y104.042 I0.68 J-0.733
G1 X-7.97 Y104.108
X-7.864 Y104.174
X-7.858 Y104.179
X-7.752 Y104.244
G2 X-7.739 Y104.252 I0.524 J-0.852
G1 X-7.633 Y104.315
X-7.625 Y104.319
X-7.518 Y104.381
G2 X-7.504 Y104.39 I0.503 J-0.864
G1 X-7.396 Y104.45
G2 X-7.375 Y104.461 I0.488 J-0.873
G1 X-7.267 Y104.518
G2 X-7.251 Y104.527 I0.467 J-0.884
G1 X-7.142 Y104.582
G2 X-7.112 Y104.596 I0.451 J-0.893
G1 X-7.002 Y104.647
G2 X-6.977 Y104.658 I0.42 J-0.907
G1 X-6.866 Y104.706
G2 X-6.827 Y104.722 I0.396 J-0.918
G1 X-6.714 Y104.765
G2 X-6.681 Y104.777 I0.357 J-0.934
G1 X-6.567 Y104.816
G2 X-6.525 Y104.829 I0.323 J-0.946
G1 X-6.41 Y104.863
G2 X-6.376 Y104.873 I0.282 J-0.959
G1 X-6.259 Y104.903
G2 X-6.225 Y104.911 I0.248 J-0.969
G1 X-6.107 Y104.937
G2 X-6.081 Y104.942 I0.215 J-0.977
G1 X-5.962 Y104.965
G2 X-5.929 Y104.971 I0.189 J-0.982
G1 X-5.808 Y104.99
G2 X-5.783 Y104.993 I0.156 J-0.988
G1 X-5.662 Y105.009
X-5.653 Y105.011
X-5.531 Y105.026
G2 X-5.506 Y105.028 I0.122 J-0.993
G1 X-5.383 Y105.04
X-5.375 Y105.041
X-5.252 Y105.052
G2 X-5.235 Y105.053 I0.089 J-0.996
G1 X-5.112 Y105.062
X-4.987 Y105.071
X-4.979 Y105.072
X-4.855 Y105.08
G2 X-4.742 Y105.081 I0.064 J-0.998
G1 X-4.64 Y105.076
X-4.63 Y105.075
X-4.527 Y105.069
X-4.424 Y105.063
X-4.414
X-4.312 Y105.056
X-4.209 Y105.049
G2 X-4.19 Y105.047 I-0.068 J-0.998
G1 X-4.088 Y105.038
G2 X-4.068 Y105.036 I-0.088 J-0.996
G1 X-3.966 Y105.025
G2 X-3.956 Y105.024 I-0.107 J-0.994
G1 X-3.855 Y105.012
G2 X-3.835 Y105.01 I-0.118 J-0.993
G1 X-3.734 Y104.996
G2 X-3.714 Y104.993 I-0.137 J-0.991
G1 X-3.614 Y104.977
G2 X-3.594 Y104.973 I-0.157 J-0.988
G1 X-3.494 Y104.955
G2 X-3.464 Y104.949 I-0.177 J-0.984
G1 X-3.365 Y104.928
G2 X-3.336 Y104.922 I-0.207 J-0.978
G1 X-3.237 Y104.898
G2 X-3.217 Y104.893 I-0.236 J-0.972
G1 X-3.119 Y104.867
G2 X-3.09 Y104.858 I-0.256 J-0.967
G1 X-2.993 Y104.829
G2 X-2.973 Y104.824 I-0.285 J-0.958
G1 X-2.876 Y104.793
G2 X-2.857 Y104.786 I-0.304 J-0.953
G1 X-2.761 Y104.753
G2 X-2.742 Y104.747 I-0.323 J-0.946
G1 X-2.646 Y104.712
G2 X-2.636 Y104.708 I-0.342 J-0.94
G1 X-2.541 Y104.672
G2 X-2.531 Y104.669 I-0.352 J-0.936
G1 X-2.435 Y104.632
X-2.426 Y104.628
X-2.331 Y104.59
X-2.322 Y104.586
X-2.227 Y104.547
X-2.218 Y104.544
X-2.123 Y104.504
X-2.028 Y104.464
G2 X-1.944 Y104.424 I-0.388 J-0.922
G1 X-1.864 Y104.381
X-1.783 Y104.337
G2 X-1.773 Y104.332 I-0.473 J-0.881
G1 X-1.693 Y104.288
X-1.691 Y104.287
X-1.612 Y104.243
G2 X-1.601 Y104.237 I-0.484 J-0.875
G1 X-1.522 Y104.192
G2 X-1.511 Y104.185 I-0.495 J-0.869
G1 X-1.432 Y104.139
G2 X-1.42 Y104.132 I-0.506 J-0.862
G1 X-1.343 Y104.085
G2 X-1.33 Y104.077 I-0.518 J-0.855
G1 X-1.254 Y104.029
G2 X-1.241 Y104.021 I-0.531 J-0.847
G1 X-1.165 Y103.972
G2 X-1.143 Y103.958 I-0.544 J-0.839
G1 X-1.069 Y103.907
G2 X-1.055 Y103.897 I-0.565 J-0.825
G1 X-0.982 Y103.845
G2 X-0.959 Y103.829 I-0.58 J-0.815
G1 X-0.888 Y103.775
G2 X-0.865 Y103.757 I-0.602 J-0.799
G1 X-0.795 Y103.701
G2 X-0.767 Y103.678 I-0.624 J-0.781
G1 X-0.698 Y103.619
G2 X-0.684 Y103.606 I-0.653 J-0.758
G1 X-0.617 Y103.546
G2 X-0.604 Y103.534 I-0.667 J-0.745
G1 X-0.538 Y103.473
G2 X-0.52 Y103.455 I-0.681 J-0.733
G1 X-0.455 Y103.392
G2 X-0.439 Y103.376 I-0.699 J-0.715
G1 X-0.375 Y103.311
X-0.37 Y103.306
X-0.308 Y103.241
G2 X-0.293 Y103.225 I-0.72 J-0.694
G1 X-0.231 Y103.158
X-0.228 Y103.155
X-0.167 Y103.088
X-0.164 Y103.085
X-0.104 Y103.018
G2 X-0.092 Y103.006 I-0.74 J-0.672
G1 X-0.034 Y102.939
X0.025 Y102.873
G2 X0.116 Y102.753 I-0.748 J-0.664
G1 X0.166 Y102.676
X0.167 Y102.675
X0.216 Y102.598
X0.221 Y102.59
X0.271 Y102.513
X0.319 Y102.436
G2 X0.326 Y102.425 I-0.844 J-0.536
G1 X0.374 Y102.347
G2 X0.381 Y102.335 I-0.851 J-0.525
G1 X0.429 Y102.256
G2 X0.434 Y102.248 I-0.858 J-0.513
G1 X0.48 Y102.169
G2 X0.486 Y102.158 I-0.863 J-0.505
G1 X0.531 Y102.079
G2 X0.543 Y102.058 I-0.869 J-0.494
G1 X0.586 Y101.977
G2 X0.593 Y101.963 I-0.881 J-0.473
G1 X0.635 Y101.882
G2 X0.643 Y101.866 I-0.889 J-0.459
G1 X0.683 Y101.785
G2 X0.696 Y101.759 I-0.897 J-0.443
G1 X0.734 Y101.676
G2 X0.744 Y101.654 I-0.909 J-0.417
G1 X0.78 Y101.57
G2 X0.787 Y101.553 I-0.919 J-0.395
G1 X0.821 Y101.469
G2 X0.829 Y101.45 I-0.926 J-0.378
G1 X0.861 Y101.365
G2 X0.868 Y101.347 I-0.933 J-0.359
G1 X0.899 Y101.261
G2 X0.904 Y101.249 I-0.94 J-0.341
G1 X0.933 Y101.163
G2 X0.938 Y101.148 I-0.944 J-0.329
G1 X0.967 Y101.061
G2 X0.971 Y101.049 I-0.949 J-0.314
G1 X0.999 Y100.961
X1.001 Y100.956
X1.028 Y100.869
X1.031 Y100.859
X1.057 Y100.771
X1.059 Y100.764
X1.085 Y100.675
X1.111 Y100.586
Y100.585
X1.137 Y100.497
G2 X1.157 Y100.415 I-0.961 J-0.278
G1 X1.181 Y100.294
Y100.292
X1.205 Y100.171
X1.206 Y100.168
X1.229 Y100.047
X1.23 Y100.043
X1.253 Y99.922
X1.254 Y99.917
X1.277 Y99.796
X1.278 Y99.789
X1.3 Y99.668
X1.301 Y99.659
X1.322 Y99.538
X1.323 Y99.528
X1.343 Y99.407
G2 X1.344 Y99.396 I-0.988 J-0.158
G1 X1.362 Y99.274
G2 X1.364 Y99.262 I-0.989 J-0.147
G1 X1.381 Y99.14
G2 X1.382 Y99.126 I-0.991 J-0.134
G1 X1.397 Y99.004
G2 X1.399 Y98.99 I-0.993 J-0.12
G1 X1.412 Y98.867
G2 X1.413 Y98.853 I-0.994 J-0.106
G1 X1.424 Y98.731
G2 X1.426 Y98.718 I-0.996 J-0.092
G1 X1.435 Y98.596
G2 X1.436 Y98.584 I-0.997 J-0.079
G1 X1.444 Y98.461
G2 X1.445 Y98.451 I-0.998 J-0.067
G1 X1.452 Y98.328
Y98.319
X1.458 Y98.196
X1.459 Y98.187
X1.463 Y98.064
X1.464 Y98.057
X1.468 Y97.934
Y97.928
X1.471 Y97.805
Y97.801
X1.474 Y97.677
Y97.674
X1.476 Y97.55
Y97.548
X1.478 Y97.425
Y97.424
X1.48 Y97.3
G2 Y97.285 I-1 J-0.015
G1 Y90.353
G2 X0.891 Y89.441 I-1
X1.48 Y88.529 I-0.411 J-0.912
G1 Y85.788
G2 X0.839 Y84.855 I-1
G1 X-4.027 Y82.981
Y76.766
X0.821 Y75.008
G2 X1.48 Y74.068 I-0.341 J-0.94
G1 Y71.513
G2 X1.381 Y71.079 I-1
X1.48 Y70.645 I-0.901 J-0.434
G1 Y59.285
G2 X0.891 Y58.373 I-1
X1.48 Y57.462 I-0.411 J-0.912
G1 Y54.721
G2 X0.839 Y53.787 I-1
G1 X-4.027 Y51.913
Y45.698
X0.821 Y43.941
G2 X1.48 Y43 I-0.341 J-0.94
G1 Y40.445
G2 X1.228 Y39.782 I-1
X1.48 Y39.118 I-0.748 J-0.664
G1 Y25.55
G2 X0.48 Y24.55 I-1
G1 X-6.611
Z-3.5
X-10.611
Z-4 F333.3
X-17.702 F800
G2 X-18.702 Y25.55 J1
G1 Y38.697
G2 X-17.702 Y39.697 I1
G1 X-15.556
G2 X-14.556 Y38.697 J-1
G1 Y28.956
X-10.988
Y38.015
G2 X-10.602 Y38.803 I1
G3 X-10.568 Y39.084 I-0.123 J0.158 F1000
G1 X-10.691 Y39.242
X-10.722 Y39.283 Z-3.993
X-10.752 Y39.321 Z-3.973
X-10.777 Y39.353 Z-3.941
X-10.797 Y39.378 Z-3.9
X-10.809 Y39.394 Z-3.852
X-10.813 Y39.4 Z-3.8
G0 Z5
X-11.129 Y39.154
G1 Z-1.698 F1000
Z-4.8 F333.3
X-11.125 Y39.148 Z-4.852
X-11.112 Y39.133 Z-4.9
X-11.093 Y39.107 Z-4.941
X-11.067 Y39.075 Z-4.973
X-11.038 Y39.037 Z-4.993
X-11.006 Y38.996 Z-5
X-10.883 Y38.838 F1000
G3 X-10.602 Y38.803 I0.158 J0.123
G2 X-9.988 Y39.015 I0.615 J-0.789 F800
G1 X-7.854
G2 X-6.854 Y38.015 J-1
G1 Y28.956
X-2.666
Y39.118
G2 X-1.666 Y40.118 I1
G1 X-1.458
X-7.102 Y42.286
Z-3.5
X-10.836 Y43.72
Z-5 F333.3
X-18.06 Y46.495 F800
G2 X-18.702 Y47.428 I0.359 J0.934
G1 Y50.02
G2 X-18.081 Y50.946 I1
G1 X-10.841 Y53.909
Z-3.5
X-7.139 Y55.424
Z-5 F333.3
X-0.149 Y58.285 F800
X-6.611
Z-3.5
X-10.611
Z-5 F333.3
X-17.702 F800
G2 X-18.702 Y59.285 J1
G1 Y61.691
G2 X-17.702 Y62.691 I1
G1 X-11.684
Z-3.5
X-7.684
Z-5 F333.3
X-2.666 F800
Y70.645
G2 X-2.219 Y71.479 I1
G1 X-7.102 Y73.354
Z-3.5
X-10.836 Y74.788
Z-5 F333.3
X-18.06 Y77.562 F800
G2 X-18.702 Y78.496 I0.359 J0.934
G1 Y81.088
G2 X-18.081 Y82.013 I1
G1 X-10.841 Y84.977
Z-3.5
X-7.139 Y86.492
Z-5 F333.3
X-0.149 Y89.353 F800
X-6.611
Z-3.5
X-10.611
Z-5 F333.3
X-17.702 F800
G2 X-18.702 Y90.353 J1
G1 Y97.174
G2 Y97.192 I1
G1 X-18.699 Y97.335
Y97.337
X-18.696 Y97.48
Y97.484
X-18.692 Y97.627
Y97.632
X-18.688 Y97.774
Y97.782
X-18.683 Y97.924
X-18.682 Y97.934
X-18.675 Y98.076
G2 Y98.087 I0.999 J-0.047
G1 X-18.667 Y98.229
G2 X-18.666 Y98.242 I0.998 J-0.058
G1 X-18.656 Y98.384
G2 X-18.655 Y98.399 I0.997 J-0.071
G1 X-18.642 Y98.54
G2 X-18.641 Y98.557 I0.996 J-0.086
G1 X-18.626 Y98.698
G2 X-18.624 Y98.716 I0.995 J-0.103
G1 X-18.607 Y98.857
G2 X-18.604 Y98.878 I0.993 J-0.122
G1 X-18.584 Y99.018
G2 X-18.58 Y99.04 I0.99 J-0.143
G1 X-18.557 Y99.18
G2 X-18.553 Y99.203 I0.986 J-0.166
G1 X-18.526 Y99.342
G2 X-18.521 Y99.366 I0.982 J-0.189
G1 X-18.491 Y99.504
G2 X-18.486 Y99.524 I0.977 J-0.213
G1 X-18.453 Y99.661
G2 X-18.449 Y99.679 I0.972 J-0.233
G1 X-18.413 Y99.816
G2 X-18.409 Y99.833 I0.968 J-0.251
G1 X-18.371 Y99.97
G2 X-18.367 Y99.982 I0.963 J-0.268
G1 X-18.327 Y100.118
G2 X-18.324 Y100.131 I0.96 J-0.28
G1 X-18.282 Y100.267
X-18.28 Y100.274
X-18.237 Y100.41
X-18.234 Y100.419
X-18.19 Y100.554
Y100.556
X-18.145 Y100.692
X-18.144 Y100.696
X-18.099 Y100.831
G2 X-18.036 Y100.979 I0.949 J-0.315
G1 X-17.985 Y101.078
X-17.981 Y101.084
X-17.929 Y101.182
X-17.928 Y101.185
X-17.875 Y101.283
G2 X-17.87 Y101.293 I0.881 J-0.472
G1 X-17.816 Y101.39
X-17.812 Y101.397
X-17.758 Y101.494
G2 X-17.748 Y101.511 I0.872 J-0.489
G1 X-17.693 Y101.606
G2 X-17.684 Y101.621 I0.863 J-0.506
G1 X-17.626 Y101.715
G2 X-17.614 Y101.734 I0.853 J-0.521
G1 X-17.555 Y101.826
G2 X-17.54 Y101.849 I0.841 J-0.54
G1 X-17.479 Y101.939
G2 X-17.465 Y101.958 I0.826 J-0.563
G1 X-17.402 Y102.047
G2 X-17.381 Y102.075 I0.813 J-0.582
G1 X-17.315 Y102.161
G2 X-17.29 Y102.191 I0.792 J-0.61
G1 X-17.221 Y102.274
G2 X-17.199 Y102.3 I0.768 J-0.64
G1 X-17.127 Y102.381
G2 X-17.1 Y102.41 I0.746 J-0.666
G1 X-17.025 Y102.488
G2 X-17.004 Y102.508 I0.719 J-0.695
G1 X-16.927 Y102.584
G2 X-16.905 Y102.604 I0.699 J-0.715
G1 X-16.825 Y102.678
G2 X-16.81 Y102.692 I0.678 J-0.735
G1 X-16.728 Y102.765
G2 X-16.704 Y102.785 I0.663 J-0.749
G1 X-16.62 Y102.855
G2 X-16.607 Y102.866 I0.639 J-0.769
G1 X-16.521 Y102.935
G2 X-16.51 Y102.944 I0.626 J-0.78
G1 X-16.423 Y103.012
G2 X-16.412 Y103.02 I0.615 J-0.789
G1 X-16.324 Y103.087
X-16.32 Y103.089
X-16.231 Y103.156
X-16.223 Y103.162
X-16.134 Y103.228
X-16.127 Y103.233
X-16.037 Y103.298
G2 X-15.929 Y103.366 I0.586 J-0.81
G1 X-15.835 Y103.417
X-15.74 Y103.469
X-15.733 Y103.473
X-15.639 Y103.523
X-15.63 Y103.527
X-15.536 Y103.576
X-15.527 Y103.581
X-15.433 Y103.629
G2 X-15.424 Y103.633 I0.452 J-0.892
G1 X-15.329 Y103.68
G2 X-15.303 Y103.692 I0.443 J-0.896
G1 X-15.208 Y103.736
G2 X-15.198 Y103.741 I0.418 J-0.908
G1 X-15.102 Y103.784
G2 X-15.083 Y103.792 I0.408 J-0.913
G1 X-14.986 Y103.833
G2 X-14.951 Y103.847 I0.39 J-0.921
G1 X-14.854 Y103.884
G2 X-14.834 Y103.891 I0.354 J-0.935
G1 X-14.735 Y103.926
G2 X-14.707 Y103.936 I0.335 J-0.942
G1 X-14.608 Y103.968
G2 X-14.57 Y103.979 I0.306 J-0.952
G1 X-14.469 Y104.007
G2 X-14.44 Y104.015 I0.269 J-0.963
G1 X-14.339 Y104.04
G2 X-14.31 Y104.047 I0.239 J-0.971
G1 X-14.207 Y104.069
G2 X-14.178 Y104.074 I0.21 J-0.978
G1 X-14.075 Y104.093
G2 X-14.056 Y104.097 I0.181 J-0.983
G1 X-13.952 Y104.114
G2 X-13.923 Y104.118 I0.162 J-0.987
G1 X-13.818 Y104.132
X-13.809 Y104.133
X-13.704 Y104.146
G2 X-13.685 Y104.149 I0.123 J-0.992
G1 X-13.579 Y104.16
X-13.473 Y104.171
G2 X-13.454 Y104.172 I0.103 J-0.995
G1 X-13.348 Y104.181
X-13.339 Y104.182
X-13.232 Y104.19
X-13.126 Y104.198
G2 X-12.979 I0.075 J-0.997
G1 X-12.882 Y104.191
X-12.785 Y104.184
G2 X-12.775 I-0.072 J-0.997
G1 X-12.678 Y104.176
X-12.581 Y104.168
G2 X-12.56 Y104.166 I-0.083 J-0.997
G1 X-12.464 Y104.156
G2 X-12.453 Y104.154 I-0.103 J-0.995
G1 X-12.358 Y104.143
G2 X-12.347 Y104.142 I-0.114 J-0.993
G1 X-12.251 Y104.13
G2 X-12.22 Y104.126 I-0.125 J-0.992
G1 X-12.125 Y104.111
G2 X-12.104 Y104.107 I-0.156 J-0.988
G1 X-12.009 Y104.09
G2 X-11.988 Y104.086 I-0.178 J-0.984
G1 X-11.894 Y104.067
G2 X-11.863 Y104.06 I-0.199 J-0.98
G1 X-11.77 Y104.038
G2 X-11.738 Y104.03 I-0.231 J-0.973
G1 X-11.646 Y104.005
G2 X-11.615 Y103.996 I-0.262 J-0.965
G1 X-11.524 Y103.968
G2 X-11.493 Y103.958 I-0.294 J-0.956
G1 X-11.403 Y103.927
G2 X-11.381 Y103.919 I-0.325 J-0.946
G1 X-11.292 Y103.886
G2 X-11.262 Y103.875 I-0.347 J-0.938
G1 X-11.174 Y103.839
G2 X-11.145 Y103.826 I-0.376 J-0.927
G1 X-11.057 Y103.787
G2 X-11.046 Y103.783 I-0.405 J-0.914
G1 X-10.959 Y103.743
G2 X-10.948 Y103.738 I-0.415 J-0.91
G1 X-10.861 Y103.697
G2 X-10.843 Y103.688 I-0.426 J-0.905
G1 X-10.756 Y103.645
G2 X-10.746 Y103.64 I-0.444 J-0.896
G1 X-10.66 Y103.596
G2 X-10.651 Y103.591 I-0.454 J-0.891
G1 X-10.565 Y103.546
X-10.478 Y103.501
X-10.47 Y103.497
X-10.384 Y103.451
G2 X-10.255 Y103.368 I-0.472 J-0.882
G1 X-10.171 Y103.305
X-10.087 Y103.243
G2 X-10.079 Y103.237 I-0.596 J-0.803
G1 X-9.993 Y103.172
G2 X-9.984 Y103.165 I-0.604 J-0.797
G1 X-9.899 Y103.099
G2 X-9.889 Y103.091 I-0.614 J-0.79
G1 X-9.805 Y103.024
X-9.799 Y103.019
X-9.716 Y102.952
G2 X-9.699 Y102.937 I-0.629 J-0.777
G1 X-9.617 Y102.868
G2 X-9.598 Y102.852 I-0.647 J-0.762
G1 X-9.519 Y102.781
G2 X-9.504 Y102.768 I-0.666 J-0.746
G1 X-9.427 Y102.696
G2 X-9.407 Y102.677 I-0.681 J-0.733
G1 X-9.383 Y102.654
X-9.337 Y102.723
G2 X-9.314 Y102.756 I0.832 J-0.555
G1 X-9.239 Y102.858
G2 X-9.219 Y102.885 I0.809 J-0.588
G1 X-9.141 Y102.985
G2 X-9.119 Y103.013 I0.789 J-0.615
G1 X-9.038 Y103.11
G2 X-9.019 Y103.131 I0.766 J-0.643
G1 X-8.935 Y103.226
G2 X-8.921 Y103.241 I0.748 J-0.664
G1 X-8.834 Y103.335
G2 X-8.818 Y103.352 I0.734 J-0.679
G1 X-8.729 Y103.444
G2 X-8.718 Y103.455 I0.718 J-0.696
G1 X-8.627 Y103.546
G2 X-8.617 Y103.556 I0.707 J-0.707
G1 X-8.524 Y103.646
G2 X-8.516 Y103.654 I0.697 J-0.717
G1 X-8.422 Y103.743
X-8.419 Y103.746
X-8.325 Y103.835
X-8.319 Y103.84
X-8.224 Y103.928
G2 X-8.076 Y104.042 I0.68 J-0.733
G1 X-7.97 Y104.108
X-7.864 Y104.174
X-7.858 Y104.179
X-7.752 Y104.244
G2 X-7.739 Y104.252 I0.524 J-0.852
G1 X-7.633 Y104.315
X-7.625 Y104.319
X-7.518 Y104.381
G2 X-7.504 Y104.39 I0.503 J-0.864
G1 X-7.396 Y104.45
G2 X-7.375 Y104.461 I0.488 J-0.873
G1 X-7.267 Y104.518
G2 X-7.251 Y104.527 I0.467 J-0.884
G1 X-7.142 Y104.582
G2 X-7.112 Y104.596 I0.451 J-0.893
G1 X-7.002 Y104.647
G2 X-6.977 Y104.658 I0.42 J-0.907
G1 X-6.866 Y104.706
G2 X-6.827 Y104.722 I0.396 J-0.918
G1 X-6.714 Y104.765
G2 X-6.681 Y104.777 I0.357 J-0.934
G1 X-6.567 Y104.816
G2 X-6.525 Y104.829 I0.323 J-0.946
G1 X-6.41 Y104.863
G2 X-6.376 Y104.873 I0.282 J-0.959
G1 X-6.259 Y104.903
G2 X-6.225 Y104.911 I0.248 J-0.969
G1 X-6.107 Y104.937
G2 X-6.081 Y104.942 I0.215 J-0.977
G1 X-5.962 Y104.965
G2 X-5.929 Y104.971 I0.189 J-0.982
G1 X-5.808 Y104.99
G2 X-5.783 Y104.993 I0.156 J-0.988
G1 X-5.662 Y105.009
X-5.653 Y105.011
X-5.531 Y105.026
G2 X-5.506 Y105.028 I0.122 J-0.993
G1 X-5.383 Y105.04
X-5.375 Y105.041
X-5.252 Y105.052
G2 X-5.235 Y105.053 I0.089 J-0.996
G1 X-5.112 Y105.062
X-4.987 Y105.071
X-4.979 Y105.072
X-4.855 Y105.08
G2 X-4.742 Y105.081 I0.064 J-0.998
G1 X-4.64 Y105.076
X-4.63 Y105.075
X-4.527 Y105.069
X-4.424 Y105.063
X-4.414
X-4.312 Y105.056
X-4.209 Y105.049
G2 X-4.19 Y105.047 I-0.068 J-0.998
G1 X-4.088 Y105.038
G2 X-4.068 Y105.036 I-0.088 J-0.996
G1 X-3.966 Y105.025
G2 X-3.956 Y105.024 I-0.107 J-0.994
G1 X-3.855 Y105.012
G2 X-3.835 Y105.01 I-0.118 J-0.993
G1 X-3.734 Y104.996
G2 X-3.714 Y104.993 I-0.137 J-0.991
G1 X-3.614 Y104.977
G2 X-3.594 Y104.973 I-0.157 J-0.988
G1 X-3.494 Y104.955
G2 X-3.464 Y104.949 I-0.177 J-0.984
G1 X-3.365 Y104.928
G2 X-3.336 Y104.922 I-0.207 J-0.978
G1 X-3.237 Y104.898
G2 X-3.217 Y104.893 I-0.236 J-0.972
G1 X-3.119 Y104.867
G2 X-3.09 Y104.858 I-0.256 J-0.967
G1 X-2.993 Y104.829
G2 X-2.973 Y104.824 I-0.285 J-0.958
G1 X-2.876 Y104.793
G2 X-2.857 Y104.786 I-0.304 J-0.953
G1 X-2.761 Y104.753
G2 X-2.742 Y104.747 I-0.323 J-0.946
G1 X-2.646 Y104.712
G2 X-2.636 Y104.708 I-0.342 J-0.94
G1 X-2.541 Y104.672
G2 X-2.531 Y104.669 I-0.352 J-0.936
G1 X-2.435 Y104.632
X-2.426 Y104.628
X-2.331 Y104.59
X-2.322 Y104.586
X-2.227 Y104.547
X-2.218 Y104.544
X-2.123 Y104.504
X-2.028 Y104.464
G2 X-1.944 Y104.424 I-0.388 J-0.922
G1 X-1.864 Y104.381
X-1.783 Y104.337
G2 X-1.773 Y104.332 I-0.473 J-0.881
G1 X-1.693 Y104.288
X-1.691 Y104.287
X-1.612 Y104.243
G2 X-1.601 Y104.237 I-0.484 J-0.875
G1 X-1.522 Y104.192
G2 X-1.511 Y104.185 I-0.495 J-0.869
G1 X-1.432 Y104.139
G2 X-1.42 Y104.132 I-0.506 J-0.862
G1 X-1.343 Y104.085
G2 X-1.33 Y104.077 I-0.518 J-0.855
G1 X-1.254 Y104.029
G2 X-1.241 Y104.021 I-0.531 J-0.847
G1 X-1.165 Y103.972
G2 X-1.143 Y103.958 I-0.544 J-0.839
G1 X-1.069 Y103.907
G2 X-1.055 Y103.897 I-0.565 J-0.825
G1 X-0.982 Y103.845
G2 X-0.959 Y103.829 I-0.58 J-0.815
G1 X-0.888 Y103.775
G2 X-0.865 Y103.757 I-0.602 J-0.799
G1 X-0.795 Y103.701
G2 X-0.767 Y103.678 I-0.624 J-0.781
G1 X-0.698 Y103.619
G2 X-0.684 Y103.606 I-0.653 J-0.758
G1 X-0.617 Y103.546
G2 X-0.604 Y103.534 I-0.667 J-0.745
G1 X-0.538 Y103.473
G2 X-0.52 Y103.455 I-0.681 J-0.733
G1 X-0.455 Y103.392
G2 X-0.439 Y103.376 I-0.699 J-0.715
G1 X-0.375 Y103.311
X-0.37 Y103.306
X-0.308 Y103.241
G2 X-0.293 Y103.225 I-0.72 J-0.694
G1 X-0.231 Y103.158
X-0.228 Y103.155
X-0.167 Y103.088
X-0.164 Y103.085
X-0.104 Y103.018
G2 X-0.092 Y103.006 I-0.74 J-0.672
G1 X-0.034 Y102.939
X0.025 Y102.873
G2 X0.116 Y102.753 I-0.748 J-0.664
G1 X0.166 Y102.676
X0.167 Y102.675
X0.216 Y102.598
X0.221 Y102.59
X0.271 Y102.513
X0.319 Y102.436
G2 X0.326 Y102.425 I-0.844 J-0.536
G1 X0.374 Y102.347
G2 X0.381 Y102.335 I-0.851 J-0.525
G1 X0.429 Y102.256
G2 X0.434 Y102.248 I-0.858 J-0.513
G1 X0.48 Y102.169
G2 X0.486 Y102.158 I-0.863 J-0.505
G1 X0.531 Y102.079
G2 X0.543 Y102.058 I-0.869 J-0.494
G1 X0.586 Y101.977
G2 X0.593 Y101.963 I-0.881 J-0.473
G1 X0.635 Y101.882
G2 X0.643 Y101.866 I-0.889 J-0.459
G1 X0.683 Y101.785
G2 X0.696 Y101.759 I-0.897 J-0.443
G1 X0.734 Y101.676
G2 X0.744 Y101.654 I-0.909 J-0.417
G1 X0.78 Y101.57
G2 X0.787 Y101.553 I-0.919 J-0.395
G1 X0.821 Y101.469
G2 X0.829 Y101.45 I-0.926 J-0.378
G1 X0.861 Y101.365
G2 X0.868 Y101.347 I-0.933 J-0.359
G1 X0.899 Y101.261
G2 X0.904 Y101.249 I-0.94 J-0.341
G1 X0.933 Y101.163
G2 X0.938 Y101.148 I-0.944 J-0.329
G1 X0.967 Y101.061
G2 X0.971 Y101.049 I-0.949 J-0.314
G1 X0.999 Y100.961
X1.001 Y100.956
X1.028 Y100.869
X1.031 Y100.859
X1.057 Y100.771
X1.059 Y100.764
X1.085 Y100.675
X1.111 Y100.586
Y100.585
X1.137 Y100.497
G2 X1.157 Y100.415 I-0.961 J-0.278
G1 X1.181 Y100.294
Y100.292
X1.205 Y100.171
X1.206 Y100.168
X1.229 Y100.047
X1.23 Y100.043
X1.253 Y99.922
X1.254 Y99.917
X1.277 Y99.796
X1.278 Y99.789
X1.3 Y99.668
X1.301 Y99.659
X1.322 Y99.538
X1.323 Y99.528
X1.343 Y99.407
G2 X1.344 Y99.396 I-0.988 J-0.158
G1 X1.362 Y99.274
G2 X1.364 Y99.262 I-0.989 J-0.147
G1 X1.381 Y99.14
G2 X1.382 Y99.126 I-0.991 J-0.134
G1 X1.397 Y99.004
G2 X1.399 Y98.99 I-0.993 J-0.12
G1 X1.412 Y98.867
G2 X1.413 Y98.853 I-0.994 J-0.106
G1 X1.424 Y98.731
G2 X1.426 Y98.718 I-0.996 J-0.092
G1 X1.435 Y98.596
G2 X1.436 Y98.584 I-0.997 J-0.079
G1 X1.444 Y98.461
G2 X1.445 Y98.451 I-0.998 J-0.067
G1 X1.452 Y98.328
Y98.319
X1.458 Y98.196
X1.459 Y98.187
X1.463 Y98.064
X1.464 Y98.057
X1.468 Y97.934
Y97.928
X1.471 Y97.805
Y97.801
X1.474 Y97.677
Y97.674
X1.476 Y97.55
Y97.548
X1.478 Y97.425
Y97.424
X1.48 Y97.3
G2 Y97.285 I-1 J-0.015
G1 Y90.353
G2 X0.891 Y89.441 I-1
X1.48 Y88.529 I-0.411 J-0.912
G1 Y85.788
G2 X0.839 Y84.855 I-1
G1 X-4.027 Y82.981
Y76.766
X0.821 Y75.008
G2 X1.48 Y74.068 I-0.341 J-0.94
G1 Y71.513
G2 X1.381 Y71.079 I-1
X1.48 Y70.645 I-0.901 J-0.434
G1 Y59.285
G2 X0.891 Y58.373 I-1
X1.48 Y57.462 I-0.411 J-0.912
G1 Y54.721
G2 X0.839 Y53.787 I-1
G1 X-4.027 Y51.913
Y45.698
X0.821 Y43.941
G2 X1.48 Y43 I-0.341 J-0.94
G1 Y40.445
G2 X1.228 Y39.782 I-1
X1.48 Y39.118 I-0.748 J-0.664
G1 Y25.55
G2 X0.48 Y24.55 I-1
G1 X-6.611
Z-3.5
X-10.611
Z-5 F333.3
X-17.702 F800
G2 X-18.702 Y25.55 J1
G1 Y38.697
G2 X-17.702 Y39.697 I1
G1 X-15.556
G2 X-14.556 Y38.697 J-1
G1 Y28.956
X-10.988
Y38.015
G2 X-10.602 Y38.803 I1
G3 X-10.568 Y39.084 I-0.123 J0.158 F1000
G1 X-10.691 Y39.242
X-10.722 Y39.283 Z-4.993
X-10.752 Y39.321 Z-4.973
X-10.777 Y39.353 Z-4.941
X-10.797 Y39.378 Z-4.9
X-10.809 Y39.394 Z-4.852
X-10.813 Y39.4 Z-4.8
G0 Z5
X-11.129 Y39.154
G1 Z-2.698 F1000
Z-5.3 F333.3
X-11.125 Y39.148 Z-5.352
X-11.112 Y39.133 Z-5.4
X-11.093 Y39.107 Z-5.441
X-11.067 Y39.075 Z-5.473
X-11.038 Y39.037 Z-5.493
X-11.006 Y38.996 Z-5.5
X-10.883 Y38.838 F1000
G3 X-10.602 Y38.803 I0.158 J0.123
G2 X-9.988 Y39.015 I0.615 J-0.789 F800
G1 X-7.854
G2 X-6.854 Y38.015 J-1
G1 Y28.956
X-2.666
Y39.118
G2 X-1.666 Y40.118 I1
G1 X-1.458
X-7.102 Y42.286
Z-3.5
X-10.836 Y43.72
Z-5.5 F333.3
X-18.06 Y46.495 F800
G2 X-18.702 Y47.428 I0.359 J0.934
G1 Y50.02
G2 X-18.081 Y50.946 I1
G1 X-10.841 Y53.909
Z-3.5
X-7.139 Y55.424
Z-5.5 F333.3
X-0.149 Y58.285 F800
X-6.611
Z-3.5
X-10.611
Z-5.5 F333.3
X-17.702 F800
G2 X-18.702 Y59.285 J1
G1 Y61.691
G2 X-17.702 Y62.691 I1
G1 X-11.684
Z-3.5
X-7.684
Z-5.5 F333.3
X-2.666 F800
Y70.645
G2 X-2.219 Y71.479 I1
G1 X-7.102 Y73.354
Z-3.5
X-10.836 Y74.788
Z-5.5 F333.3
X-18.06 Y77.562 F800
G2 X-18.702 Y78.496 I0.359 J0.934
G1 Y81.088
G2 X-18.081 Y82.013 I1
G1 X-10.841 Y84.977
Z-3.5
X-7.139 Y86.492
Z-5.5 F333.3
X-0.149 Y89.353 F800
X-6.611
Z-3.5
X-10.611
Z-5.5 F333.3
X-17.702 F800
G2 X-18.702 Y90.353 J1
G1 Y97.174
G2 Y97.192 I1
G1 X-18.699 Y97.335
Y97.337
X-18.696 Y97.48
Y97.484
X-18.692 Y97.627
Y97.632
X-18.688 Y97.774
Y97.782
X-18.683 Y97.924
X-18.682 Y97.934
X-18.675 Y98.076
G2 Y98.087 I0.999 J-0.047
G1 X-18.667 Y98.229
G2 X-18.666 Y98.242 I0.998 J-0.058
G1 X-18.656 Y98.384
G2 X-18.655 Y98.399 I0.997 J-0.071
G1 X-18.642 Y98.54
G2 X-18.641 Y98.557 I0.996 J-0.086
G1 X-18.626 Y98.698
G2 X-18.624 Y98.716 I0.995 J-0.103
G1 X-18.607 Y98.857
G2 X-18.604 Y98.878 I0.993 J-0.122
G1 X-18.584 Y99.018
G2 X-18.58 Y99.04 I0.99 J-0.143
G1 X-18.557 Y99.18
G2 X-18.553 Y99.203 I0.986 J-0.166
G1 X-18.526 Y99.342
G2 X-18.521 Y99.366 I0.982 J-0.189
G1 X-18.491 Y99.504
G2 X-18.486 Y99.524 I0.977 J-0.213
G1 X-18.453 Y99.661
G2 X-18.449 Y99.679 I0.972 J-0.233
G1 X-18.413 Y99.816
G2 X-18.409 Y99.833 I0.968 J-0.251
G1 X-18.371 Y99.97
G2 X-18.367 Y99.982 I0.963 J-0.268
G1 X-18.327 Y100.118
G2 X-18.324 Y100.131 I0.96 J-0.28
G1 X-18.282 Y100.267
X-18.28 Y100.274
X-18.237 Y100.41
X-18.234 Y100.419
X-18.19 Y100.554
Y100.556
X-18.145 Y100.692
X-18.144 Y100.696
X-18.099 Y100.831
G2 X-18.036 Y100.979 I0.949 J-0.315
G1 X-17.985 Y101.078
X-17.981 Y101.084
X-17.929 Y101.182
X-17.928 Y101.185
X-17.875 Y101.283
G2 X-17.87 Y101.293 I0.881 J-0.472
G1 X-17.816 Y101.39
X-17.812 Y101.397
X-17.758 Y101.494
G2 X-17.748 Y101.511 I0.872 J-0.489
G1 X-17.693 Y101.606
G2 X-17.684 Y101.621 I0.863 J-0.506
G1 X-17.626 Y101.715
G2 X-17.614 Y101.734 I0.853 J-0.521
G1 X-17.555 Y101.826
G2 X-17.54 Y101.849 I0.841 J-0.54
G1 X-17.479 Y101.939
G2 X-17.465 Y101.958 I0.826 J-0.563
G1 X-17.402 Y102.047
G2 X-17.381 Y102.075 I0.813 J-0.582
G1 X-17.315 Y102.161
G2 X-17.29 Y102.191 I0.792 J-0.61
G1 X-17.221 Y102.274
G2 X-17.199 Y102.3 I0.768 J-0.64
G1 X-17.127 Y102.381
G2 X-17.1 Y102.41 I0.746 J-0.666
G1 X-17.025 Y102.488
G2 X-17.004 Y102.508 I0.719 J-0.695
G1 X-16.927 Y102.584
G2 X-16.905 Y102.604 I0.699 J-0.715
G1 X-16.825 Y102.678
G2 X-16.81 Y102.692 I0.678 J-0.735
G1 X-16.728 Y102.765
G2 X-16.704 Y102.785 I0.663 J-0.749
G1 X-16.62 Y102.855
G2 X-16.607 Y102.866 I0.639 J-0.769
G1 X-16.521 Y102.935
G2 X-16.51 Y102.944 I0.626 J-0.78
G1 X-16.423 Y103.012
G2 X-16.412 Y103.02 I0.615 J-0.789
G1 X-16.324 Y103.087
X-16.32 Y103.089
X-16.231 Y103.156
X-16.223 Y103.162
X-16.134 Y103.228
X-16.127 Y103.233
X-16.037 Y103.298
G2 X-15.929 Y103.366 I0.586 J-0.81
G1 X-15.835 Y103.417
X-15.74 Y103.469
X-15.733 Y103.473
X-15.639 Y103.523
X-15.63 Y103.527
X-15.536 Y103.576
X-15.527 Y103.581
X-15.433 Y103.629
G2 X-15.424 Y103.633 I0.452 J-0.892
G1 X-15.329 Y103.68
G2 X-15.303 Y103.692 I0.443 J-0.896
G1 X-15.208 Y103.736
G2 X-15.198 Y103.741 I0.418 J-0.908
G1 X-15.102 Y103.784
G2 X-15.083 Y103.792 I0.408 J-0.913
G1 X-14.986 Y103.833
G2 X-14.951 Y103.847 I0.39 J-0.921
G1 X-14.854 Y103.884
G2 X-14.834 Y103.891 I0.354 J-0.935
G1 X-14.735 Y103.926
G2 X-14.707 Y103.936 I0.335 J-0.942
G1 X-14.608 Y103.968
G2 X-14.57 Y103.979 I0.306 J-0.952
G1 X-14.469 Y104.007
G2 X-14.44 Y104.015 I0.269 J-0.963
G1 X-14.339 Y104.04
G2 X-14.31 Y104.047 I0.239 J-0.971
G1 X-14.207 Y104.069
G2 X-14.178 Y104.074 I0.21 J-0.978
G1 X-14.075 Y104.093
G2 X-14.056 Y104.097 I0.181 J-0.983
G1 X-13.952 Y104.114
G2 X-13.923 Y104.118 I0.162 J-0.987
G1 X-13.818 Y104.132
X-13.809 Y104.133
X-13.704 Y104.146
G2 X-13.685 Y104.149 I0.123 J-0.992
G1 X-13.579 Y104.16
X-13.473 Y104.171
G2 X-13.454 Y104.172 I0.103 J-0.995
G1 X-13.348 Y104.181
X-13.339 Y104.182
X-13.232 Y104.19
X-13.126 Y104.198
G2 X-12.979 I0.075 J-0.997
G1 X-12.882 Y104.191
X-12.785 Y104.184
G2 X-12.775 I-0.072 J-0.997
G1 X-12.678 Y104.176
X-12.581 Y104.168
G2 X-12.56 Y104.166 I-0.083 J-0.997
G1 X-12.464 Y104.156
G2 X-12.453 Y104.154 I-0.103 J-0.995
G1 X-12.358 Y104.143
G2 X-12.347 Y104.142 I-0.114 J-0.993
G1 X-12.251 Y104.13
G2 X-12.22 Y104.126 I-0.125 J-0.992
G1 X-12.125 Y104.111
G2 X-12.104 Y104.107 I-0.156 J-0.988
G1 X-12.009 Y104.09
G2 X-11.988 Y104.086 I-0.178 J-0.984
G1 X-11.894 Y104.067
G2 X-11.863 Y104.06 I-0.199 J-0.98
G1 X-11.77 Y104.038
G2 X-11.738 Y104.03 I-0.231 J-0.973
G1 X-11.646 Y104.005
G2 X-11.615 Y103.996 I-0.262 J-0.965
G1 X-11.524 Y103.968
G2 X-11.493 Y103.958 I-0.294 J-0.956
G1 X-11.403 Y103.927
G2 X-11.381 Y103.919 I-0.325 J-0.946
G1 X-11.292 Y103.886
G2 X-11.262 Y103.875 I-0.347 J-0.938
G1 X-11.174 Y103.839
G2 X-11.145 Y103.826 I-0.376 J-0.927
G1 X-11.057 Y103.787
G2 X-11.046 Y103.783 I-0.405 J-0.914
G1 X-10.959 Y103.743
G2 X-10.948 Y103.738 I-0.415 J-0.91
G1 X-10.861 Y103.697
G2 X-10.843 Y103.688 I-0.426 J-0.905
G1 X-10.756 Y103.645
G2 X-10.746 Y103.64 I-0.444 J-0.896
G1 X-10.66 Y103.596
G2 X-10.651 Y103.591 I-0.454 J-0.891
G1 X-10.565 Y103.546
X-10.478 Y103.501
X-10.47 Y103.497
X-10.384 Y103.451
G2 X-10.255 Y103.368 I-0.472 J-0.882
G1 X-10.171 Y103.305
X-10.087 Y103.243
G2 X-10.079 Y103.237 I-0.596 J-0.803
G1 X-9.993 Y103.172
G2 X-9.984 Y103.165 I-0.604 J-0.797
G1 X-9.899 Y103.099
G2 X-9.889 Y103.091 I-0.614 J-0.79
G1 X-9.805 Y103.024
X-9.799 Y103.019
X-9.716 Y102.952
G2 X-9.699 Y102.937 I-0.629 J-0.777
G1 X-9.617 Y102.868
G2 X-9.598 Y102.852 I-0.647 J-0.762
G1 X-9.519 Y102.781
G2 X-9.504 Y102.768 I-0.666 J-0.746
G1 X-9.427 Y102.696
G2 X-9.407 Y102.677 I-0.681 J-0.733
G1 X-9.383 Y102.654
X-9.337 Y102.723
G2 X-9.314 Y102.756 I0.832 J-0.555
G1 X-9.239 Y102.858
G2 X-9.219 Y102.885 I0.809 J-0.588
G1 X-9.141 Y102.985
G2 X-9.119 Y103.013 I0.789 J-0.615
G1 X-9.038 Y103.11
G2 X-9.019 Y103.131 I0.766 J-0.643
G1 X-8.935 Y103.226
G2 X-8.921 Y103.241 I0.748 J-0.664
G1 X-8.834 Y103.335
G2 X-8.818 Y103.352 I0.734 J-0.679
G1 X-8.729 Y103.444
G2 X-8.718 Y103.455 I0.718 J-0.696
G1 X-8.627 Y103.546
G2 X-8.617 Y103.556 I0.707 J-0.707
G1 X-8.524 Y103.646
G2 X-8.516 Y103.654 I0.697 J-0.717
G1 X-8.422 Y103.743
X-8.419 Y103.746
X-8.325 Y103.835
X-8.319 Y103.84
X-8.224 Y103.928
G2 X-8.076 Y104.042 I0.68 J-0.733
G1 X-7.97 Y104.108
X-7.864 Y104.174
X-7.858 Y104.179
X-7.752 Y104.244
G2 X-7.739 Y104.252 I0.524 J-0.852
G1 X-7.633 Y104.315
X-7.625 Y104.319
X-7.518 Y104.381
G2 X-7.504 Y104.39 I0.503 J-0.864
G1 X-7.396 Y104.45
G2 X-7.375 Y104.461 I0.488 J-0.873
G1 X-7.267 Y104.518
G2 X-7.251 Y104.527 I0.467 J-0.884
G1 X-7.142 Y104.582
G2 X-7.112 Y104.596 I0.451 J-0.893
G1 X-7.002 Y104.647
G2 X-6.977 Y104.658 I0.42 J-0.907
G1 X-6.866 Y104.706
G2 X-6.827 Y104.722 I0.396 J-0.918
G1 X-6.714 Y104.765
G2 X-6.681 Y104.777 I0.357 J-0.934
G1 X-6.567 Y104.816
G2 X-6.525 Y104.829 I0.323 J-0.946
G1 X-6.41 Y104.863
G2 X-6.376 Y104.873 I0.282 J-0.959
G1 X-6.259 Y104.903
G2 X-6.225 Y104.911 I0.248 J-0.969
G1 X-6.107 Y104.937
G2 X-6.081 Y104.942 I0.215 J-0.977
G1 X-5.962 Y104.965
G2 X-5.929 Y104.971 I0.189 J-0.982
G1 X-5.808 Y104.99
G2 X-5.783 Y104.993 I0.156 J-0.988
G1 X-5.662 Y105.009
X-5.653 Y105.011
X-5.531 Y105.026
G2 X-5.506 Y105.028 I0.122 J-0.993
G1 X-5.383 Y105.04
X-5.375 Y105.041
X-5.252 Y105.052
G2 X-5.235 Y105.053 I0.089 J-0.996
G1 X-5.112 Y105.062
X-4.987 Y105.071
X-4.979 Y105.072
X-4.855 Y105.08
G2 X-4.742 Y105.081 I0.064 J-0.998
G1 X-4.64 Y105.076
X-4.63 Y105.075
X-4.527 Y105.069
X-4.424 Y105.063
X-4.414
X-4.312 Y105.056
X-4.209 Y105.049
G2 X-4.19 Y105.047 I-0.068 J-0.998
G1 X-4.088 Y105.038
G2 X-4.068 Y105.036 I-0.088 J-0.996
G1 X-3.966 Y105.025
G2 X-3.956 Y105.024 I-0.107 J-0.994
G1 X-3.855 Y105.012
G2 X-3.835 Y105.01 I-0.118 J-0.993
G1 X-3.734 Y104.996
G2 X-3.714 Y104.993 I-0.137 J-0.991
G1 X-3.614 Y104.977
G2 X-3.594 Y104.973 I-0.157 J-0.988
G1 X-3.494 Y104.955
G2 X-3.464 Y104.949 I-0.177 J-0.984
G1 X-3.365 Y104.928
G2 X-3.336 Y104.922 I-0.207 J-0.978
G1 X-3.237 Y104.898
G2 X-3.217 Y104.893 I-0.236 J-0.972
G1 X-3.119 Y104.867
G2 X-3.09 Y104.858 I-0.256 J-0.967
G1 X-2.993 Y104.829
G2 X-2.973 Y104.824 I-0.285 J-0.958
G1 X-2.876 Y104.793
G2 X-2.857 Y104.786 I-0.304 J-0.953
G1 X-2.761 Y104.753
G2 X-2.742 Y104.747 I-0.323 J-0.946
G1 X-2.646 Y104.712
G2 X-2.636 Y104.708 I-0.342 J-0.94
G1 X-2.541 Y104.672
G2 X-2.531 Y104.669 I-0.352 J-0.936
G1 X-2.435 Y104.632
X-2.426 Y104.628
X-2.331 Y104.59
X-2.322 Y104.586
X-2.227 Y104.547
X-2.218 Y104.544
X-2.123 Y104.504
X-2.028 Y104.464
G2 X-1.944 Y104.424 I-0.388 J-0.922
G1 X-1.864 Y104.381
X-1.783 Y104.337
G2 X-1.773 Y104.332 I-0.473 J-0.881
G1 X-1.693 Y104.288
X-1.691 Y104.287
X-1.612 Y104.243
G2 X-1.601 Y104.237 I-0.484 J-0.875
G1 X-1.522 Y104.192
G2 X-1.511 Y104.185 I-0.495 J-0.869
G1 X-1.432 Y104.139
G2 X-1.42 Y104.132 I-0.506 J-0.862
G1 X-1.343 Y104.085
G2 X-1.33 Y104.077 I-0.518 J-0.855
G1 X-1.254 Y104.029
G2 X-1.241 Y104.021 I-0.531 J-0.847
G1 X-1.165 Y103.972
G2 X-1.143 Y103.958 I-0.544 J-0.839
G1 X-1.069 Y103.907
G2 X-1.055 Y103.897 I-0.565 J-0.825
G1 X-0.982 Y103.845
G2 X-0.959 Y103.829 I-0.58 J-0.815
G1 X-0.888 Y103.775
G2 X-0.865 Y103.757 I-0.602 J-0.799
G1 X-0.795 Y103.701
G2 X-0.767 Y103.678 I-0.624 J-0.781
G1 X-0.698 Y103.619
G2 X-0.684 Y103.606 I-0.653 J-0.758
G1 X-0.617 Y103.546
G2 X-0.604 Y103.534 I-0.667 J-0.745
G1 X-0.538 Y103.473
G2 X-0.52 Y103.455 I-0.681 J-0.733
G1 X-0.455 Y103.392
G2 X-0.439 Y103.376 I-0.699 J-0.715
G1 X-0.375 Y103.311
X-0.37 Y103.306
X-0.308 Y103.241
G2 X-0.293 Y103.225 I-0.72 J-0.694
G1 X-0.231 Y103.158
X-0.228 Y103.155
X-0.167 Y103.088
X-0.164 Y103.085
X-0.104 Y103.018
G2 X-0.092 Y103.006 I-0.74 J-0.672
G1 X-0.034 Y102.939
X0.025 Y102.873
G2 X0.116 Y102.753 I-0.748 J-0.664
G1 X0.166 Y102.676
X0.167 Y102.675
X0.216 Y102.598
X0.221 Y102.59
X0.271 Y102.513
X0.319 Y102.436
G2 X0.326 Y102.425 I-0.844 J-0.536
G1 X0.374 Y102.347
G2 X0.381 Y102.335 I-0.851 J-0.525
G1 X0.429 Y102.256
G2 X0.434 Y102.248 I-0.858 J-0.513
G1 X0.48 Y102.169
G2 X0.486 Y102.158 I-0.863 J-0.505
G1 X0.531 Y102.079
G2 X0.543 Y102.058 I-0.869 J-0.494
G1 X0.586 Y101.977
G2 X0.593 Y101.963 I-0.881 J-0.473
G1 X0.635 Y101.882
G2 X0.643 Y101.866 I-0.889 J-0.459
G1 X0.683 Y101.785
G2 X0.696 Y101.759 I-0.897 J-0.443
G1 X0.734 Y101.676
G2 X0.744 Y101.654 I-0.909 J-0.417
G1 X0.78 Y101.57
G2 X0.787 Y101.553 I-0.919 J-0.395
G1 X0.821 Y101.469
G2 X0.829 Y101.45 I-0.926 J-0.378
G1 X0.861 Y101.365
G2 X0.868 Y101.347 I-0.933 J-0.359
G1 X0.899 Y101.261
G2 X0.904 Y101.249 I-0.94 J-0.341
G1 X0.933 Y101.163
G2 X0.938 Y101.148 I-0.944 J-0.329
G1 X0.967 Y101.061
G2 X0.971 Y101.049 I-0.949 J-0.314
G1 X0.999 Y100.961
X1.001 Y100.956
X1.028 Y100.869
X1.031 Y100.859
X1.057 Y100.771
X1.059 Y100.764
X1.085 Y100.675
X1.111 Y100.586
Y100.585
X1.137 Y100.497
G2 X1.157 Y100.415 I-0.961 J-0.278
G1 X1.181 Y100.294
Y100.292
X1.205 Y100.171
X1.206 Y100.168
X1.229 Y100.047
X1.23 Y100.043
X1.253 Y99.922
X1.254 Y99.917
X1.277 Y99.796
X1.278 Y99.789
X1.3 Y99.668
X1.301 Y99.659
X1.322 Y99.538
X1.323 Y99.528
X1.343 Y99.407
G2 X1.344 Y99.396 I-0.988 J-0.158
G1 X1.362 Y99.274
G2 X1.364 Y99.262 I-0.989 J-0.147
G1 X1.381 Y99.14
G2 X1.382 Y99.126 I-0.991 J-0.134
G1 X1.397 Y99.004
G2 X1.399 Y98.99 I-0.993 J-0.12
G1 X1.412 Y98.867
G2 X1.413 Y98.853 I-0.994 J-0.106
G1 X1.424 Y98.731
G2 X1.426 Y98.718 I-0.996 J-0.092
G1 X1.435 Y98.596
G2 X1.436 Y98.584 I-0.997 J-0.079
G1 X1.444 Y98.461
G2 X1.445 Y98.451 I-0.998 J-0.067
G1 X1.452 Y98.328
Y98.319
X1.458 Y98.196
X1.459 Y98.187
X1.463 Y98.064
X1.464 Y98.057
X1.468 Y97.934
Y97.928
X1.471 Y97.805
Y97.801
X1.474 Y97.677
Y97.674
X1.476 Y97.55
Y97.548
X1.478 Y97.425
Y97.424
X1.48 Y97.3
G2 Y97.285 I-1 J-0.015
G1 Y90.353
G2 X0.891 Y89.441 I-1
X1.48 Y88.529 I-0.411 J-0.912
G1 Y85.788
G2 X0.839 Y84.855 I-1
G1 X-4.027 Y82.981
Y76.766
X0.821 Y75.008
G2 X1.48 Y74.068 I-0.341 J-0.94
G1 Y71.513
G2 X1.381 Y71.079 I-1
X1.48 Y70.645 I-0.901 J-0.434
G1 Y59.285
G2 X0.891 Y58.373 I-1
X1.48 Y57.462 I-0.411 J-0.912
G1 Y54.721
G2 X0.839 Y53.787 I-1
G1 X-4.027 Y51.913
Y45.698
X0.821 Y43.941
G2 X1.48 Y43 I-0.341 J-0.94
G1 Y40.445
G2 X1.228 Y39.782 I-1
X1.48 Y39.118 I-0.748 J-0.664
G1 Y25.55
G2 X0.48 Y24.55 I-1
G1 X-6.611
Z-3.5
X-10.611
Z-5.5 F333.3
X-17.702 F800
G2 X-18.702 Y25.55 J1
G1 Y38.697
G2 X-17.702 Y39.697 I1
G1 X-15.556
G2 X-14.556 Y38.697 J-1
G1 Y28.956
X-10.988
Y38.015
G2 X-10.602 Y38.803 I1
G3 X-10.568 Y39.084 I-0.123 J0.158 F1000
G1 X-10.691 Y39.242
X-10.722 Y39.283 Z-5.493
X-10.752 Y39.321 Z-5.473
X-10.777 Y39.353 Z-5.441
X-10.797 Y39.378 Z-5.4
X-10.809 Y39.394 Z-5.352
X-10.813 Y39.4 Z-5.3
G0 Z5
X0.68 Y5.558
G1 Z2 F1000
Z-0.8 F333.3
G19 G3 Y5.758 Z-1 J0.2
G1 Y5.958 F1000
G17 G3 X0.48 Y6.158 I-0.2
G1 X-17.702 F800
G2 X-18.702 Y7.158 J1
G1 Y13.421
Y13.424
X-18.701 Y13.56
Y13.562
X-18.7 Y13.698
Y13.835
Y13.838
X-18.698 Y13.974
Y13.978
X-18.696 Y14.114
Y14.118
X-18.694 Y14.254
X-18.693 Y14.26
X-18.69 Y14.396
Y14.402
X-18.686 Y14.537
X-18.685 Y14.545
X-18.68 Y14.681
Y14.689
X-18.673 Y14.825
Y14.834
X-18.665 Y14.969
G2 X-18.664 Y14.981 I0.998 J-0.057
G1 X-18.655 Y15.116
G2 X-18.654 Y15.126 I0.998 J-0.069
G1 X-18.644 Y15.261
G2 X-18.642 Y15.274 I0.997 J-0.079
G1 X-18.63 Y15.409
G2 X-18.629 Y15.422 I0.996 J-0.092
G1 X-18.614 Y15.557
G2 X-18.613 Y15.568 I0.994 J-0.106
G1 X-18.597 Y15.702
G2 X-18.596 Y15.713 I0.993 J-0.117
G1 X-18.579 Y15.847
X-18.578 Y15.856
X-18.559 Y15.991
X-18.558 Y15.999
X-18.538 Y16.133
X-18.537 Y16.139
X-18.517 Y16.273
X-18.516 Y16.278
X-18.495 Y16.412
X-18.494 Y16.416
X-18.473 Y16.55
X-18.472 Y16.552
X-18.45 Y16.686
Y16.688
X-18.428 Y16.821
G2 X-18.404 Y16.93 I0.987 J-0.164
G1 X-18.37 Y17.051
X-18.369 Y17.053
X-18.335 Y17.174
X-18.333 Y17.178
X-18.298 Y17.298
X-18.296 Y17.306
X-18.26 Y17.426
X-18.258 Y17.435
X-18.221 Y17.555
G2 X-18.217 Y17.567 I0.956 J-0.295
G1 X-18.179 Y17.686
G2 X-18.174 Y17.699 I0.952 J-0.306
G1 X-18.134 Y17.817
G2 X-18.129 Y17.833 I0.947 J-0.32
G1 X-18.087 Y17.95
G2 X-18.08 Y17.97 I0.942 J-0.336
G1 X-18.036 Y18.086
G2 X-18.028 Y18.106 I0.935 J-0.355
G1 X-17.982 Y18.221
G2 X-17.972 Y18.244 I0.927 J-0.375
G1 X-17.923 Y18.358
G2 X-17.912 Y18.382 I0.917 J-0.398
G1 X-17.859 Y18.494
G2 X-17.846 Y18.521 I0.906 J-0.423
G1 X-17.791 Y18.631
G2 X-17.777 Y18.657 I0.893 J-0.449
G1 X-17.718 Y18.766
G2 X-17.706 Y18.788 I0.88 J-0.475
G1 X-17.644 Y18.896
G2 X-17.632 Y18.916 I0.867 J-0.498
G1 X-17.568 Y19.022
G2 X-17.557 Y19.04 I0.855 J-0.518
G1 X-17.49 Y19.145
G2 X-17.481 Y19.16 I0.844 J-0.536
G1 X-17.412 Y19.264
G2 X-17.403 Y19.277 I0.835 J-0.551
G1 X-17.333 Y19.38
G2 X-17.326 Y19.391 I0.826 J-0.564
G1 X-17.254 Y19.493
G2 X-17.248 Y19.501 I0.819 J-0.574
G1 X-17.175 Y19.603
X-17.171 Y19.609
X-17.097 Y19.711
X-17.094 Y19.715
X-17.019 Y19.816
X-17.018 Y19.818
X-16.943 Y19.919
G2 X-16.856 Y20.022 I0.804 J-0.595
G1 X-16.744 Y20.137
X-16.742 Y20.139
X-16.63 Y20.253
X-16.626 Y20.257
X-16.513 Y20.371
X-16.508 Y20.377
X-16.394 Y20.489
G2 X-16.387 Y20.497 I0.705 J-0.709
G1 X-16.273 Y20.608
G2 X-16.263 Y20.618 I0.698 J-0.716
G1 X-16.147 Y20.727
G2 X-16.136 Y20.738 I0.688 J-0.726
G1 X-16.019 Y20.846
G2 X-16.005 Y20.858 I0.676 J-0.737
G1 X-15.886 Y20.963
G2 X-15.869 Y20.978 I0.662 J-0.749
G1 X-15.748 Y21.08
G2 X-15.729 Y21.095 I0.646 J-0.764
G1 X-15.606 Y21.194
G2 X-15.584 Y21.211 I0.627 J-0.779
G1 X-15.459 Y21.307
G2 X-15.434 Y21.325 I0.605 J-0.796
G1 X-15.306 Y21.416
G2 X-15.281 Y21.433 I0.58 J-0.814
G1 X-15.15 Y21.521
G2 X-15.125 Y21.537 I0.555 J-0.832
G1 X-14.991 Y21.62
G2 X-14.968 Y21.634 I0.53 J-0.848
G1 X-14.832 Y21.715
G2 X-14.812 Y21.726 I0.507 J-0.862
G1 X-14.674 Y21.803
G2 X-14.655 Y21.813 I0.487 J-0.873
G1 X-14.515 Y21.888
G2 X-14.499 Y21.896 I0.469 J-0.883
G1 X-14.357 Y21.968
G2 X-14.343 Y21.975 I0.452 J-0.892
G1 X-14.2 Y22.045
G2 X-14.188 Y22.05 I0.438 J-0.899
G1 X-14.044 Y22.118
G2 X-14.035 Y22.123 I0.427 J-0.904
G1 X-13.889 Y22.189
X-13.882 Y22.193
X-13.736 Y22.258
X-13.732 Y22.26
X-13.585 Y22.325
X-13.583 Y22.327
X-13.436 Y22.391
G2 X-13.328 Y22.432 I0.403 J-0.915
G1 X-13.152 Y22.486
X-13.151
X-12.975 Y22.541
X-12.971 Y22.542
X-12.795 Y22.595
X-12.789 Y22.597
X-12.613 Y22.649
X-12.605 Y22.651
X-12.429 Y22.702
X-12.42 Y22.705
X-12.243 Y22.754
G2 X-12.231 Y22.757 I0.268 J-0.963
G1 X-12.054 Y22.804
G2 X-12.041 Y22.808 I0.256 J-0.967
G1 X-11.863 Y22.852
G2 X-11.848 Y22.856 I0.243 J-0.97
G1 X-11.669 Y22.897
G2 X-11.653 Y22.901 I0.227 J-0.974
G1 X-11.474 Y22.94
G2 X-11.455 Y22.944 I0.211 J-0.978
G1 X-11.275 Y22.979
G2 X-11.253 Y22.983 I0.191 J-0.982
G1 X-11.074 Y23.014
G2 X-11.053 Y23.017 I0.169 J-0.986
G1 X-10.872 Y23.044
G2 X-10.853 Y23.047 I0.148 J-0.989
G1 X-10.672 Y23.07
G2 X-10.654 Y23.073 I0.129 J-0.992
G1 X-10.472 Y23.093
G2 X-10.456 Y23.094 I0.111 J-0.994
G1 X-10.274 Y23.112
G2 X-10.26 Y23.113 I0.095 J-0.995
G1 X-10.077 Y23.128
G2 X-10.064 Y23.129 I0.081 J-0.997
G1 X-9.881 Y23.141
G2 X-9.871 Y23.142 I0.068 J-0.998
G1 X-9.688 Y23.153
X-9.678
X-9.495 Y23.162
X-9.488
X-9.304 Y23.17
X-9.298
X-9.114 Y23.177
X-9.112
X-8.927 Y23.183
X-8.925
X-8.741 Y23.189
G2 X-8.686 I0.031 J-1
G1 X-8.531 Y23.185
X-8.53
X-8.375 Y23.181
X-8.371
X-8.216 Y23.177
X-8.212
X-8.057 Y23.172
X-8.052
X-7.897 Y23.166
X-7.89 Y23.165
X-7.735 Y23.158
X-7.726
X-7.572 Y23.15
G2 X-7.561 Y23.149 I-0.054 J-0.999
G1 X-7.407 Y23.139
G2 X-7.395 Y23.138 I-0.064 J-0.998
G1 X-7.241 Y23.127
G2 X-7.229 Y23.126 I-0.076 J-0.997
G1 X-7.075 Y23.112
G2 X-7.06 Y23.111 I-0.088 J-0.996
G1 X-6.907 Y23.095
G2 X-6.891 Y23.093 I-0.103 J-0.995
G1 X-6.738 Y23.075
G2 X-6.721 Y23.072 I-0.119 J-0.993
G1 X-6.568 Y23.052
G2 X-6.55 Y23.049 I-0.135 J-0.991
G1 X-6.397 Y23.025
G2 X-6.382 Y23.023 I-0.154 J-0.988
G1 X-6.23 Y22.997
G2 X-6.216 Y22.994 I-0.169 J-0.986
G1 X-6.064 Y22.966
G2 X-6.05 Y22.963 I-0.183 J-0.983
G1 X-5.899 Y22.933
G2 X-5.889 Y22.931 I-0.197 J-0.98
G1 X-5.737 Y22.899
X-5.728 Y22.897
X-5.577 Y22.863
X-5.568 Y22.861
X-5.417 Y22.826
X-5.412 Y22.825
X-5.261 Y22.789
X-5.256 Y22.788
X-5.105 Y22.752
X-5.102 Y22.751
X-4.951 Y22.714
X-4.95
X-4.799 Y22.676
G2 X-4.726 Y22.655 I-0.24 J-0.971
G1 X-4.61 Y22.617
X-4.492 Y22.578
X-4.489 Y22.577
X-4.372 Y22.538
X-4.368 Y22.537
X-4.252 Y22.497
X-4.245 Y22.495
X-4.13 Y22.455
X-4.123 Y22.452
X-4.007 Y22.411
X-3.998 Y22.408
X-3.883 Y22.366
G2 X-3.873 Y22.362 I-0.344 J-0.939
G1 X-3.759 Y22.319
G2 X-3.746 Y22.314 I-0.354 J-0.935
G1 X-3.632 Y22.269
G2 X-3.619 Y22.264 I-0.367 J-0.93
G1 X-3.506 Y22.217
G2 X-3.492 Y22.211 I-0.38 J-0.925
G1 X-3.38 Y22.163
G2 X-3.363 Y22.156 I-0.395 J-0.919
G1 X-3.252 Y22.106
G2 X-3.235 Y22.098 I-0.411 J-0.912
G1 X-3.125 Y22.046
G2 X-3.106 Y22.037 I-0.429 J-0.904
G1 X-2.997 Y21.982
G2 X-2.982 Y21.974 I-0.447 J-0.894
G1 X-2.874 Y21.918
G2 X-2.858 Y21.91 I-0.463 J-0.887
G1 X-2.751 Y21.851
G2 X-2.739 Y21.844 I-0.478 J-0.878
G1 X-2.632 Y21.785
G2 X-2.621 Y21.778 I-0.491 J-0.871
G1 X-2.515 Y21.717
G2 X-2.505 Y21.711 I-0.502 J-0.865
G1 X-2.4 Y21.648
X-2.393 Y21.644
X-2.288 Y21.581
X-2.282 Y21.577
X-2.177 Y21.512
X-2.173 Y21.509
X-2.069 Y21.444
X-2.066 Y21.443
X-1.962 Y21.377
X-1.96 Y21.376
X-1.857 Y21.311
G2 X-1.781 Y21.257 I-0.534 J-0.845
G1 X-1.703 Y21.197
X-1.702
X-1.624 Y21.136
X-1.621 Y21.134
X-1.544 Y21.074
X-1.54 Y21.071
X-1.462 Y21.01
X-1.457 Y21.006
X-1.38 Y20.944
X-1.373 Y20.939
X-1.297 Y20.877
G2 X-1.289 Y20.871 I-0.631 J-0.776
G1 X-1.214 Y20.808
G2 X-1.204 Y20.8 I-0.639 J-0.769
G1 X-1.13 Y20.737
G2 X-1.119 Y20.727 I-0.649 J-0.761
G1 X-1.046 Y20.663
G2 X-1.034 Y20.653 I-0.659 J-0.752
G1 X-0.962 Y20.587
G2 X-0.949 Y20.575 I-0.671 J-0.742
G1 X-0.878 Y20.508
G2 X-0.864 Y20.495 I-0.684 J-0.729
G1 X-0.794 Y20.427
G2 X-0.779 Y20.412 I-0.698 J-0.716
G1 X-0.71 Y20.342
G2 X-0.696 Y20.327 I-0.714 J-0.701
G1 X-0.629 Y20.256
G2 X-0.616 Y20.241 I-0.728 J-0.685
G1 X-0.55 Y20.169
G2 X-0.539 Y20.156 I-0.742 J-0.671
G1 X-0.474 Y20.082
G2 X-0.465 Y20.071 I-0.753 J-0.658
G1 X-0.401 Y19.997
G2 X-0.392 Y19.986 I-0.763 J-0.646
G1 X-0.33 Y19.91
G2 X-0.323 Y19.901 I-0.772 J-0.636
G1 X-0.262 Y19.825
X-0.256 Y19.818
X-0.195 Y19.741
X-0.19 Y19.735
X-0.13 Y19.657
X-0.127 Y19.652
X-0.067 Y19.575
X-0.064 Y19.571
X-0.005 Y19.493
X-0.004 Y19.492
X0.055 Y19.414
G2 X0.121 Y19.316 I-0.797 J-0.604
G1 X0.171 Y19.23
X0.172 Y19.229
X0.222 Y19.143
X0.224 Y19.14
X0.273 Y19.054
X0.276 Y19.05
X0.325 Y18.964
X0.329 Y18.957
X0.377 Y18.871
G2 X0.382 Y18.863 I-0.872 J-0.49
G1 X0.429 Y18.776
G2 X0.434 Y18.767 I-0.877 J-0.481
G1 X0.481 Y18.68
G2 X0.487 Y18.668 I-0.882 J-0.471
G1 X0.532 Y18.58
G2 X0.539 Y18.567 I-0.888 J-0.459
G1 X0.583 Y18.479
G2 X0.591 Y18.463 I-0.895 J-0.446
G1 X0.633 Y18.375
G2 X0.641 Y18.357 I-0.903 J-0.43
G1 X0.682 Y18.268
G2 X0.69 Y18.249 I-0.911 J-0.413
G1 X0.728 Y18.159
G2 X0.737 Y18.139 I-0.919 J-0.394
G1 X0.773 Y18.048
G2 X0.78 Y18.03 I-0.927 J-0.374
G1 X0.815 Y17.939
G2 X0.821 Y17.922 I-0.934 J-0.356
G1 X0.855 Y17.83
G2 X0.86 Y17.815 I-0.94 J-0.34
G1 X0.892 Y17.722
G2 X0.896 Y17.709 I-0.946 J-0.325
G1 X0.927 Y17.615
G2 X0.931 Y17.604 I-0.95 J-0.312
G1 X0.96 Y17.51
G2 X0.963 Y17.5 I-0.954 J-0.3
G1 X0.992 Y17.405
X0.995 Y17.397
X1.022 Y17.303
X1.024 Y17.296
X1.052 Y17.201
X1.053 Y17.196
X1.08 Y17.101
X1.081 Y17.097
X1.107 Y17.002
X1.108 Y17
X1.134 Y16.905
G2 X1.151 Y16.834 I-0.964 J-0.266
G1 X1.175 Y16.714
Y16.713
X1.199 Y16.592
Y16.589
X1.223 Y16.469
Y16.465
X1.246 Y16.344
X1.247 Y16.339
X1.27 Y16.219
X1.271 Y16.212
X1.293 Y16.091
X1.294 Y16.084
X1.314 Y15.963
X1.316 Y15.954
X1.335 Y15.833
G2 X1.337 Y15.822 I-0.987 J-0.159
G1 X1.355 Y15.701
G2 X1.357 Y15.69 I-0.989 J-0.149
G1 X1.374 Y15.568
G2 X1.375 Y15.555 I-0.991 J-0.137
G1 X1.391 Y15.434
G2 X1.392 Y15.42 I-0.992 J-0.124
G1 X1.406 Y15.298
G2 X1.407 Y15.284 I-0.994 J-0.11
G1 X1.419 Y15.162
G2 X1.42 Y15.149 I-0.995 J-0.096
G1 X1.43 Y15.027
G2 X1.431 Y15.016 I-0.997 J-0.083
G1 X1.44 Y14.894
G2 Y14.883 I-0.997 J-0.071
G1 X1.448 Y14.761
Y14.751
X1.455 Y14.629
Y14.621
X1.46 Y14.498
X1.461 Y14.491
X1.465 Y14.369
Y14.363
X1.469 Y14.24
Y14.235
X1.472 Y14.113
Y14.109
X1.475 Y13.986
Y13.984
X1.478 Y13.861
Y13.86
X1.48 Y13.737
G2 Y13.719 I-1 J-0.019
G1 Y7.158
G2 X0.48 Y6.158 I-1
G3 X0.28 Y5.958 J-0.2 F1000
G1 Y5.758
G19 G2 Y5.558 Z-0.8 K0.2
G0 Z5
X0.68
G1 Z1.302 F1000
Z-1.8 F333.3
G3 Y5.758 Z-2 J0.2
G1 Y5.958 F1000
G17 G3 X0.48 Y6.158 I-0.2
G1 X-17.702 F800
G2 X-18.702 Y7.158 J1
G1 Y13.421
Y13.424
X-18.701 Y13.56
Y13.562
X-18.7 Y13.698
Y13.835
Y13.838
X-18.698 Y13.974
Y13.978
X-18.696 Y14.114
Y14.118
X-18.694 Y14.254
X-18.693 Y14.26
X-18.69 Y14.396
Y14.402
X-18.686 Y14.537
X-18.685 Y14.545
X-18.68 Y14.681
Y14.689
X-18.673 Y14.825
Y14.834
X-18.665 Y14.969
G2 X-18.664 Y14.981 I0.998 J-0.057
G1 X-18.655 Y15.116
G2 X-18.654 Y15.126 I0.998 J-0.069
G1 X-18.644 Y15.261
G2 X-18.642 Y15.274 I0.997 J-0.079
G1 X-18.63 Y15.409
G2 X-18.629 Y15.422 I0.996 J-0.092
G1 X-18.614 Y15.557
G2 X-18.613 Y15.568 I0.994 J-0.106
G1 X-18.597 Y15.702
G2 X-18.596 Y15.713 I0.993 J-0.117
G1 X-18.579 Y15.847
X-18.578 Y15.856
X-18.559 Y15.991
X-18.558 Y15.999
X-18.538 Y16.133
X-18.537 Y16.139
X-18.517 Y16.273
X-18.516 Y16.278
X-18.495 Y16.412
X-18.494 Y16.416
X-18.473 Y16.55
X-18.472 Y16.552
X-18.45 Y16.686
Y16.688
X-18.428 Y16.821
G2 X-18.404 Y16.93 I0.987 J-0.164
G1 X-18.37 Y17.051
X-18.369 Y17.053
X-18.335 Y17.174
X-18.333 Y17.178
X-18.298 Y17.298
X-18.296 Y17.306
X-18.26 Y17.426
X-18.258 Y17.435
X-18.221 Y17.555
G2 X-18.217 Y17.567 I0.956 J-0.295
G1 X-18.179 Y17.686
G2 X-18.174 Y17.699 I0.952 J-0.306
G1 X-18.134 Y17.817
G2 X-18.129 Y17.833 I0.947 J-0.32
G1 X-18.087 Y17.95
G2 X-18.08 Y17.97 I0.942 J-0.336
G1 X-18.036 Y18.086
G2 X-18.028 Y18.106 I0.935 J-0.355
G1 X-17.982 Y18.221
G2 X-17.972 Y18.244 I0.927 J-0.375
G1 X-17.923 Y18.358
G2 X-17.912 Y18.382 I0.917 J-0.398
G1 X-17.859 Y18.494
G2 X-17.846 Y18.521 I0.906 J-0.423
G1 X-17.791 Y18.631
G2 X-17.777 Y18.657 I0.893 J-0.449
G1 X-17.718 Y18.766
G2 X-17.706 Y18.788 I0.88 J-0.475
G1 X-17.644 Y18.896
G2 X-17.632 Y18.916 I0.867 J-0.498
G1 X-17.568 Y19.022
G2 X-17.557 Y19.04 I0.855 J-0.518
G1 X-17.49 Y19.145
G2 X-17.481 Y19.16 I0.844 J-0.536
G1 X-17.412 Y19.264
G2 X-17.403 Y19.277 I0.835 J-0.551
G1 X-17.333 Y19.38
G2 X-17.326 Y19.391 I0.826 J-0.564
G1 X-17.254 Y19.493
G2 X-17.248 Y19.501 I0.819 J-0.574
G1 X-17.175 Y19.603
X-17.171 Y19.609
X-17.097 Y19.711
X-17.094 Y19.715
X-17.019 Y19.816
X-17.018 Y19.818
X-16.943 Y19.919
G2 X-16.856 Y20.022 I0.804 J-0.595
G1 X-16.744 Y20.137
X-16.742 Y20.139
X-16.63 Y20.253
X-16.626 Y20.257
X-16.513 Y20.371
X-16.508 Y20.377
X-16.394 Y20.489
G2 X-16.387 Y20.497 I0.705 J-0.709
G1 X-16.273 Y20.608
G2 X-16.263 Y20.618 I0.698 J-0.716
G1 X-16.147 Y20.727
G2 X-16.136 Y20.738 I0.688 J-0.726
G1 X-16.019 Y20.846
G2 X-16.005 Y20.858 I0.676 J-0.737
G1 X-15.886 Y20.963
G2 X-15.869 Y20.978 I0.662 J-0.749
G1 X-15.748 Y21.08
G2 X-15.729 Y21.095 I0.646 J-0.764
G1 X-15.606 Y21.194
G2 X-15.584 Y21.211 I0.627 J-0.779
G1 X-15.459 Y21.307
G2 X-15.434 Y21.325 I0.605 J-0.796
G1 X-15.306 Y21.416
G2 X-15.281 Y21.433 I0.58 J-0.814
G1 X-15.15 Y21.521
G2 X-15.125 Y21.537 I0.555 J-0.832
G1 X-14.991 Y21.62
G2 X-14.968 Y21.634 I0.53 J-0.848
G1 X-14.832 Y21.715
G2 X-14.812 Y21.726 I0.507 J-0.862
G1 X-14.674 Y21.803
G2 X-14.655 Y21.813 I0.487 J-0.873
G1 X-14.515 Y21.888
G2 X-14.499 Y21.896 I0.469 J-0.883
G1 X-14.357 Y21.968
G2 X-14.343 Y21.975 I0.452 J-0.892
G1 X-14.2 Y22.045
G2 X-14.188 Y22.05 I0.438 J-0.899
G1 X-14.044 Y22.118
G2 X-14.035 Y22.123 I0.427 J-0.904
G1 X-13.889 Y22.189
X-13.882 Y22.193
X-13.736 Y22.258
X-13.732 Y22.26
X-13.585 Y22.325
X-13.583 Y22.327
X-13.436 Y22.391
G2 X-13.328 Y22.432 I0.403 J-0.915
G1 X-13.152 Y22.486
X-13.151
X-12.975 Y22.541
X-12.971 Y22.542
X-12.795 Y22.595
X-12.789 Y22.597
X-12.613 Y22.649
X-12.605 Y22.651
X-12.429 Y22.702
X-12.42 Y22.705
X-12.243 Y22.754
G2 X-12.231 Y22.757 I0.268 J-0.963
G1 X-12.054 Y22.804
G2 X-12.041 Y22.808 I0.256 J-0.967
G1 X-11.863 Y22.852
G2 X-11.848 Y22.856 I0.243 J-0.97
G1 X-11.669 Y22.897
G2 X-11.653 Y22.901 I0.227 J-0.974
G1 X-11.474 Y22.94
G2 X-11.455 Y22.944 I0.211 J-0.978
G1 X-11.275 Y22.979
G2 X-11.253 Y22.983 I0.191 J-0.982
G1 X-11.074 Y23.014
G2 X-11.053 Y23.017 I0.169 J-0.986
G1 X-10.872 Y23.044
G2 X-10.853 Y23.047 I0.148 J-0.989
G1 X-10.672 Y23.07
G2 X-10.654 Y23.073 I0.129 J-0.992
G1 X-10.472 Y23.093
G2 X-10.456 Y23.094 I0.111 J-0.994
G1 X-10.274 Y23.112
G2 X-10.26 Y23.113 I0.095 J-0.995
G1 X-10.077 Y23.128
G2 X-10.064 Y23.129 I0.081 J-0.997
G1 X-9.881 Y23.141
G2 X-9.871 Y23.142 I0.068 J-0.998
G1 X-9.688 Y23.153
X-9.678
X-9.495 Y23.162
X-9.488
X-9.304 Y23.17
X-9.298
X-9.114 Y23.177
X-9.112
X-8.927 Y23.183
X-8.925
X-8.741 Y23.189
G2 X-8.686 I0.031 J-1
G1 X-8.531 Y23.185
X-8.53
X-8.375 Y23.181
X-8.371
X-8.216 Y23.177
X-8.212
X-8.057 Y23.172
X-8.052
X-7.897 Y23.166
X-7.89 Y23.165
X-7.735 Y23.158
X-7.726
X-7.572 Y23.15
G2 X-7.561 Y23.149 I-0.054 J-0.999
G1 X-7.407 Y23.139
G2 X-7.395 Y23.138 I-0.064 J-0.998
G1 X-7.241 Y23.127
G2 X-7.229 Y23.126 I-0.076 J-0.997
G1 X-7.075 Y23.112
G2 X-7.06 Y23.111 I-0.088 J-0.996
G1 X-6.907 Y23.095
G2 X-6.891 Y23.093 I-0.103 J-0.995
G1 X-6.738 Y23.075
G2 X-6.721 Y23.072 I-0.119 J-0.993
G1 X-6.568 Y23.052
G2 X-6.55 Y23.049 I-0.135 J-0.991
G1 X-6.397 Y23.025
G2 X-6.382 Y23.023 I-0.154 J-0.988
G1 X-6.23 Y22.997
G2 X-6.216 Y22.994 I-0.169 J-0.986
G1 X-6.064 Y22.966
G2 X-6.05 Y22.963 I-0.183 J-0.983
G1 X-5.899 Y22.933
G2 X-5.889 Y22.931 I-0.197 J-0.98
G1 X-5.737 Y22.899
X-5.728 Y22.897
X-5.577 Y22.863
X-5.568 Y22.861
X-5.417 Y22.826
X-5.412 Y22.825
X-5.261 Y22.789
X-5.256 Y22.788
X-5.105 Y22.752
X-5.102 Y22.751
X-4.951 Y22.714
X-4.95
X-4.799 Y22.676
G2 X-4.726 Y22.655 I-0.24 J-0.971
G1 X-4.61 Y22.617
X-4.492 Y22.578
X-4.489 Y22.577
X-4.372 Y22.538
X-4.368 Y22.537
X-4.252 Y22.497
X-4.245 Y22.495
X-4.13 Y22.455
X-4.123 Y22.452
X-4.007 Y22.411
X-3.998 Y22.408
X-3.883 Y22.366
G2 X-3.873 Y22.362 I-0.344 J-0.939
G1 X-3.759 Y22.319
G2 X-3.746 Y22.314 I-0.354 J-0.935
G1 X-3.632 Y22.269
G2 X-3.619 Y22.264 I-0.367 J-0.93
G1 X-3.506 Y22.217
G2 X-3.492 Y22.211 I-0.38 J-0.925
G1 X-3.38 Y22.163
G2 X-3.363 Y22.156 I-0.395 J-0.919
G1 X-3.252 Y22.106
G2 X-3.235 Y22.098 I-0.411 J-0.912
G1 X-3.125 Y22.046
G2 X-3.106 Y22.037 I-0.429 J-0.904
G1 X-2.997 Y21.982
G2 X-2.982 Y21.974 I-0.447 J-0.894
G1 X-2.874 Y21.918
G2 X-2.858 Y21.91 I-0.463 J-0.887
G1 X-2.751 Y21.851
G2 X-2.739 Y21.844 I-0.478 J-0.878
G1 X-2.632 Y21.785
G2 X-2.621 Y21.778 I-0.491 J-0.871
G1 X-2.515 Y21.717
G2 X-2.505 Y21.711 I-0.502 J-0.865
G1 X-2.4 Y21.648
X-2.393 Y21.644
X-2.288 Y21.581
X-2.282 Y21.577
X-2.177 Y21.512
X-2.173 Y21.509
X-2.069 Y21.444
X-2.066 Y21.443
X-1.962 Y21.377
X-1.96 Y21.376
X-1.857 Y21.311
G2 X-1.781 Y21.257 I-0.534 J-0.845
G1 X-1.703 Y21.197
X-1.702
X-1.624 Y21.136
X-1.621 Y21.134
X-1.544 Y21.074
X-1.54 Y21.071
X-1.462 Y21.01
X-1.457 Y21.006
X-1.38 Y20.944
X-1.373 Y20.939
X-1.297 Y20.877
G2 X-1.289 Y20.871 I-0.631 J-0.776
G1 X-1.214 Y20.808
G2 X-1.204 Y20.8 I-0.639 J-0.769
G1 X-1.13 Y20.737
G2 X-1.119 Y20.727 I-0.649 J-0.761
G1 X-1.046 Y20.663
G2 X-1.034 Y20.653 I-0.659 J-0.752
G1 X-0.962 Y20.587
G2 X-0.949 Y20.575 I-0.671 J-0.742
G1 X-0.878 Y20.508
G2 X-0.864 Y20.495 I-0.684 J-0.729
G1 X-0.794 Y20.427
G2 X-0.779 Y20.412 I-0.698 J-0.716
G1 X-0.71 Y20.342
G2 X-0.696 Y20.327 I-0.714 J-0.701
G1 X-0.629 Y20.256
G2 X-0.616 Y20.241 I-0.728 J-0.685
G1 X-0.55 Y20.169
G2 X-0.539 Y20.156 I-0.742 J-0.671
G1 X-0.474 Y20.082
G2 X-0.465 Y20.071 I-0.753 J-0.658
G1 X-0.401 Y19.997
G2 X-0.392 Y19.986 I-0.763 J-0.646
G1 X-0.33 Y19.91
G2 X-0.323 Y19.901 I-0.772 J-0.636
G1 X-0.262 Y19.825
X-0.256 Y19.818
X-0.195 Y19.741
X-0.19 Y19.735
X-0.13 Y19.657
X-0.127 Y19.652
X-0.067 Y19.575
X-0.064 Y19.571
X-0.005 Y19.493
X-0.004 Y19.492
X0.055 Y19.414
G2 X0.121 Y19.316 I-0.797 J-0.604
G1 X0.171 Y19.23
X0.172 Y19.229
X0.222 Y19.143
X0.224 Y19.14
X0.273 Y19.054
X0.276 Y19.05
X0.325 Y18.964
X0.329 Y18.957
X0.377 Y18.871
G2 X0.382 Y18.863 I-0.872 J-0.49
G1 X0.429 Y18.776
G2 X0.434 Y18.767 I-0.877 J-0.481
G1 X0.481 Y18.68
G2 X0.487 Y18.668 I-0.882 J-0.471
G1 X0.532 Y18.58
G2 X0.539 Y18.567 I-0.888 J-0.459
G1 X0.583 Y18.479
G2 X0.591 Y18.463 I-0.895 J-0.446
G1 X0.633 Y18.375
G2 X0.641 Y18.357 I-0.903 J-0.43
G1 X0.682 Y18.268
G2 X0.69 Y18.249 I-0.911 J-0.413
G1 X0.728 Y18.159
G2 X0.737 Y18.139 I-0.919 J-0.394
G1 X0.773 Y18.048
G2 X0.78 Y18.03 I-0.927 J-0.374
G1 X0.815 Y17.939
G2 X0.821 Y17.922 I-0.934 J-0.356
G1 X0.855 Y17.83
G2 X0.86 Y17.815 I-0.94 J-0.34
G1 X0.892 Y17.722
G2 X0.896 Y17.709 I-0.946 J-0.325
G1 X0.927 Y17.615
G2 X0.931 Y17.604 I-0.95 J-0.312
G1 X0.96 Y17.51
G2 X0.963 Y17.5 I-0.954 J-0.3
G1 X0.992 Y17.405
X0.995 Y17.397
X1.022 Y17.303
X1.024 Y17.296
X1.052 Y17.201
X1.053 Y17.196
X1.08 Y17.101
X1.081 Y17.097
X1.107 Y17.002
X1.108 Y17
X1.134 Y16.905
G2 X1.151 Y16.834 I-0.964 J-0.266
G1 X1.175 Y16.714
Y16.713
X1.199 Y16.592
Y16.589
X1.223 Y16.469
Y16.465
X1.246 Y16.344
X1.247 Y16.339
X1.27 Y16.219
X1.271 Y16.212
X1.293 Y16.091
X1.294 Y16.084
X1.314 Y15.963
X1.316 Y15.954
X1.335 Y15.833
G2 X1.337 Y15.822 I-0.987 J-0.159
G1 X1.355 Y15.701
G2 X1.357 Y15.69 I-0.989 J-0.149
G1 X1.374 Y15.568
G2 X1.375 Y15.555 I-0.991 J-0.137
G1 X1.391 Y15.434
G2 X1.392 Y15.42 I-0.992 J-0.124
G1 X1.406 Y15.298
G2 X1.407 Y15.284 I-0.994 J-0.11
G1 X1.419 Y15.162
G2 X1.42 Y15.149 I-0.995 J-0.096
G1 X1.43 Y15.027
G2 X1.431 Y15.016 I-0.997 J-0.083
G1 X1.44 Y14.894
G2 Y14.883 I-0.997 J-0.071
G1 X1.448 Y14.761
Y14.751
X1.455 Y14.629
Y14.621
X1.46 Y14.498
X1.461 Y14.491
X1.465 Y14.369
Y14.363
X1.469 Y14.24
Y14.235
X1.472 Y14.113
Y14.109
X1.475 Y13.986
Y13.984
X1.478 Y13.861
Y13.86
X1.48 Y13.737
G2 Y13.719 I-1 J-0.019
G1 Y7.158
G2 X0.48 Y6.158 I-1
G3 X0.28 Y5.958 J-0.2 F1000
G1 Y5.758
G19 G2 Y5.558 Z-1.8 K0.2
G0 Z5
X0.68
G1 Z0.302 F1000
Z-2.8 F333.3
G3 Y5.758 Z-3 J0.2
G1 Y5.958 F1000
G17 G3 X0.48 Y6.158 I-0.2
G1 X-17.702 F800
G2 X-18.702 Y7.158 J1
G1 Y13.421
Y13.424
X-18.701 Y13.56
Y13.562
X-18.7 Y13.698
Y13.835
Y13.838
X-18.698 Y13.974
Y13.978
X-18.696 Y14.114
Y14.118
X-18.694 Y14.254
X-18.693 Y14.26
X-18.69 Y14.396
Y14.402
X-18.686 Y14.537
X-18.685 Y14.545
X-18.68 Y14.681
Y14.689
X-18.673 Y14.825
Y14.834
X-18.665 Y14.969
G2 X-18.664 Y14.981 I0.998 J-0.057
G1 X-18.655 Y15.116
G2 X-18.654 Y15.126 I0.998 J-0.069
G1 X-18.644 Y15.261
G2 X-18.642 Y15.274 I0.997 J-0.079
G1 X-18.63 Y15.409
G2 X-18.629 Y15.422 I0.996 J-0.092
G1 X-18.614 Y15.557
G2 X-18.613 Y15.568 I0.994 J-0.106
G1 X-18.597 Y15.702
G2 X-18.596 Y15.713 I0.993 J-0.117
G1 X-18.579 Y15.847
X-18.578 Y15.856
X-18.559 Y15.991
X-18.558 Y15.999
X-18.538 Y16.133
X-18.537 Y16.139
X-18.517 Y16.273
X-18.516 Y16.278
X-18.495 Y16.412
X-18.494 Y16.416
X-18.473 Y16.55
X-18.472 Y16.552
X-18.45 Y16.686
Y16.688
X-18.428 Y16.821
G2 X-18.404 Y16.93 I0.987 J-0.164
G1 X-18.37 Y17.051
X-18.369 Y17.053
X-18.335 Y17.174
X-18.333 Y17.178
