%
(IDEALAB Logo test)
(T1  D=0.0787 CR=0 - ZMIN=-0.2461 - bullnose end mill)
G90 G94
G17
G20
G28 G91 Z0
G90

(2D Pocket2)
M9
T1 M6
S5000 M3
G54
M8
G0 X2.5304 Y0.6083
Z0.6
Z0.2
G1 Z0.1079 F40
X2.5303 Y0.6086 Z0.1059 F13.33
X2.5302 Y0.6093 Z0.104
X2.53 Y0.6105 Z0.1024
X2.5297 Y0.612 Z0.1011
X2.5293 Y0.6138 Z0.1003
X2.529 Y0.6158 Z0.1
X2.5286 Y0.6177 Z0.0999
X2.528 Y0.6193
X2.5203 Y0.6219 Z0.0996
X2.5123 Y0.6232 Z0.0993
Y0.3132 Z0.0885
X2.5154 Y0.3137 Z0.0884
X2.5249 Y0.3167 Z0.088
X2.5258 Y0.3172
X2.5292 Y0.3276 Z0.0876
X2.5325 Y0.3473 Z0.0869
X2.5343 Y0.3699 Z0.0861
X2.5347 Y0.3946 Z0.0853
Y0.5409 Z0.0801
X2.5345 Y0.5627 Z0.0794
X2.5334 Y0.5832 Z0.0787
X2.5314 Y0.6025 Z0.078
X2.5286 Y0.6177 Z0.0774
X2.528 Y0.6193
X2.5203 Y0.6219 Z0.0771
X2.5123 Y0.6232 Z0.0768
Y0.3132 Z0.066
X2.5154 Y0.3137 Z0.0659
X2.5249 Y0.3167 Z0.0655
X2.5258 Y0.3172
X2.5292 Y0.3276 Z0.0651
X2.5325 Y0.3473 Z0.0644
X2.5343 Y0.3699 Z0.0636
X2.5347 Y0.3946 Z0.0628
Y0.5409 Z0.0577
X2.5345 Y0.5627 Z0.0569
X2.5334 Y0.5832 Z0.0562
X2.5314 Y0.6025 Z0.0555
X2.5286 Y0.6177 Z0.055
X2.528 Y0.6193 Z0.0549
X2.5203 Y0.6219 Z0.0546
X2.5123 Y0.6232 Z0.0543
Y0.3132 Z0.0435
X2.5154 Y0.3137 Z0.0434
X2.5249 Y0.3167 Z0.043
X2.5258 Y0.3172
X2.5292 Y0.3276 Z0.0426
X2.5325 Y0.3473 Z0.0419
X2.5343 Y0.3699 Z0.0411
X2.5347 Y0.3946 Z0.0403
Y0.5409 Z0.0352
X2.5345 Y0.5627 Z0.0344
X2.5334 Y0.5832 Z0.0337
X2.5314 Y0.6025 Z0.033
X2.5286 Y0.6177 Z0.0325
X2.528 Y0.6193 Z0.0324
X2.5203 Y0.6219 Z0.0321
X2.5123 Y0.6232 Z0.0318
Y0.3132 Z0.021
X2.5154 Y0.3137 Z0.0209
X2.5249 Y0.3167 Z0.0206
X2.5258 Y0.3172 Z0.0205
X2.5292 Y0.3276 Z0.0201
X2.5325 Y0.3473 Z0.0195
X2.5343 Y0.3699 Z0.0187
X2.5347 Y0.3946 Z0.0178
Y0.5409 Z0.0127
X2.5345 Y0.5627 Z0.0119
X2.5334 Y0.5832 Z0.0112
X2.5314 Y0.6025 Z0.0105
X2.5286 Y0.6177 Z0.01
X2.528 Y0.6193 Z0.0099
X2.5203 Y0.6219 Z0.0096
X2.5123 Y0.6232 Z0.0094
Y0.3132 Z-0.0015
X2.5154 Y0.3137 Z-0.0016
X2.5249 Y0.3167 Z-0.0019
X2.5258 Y0.3172 Z-0.002
X2.5292 Y0.3276 Z-0.0023
X2.5325 Y0.3473 Z-0.003
X2.5343 Y0.3699 Z-0.0038
X2.5347 Y0.3946 Z-0.0047
Y0.5409 Z-0.0098
X2.5345 Y0.5627 Z-0.0106
X2.5334 Y0.5832 Z-0.0113
X2.5314 Y0.6025 Z-0.012
X2.5286 Y0.6177 Z-0.0125
X2.528 Y0.6193 Z-0.0126
X2.5203 Y0.6219 Z-0.0128
X2.5123 Y0.6232 Z-0.0131
Y0.3132 Z-0.0239
X2.5154 Y0.3137 Z-0.0241
X2.5249 Y0.3167 Z-0.0244
X2.5258 Y0.3172
X2.5292 Y0.3276 Z-0.0248
X2.5325 Y0.3473 Z-0.0255
X2.5343 Y0.3699 Z-0.0263
X2.5347 Y0.3946 Z-0.0272
Y0.5409 Z-0.0323
X2.5345 Y0.5627 Z-0.033
X2.5334 Y0.5832 Z-0.0338
X2.5314 Y0.6025 Z-0.0344
X2.5286 Y0.6177 Z-0.035
X2.528 Y0.6193
X2.5203 Y0.6219 Z-0.0353
X2.5123 Y0.6232 Z-0.0356
Y0.3132 Z-0.0464
X2.5154 Y0.3137 Z-0.0465
X2.5249 Y0.3167 Z-0.0469
X2.5258 Y0.3172
X2.5292 Y0.3276 Z-0.0473
X2.5325 Y0.3473 Z-0.048
X2.5343 Y0.3699 Z-0.0488
X2.5347 Y0.3946 Z-0.0497
Y0.5409 Z-0.0548
X2.5345 Y0.5627 Z-0.0555
X2.5334 Y0.5832 Z-0.0562
X2.5314 Y0.6025 Z-0.0569
X2.5286 Y0.6177 Z-0.0575
X2.528 Y0.6193
X2.5203 Y0.6219 Z-0.0578
X2.5123 Y0.6232 Z-0.0581
Y0.3132 Z-0.0689
X2.5154 Y0.3137 Z-0.069
X2.5249 Y0.3167 Z-0.0694
X2.5258 Y0.3172
X2.5292 Y0.3276 Z-0.0698
X2.5325 Y0.3473 Z-0.0705
X2.5343 Y0.3699 Z-0.0713
X2.5347 Y0.3946 Z-0.0721
Y0.5409 Z-0.0773
X2.5345 Y0.5627 Z-0.078
X2.5334 Y0.5832 Z-0.0787
X2.5314 Y0.6025 Z-0.0794
X2.5286 Y0.6177 Z-0.0799
X2.528 Y0.6193 Z-0.08
X2.5203 Y0.6219 Z-0.0803
X2.5123 Y0.6232 Z-0.0806
Y0.3132 Z-0.0914
X2.5154 Y0.3137 Z-0.0915
X2.5249 Y0.3167 Z-0.0919
X2.5258 Y0.3172
X2.5292 Y0.3276 Z-0.0923
X2.5325 Y0.3473 Z-0.093
X2.5343 Y0.3699 Z-0.0938
X2.5347 Y0.3946 Z-0.0946
Y0.5409 Z-0.0997
Y0.5484 Z-0.1
X2.5345 Y0.5627 F40
X2.5334 Y0.5832
X2.5314 Y0.6025
X2.5286 Y0.6177
X2.528 Y0.6193
X2.5203 Y0.6219
X2.5123 Y0.6232
Y0.3132
X2.5154 Y0.3137
X2.5249 Y0.3167
X2.5258 Y0.3172
X2.5292 Y0.3276
X2.5325 Y0.3473
X2.5343 Y0.3699
X2.5347 Y0.3946
Y0.5409
Y0.5484
X2.5345 Y0.5627 Z-0.1005 F13.33
X2.5334 Y0.5832 Z-0.1012
X2.5314 Y0.6025 Z-0.1019
X2.5286 Y0.6177 Z-0.1024
X2.528 Y0.6193 Z-0.1025
X2.5203 Y0.6219 Z-0.1028
X2.5123 Y0.6232 Z-0.1031
Y0.3132 Z-0.1139
X2.5154 Y0.3137 Z-0.114
X2.5249 Y0.3167 Z-0.1143
X2.5258 Y0.3172 Z-0.1144
X2.5292 Y0.3276 Z-0.1148
X2.5325 Y0.3473 Z-0.1155
X2.5343 Y0.3699 Z-0.1163
X2.5347 Y0.3946 Z-0.1171
Y0.5409 Z-0.1222
X2.5345 Y0.5627 Z-0.123
X2.5334 Y0.5832 Z-0.1237
X2.5314 Y0.6025 Z-0.1244
X2.5286 Y0.6177 Z-0.1249
X2.528 Y0.6193 Z-0.125
X2.5203 Y0.6219 Z-0.1253
X2.5123 Y0.6232 Z-0.1255
Y0.3132 Z-0.1364
X2.5154 Y0.3137 Z-0.1365
X2.5249 Y0.3167 Z-0.1368
X2.5258 Y0.3172 Z-0.1369
X2.5292 Y0.3276 Z-0.1373
X2.5325 Y0.3473 Z-0.1379
X2.5343 Y0.3699 Z-0.1387
X2.5347 Y0.3946 Z-0.1396
Y0.5409 Z-0.1447
X2.5345 Y0.5627 Z-0.1455
X2.5334 Y0.5832 Z-0.1462
X2.5314 Y0.6025 Z-0.1469
X2.5286 Y0.6177 Z-0.1474
X2.528 Y0.6193 Z-0.1475
X2.5203 Y0.6219 Z-0.1477
X2.5123 Y0.6232 Z-0.148
Y0.3132 Z-0.1589
X2.5154 Y0.3137 Z-0.159
X2.5249 Y0.3167 Z-0.1593
X2.5258 Y0.3172 Z-0.1594
X2.5292 Y0.3276 Z-0.1597
X2.5325 Y0.3473 Z-0.1604
X2.5343 Y0.3699 Z-0.1612
X2.5347 Y0.3946 Z-0.1621
Y0.5409 Z-0.1672
X2.5345 Y0.5627 Z-0.168
X2.5334 Y0.5832 Z-0.1687
X2.5314 Y0.6025 Z-0.1694
X2.5286 Y0.6177 Z-0.1699
X2.528 Y0.6193 Z-0.17
X2.5203 Y0.6219 Z-0.1702
X2.5123 Y0.6232 Z-0.1705
Y0.3132 Z-0.1813
X2.5154 Y0.3137 Z-0.1815
X2.5249 Y0.3167 Z-0.1818
X2.5258 Y0.3172
X2.5292 Y0.3276 Z-0.1822
X2.5325 Y0.3473 Z-0.1829
X2.5343 Y0.3699 Z-0.1837
X2.5347 Y0.3946 Z-0.1846
Y0.5409 Z-0.1897
X2.5345 Y0.5627 Z-0.1904
X2.5334 Y0.5832 Z-0.1912
X2.5314 Y0.6025 Z-0.1918
X2.5286 Y0.6177 Z-0.1924
X2.528 Y0.6193
X2.5203 Y0.6219 Z-0.1927
X2.5123 Y0.6232 Z-0.193
Y0.4229 Z-0.2
Y0.3132 F40
X2.5154 Y0.3137
X2.5249 Y0.3167
X2.5258 Y0.3172
X2.5292 Y0.3276
X2.5325 Y0.3473
X2.5343 Y0.3699
X2.5347 Y0.3946
Y0.5409
X2.5345 Y0.5627
X2.5334 Y0.5832
X2.5314 Y0.6025
X2.5286 Y0.6177
X2.528 Y0.6193
X2.5203 Y0.6219
X2.5123 Y0.6232
Y0.4229
Y0.3132 Z-0.2038 F13.33
X2.5154 Y0.3137 Z-0.2039
X2.5249 Y0.3167 Z-0.2043
X2.5258 Y0.3172
X2.5292 Y0.3276 Z-0.2047
X2.5325 Y0.3473 Z-0.2054
X2.5343 Y0.3699 Z-0.2062
X2.5347 Y0.3946 Z-0.2071
Y0.5409 Z-0.2122
X2.5345 Y0.5627 Z-0.2129
X2.5334 Y0.5832 Z-0.2136
X2.5314 Y0.6025 Z-0.2143
X2.5286 Y0.6177 Z-0.2149
X2.528 Y0.6193
X2.5203 Y0.6219 Z-0.2152
X2.5123 Y0.6232 Z-0.2155
Y0.3132 Z-0.2263
X2.5154 Y0.3137 Z-0.2264
X2.5249 Y0.3167 Z-0.2268
X2.5258 Y0.3172
X2.5292 Y0.3276 Z-0.2272
X2.5325 Y0.3473 Z-0.2279
X2.5343 Y0.3699 Z-0.2287
X2.5347 Y0.3946 Z-0.2295
Y0.5409 Z-0.2347
X2.5345 Y0.5627 Z-0.2354
X2.5334 Y0.5832 Z-0.2361
X2.5314 Y0.6025 Z-0.2368
X2.5286 Y0.6177 Z-0.2373
X2.528 Y0.6193 Z-0.2374
X2.5203 Y0.6219 Z-0.2377
X2.5123 Y0.6232 Z-0.238
Y0.3916 Z-0.2461
Y0.3132 F40
X2.5154 Y0.3137
X2.5249 Y0.3167
X2.5258 Y0.3172
X2.5292 Y0.3276
X2.5325 Y0.3473
X2.5343 Y0.3699
X2.5347 Y0.3946
Y0.5409
X2.5345 Y0.5627
X2.5334 Y0.5832
X2.5314 Y0.6025
X2.5286 Y0.6177
X2.528 Y0.6193
X2.5203 Y0.6219
X2.5123 Y0.6232
Y0.4229
Y0.3916
G3 X2.5133 Y0.3878 Z-0.245 I0.0079
X2.5151 Y0.3856 Z-0.2421 I0.0069 J0.0038
X2.5159 Y0.3849 Z-0.2382 I0.0051 J0.006
G0 Z0.2
X2.5333 Y1.1453
G1 Z0.1079 F40
Y1.1456 Z0.1059 F13.33
X2.5332 Y1.1463 Z0.104
X2.533 Y1.1475 Z0.1024
X2.5328 Y1.1491 Z0.1011
X2.5326 Y1.1509 Z0.1003
X2.5323 Y1.1529 Z0.1
X2.5298 Y1.1711 Z0.0994
X2.5252 Y1.1833 Z0.0989
X2.5217 Y1.1875 Z0.0987
X2.5174 Y1.1893 Z0.0986
X2.5123 Y1.19 Z0.0984
Y0.979 Z0.091
X2.5167 Y0.9793 Z0.0909
X2.5265 Y0.9824 Z0.0905
X2.5284 Y0.9916 Z0.0902
X2.5336 Y1.0494 Z0.0881
X2.5347 Y1.1092 Z0.086
X2.5337 Y1.1428 Z0.0849
X2.5298 Y1.1711 Z0.0839
X2.5252 Y1.1833 Z0.0834
X2.5217 Y1.1875 Z0.0832
X2.5174 Y1.1893 Z0.0831
X2.5123 Y1.19 Z0.0829
Y0.979 Z0.0755
X2.5167 Y0.9793 Z0.0754
X2.5265 Y0.9824 Z0.075
X2.5284 Y0.9916 Z0.0747
X2.5336 Y1.0494 Z0.0727
X2.5347 Y1.1092 Z0.0706
X2.5337 Y1.1428 Z0.0694
X2.5298 Y1.1711 Z0.0684
X2.5252 Y1.1833 Z0.0679
X2.5217 Y1.1875 Z0.0677
X2.5174 Y1.1893 Z0.0676
X2.5123 Y1.19 Z0.0674
Y0.979 Z0.06
X2.5167 Y0.9793 Z0.0599
X2.5265 Y0.9824 Z0.0595
X2.5284 Y0.9916 Z0.0592
X2.5336 Y1.0494 Z0.0572
X2.5347 Y1.1092 Z0.0551
X2.5337 Y1.1428 Z0.0539
X2.5298 Y1.1711 Z0.0529
X2.5252 Y1.1833 Z0.0525
X2.5217 Y1.1875 Z0.0523
X2.5174 Y1.1893 Z0.0521
X2.5123 Y1.19 Z0.0519
Y0.979 Z0.0446
X2.5167 Y0.9793 Z0.0444
X2.5265 Y0.9824 Z0.044
X2.5284 Y0.9916 Z0.0437
X2.5336 Y1.0494 Z0.0417
X2.5347 Y1.1092 Z0.0396
X2.5337 Y1.1428 Z0.0384
X2.5298 Y1.1711 Z0.0374
X2.5252 Y1.1833 Z0.037
X2.5217 Y1.1875 Z0.0368
X2.5174 Y1.1893 Z0.0366
X2.5123 Y1.19 Z0.0364
Y0.979 Z0.0291
X2.5167 Y0.9793 Z0.0289
X2.5265 Y0.9824 Z0.0286
X2.5284 Y0.9916 Z0.0282
X2.5336 Y1.0494 Z0.0262
X2.5347 Y1.1092 Z0.0241
X2.5337 Y1.1428 Z0.0229
X2.5298 Y1.1711 Z0.022
X2.5252 Y1.1833 Z0.0215
X2.5217 Y1.1875 Z0.0213
X2.5174 Y1.1893 Z0.0211
X2.5123 Y1.19 Z0.021
Y0.979 Z0.0136
X2.5167 Y0.9793 Z0.0134
X2.5265 Y0.9824 Z0.0131
X2.5284 Y0.9916 Z0.0128
X2.5336 Y1.0494 Z0.0107
X2.5347 Y1.1092 Z0.0086
X2.5337 Y1.1428 Z0.0075
X2.5298 Y1.1711 Z0.0065
X2.5252 Y1.1833 Z0.006
X2.5217 Y1.1875 Z0.0058
X2.5174 Y1.1893 Z0.0057
X2.5123 Y1.19 Z0.0055
Y0.979 Z-0.0019
X2.5167 Y0.9793 Z-0.002
X2.5265 Y0.9824 Z-0.0024
X2.5284 Y0.9916 Z-0.0027
X2.5336 Y1.0494 Z-0.0048
X2.5347 Y1.1092 Z-0.0068
X2.5337 Y1.1428 Z-0.008
X2.5298 Y1.1711 Z-0.009
X2.5252 Y1.1833 Z-0.0095
X2.5217 Y1.1875 Z-0.0097
X2.5174 Y1.1893 Z-0.0098
X2.5123 Y1.19 Z-0.01
Y0.979 Z-0.0174
X2.5167 Y0.9793 Z-0.0175
X2.5265 Y0.9824 Z-0.0179
X2.5284 Y0.9916 Z-0.0182
X2.5336 Y1.0494 Z-0.0202
X2.5347 Y1.1092 Z-0.0223
X2.5337 Y1.1428 Z-0.0235
X2.5298 Y1.1711 Z-0.0245
X2.5252 Y1.1833 Z-0.0249
X2.5217 Y1.1875 Z-0.0251
X2.5174 Y1.1893 Z-0.0253
X2.5123 Y1.19 Z-0.0255
Y0.979 Z-0.0328
X2.5167 Y0.9793 Z-0.033
X2.5265 Y0.9824 Z-0.0334
X2.5284 Y0.9916 Z-0.0337
X2.5336 Y1.0494 Z-0.0357
X2.5347 Y1.1092 Z-0.0378
X2.5337 Y1.1428 Z-0.039
X2.5298 Y1.1711 Z-0.04
X2.5252 Y1.1833 Z-0.0404
X2.5217 Y1.1875 Z-0.0406
X2.5174 Y1.1893 Z-0.0408
X2.5123 Y1.19 Z-0.041
Y0.979 Z-0.0483
X2.5167 Y0.9793 Z-0.0485
X2.5265 Y0.9824 Z-0.0488
X2.5284 Y0.9916 Z-0.0492
X2.5336 Y1.0494 Z-0.0512
X2.5347 Y1.1092 Z-0.0533
X2.5337 Y1.1428 Z-0.0545
X2.5298 Y1.1711 Z-0.0555
X2.5252 Y1.1833 Z-0.0559
X2.5217 Y1.1875 Z-0.0561
X2.5174 Y1.1893 Z-0.0563
X2.5123 Y1.19 Z-0.0564
Y0.979 Z-0.0638
X2.5167 Y0.9793 Z-0.064
X2.5265 Y0.9824 Z-0.0643
X2.5284 Y0.9916 Z-0.0646
X2.5336 Y1.0494 Z-0.0667
X2.5347 Y1.1092 Z-0.0688
X2.5337 Y1.1428 Z-0.0699
X2.5298 Y1.1711 Z-0.0709
X2.5252 Y1.1833 Z-0.0714
X2.5217 Y1.1875 Z-0.0716
X2.5174 Y1.1893 Z-0.0717
X2.5123 Y1.19 Z-0.0719
Y0.979 Z-0.0793
X2.5167 Y0.9793 Z-0.0794
X2.5265 Y0.9824 Z-0.0798
X2.5284 Y0.9916 Z-0.0801
X2.5336 Y1.0494 Z-0.0822
X2.5347 Y1.1092 Z-0.0842
X2.5337 Y1.1428 Z-0.0854
X2.5298 Y1.1711 Z-0.0864
X2.5252 Y1.1833 Z-0.0869
X2.5217 Y1.1875 Z-0.0871
X2.5174 Y1.1893 Z-0.0872
X2.5123 Y1.19 Z-0.0874
Y0.979 Z-0.0948
X2.5167 Y0.9793 Z-0.0949
X2.5265 Y0.9824 Z-0.0953
X2.5284 Y0.9916 Z-0.0956
X2.5336 Y1.0494 Z-0.0976
X2.5347 Y1.1092 Z-0.0997
X2.5345 Y1.117 Z-0.1
X2.5337 Y1.1428 F40
X2.5298 Y1.1711
X2.5252 Y1.1833
X2.5217 Y1.1875
X2.5174 Y1.1893
X2.5123 Y1.19
Y0.979
X2.5167 Y0.9793
X2.5265 Y0.9824
X2.5284 Y0.9916
X2.5336 Y1.0494
X2.5347 Y1.1092
X2.5345 Y1.117
X2.5337 Y1.1428 Z-0.1009 F13.33
X2.5298 Y1.1711 Z-0.1019
X2.5252 Y1.1833 Z-0.1024
X2.5217 Y1.1875 Z-0.1025
X2.5174 Y1.1893 Z-0.1027
X2.5123 Y1.19 Z-0.1029
Y0.979 Z-0.1103
X2.5167 Y0.9793 Z-0.1104
X2.5265 Y0.9824 Z-0.1108
X2.5284 Y0.9916 Z-0.1111
X2.5336 Y1.0494 Z-0.1131
X2.5347 Y1.1092 Z-0.1152
X2.5337 Y1.1428 Z-0.1164
X2.5298 Y1.1711 Z-0.1174
X2.5252 Y1.1833 Z-0.1178
X2.5217 Y1.1875 Z-0.118
X2.5174 Y1.1893 Z-0.1182
X2.5123 Y1.19 Z-0.1184
Y0.979 Z-0.1257
X2.5167 Y0.9793 Z-0.1259
X2.5265 Y0.9824 Z-0.1262
X2.5284 Y0.9916 Z-0.1266
X2.5336 Y1.0494 Z-0.1286
X2.5347 Y1.1092 Z-0.1307
X2.5337 Y1.1428 Z-0.1319
X2.5298 Y1.1711 Z-0.1329
X2.5252 Y1.1833 Z-0.1333
X2.5217 Y1.1875 Z-0.1335
X2.5174 Y1.1893 Z-0.1337
X2.5123 Y1.19 Z-0.1338
Y0.979 Z-0.1412
X2.5167 Y0.9793 Z-0.1414
X2.5265 Y0.9824 Z-0.1417
X2.5284 Y0.9916 Z-0.1421
X2.5336 Y1.0494 Z-0.1441
X2.5347 Y1.1092 Z-0.1462
X2.5337 Y1.1428 Z-0.1473
X2.5298 Y1.1711 Z-0.1483
X2.5252 Y1.1833 Z-0.1488
X2.5217 Y1.1875 Z-0.149
X2.5174 Y1.1893 Z-0.1492
X2.5123 Y1.19 Z-0.1493
Y0.979 Z-0.1567
X2.5167 Y0.9793 Z-0.1568
X2.5265 Y0.9824 Z-0.1572
X2.5284 Y0.9916 Z-0.1575
X2.5336 Y1.0494 Z-0.1596
X2.5347 Y1.1092 Z-0.1617
X2.5337 Y1.1428 Z-0.1628
X2.5298 Y1.1711 Z-0.1638
X2.5252 Y1.1833 Z-0.1643
X2.5217 Y1.1875 Z-0.1645
X2.5174 Y1.1893 Z-0.1646
X2.5123 Y1.19 Z-0.1648
Y0.979 Z-0.1722
X2.5167 Y0.9793 Z-0.1723
X2.5265 Y0.9824 Z-0.1727
X2.5284 Y0.9916 Z-0.173
X2.5336 Y1.0494 Z-0.175
X2.5347 Y1.1092 Z-0.1771
X2.5337 Y1.1428 Z-0.1783
X2.5298 Y1.1711 Z-0.1793
X2.5252 Y1.1833 Z-0.1798
X2.5217 Y1.1875 Z-0.18
X2.5174 Y1.1893 Z-0.1801
X2.5123 Y1.19 Z-0.1803
Y0.979 Z-0.1877
X2.5167 Y0.9793 Z-0.1878
X2.5265 Y0.9824 Z-0.1882
X2.5284 Y0.9916 Z-0.1885
X2.5336 Y1.0494 Z-0.1905
X2.5347 Y1.1092 Z-0.1926
X2.5337 Y1.1428 Z-0.1938
X2.5298 Y1.1711 Z-0.1948
X2.5252 Y1.1833 Z-0.1952
X2.5217 Y1.1875 Z-0.1954
X2.5174 Y1.1893 Z-0.1956
X2.5123 Y1.19 Z-0.1958
Y1.069 Z-0.2
Y0.979 F40
X2.5167 Y0.9793
X2.5265 Y0.9824
X2.5284 Y0.9916
X2.5336 Y1.0494
X2.5347 Y1.1092
X2.5337 Y1.1428
X2.5298 Y1.1711
X2.5252 Y1.1833
X2.5217 Y1.1875
X2.5174 Y1.1893
X2.5123 Y1.19
Y1.069
Y0.979 Z-0.2031 F13.33
X2.5167 Y0.9793 Z-0.2033
X2.5265 Y0.9824 Z-0.2037
X2.5284 Y0.9916 Z-0.204
X2.5336 Y1.0494 Z-0.206
X2.5347 Y1.1092 Z-0.2081
X2.5337 Y1.1428 Z-0.2093
X2.5298 Y1.1711 Z-0.2103
X2.5252 Y1.1833 Z-0.2107
X2.5217 Y1.1875 Z-0.2109
X2.5174 Y1.1893 Z-0.2111
X2.5123 Y1.19 Z-0.2113
Y0.979 Z-0.2186
X2.5167 Y0.9793 Z-0.2188
X2.5265 Y0.9824 Z-0.2191
X2.5284 Y0.9916 Z-0.2195
X2.5336 Y1.0494 Z-0.2215
X2.5347 Y1.1092 Z-0.2236
X2.5337 Y1.1428 Z-0.2248
X2.5298 Y1.1711 Z-0.2257
X2.5252 Y1.1833 Z-0.2262
X2.5217 Y1.1875 Z-0.2264
X2.5174 Y1.1893 Z-0.2266
X2.5123 Y1.19 Z-0.2267
Y0.979 Z-0.2341
X2.5167 Y0.9793 Z-0.2343
X2.5265 Y0.9824 Z-0.2346
X2.5284 Y0.9916 Z-0.2349
X2.5336 Y1.0494 Z-0.237
X2.5347 Y1.1092 Z-0.2391
X2.5337 Y1.1428 Z-0.2402
X2.5298 Y1.1711 Z-0.2412
X2.5252 Y1.1833 Z-0.2417
X2.5217 Y1.1875 Z-0.2419
X2.5174 Y1.1893 Z-0.242
X2.5123 Y1.19 Z-0.2422
Y1.0799 Z-0.2461
Y0.979 F40
X2.5167 Y0.9793
X2.5265 Y0.9824
X2.5284 Y0.9916
X2.5336 Y1.0494
X2.5347 Y1.1092
X2.5337 Y1.1428
X2.5298 Y1.1711
X2.5252 Y1.1833
X2.5217 Y1.1875
X2.5174 Y1.1893
X2.5123 Y1.19
Y1.0799
G3 X2.5133 Y1.0761 Z-0.245 I0.0079
X2.5151 Y1.0739 Z-0.2421 I0.0069 J0.0038
X2.5159 Y1.0733 Z-0.2382 I0.0051 J0.006
G0 Z0.2
X-0.6821 Y1.0091
G1 Z0.1079 F40
G3 X-0.6814 Y1.0098 Z0.104 I-0.0253 J0.0275 F13.33
X-0.6795 Y1.0118 Z0.1011 I-0.026 J0.0268
X-0.6771 Y1.0147 Z0.1 I-0.028 J0.0248
X-0.7378 Y1.0585 Z0.0959 I-0.0303 J0.0219
X-0.6771 Y1.0147 Z0.0918 I0.0303 J-0.0219
X-0.7378 Y1.0585 Z0.0877 I-0.0303 J0.0219
X-0.6771 Y1.0147 Z0.0836 I0.0303 J-0.0219
X-0.7378 Y1.0585 Z0.0795 I-0.0303 J0.0219
X-0.6771 Y1.0147 Z0.0754 I0.0303 J-0.0219
X-0.7378 Y1.0585 Z0.0713 I-0.0303 J0.0219
X-0.6771 Y1.0147 Z0.0672 I0.0303 J-0.0219
X-0.7378 Y1.0585 Z0.0631 I-0.0303 J0.0219
X-0.6771 Y1.0147 Z0.059 I0.0303 J-0.0219
X-0.7378 Y1.0585 Z0.0549 I-0.0303 J0.0219
X-0.6771 Y1.0147 Z0.0508 I0.0303 J-0.0219
X-0.7378 Y1.0585 Z0.0467 I-0.0303 J0.0219
X-0.6771 Y1.0147 Z0.0426 I0.0303 J-0.0219
X-0.7378 Y1.0585 Z0.0385 I-0.0303 J0.0219
X-0.6771 Y1.0147 Z0.0343 I0.0303 J-0.0219
X-0.7378 Y1.0585 Z0.0302 I-0.0303 J0.0219
X-0.6771 Y1.0147 Z0.0261 I0.0303 J-0.0219
X-0.7378 Y1.0585 Z0.022 I-0.0303 J0.0219
X-0.6771 Y1.0147 Z0.0179 I0.0303 J-0.0219
X-0.7378 Y1.0585 Z0.0138 I-0.0303 J0.0219
X-0.6771 Y1.0147 Z0.0097 I0.0303 J-0.0219
X-0.7378 Y1.0585 Z0.0056 I-0.0303 J0.0219
X-0.6771 Y1.0147 Z0.0015 I0.0303 J-0.0219
X-0.7378 Y1.0585 Z-0.0026 I-0.0303 J0.0219
X-0.6771 Y1.0147 Z-0.0067 I0.0303 J-0.0219
X-0.7378 Y1.0585 Z-0.0108 I-0.0303 J0.0219
X-0.6771 Y1.0147 Z-0.0149 I0.0303 J-0.0219
X-0.7378 Y1.0585 Z-0.019 I-0.0303 J0.0219
X-0.6771 Y1.0147 Z-0.0231 I0.0303 J-0.0219
X-0.7378 Y1.0585 Z-0.0272 I-0.0303 J0.0219
X-0.6771 Y1.0147 Z-0.0313 I0.0303 J-0.0219
X-0.7378 Y1.0585 Z-0.0354 I-0.0303 J0.0219
X-0.6771 Y1.0147 Z-0.0395 I0.0303 J-0.0219
X-0.7378 Y1.0585 Z-0.0436 I-0.0303 J0.0219
X-0.6771 Y1.0147 Z-0.0477 I0.0303 J-0.0219
X-0.7378 Y1.0585 Z-0.0518 I-0.0303 J0.0219
X-0.6771 Y1.0147 Z-0.0559 I0.0303 J-0.0219
X-0.7378 Y1.0585 Z-0.06 I-0.0303 J0.0219
X-0.6771 Y1.0147 Z-0.0641 I0.0303 J-0.0219
X-0.7378 Y1.0585 Z-0.0682 I-0.0303 J0.0219
X-0.6771 Y1.0147 Z-0.0723 I0.0303 J-0.0219
X-0.7378 Y1.0585 Z-0.0764 I-0.0303 J0.0219
X-0.6771 Y1.0147 Z-0.0805 I0.0303 J-0.0219
X-0.7378 Y1.0585 Z-0.0846 I-0.0303 J0.0219
X-0.6771 Y1.0147 Z-0.0887 I0.0303 J-0.0219
X-0.7378 Y1.0585 Z-0.0929 I-0.0303 J0.0219
X-0.6771 Y1.0147 Z-0.097 I0.0303 J-0.0219
X-0.7126 Y1.0737 Z-0.1 I-0.0303 J0.0219
G2 X-0.7847 Y1.0709 I-0.0498 J0.3614 F40
G3 X-0.8665 Y1.0734 I-0.0819 J-1.3362
X-0.8793 Y1.0607 J-0.0128
G1 Y1.057
G3 X-0.8665 Y1.0442 I0.0128
X-0.7871 Y1.0473 J1.0351
G2 X-0.708 Y1.0398 I0.0179 J-0.2328
G3 X-0.6948 Y1.0486 I0.0028 J0.0102
G1 X-0.6926 Y1.0651
G3 X-0.7029 Y1.0751 I-0.0089 J0.0012
G2 X-0.7126 Y1.0737 I-0.0595 J0.3599
X-0.7376 Y1.0868 I-0.0033 J0.0241
G3 X-0.7617 Y1.1018 I-0.0242 J-0.0121
G2 X-0.819 Y1.1026 I0.0205 J3.4348
G3 X-0.8968 Y1.1035 I-0.0778 J-3.434
X-0.9094 Y1.091 J-0.0125
G1 Y1.0267
G3 X-0.8968 Y1.0142 I0.0125
X-0.819 Y1.015 J3.4349
G2 X-0.7412 Y1.0159 I0.0778 J-3.434
X-0.7099 Y1.0099 J-0.084
X-0.6823 Y0.9941 I-0.0432 J-0.1078
G3 X-0.671 Y0.9988 I0.0043 J0.0056
G1 X-0.6552 Y1.1185
G3 X-0.6643 Y1.1238 I-0.0056 J0.0007
G2 X-0.7009 Y1.1063 I-0.0581 J0.0747
X-0.7412 Y1.1017 I-0.0403 J0.1729
X-0.7617 Y1.1018 J3.4349
G3 X-0.7642 Y1.0948 J-0.0039
G1 X-0.7212 Y1.0589
G3 X-0.719 Y1.058 I0.0025 J0.003
X-0.6881 Y1.0751 I0.002 J0.0327
G2 X-0.6696 Y1.1052 I0.2915 J-0.1581
G3 X-0.882 Y1.7807 I-0.3699 J0.2549
X-1.5896 Y1.8092 I-0.397 J-1.0605
G2 X-1.5931 Y1.8104 I-0.0009 J0.0031
G1 X-1.5963 Y1.8148
G3 X-1.5989 Y1.8161 I-0.0026 J-0.0019
G1 X-1.6301
G3 X-1.6315 Y1.8079 J-0.0042
G2 X-1.6166 Y1.8026 I-0.1137 J-0.3404
G1 X-1.6024 Y1.7971
G3 X-1.594 Y1.7981 I0.0033 J0.0086
G2 X-1.5798 Y1.8071 I0.1998 J-0.2981
G3 X-1.5823 Y1.8161 I-0.0025 J0.0042
G1 X-1.5989
G3 X-1.6027 Y1.8152 Z-0.0989 J-0.0079
X-1.6049 Y1.8134 Z-0.0961 I0.0038 J-0.0069
X-1.6055 Y1.8125 Z-0.0921 I0.006 J-0.0051
G0 Z0.2
X-0.8677 Y0.4534
G1 Z0.1079 F40
G3 X-0.8672 Y0.4525 Z0.104 I0.0333 J0.0171 F13.33
X-0.8658 Y0.4501 Z0.1011 I0.0328 J0.018
X-0.8635 Y0.447 Z0.1 I0.0314 J0.0204
X-0.8053 Y0.4939 Z0.0959 I0.0291 J0.0235
X-0.8635 Y0.447 Z0.0918 I-0.0291 J-0.0235
X-0.8053 Y0.4939 Z0.0877 I0.0291 J0.0235
X-0.8635 Y0.447 Z0.0836 I-0.0291 J-0.0235
X-0.8053 Y0.4939 Z0.0795 I0.0291 J0.0235
X-0.8635 Y0.447 Z0.0754 I-0.0291 J-0.0235
X-0.8053 Y0.4939 Z0.0713 I0.0291 J0.0235
X-0.8635 Y0.447 Z0.0672 I-0.0291 J-0.0235
X-0.8053 Y0.4939 Z0.0631 I0.0291 J0.0235
X-0.8635 Y0.447 Z0.059 I-0.0291 J-0.0235
X-0.8053 Y0.4939 Z0.0549 I0.0291 J0.0235
X-0.8635 Y0.447 Z0.0508 I-0.0291 J-0.0235
X-0.8053 Y0.4939 Z0.0467 I0.0291 J0.0235
X-0.8635 Y0.447 Z0.0426 I-0.0291 J-0.0235
X-0.8053 Y0.4939 Z0.0385 I0.0291 J0.0235
X-0.8635 Y0.447 Z0.0343 I-0.0291 J-0.0235
X-0.8053 Y0.4939 Z0.0302 I0.0291 J0.0235
X-0.8635 Y0.447 Z0.0261 I-0.0291 J-0.0235
X-0.8053 Y0.4939 Z0.022 I0.0291 J0.0235
X-0.8635 Y0.447 Z0.0179 I-0.0291 J-0.0235
X-0.8053 Y0.4939 Z0.0138 I0.0291 J0.0235
X-0.8635 Y0.447 Z0.0097 I-0.0291 J-0.0235
X-0.8053 Y0.4939 Z0.0056 I0.0291 J0.0235
X-0.8635 Y0.447 Z0.0015 I-0.0291 J-0.0235
X-0.8053 Y0.4939 Z-0.0026 I0.0291 J0.0235
X-0.8635 Y0.447 Z-0.0067 I-0.0291 J-0.0235
X-0.8053 Y0.4939 Z-0.0108 I0.0291 J0.0235
X-0.8635 Y0.447 Z-0.0149 I-0.0291 J-0.0235
X-0.8053 Y0.4939 Z-0.019 I0.0291 J0.0235
X-0.8635 Y0.447 Z-0.0231 I-0.0291 J-0.0235
X-0.8053 Y0.4939 Z-0.0272 I0.0291 J0.0235
X-0.8635 Y0.447 Z-0.0313 I-0.0291 J-0.0235
X-0.8053 Y0.4939 Z-0.0354 I0.0291 J0.0235
X-0.8635 Y0.447 Z-0.0395 I-0.0291 J-0.0235
X-0.8053 Y0.4939 Z-0.0436 I0.0291 J0.0235
X-0.8635 Y0.447 Z-0.0477 I-0.0291 J-0.0235
X-0.8053 Y0.4939 Z-0.0518 I0.0291 J0.0235
X-0.8635 Y0.447 Z-0.0559 I-0.0291 J-0.0235
X-0.8053 Y0.4939 Z-0.06 I0.0291 J0.0235
X-0.8635 Y0.447 Z-0.0641 I-0.0291 J-0.0235
X-0.8053 Y0.4939 Z-0.0682 I0.0291 J0.0235
X-0.8635 Y0.447 Z-0.0723 I-0.0291 J-0.0235
X-0.8053 Y0.4939 Z-0.0764 I0.0291 J0.0235
X-0.8635 Y0.447 Z-0.0805 I-0.0291 J-0.0235
X-0.8053 Y0.4939 Z-0.0846 I0.0291 J0.0235
X-0.8635 Y0.447 Z-0.0887 I-0.0291 J-0.0235
X-0.8053 Y0.4939 Z-0.0929 I0.0291 J0.0235
X-0.8635 Y0.447 Z-0.097 I-0.0291 J-0.0235
X-0.7973 Y0.4656 Z-0.1 I0.0291 J0.0235
G1 X-0.7966 Y0.4712 F40
G3 X-0.8074 Y0.4835 I-0.0109 J0.0014
G1 X-0.8415
G3 X-0.8541 Y0.4709 J-0.0126
G1 Y0.4645
G3 X-0.8413 Y0.4518 I0.0128
G1 X-0.8134
X-0.8124
G3 X-0.7974 Y0.4649 J0.0151
G1 X-0.7973 Y0.4656
G2 X-0.7823 Y0.4893 I0.0332 J-0.0044
G3 X-0.7903 Y0.5162 I-0.008 J0.0123
G1 X-0.8742
G3 X-0.8868 Y0.5036 J-0.0126
G1 Y0.4319
G3 X-0.874 Y0.4191 I0.0128
G1 X-0.7838
G3 X-0.7688 Y0.4322 J0.0151
G1 X-0.7593 Y0.5038
G3 X-0.7702 Y0.5162 I-0.0109 J0.0014
G1 X-0.7903
G2 X-0.8351 Y0.5461 J0.0485
G3 X-0.8799 Y0.5759 I-0.0448 J-0.0187
G1 X-0.9465
Y0.3594
X-0.7182
X-0.6835 Y0.621
G2 X-0.7412 Y0.5759 I-0.0576 J0.0142
G1 X-0.8799
G3 X-0.8836 Y0.575 Z-0.0989 J-0.0079
X-0.8859 Y0.5732 Z-0.0961 I0.0038 J-0.0069
X-0.8865 Y0.5723 Z-0.0921 I0.006 J-0.0051
G0 Z0.2
X-1.5974 Y-0.2586
G1 Z0.1079 F40
G3 X-1.5982 Y-0.2592 Z0.104 I0.0213 J-0.0307 F13.33
X-1.6004 Y-0.2609 Z0.1011 I0.0221 J-0.0301
X-1.6032 Y-0.2636 Z0.1 I0.0243 J-0.0284
X-1.549 Y-0.3152 Z0.0959 I0.0271 J-0.0258
X-1.6032 Y-0.2636 Z0.0918 I-0.0271 J0.0258
X-1.549 Y-0.3152 Z0.0877 I0.0271 J-0.0258
X-1.6032 Y-0.2636 Z0.0836 I-0.0271 J0.0258
X-1.549 Y-0.3152 Z0.0795 I0.0271 J-0.0258
X-1.6032 Y-0.2636 Z0.0754 I-0.0271 J0.0258
X-1.549 Y-0.3152 Z0.0713 I0.0271 J-0.0258
X-1.6032 Y-0.2636 Z0.0672 I-0.0271 J0.0258
X-1.549 Y-0.3152 Z0.0631 I0.0271 J-0.0258
X-1.6032 Y-0.2636 Z0.059 I-0.0271 J0.0258
X-1.549 Y-0.3152 Z0.0549 I0.0271 J-0.0258
X-1.6032 Y-0.2636 Z0.0508 I-0.0271 J0.0258
X-1.549 Y-0.3152 Z0.0467 I0.0271 J-0.0258
X-1.6032 Y-0.2636 Z0.0426 I-0.0271 J0.0258
X-1.549 Y-0.3152 Z0.0385 I0.0271 J-0.0258
X-1.6032 Y-0.2636 Z0.0343 I-0.0271 J0.0258
X-1.549 Y-0.3152 Z0.0302 I0.0271 J-0.0258
X-1.6032 Y-0.2636 Z0.0261 I-0.0271 J0.0258
X-1.549 Y-0.3152 Z0.022 I0.0271 J-0.0258
X-1.6032 Y-0.2636 Z0.0179 I-0.0271 J0.0258
X-1.549 Y-0.3152 Z0.0138 I0.0271 J-0.0258
X-1.6032 Y-0.2636 Z0.0097 I-0.0271 J0.0258
X-1.549 Y-0.3152 Z0.0056 I0.0271 J-0.0258
X-1.6032 Y-0.2636 Z0.0015 I-0.0271 J0.0258
X-1.549 Y-0.3152 Z-0.0026 I0.0271 J-0.0258
X-1.6032 Y-0.2636 Z-0.0067 I-0.0271 J0.0258
X-1.549 Y-0.3152 Z-0.0108 I0.0271 J-0.0258
X-1.6032 Y-0.2636 Z-0.0149 I-0.0271 J0.0258
X-1.549 Y-0.3152 Z-0.019 I0.0271 J-0.0258
X-1.6032 Y-0.2636 Z-0.0231 I-0.0271 J0.0258
X-1.549 Y-0.3152 Z-0.0272 I0.0271 J-0.0258
X-1.6032 Y-0.2636 Z-0.0313 I-0.0271 J0.0258
X-1.549 Y-0.3152 Z-0.0354 I0.0271 J-0.0258
X-1.6032 Y-0.2636 Z-0.0395 I-0.0271 J0.0258
X-1.549 Y-0.3152 Z-0.0436 I0.0271 J-0.0258
X-1.6032 Y-0.2636 Z-0.0477 I-0.0271 J0.0258
X-1.549 Y-0.3152 Z-0.0518 I0.0271 J-0.0258
X-1.6032 Y-0.2636 Z-0.0559 I-0.0271 J0.0258
X-1.549 Y-0.3152 Z-0.06 I0.0271 J-0.0258
X-1.6032 Y-0.2636 Z-0.0641 I-0.0271 J0.0258
X-1.549 Y-0.3152 Z-0.0682 I0.0271 J-0.0258
X-1.6032 Y-0.2636 Z-0.0723 I-0.0271 J0.0258
X-1.549 Y-0.3152 Z-0.0764 I0.0271 J-0.0258
X-1.6032 Y-0.2636 Z-0.0805 I-0.0271 J0.0258
X-1.549 Y-0.3152 Z-0.0846 I0.0271 J-0.0258
X-1.6032 Y-0.2636 Z-0.0887 I-0.0271 J0.0258
X-1.549 Y-0.3152 Z-0.0929 I0.0271 J-0.0258
X-1.6032 Y-0.2636 Z-0.097 I-0.0271 J0.0258
X-1.5761 Y-0.3268 Z-0.1 I0.0271 J-0.0258
G1 X-1.5379 F40
G3 X-1.5361 Y-0.318 J0.0046
G2 X-1.5696 Y-0.3008 I0.1419 J0.318
G3 X-1.5798 Y-0.2997 I-0.0064 J-0.0109
X-1.6097 Y-0.3093 I1.0049 J-3.172
G2 X-1.6398 Y-0.3185 I-0.2688 J0.8214
G3 X-1.6386 Y-0.3268 I0.0012 J-0.004
G1 X-1.5761
G3 X-1.5723 Y-0.3258 Z-0.0989 J0.0079
X-1.5701 Y-0.324 Z-0.0961 I-0.0038 J0.0069
X-1.5695 Y-0.3231 Z-0.0921 I-0.006 J0.0051
G0 Z0.2
X0.9941 Y1.7431
G1 Z0.1079 F40
G3 X0.9949 Y1.7437 Z0.104 I-0.0213 J0.0307 F13.33
X0.9971 Y1.7454 Z0.1011 I-0.0221 J0.0301
X0.9999 Y1.748 Z0.1 I-0.0243 J0.0284
X0.9457 Y1.7996 Z0.0959 I-0.0271 J0.0258
X0.9999 Y1.748 Z0.0918 I0.0271 J-0.0258
X0.9457 Y1.7996 Z0.0877 I-0.0271 J0.0258
X0.9999 Y1.748 Z0.0836 I0.0271 J-0.0258
X0.9457 Y1.7996 Z0.0795 I-0.0271 J0.0258
X0.9999 Y1.748 Z0.0754 I0.0271 J-0.0258
X0.9457 Y1.7996 Z0.0713 I-0.0271 J0.0258
X0.9999 Y1.748 Z0.0672 I0.0271 J-0.0258
X0.9457 Y1.7996 Z0.0631 I-0.0271 J0.0258
X0.9999 Y1.748 Z0.059 I0.0271 J-0.0258
X0.9457 Y1.7996 Z0.0549 I-0.0271 J0.0258
X0.9999 Y1.748 Z0.0508 I0.0271 J-0.0258
X0.9457 Y1.7996 Z0.0467 I-0.0271 J0.0258
X0.9999 Y1.748 Z0.0426 I0.0271 J-0.0258
X0.9457 Y1.7996 Z0.0385 I-0.0271 J0.0258
X0.9999 Y1.748 Z0.0343 I0.0271 J-0.0258
X0.9457 Y1.7996 Z0.0302 I-0.0271 J0.0258
X0.9999 Y1.748 Z0.0261 I0.0271 J-0.0258
X0.9457 Y1.7996 Z0.022 I-0.0271 J0.0258
X0.9999 Y1.748 Z0.0179 I0.0271 J-0.0258
X0.9457 Y1.7996 Z0.0138 I-0.0271 J0.0258
X0.9999 Y1.748 Z0.0097 I0.0271 J-0.0258
X0.9457 Y1.7996 Z0.0056 I-0.0271 J0.0258
X0.9999 Y1.748 Z0.0015 I0.0271 J-0.0258
X0.9457 Y1.7996 Z-0.0026 I-0.0271 J0.0258
X0.9999 Y1.748 Z-0.0067 I0.0271 J-0.0258
X0.9457 Y1.7996 Z-0.0108 I-0.0271 J0.0258
X0.9999 Y1.748 Z-0.0149 I0.0271 J-0.0258
X0.9457 Y1.7996 Z-0.019 I-0.0271 J0.0258
X0.9999 Y1.748 Z-0.0231 I0.0271 J-0.0258
X0.9457 Y1.7996 Z-0.0272 I-0.0271 J0.0258
X0.9999 Y1.748 Z-0.0313 I0.0271 J-0.0258
X0.9457 Y1.7996 Z-0.0354 I-0.0271 J0.0258
X0.9999 Y1.748 Z-0.0395 I0.0271 J-0.0258
X0.9457 Y1.7996 Z-0.0436 I-0.0271 J0.0258
X0.9999 Y1.748 Z-0.0477 I0.0271 J-0.0258
X0.9457 Y1.7996 Z-0.0518 I-0.0271 J0.0258
X0.9999 Y1.748 Z-0.0559 I0.0271 J-0.0258
X0.9457 Y1.7996 Z-0.06 I-0.0271 J0.0258
X0.9999 Y1.748 Z-0.0641 I0.0271 J-0.0258
X0.9457 Y1.7996 Z-0.0682 I-0.0271 J0.0258
X0.9999 Y1.748 Z-0.0723 I0.0271 J-0.0258
X0.9457 Y1.7996 Z-0.0764 I-0.0271 J0.0258
X0.9999 Y1.748 Z-0.0805 I0.0271 J-0.0258
X0.9457 Y1.7996 Z-0.0846 I-0.0271 J0.0258
X0.9999 Y1.748 Z-0.0887 I0.0271 J-0.0258
X0.9457 Y1.7996 Z-0.0929 I-0.0271 J0.0258
X0.9999 Y1.748 Z-0.097 I0.0271 J-0.0258
X0.9728 Y1.8112 Z-0.1 I-0.0271 J0.0258
G1 X0.9644 F40
G3 X0.9616 Y1.802 J-0.005
G2 X0.9688 Y1.797 I-0.2028 J-0.302
G3 X0.9768 I0.004 J0.0056
G2 X0.984 Y1.802 I0.21 J-0.297
G3 X0.9812 Y1.8112 I-0.0028 J0.0042
G1 X0.9728
G18 G3 X0.9649 Z-0.0921 K0.0079
G0 Z0.2
X3.0275 Y1.7386
G1 Z0.1079 F40
G17 G3 X3.0281 Y1.7378 Z0.104 I0.0307 J0.0213 F13.33
X3.0298 Y1.7356 Z0.1011 I0.0301 J0.0221
X3.0325 Y1.7329 Z0.1 I0.0284 J0.0243
X3.0841 Y1.787 Z0.0959 I0.0258 J0.0271
X3.0325 Y1.7329 Z0.0918 I-0.0258 J-0.0271
X3.0841 Y1.787 Z0.0877 I0.0258 J0.0271
X3.0325 Y1.7329 Z0.0836 I-0.0258 J-0.0271
X3.0841 Y1.787 Z0.0795 I0.0258 J0.0271
X3.0325 Y1.7329 Z0.0754 I-0.0258 J-0.0271
X3.0841 Y1.787 Z0.0713 I0.0258 J0.0271
X3.0325 Y1.7329 Z0.0672 I-0.0258 J-0.0271
X3.0841 Y1.787 Z0.0631 I0.0258 J0.0271
X3.0325 Y1.7329 Z0.059 I-0.0258 J-0.0271
X3.0841 Y1.787 Z0.0549 I0.0258 J0.0271
X3.0325 Y1.7329 Z0.0508 I-0.0258 J-0.0271
X3.0841 Y1.787 Z0.0467 I0.0258 J0.0271
X3.0325 Y1.7329 Z0.0426 I-0.0258 J-0.0271
X3.0841 Y1.787 Z0.0385 I0.0258 J0.0271
X3.0325 Y1.7329 Z0.0343 I-0.0258 J-0.0271
X3.0841 Y1.787 Z0.0302 I0.0258 J0.0271
X3.0325 Y1.7329 Z0.0261 I-0.0258 J-0.0271
X3.0841 Y1.787 Z0.022 I0.0258 J0.0271
X3.0325 Y1.7329 Z0.0179 I-0.0258 J-0.0271
X3.0841 Y1.787 Z0.0138 I0.0258 J0.0271
X3.0325 Y1.7329 Z0.0097 I-0.0258 J-0.0271
X3.0841 Y1.787 Z0.0056 I0.0258 J0.0271
X3.0325 Y1.7329 Z0.0015 I-0.0258 J-0.0271
X3.0841 Y1.787 Z-0.0026 I0.0258 J0.0271
X3.0325 Y1.7329 Z-0.0067 I-0.0258 J-0.0271
X3.0841 Y1.787 Z-0.0108 I0.0258 J0.0271
X3.0325 Y1.7329 Z-0.0149 I-0.0258 J-0.0271
X3.0841 Y1.787 Z-0.019 I0.0258 J0.0271
X3.0325 Y1.7329 Z-0.0231 I-0.0258 J-0.0271
X3.0841 Y1.787 Z-0.0272 I0.0258 J0.0271
X3.0325 Y1.7329 Z-0.0313 I-0.0258 J-0.0271
X3.0841 Y1.787 Z-0.0354 I0.0258 J0.0271
X3.0325 Y1.7329 Z-0.0395 I-0.0258 J-0.0271
X3.0841 Y1.787 Z-0.0436 I0.0258 J0.0271
X3.0325 Y1.7329 Z-0.0477 I-0.0258 J-0.0271
X3.0841 Y1.787 Z-0.0518 I0.0258 J0.0271
X3.0325 Y1.7329 Z-0.0559 I-0.0258 J-0.0271
X3.0841 Y1.787 Z-0.06 I0.0258 J0.0271
X3.0325 Y1.7329 Z-0.0641 I-0.0258 J-0.0271
X3.0841 Y1.787 Z-0.0682 I0.0258 J0.0271
X3.0325 Y1.7329 Z-0.0723 I-0.0258 J-0.0271
X3.0841 Y1.787 Z-0.0764 I0.0258 J0.0271
X3.0325 Y1.7329 Z-0.0805 I-0.0258 J-0.0271
X3.0841 Y1.787 Z-0.0846 I0.0258 J0.0271
X3.0325 Y1.7329 Z-0.0887 I-0.0258 J-0.0271
X3.0841 Y1.787 Z-0.0929 I0.0258 J0.0271
X3.0325 Y1.7329 Z-0.097 I-0.0258 J-0.0271
X3.0957 Y1.7599 Z-0.1 I0.0258 J0.0271
G1 Y1.7613 F40
G3 X3.0863 Y1.7707 I-0.0094
G1 X3.0692
G3 X3.066 Y1.7611 J-0.0053
G2 X3.0757 Y1.7536 I-0.216 J-0.2891
X3.0852 Y1.7459 I-0.5321 J-0.6642
G3 X3.0957 Y1.7509 I0.0041 J0.005
G1 Y1.7599
G2 X3.11 Y1.7869 I0.0326
G3 X3.101 Y1.8161 I-0.009 J0.0132
G1 X2.8749
G3 X2.8737 Y1.808 J-0.0042
G2 X2.9306 Y1.7862 I-0.1278 J-0.418
X2.9854 Y1.7597 I-0.9294 J-1.9939
X3.0633 Y1.709 I-0.1837 J-0.3672
X3.1313 Y1.6456 I-0.5026 J-0.6081
G3 X3.1411 Y1.6496 I0.0041 J0.0039
G1 Y1.8036
G3 X3.1286 Y1.8161 I-0.0125
G1 X3.101
G2 X3.0713 Y1.8359 J0.0321
G3 X3.0417 Y1.8557 I-0.0297 J-0.0124
G1 X-3.1681
G3 X-3.1807 Y1.8431 J-0.0126
G1 Y1.7638
G3 X-3.17 Y1.7583 I0.0067
G2 X-3.0812 Y1.8046 I0.1991 J-0.274
X-2.9824 Y1.8211 I0.0988 J-0.2871
G1 X-2.5941
G2 X-2.5604 Y1.8184 J-0.2136
X-2.5271 Y1.8122 I-0.1013 J-0.633
G3 X-2.52 I0.0035 J0.0165
G2 X-2.4867 Y1.8184 I0.1346 J-0.6268
X-2.4529 Y1.8211 I0.0338 J-0.2109
G1 X-2.0407 Y1.82
G3 X-1.9803 Y1.8185 I0.1136 J3.3366
G2 X-1.9201 Y1.8155 I-0.0144 J-0.9018
X-1.7735 Y1.8012 I-0.4277 J-5.1501
X-1.6305 Y1.7664 I-0.0643 J-0.5752
X-1.619 Y1.7616 I-0.0712 J-0.1857
G3 X-1.6076 Y1.7567 I0.0827 J0.1808
X-1.579 Y1.7604 I0.0109 J0.0285
G2 X-1.4913 Y1.8051 I0.1965 J-0.2768
X-1.3941 Y1.8211 I0.0972 J-0.2871
G1 X-0.7235
G2 X-0.6723 Y1.8161 J-0.2636
X-0.6226 Y1.8029 I-0.0793 J-0.4003
G3 X-0.6083 I0.0071 J0.0214
G2 X-0.5586 Y1.8161 I0.129 J-0.3871
X-0.5074 Y1.8211 I0.0512 J-0.2586
G1 X0.0662
G2 X0.1365 Y1.8124 J-0.288
X0.2032 Y1.7884 I-0.0881 J-0.3497
G3 X0.2335 I0.0152 J0.0319
G2 X0.3002 Y1.8124 I0.1548 J-0.3257
X0.3706 Y1.8211 I0.0703 J-0.2793
G1 X0.7588
G2 X0.8674 Y1.8012 J-0.3066
X0.9628 Y1.7456 I-0.1187 J-0.3134
G3 X0.9828 I0.01 J0.012
G2 X1.0782 Y1.8012 I0.2141 J-0.2578
X1.1868 Y1.8211 I0.1086 J-0.2867
G1 X1.7603
G2 X1.8306 Y1.8124 J-0.288
X1.8973 Y1.7884 I-0.0881 J-0.3497
G3 X1.9277 I0.0152 J0.0319
G2 X1.9944 Y1.8124 I0.1548 J-0.3257
X2.0647 Y1.8211 I0.0703 J-0.2793
G1 X2.5383 Y1.82
G2 X2.6777 Y1.8105 I-0.1208 J-2.8112
X2.7664 Y1.7963 I-0.0634 J-0.6824
X2.8535 Y1.7745 I-0.4612 J-2.027
X2.9124 Y1.752 I-0.0847 J-0.3097
G1 X2.9677 Y1.7243
G2 X3.0241 Y1.688 I-0.1386 J-0.2771
X3.0761 Y1.6455 I-4.7289 J-5.8374
X3.1277 Y1.5927 I-0.2202 J-0.267
X3.1713 Y1.5332 I-0.8268 J-0.6515
G3 X3.1807 Y1.5361 I0.0043 J0.0029
G1 Y1.8429
G3 X3.1679 Y1.8557 I-0.0128
G1 X3.0417
G2 X3.0137 Y1.8743 J0.0303
G3 X2.9857 Y1.8929 I-0.0279 J-0.0116
G1 X-1.3941 Y1.8913
X-3.2057 Y1.893
G3 X-3.218 Y1.8807 J-0.0124
G1 Y1.6713
G3 X-3.2087 Y1.6682 I0.0052
G2 X-3.1092 Y1.7528 I0.2331 J-0.1733
X-2.9824 Y1.7837 I0.1269 J-0.2447
G1 X-2.5941
G2 X-2.5642 Y1.7813 J-0.1827
X-2.5346 Y1.7756 I-0.1031 J-0.6203
G3 X-2.5124 I0.0111 J0.0515
G2 X-2.4829 Y1.7813 I0.1326 J-0.6147
X-2.4529 Y1.7837 I0.03 J-0.1802
G1 X-2.0419 Y1.7826
G3 X-1.9825 Y1.7812 I0.108 J3.1716
G2 X-1.9232 Y1.7782 I-0.0135 J-0.8796
X-1.7818 Y1.7652 I-0.6232 J-7.5045
X-1.6436 Y1.7322 I-0.0546 J-0.5353
X-1.6211 Y1.7228 I-0.1397 J-0.3641
G3 X-1.5987 Y1.7133 I0.1622 J0.3546
X-1.5737 Y1.7174 I0.009 J0.0235
G2 X-1.4897 Y1.7662 I0.1895 J-0.2295
X-1.3941 Y1.7837 I0.0955 J-0.252
G1 X-0.7235
G2 X-0.6783 Y1.7792 J-0.2284
X-0.6344 Y1.7675 I-0.0736 J-0.3643
G3 X-0.5965 I0.019 J0.057
G2 X-0.5526 Y1.7792 I0.1175 J-0.3526
X-0.5074 Y1.7837 I0.0452 J-0.2239
G1 X0.0662
G2 X0.1383 Y1.7735 J-0.2593
X0.2055 Y1.7451 I-0.0866 J-0.2988
G3 X0.2313 I0.0129 J0.0227
G2 X0.2984 Y1.7735 I0.1537 J-0.2705
X0.3706 Y1.7837 I0.0722 J-0.2491
G1 X0.7588
G2 X0.8712 Y1.7596 J-0.2734
X0.9646 Y1.6927 I-0.1204 J-0.2671
G3 X0.981 I0.0082 J0.0076
G2 X1.0744 Y1.7596 I0.2139 J-0.2003
X1.1868 Y1.7837 I0.1123 J-0.2492
G1 X1.7603
G2 X1.8325 Y1.7735 J-0.2593
X1.8996 Y1.7451 I-0.0866 J-0.2988
G3 X1.9254 I0.0129 J0.0227
G2 X1.9925 Y1.7735 I0.1537 J-0.2705
X2.0647 Y1.7837 I0.0722 J-0.2491
G1 X2.5367 Y1.7826
G2 X2.6146 Y1.779 I-0.5514 J-12.8319
X2.6922 Y1.771 I-0.0356 J-0.7253
X2.8436 Y1.7385 I-0.2187 J-1.3862
X2.8985 Y1.7173 I-0.0769 J-0.2813
G3 X2.951 Y1.6909 I5.2791 J10.4215
G2 X3.0046 Y1.656 I-0.1269 J-0.2538
G1 X3.0523 Y1.6167
G2 X3.0928 Y1.5756 I-0.1806 J-0.2189
G1 X3.1283 Y1.5315
G2 X3.1605 Y1.4816 I-0.2211 J-0.1778
G1 X3.186 Y1.4311
G2 X3.1995 Y1.3963 I-0.1718 J-0.0868
G3 X3.2099 Y1.3604 I2.4167 J0.6784
X3.218 Y1.3616 I0.004 J0.0012
G1 Y1.8805
G3 X3.2055 Y1.893 I-0.0125
G1 X2.9857 Y1.8929
G3 X2.9779 Y1.8833 J-0.008
G1 X3.2015 Y0.8192
G3 X3.2022 Y0.8172 I0.0078 J0.0016
G2 X3.2092 Y0.8029 I-0.2506 J-0.1299
G3 X3.2178 Y0.8047 I0.0041 J0.0018
G1 Y0.839
G3 X3.2094 Y0.8405 I-0.0043
G2 X3.2021 Y0.8232 I-0.2636 J0.1007
G3 X3.2022 Y0.8172 I0.0062 J-0.0029
G2 X3.2031 Y0.8126 I-0.0071 J-0.0037
G1 X3.0857 Y-0.2439
G2 X3.0823 Y-0.2495 I-0.008 J0.0009
X3.0692 Y-0.2588 I-0.6183 J0.8673
X3.0042 Y-0.2939 I-0.1931 J0.2797
X2.9889 Y-0.2996 I-0.0984 J0.2419
G3 X2.9736 Y-0.3053 I0.0831 J-0.2476
X2.9752 Y-0.3138 I0.0017 J-0.0041
G1 X3.1262
G3 X3.1388 Y-0.3012 J0.0125
G1 Y-0.2197
G3 X3.1285 Y-0.2147 I-0.0063
G2 X3.0823 Y-0.2495 I-0.6645 J0.8325
X3.0445 Y-0.2505 I-0.0196 J0.0275
G3 X3.0068 Y-0.2483 I-0.0208 J-0.0325
G2 X2.9888 Y-0.2563 I-0.128 J0.2624
X2.8998 Y-0.2879 I-0.3925 J0.9647
X2.8072 Y-0.3069 I-0.1488 J0.4884
X2.7465 Y-0.3134 I-0.6727 J6.0746
X2.6856 Y-0.3177 I-0.1075 J1.0682
G1 X2.5208 Y-0.3216
X1.5926
G2 X1.5446 Y-0.3171 J0.2576
X1.4979 Y-0.3055 I0.0793 J0.4179
G3 X1.4845 I-0.0067 J-0.0216
G2 X1.4377 Y-0.3171 I-0.126 J0.4062
X1.3897 Y-0.3216 I-0.048 J0.253
G1 X-0.1015
G2 X-0.1495 Y-0.3171 J0.2576
X-0.1962 Y-0.3055 I0.0793 J0.4179
G3 X-0.2096 I-0.0067 J-0.0216
G2 X-0.2563 Y-0.3171 I-0.1263 J0.4071
X-0.3041 Y-0.3216 I-0.0481 J0.2527
G1 X-1.3941
G2 X-1.4781 Y-0.3095 J0.2977
X-1.5559 Y-0.2759 I0.098 J0.3336
G3 X-1.5876 Y-0.2723 I-0.0199 J-0.0339
X-1.6352 Y-0.2885 I0.3649 J-1.152
G2 X-1.6838 Y-0.3012 I-0.0926 J0.2549
X-1.8181 Y-0.3169 I-0.2358 J1.4353
X-1.9533 Y-0.3216 I-0.1352 J1.9323
G1 X-2.4529
G2 X-2.4867 Y-0.3189 J0.2138
X-2.52 Y-0.3127 I0.1015 J0.635
G3 X-2.5271 I-0.0035 J-0.0165
G2 X-2.5604 Y-0.3189 I-0.1348 J0.6288
X-2.5941 Y-0.3216 I-0.0338 J0.2112
G1 X-2.9824
G2 X-3.0806 Y-0.3053 J0.3039
X-3.1691 Y-0.2597 I0.1098 J0.3213
G3 X-3.1802 Y-0.2654 I-0.0041 J-0.0057
G1 Y-0.3424
G3 X-3.1674 Y-0.3552 I0.0128
G1 X3.1674
G3 X3.1802 Y-0.3424 J0.0128
G1 Y-0.1156
G3 X3.1703 Y-0.112 I-0.0056
G2 X3.134 Y-0.1542 I-5.6059 J4.7811
X3.093 Y-0.192 I-0.1871 J0.1621
X3.0429 Y-0.2273 I-1.0447 J1.4282
X3.0068 Y-0.2483 I-0.1641 J0.2415
X2.9735 Y-0.243 I-0.0129 J0.0264
G3 X2.9406 Y-0.236 I-0.0221 J-0.0228
G2 X2.8908 Y-0.2527 I-0.3483 J0.9543
X2.8032 Y-0.2708 I-0.1401 J0.4557
X2.7437 Y-0.2771 I-0.6923 J6.2515
X2.684 Y-0.2815 I-0.105 J1.0382
G1 X2.5208 Y-0.2853
X2.0647
G2 X2.0471 Y-0.2842 J0.1427
G3 X2.0118 I-0.0176 J-0.1416
G2 X1.9941 Y-0.2853 I-0.0176 J0.1416
G1 X1.5926
G2 X1.5493 Y-0.2811 J0.2256
X1.5071 Y-0.2703 I0.074 J0.3781
G3 X1.4753 I-0.0159 J-0.0503
G2 X1.4331 Y-0.2811 I-0.1163 J0.3673
X1.3897 Y-0.2853 I-0.0434 J0.2214
G1 X0.3706
G2 X0.3529 Y-0.2842 J0.1427
G3 X0.3176 I-0.0176 J-0.1416
G2 X0.3 Y-0.2853 I-0.0176 J0.1416
G1 X-0.1015
G2 X-0.1448 Y-0.2811 J0.2256
X-0.187 Y-0.2703 I0.074 J0.3781
G3 X-0.2189 I-0.0159 J-0.0503
G2 X-0.2609 Y-0.2811 I-0.1165 J0.3681
X-0.3041 Y-0.2853 I-0.0434 J0.221
G1 X-1.3941
G2 X-1.4777 Y-0.2719 J0.2666
X-1.5536 Y-0.2345 I0.0955 J0.2895
G3 X-1.5807 Y-0.2314 I-0.0164 J-0.0242
G2 X-1.6343 Y-0.2513 I-0.5616 J1.4356
X-1.6897 Y-0.2654 I-0.1091 J0.3126
X-1.8211 Y-0.2807 I-0.23 J1.4
X-1.9533 Y-0.2853 I-0.1322 J1.8971
G1 X-2.4529
G2 X-2.4829 Y-0.2828 J0.1834
X-2.5125 Y-0.2772 I0.1039 J0.6269
G3 X-2.5346 I-0.0111 J-0.0515
G2 X-2.5641 Y-0.2828 I-0.1334 J0.6213
X-2.5941 Y-0.2853 I-0.03 J0.1809
G1 X-2.9824
G2 X-3.108 Y-0.2552 J0.277
X-3.2073 Y-0.1726 I0.1326 J0.2605
G3 X-3.2165 Y-0.1757 I-0.004 J-0.0031
G1 Y-0.3789
G3 X-3.2039 Y-0.3915 I0.0125
G1 X0.3706 Y-0.3897
X3.2039 Y-0.3915
G3 X3.2165 Y-0.3789 J0.0125
G1 Y0.0155
G3 X3.2078 Y0.0174 I-0.0046
G2 X3.1816 Y-0.0352 I-1.7749 J0.8511
X3.1487 Y-0.0841 I-0.2286 J0.1181
X3.0703 Y-0.1638 I-0.5962 J0.5084
X2.9751 Y-0.2226 I-0.2214 J0.2516
X2.9406 Y-0.236 I-0.3829 J0.941
X2.905 Y-0.2264 I-0.011 J0.0301
G3 X2.87 Y-0.215 I-0.0266 J-0.0221
G2 X2.8201 Y-0.2263 I-0.2618 J1.0368
X2.6982 Y-0.2404 I-0.1439 J0.7115
X2.5756 Y-0.2434 I-0.3132 J10.337
G1 X2.0647 Y-0.2429
G2 X2.052 Y-0.2421 J0.1108
G3 X2.0394 Y-0.2408 I-0.1459 J-1.2677
X2.0194 I-0.01 J-0.0953
X2.0068 Y-0.2421 I0.1333 J-1.2691
G2 X1.9941 Y-0.2429 I-0.0127 J0.1101
G1 X1.5926 Y-0.2439
G2 X1.5504 Y-0.2393 J0.1962
X1.5096 Y-0.2274 I0.0687 J0.3118
G3 X1.4727 I-0.0185 J-0.0505
G2 X1.4319 Y-0.2393 I-0.1095 J0.3
X1.3897 Y-0.2439 I-0.0422 J0.1916
G1 X0.3706 Y-0.2429
G2 X0.3579 Y-0.2421 J0.1108
G3 X0.3453 Y-0.2408 I-0.1459 J-1.2679
X0.3253 I-0.01 J-0.0953
X0.3127 Y-0.2421 I0.1333 J-1.2693
G2 X0.3 Y-0.2429 I-0.0127 J0.1101
G1 X-0.1015 Y-0.2439
G2 X-0.1441 Y-0.2392 J0.197
X-0.1853 Y-0.2271 I0.0687 J0.3097
G3 X-0.2206 I-0.0176 J-0.0477
G2 X-0.2616 Y-0.2392 I-0.1101 J0.2981
X-0.3042 Y-0.2439 I-0.0427 J0.1921
G1 X-1.3941
G2 X-1.4772 Y-0.2283 J0.2298
X-1.55 Y-0.1852 I0.0932 J0.2404
G3 X-1.5732 Y-0.1826 I-0.0136 J-0.0161
G2 X-1.7273 Y-0.2299 I-0.2088 J0.4059
X-1.888 Y-0.2431 I-0.2538 J2.1021
G1 X-2.4529 Y-0.2437
G2 X-2.4784 Y-0.2415 J0.1531
X-2.5035 Y-0.2367 I0.0981 J0.5817
G3 X-2.5435 I-0.02 J-0.0937
G2 X-2.5686 Y-0.2415 I-0.1233 J0.5769
X-2.5941 Y-0.2437 I-0.0255 J0.151
G1 X-2.9824 Y-0.2439
G2 X-3.2262 Y0 J0.2439
G1 Y1.5
G2 X-2.9824 Y1.7439 I0.2439
G1 X-2.5941 Y1.7437
G2 X-2.5686 Y1.7415 J-0.1531
X-2.5435 Y1.7367 I-0.0981 J-0.5817
G3 X-2.5035 I0.02 J0.0937
G2 X-2.4784 Y1.7415 I0.1233 J-0.5769
X-2.4529 Y1.7437 I0.0255 J-0.151
G1 X-2.0433 Y1.7428
G3 X-1.9849 Y1.7414 I0.1023 J3.0044
G2 X-1.9265 Y1.7385 I-0.0125 J-0.8561
X-1.7906 Y1.7264 I-0.9381 J-11.2966
X-1.6578 Y1.6952 I-0.0477 J-0.5017
X-1.6229 Y1.6812 I-0.4343 J-1.1316
X-1.5887 Y1.6653 I-0.1937 J-0.4615
G3 X-1.5676 Y1.6688 I0.0082 J0.016
G2 X-1.4885 Y1.7239 I0.1821 J-0.1771
X-1.3941 Y1.7439 I0.0944 J-0.2129
G1 X-0.7235
G2 X-0.6767 Y1.7384 J-0.2037
X-0.6319 Y1.7241 I-0.0692 J-0.2933
G3 X-0.599 I0.0164 J0.0402
G2 X-0.5541 Y1.7384 I0.1141 J-0.2789
X-0.5074 Y1.7439 I0.0468 J-0.1982
G1 X0.0662
G2 X0.1405 Y1.7313 J-0.2264
X0.2075 Y1.6966 I-0.0861 J-0.2477
G3 X0.2293 I0.0109 J0.0152
G2 X0.2962 Y1.7313 I0.153 J-0.2129
X0.3706 Y1.7439 I0.0744 J-0.2139
G1 X0.7588
G2 X0.8783 Y1.7116 J-0.2371
X0.9664 Y1.6245 I-0.1256 J-0.2152
G3 X0.9792 I0.0064 J0.0038
G2 X1.0673 Y1.7116 I0.2137 J-0.1282
X1.1868 Y1.7439 I0.1195 J-0.2048
G1 X1.7603
G2 X1.8347 Y1.7313 J-0.2264
X1.9016 Y1.6966 I-0.0861 J-0.2477
G3 X1.9234 I0.0109 J0.0152
G2 X1.9903 Y1.7313 I0.153 J-0.2129
X2.0647 Y1.7439 I0.0744 J-0.2139
G1 X2.535 Y1.7428
X2.6046 Y1.7398
G2 X2.686 Y1.7317 I-0.031 J-0.7204
X2.8331 Y1.7 I-0.2125 J-1.3468
X2.8842 Y1.6801 I-0.0693 J-0.2533
G3 X2.9331 Y1.6553 I2.0244 J3.9241
G2 X2.982 Y1.6233 I-0.1126 J-0.2251
G3 X3.0269 Y1.5859 I5.6774 J6.7899
G2 X3.0641 Y1.548 I-0.1609 J-0.1951
G3 X3.0973 Y1.5065 I6.1213 J4.8545
G2 X3.1263 Y1.4612 I-0.1955 J-0.1572
G3 X3.1504 Y1.4131 I8.6829 J4.3281
G2 X3.1815 Y1.3247 I-0.3219 J-0.1627
X3.1988 Y1.2327 I-2.1314 J-0.4489
X3.2074 Y1.1537 I-0.69 J-0.1146
X3.2085 Y1.0743 I-1.0987 J-0.0561
X3.1986 Y0.9517 I-1.0365 J0.022
X3.1628 Y0.8341 I-0.3926 J0.0553
G3 X3.1636 Y0.8044 I0.029 J-0.0141
G2 X3.2127 Y0.6584 I-0.3761 J-0.2078
X3.2261 Y0.505 I-1.3318 J-0.1939
X3.2254 Y0.3213 I-2.6858 J-0.0808
X3.2055 Y0.1386 I-1.309 J0.0502
X3.1823 Y0.0609 I-0.3589 J0.0648
X3.1476 Y-0.0123 I-0.9096 J0.386
X3.0878 Y-0.0915 I-0.2705 J0.142
X3.0116 Y-0.1552 I-0.5294 J0.556
X2.9197 Y-0.2011 I-0.1814 J0.248
X2.87 Y-0.215 I-0.3115 J1.023
X2.8411 Y-0.2039 I-0.0066 J0.026
G3 X2.8128 Y-0.1916 I-0.0238 J-0.016
G2 X2.6924 Y-0.2046 I-0.1892 J1.1908
X2.5208 Y-0.2095 I-0.1716 J3.0052
G1 X2.0647 Y-0.2084
G2 X2.0534 Y-0.2078 J0.0971
G1 X2.0406 Y-0.2063
G3 X2.0183 I-0.0111 J-0.0952
G1 X2.0054 Y-0.2078
G2 X1.9941 Y-0.2084 I-0.0113 J0.0964
G1 X1.5926 Y-0.2095
G2 X1.5471 Y-0.2036 J0.1777
X1.504 Y-0.1878 I0.0647 J0.2442
G3 X1.4783 I-0.0129 J-0.0273
G2 X1.4352 Y-0.2036 I-0.1078 J0.2285
X1.3897 Y-0.2095 I-0.0455 J0.1718
G1 X0.3706 Y-0.2084
G2 X0.3593 Y-0.2078 J0.0971
G1 X0.3464 Y-0.2063
G3 X0.3242 I-0.0111 J-0.0951
G1 X0.3113 Y-0.2078
G2 X0.3 Y-0.2084 I-0.0113 J0.0964
G1 X-0.1015 Y-0.2095
G2 X-0.1459 Y-0.2038 J0.1764
X-0.1881 Y-0.1888 I0.0643 J0.2472
G3 X-0.2178 I-0.0149 J-0.0325
G2 X-0.2599 Y-0.2038 I-0.1066 J0.2324
X-0.3042 Y-0.2095 I-0.0445 J0.1706
G1 X-1.3941
G2 X-1.4763 Y-0.1917 J0.1989
X-1.5447 Y-0.143 I0.0906 J0.1997
G3 X-1.5659 Y-0.1396 I-0.0128 J-0.0121
X-1.5926 Y-0.1546 I0.4497 J-0.8337
G2 X-1.6207 Y-0.1671 I-0.0702 J0.1206
X-1.6958 Y-0.1886 I-0.4234 J1.3366
X-1.7729 Y-0.2015 I-0.1141 J0.4448
X-1.8347 Y-0.2063 I-0.9528 J11.8005
X-1.8967 Y-0.209 I-0.0711 J0.9416
G1 X-2.4529 Y-0.2092
G2 X-2.4774 Y-0.207 J0.1368
X-2.5013 Y-0.202 I0.0784 J0.4322
G3 X-2.5457 I-0.0222 J-0.0926
G2 X-2.5697 Y-0.207 I-0.1024 J0.4272
X-2.5941 Y-0.2092 I-0.0244 J0.1346
G1 X-2.9824 Y-0.2095
G2 X-3.1918 Y0 J0.2095
G1 Y1.5
G2 X-2.9824 Y1.7095 I0.2095
G1 X-2.5941 Y1.7092
G2 X-2.5697 Y1.707 J-0.1368
X-2.5457 Y1.702 I-0.0784 J-0.4322
G3 X-2.5013 I0.0222 J0.0926
G2 X-2.4774 Y1.707 I0.1024 J-0.4272
X-2.4529 Y1.7092 I0.0244 J-0.1346
G1 X-2.0444 Y1.7084
G3 X-1.9869 Y1.707 I0.0976 J2.867
G2 X-1.9293 Y1.7043 I-0.0117 J-0.836
X-1.7591 Y1.6857 I-0.2786 J-3.355
X-1.5966 Y1.6313 I-0.0605 J-0.4499
X-1.5879 Y1.626 I-0.0804 J-0.1426
G3 X-1.5792 Y1.6207 I0.0891 J0.1373
X-1.5602 Y1.6246 I0.0072 J0.0128
G2 X-1.4872 Y1.6867 I0.1732 J-0.13
X-1.3941 Y1.7095 I0.0931 J-0.1784
G1 X-0.7235
G2 X-0.675 Y1.7029 J-0.1811
X-0.6293 Y1.6851 I-0.066 J-0.237
G3 X-0.6016 I0.0138 J0.0272
G2 X-0.5559 Y1.7029 I0.1117 J-0.2192
X-0.5074 Y1.7095 I0.0486 J-0.1745
G1 X0.0662
G2 X0.1435 Y1.6937 J-0.1976
X0.2095 Y1.6503 I-0.0865 J-0.2033
G3 X0.2273 I0.0089 J0.0093
G2 X0.2932 Y1.6937 I0.1525 J-0.1599
X0.3706 Y1.7095 I0.0774 J-0.1818
G1 X0.7588
G2 X0.9064 Y1.6479 J-0.2076
X0.9672 Y1.5 I-0.1495 J-0.1479
X0.9669 Y1.4887 I-0.1805
G3 X0.9665 Y1.4775 I0.1802 J-0.0113
X0.9742 Y1.477 I0.0039
X0.9768 Y1.5022 I-0.4028 J0.0533
G2 X0.9793 Y1.5275 I0.4053 J-0.0281
X1.1868 Y1.7095 I0.2077 J-0.0275
G1 X1.7603
G2 X1.8377 Y1.6937 J-0.1976
X1.9036 Y1.6503 I-0.0865 J-0.2033
G3 X1.9214 I0.0089 J0.0093
G2 X1.9873 Y1.6937 I0.1525 J-0.1599
X2.0647 Y1.7095 I0.0774 J-0.1818
G1 X2.5335 Y1.7084
X2.6031 Y1.7054
G2 X2.6806 Y1.6977 I-0.0295 J-0.686
X2.824 Y1.6669 I-0.2071 J-1.3129
X2.8719 Y1.648 I-0.0628 J-0.2297
G3 X2.9178 Y1.6245 I1.2144 J2.3125
G2 X2.9632 Y1.5944 I-0.1014 J-0.2028
G3 X3.005 Y1.5594 I2.3379 J2.7482
G2 X3.0396 Y1.5238 I-0.1451 J-0.1759
G3 X3.0705 Y1.4849 I2.7059 J2.1124
G2 X3.0974 Y1.4425 I-0.176 J-0.1416
G3 X3.1197 Y1.3976 I3.3571 J1.6405
G2 X3.1488 Y1.314 I-0.2968 J-0.15
X3.1649 Y1.2271 I-2.3682 J-0.483
X3.173 Y1.1513 I-0.6572 J-0.1092
X3.1741 Y1.0751 I-1.0673 J-0.0535
X3.1658 Y0.9605 I-1.1142 J0.0237
X3.1332 Y0.8504 I-0.3499 J0.0437
X3.1285 Y0.8414 I-0.1464 J0.071
G3 X3.1237 Y0.8324 I0.1417 J-0.08
X3.125 Y0.8023 I0.0286 J-0.0139
G1 X3.1388 Y0.7788
G2 X3.1502 Y0.754 I-0.1129 J-0.0666
X3.1777 Y0.6546 I-0.9018 J-0.3029
X3.1903 Y0.5523 I-0.5434 J-0.119
G1 X3.1918 Y0.3517
X3.1901 Y0.2814
G2 X3.182 Y0.2024 I-0.5138 J0.0124
X3.1659 Y0.1209 I-2.4899 J0.4498
X3.1376 Y0.0427 I-0.3001 J0.0645
X3.0905 Y-0.0357 I-0.6987 J0.3668
X3.0268 Y-0.1015 I-0.2234 J0.1526
X2.9491 Y-0.151 I-0.422 J0.5769
X2.8626 Y-0.1826 I-0.147 J0.2674
X2.8128 Y-0.1916 I-0.239 J1.1818
X2.7833 Y-0.1772 I-0.0045 J0.0283
G3 X2.7543 Y-0.1615 I-0.0267 J-0.0147
G1 X2.6245 Y-0.1712
X2.5734 Y-0.1721
G2 X2.5208 Y-0.1726 I-0.0527 J2.8576
G1 X2.0647 Y-0.1715
G2 X2.0526 Y-0.1707 J0.0911
G1 X2.0421 Y-0.1693
G3 X2.0167 I-0.0127 J-0.095
G1 X2.0062 Y-0.1707
G2 X1.9941 Y-0.1715 I-0.0121 J0.0903
G1 X1.5926 Y-0.1726
G2 X1.5459 Y-0.1652 J0.1516
X1.503 Y-0.1454 I0.061 J0.1885
G3 X1.4793 I-0.0119 J-0.0192
G2 X1.4364 Y-0.1652 I-0.104 J0.1686
X1.3897 Y-0.1726 I-0.0467 J0.1442
G1 X0.3706 Y-0.1715
G2 X0.3585 Y-0.1707 J0.0911
G1 X0.348 Y-0.1693
G3 X0.3226 I-0.0127 J-0.095
G1 X0.3121 Y-0.1707
G2 X0.3 Y-0.1715 I-0.0121 J0.0903
G1 X-0.1015 Y-0.1726
G2 X-0.1482 Y-0.1652 J0.1516
X-0.1911 Y-0.1454 I0.061 J0.1885
G3 X-0.2148 I-0.0119 J-0.0192
G2 X-0.2576 Y-0.1652 I-0.104 J0.1687
X-0.3042 Y-0.1726 I-0.0468 J0.1441
G1 X-1.3941
G2 X-1.4747 Y-0.1516 J0.1652
X-1.5359 Y-0.0952 I0.0871 J0.156
G3 X-1.5534 Y-0.091 I-0.0111 J-0.0074
X-1.5916 Y-0.1134 I0.4153 J-0.7523
G2 X-1.6318 Y-0.1319 I-0.094 J0.1513
X-1.7029 Y-0.1524 I-0.4255 J1.3432
X-1.7759 Y-0.1647 I-0.1073 J0.4129
G1 X-1.8286 Y-0.169
G2 X-1.8971 Y-0.172 I-0.0778 J0.9637
G1 X-2.4529 Y-0.1724
G2 X-2.4796 Y-0.1695 J0.1234
X-2.5055 Y-0.1625 I0.061 J0.2758
G3 X-2.5416 I-0.0181 J-0.0559
G2 X-2.5675 Y-0.1695 I-0.0869 J0.2688
X-2.5941 Y-0.1724 I-0.0267 J0.1205
G1 X-2.9824 Y-0.1726
G2 X-3.1549 Y0 J0.1726
G1 Y1.5
G2 X-2.9824 Y1.6726 I0.1726
G1 X-2.5941 Y1.6724
G2 X-2.5675 Y1.6695 J-0.1234
X-2.5416 Y1.6625 I-0.061 J-0.2758
G3 X-2.5055 I0.0181 J0.0559
G2 X-2.4796 Y1.6695 I0.0869 J-0.2688
X-2.4529 Y1.6724 I0.0267 J-0.1205
G1 X-2.0457 Y1.6715
G3 X-1.989 Y1.6702 I0.0928 J2.7261
G2 X-1.9324 Y1.6675 I-0.0108 J-0.8145
G3 X-1.8414 Y1.6609 I0.3537 J4.2588
G2 X-1.7513 Y1.647 I-0.0306 J-0.4965
X-1.6812 Y1.6282 I-0.5181 J-2.0712
X-1.6142 Y1.6001 I-0.0856 J-0.2985
X-1.5886 Y1.585 I-0.3562 J-0.6318
X-1.5634 Y1.5691 I-0.8883 J-1.4346
G3 X-1.5483 Y1.5734 I0.0057 J0.0088
G2 X-1.4856 Y1.6453 I0.1596 J-0.076
X-1.3941 Y1.6726 I0.0915 J-0.1396
G1 X-0.7235
G2 X-0.6725 Y1.6639 J-0.1547
X-0.6264 Y1.6405 I-0.0637 J-0.1822
G3 X-0.6045 I0.0109 J0.0158
G2 X-0.5584 Y1.6639 I0.1098 J-0.1587
X-0.5074 Y1.6726 I0.051 J-0.146
G1 X0.0662
G2 X0.15 Y1.6498 J-0.1658
X0.212 Y1.5889 I-0.0901 J-0.1536
G3 X0.2248 I0.0064 J0.0039
G2 X0.2867 Y1.6498 I0.152 J-0.0927
X0.3706 Y1.6726 I0.0839 J-0.143
G1 X0.7588
G2 X0.9314 Y1.5 J-0.1726
G1 X0.9296 Y0.9173
G3 X0.9373 Y0.9168 I0.0039
G1 X1.0157 Y1.5226
G2 X1.1868 Y1.6726 I0.1711 J-0.0226
G1 X1.7603
G2 X1.8442 Y1.6498 J-0.1658
X1.9061 Y1.5889 I-0.0901 J-0.1536
G3 X1.9189 I0.0064 J0.0039
G2 X1.9808 Y1.6498 I0.152 J-0.0927
X2.0647 Y1.6726 I0.0839 J-0.143
G1 X2.5319 Y1.6716
X2.6015 Y1.6686
G2 X2.6749 Y1.6612 I-0.0279 J-0.6492
X2.8143 Y1.6313 I-0.2014 J-1.2764
X2.8587 Y1.6135 I-0.0561 J-0.2051
G3 X2.9012 Y1.5915 I0.7892 J1.4707
G2 X2.9431 Y1.5635 I-0.0898 J-0.1794
G3 X2.9815 Y1.5309 I1.2854 J1.4789
G2 X3.0134 Y1.4979 I-0.1286 J-0.1558
G3 X3.0417 Y1.4618 I1.5197 J1.1633
G2 X3.0664 Y1.4225 I-0.1557 J-0.1252
G3 X3.0868 Y1.3809 I1.7986 J0.8571
G2 X3.1025 Y1.34 I-0.1904 J-0.0962
G3 X3.1144 Y1.2978 I1.6019 J0.4298
G2 X3.1288 Y1.2228 I-0.3711 J-0.1102
G1 X3.1352 Y1.1519
G2 X3.1385 Y1.0672 I-0.8058 J-0.0734
X3.1313 Y0.9827 I-0.5966 J0.0083
X3.1202 Y0.9233 I-1.0678 J0.1681
X3.1006 Y0.8662 I-0.2473 J0.0532
X3.0911 Y0.8479 I-0.3737 J0.1812
G3 X3.0813 Y0.8297 I1.3893 J-0.7611
X3.0819 Y0.8027 I0.0244 J-0.013
X3.1002 Y0.7733 I0.6197 J0.3653
G2 X3.1153 Y0.7422 I-0.1129 J-0.0741
X3.1549 Y0.4977 I-0.722 J-0.2425
G1 X3.1529 Y0.2833
G2 X3.1457 Y0.2058 I-5.7793 J0.4986
X3.1299 Y0.1296 I-0.3715 J0.0371
X3.1034 Y0.056 I-1.0126 J0.3225
X3.063 Y-0.0109 I-0.2248 J0.0903
X3.0043 Y-0.0724 I-0.5754 J0.4908
X2.9327 Y-0.1182 I-0.1597 J0.1707
X2.8631 Y-0.1434 I-0.3592 J0.8826
X2.7908 Y-0.1588 I-0.1134 J0.3555
G1 X2.7543 Y-0.1615
G2 X2.7254 Y-0.1452 I-0.0022 J0.0299
G3 X2.6964 Y-0.1288 I-0.0267 J-0.0135
G1 X2.6239 Y-0.1342
X2.5728 Y-0.1352
G2 X2.5208 Y-0.1357 I-0.052 J2.8207
G1 X2.0647 Y-0.1345
G2 X2.0544 Y-0.1338 J0.0744
X2.0441 Y-0.1323 I0.0956 J0.6818
G3 X2.0147 I-0.0147 J-0.0947
G2 X2.0044 Y-0.1338 I-0.1058 J0.6803
X1.9941 Y-0.1345 I-0.0103 J0.0737
G1 X1.5926 Y-0.1357
G2 X1.5425 Y-0.1251 J0.1242
X1.4999 Y-0.0965 I0.0596 J0.1349
G3 X1.4824 I-0.0087 J-0.0091
G2 X1.4399 Y-0.1251 I-0.1021 J0.1063
X1.3897 Y-0.1357 I-0.0502 J0.1136
G1 X0.3706 Y-0.1345
G2 X0.3603 Y-0.1338 J0.0744
X0.35 Y-0.1323 I0.0955 J0.6817
G3 X0.3206 I-0.0147 J-0.0947
G2 X0.3103 Y-0.1338 I-0.1058 J0.6802
X0.3 Y-0.1345 I-0.0103 J0.0737
G1 X-0.1015 Y-0.1357
G2 X-0.1517 Y-0.1251 J0.1242
X-0.1943 Y-0.0964 I0.0596 J0.1348
G3 X-0.2115 I-0.0086 J-0.0089
G2 X-0.2541 Y-0.125 I-0.1023 J0.1062
X-0.3043 Y-0.1357 I-0.0503 J0.1135
G1 X-1.3941
G2 X-1.4755 Y-0.1075 J0.1314
X-1.5231 Y-0.0358 I0.0857 J0.1087
G3 X-1.5358 Y-0.0319 I-0.0075 J-0.0021
X-1.553 Y-0.0472 I0.4292 J-0.5007
G2 X-1.5717 Y-0.0606 I-0.0628 J0.0682
X-1.6405 Y-0.095 I-0.6166 J1.1431
X-1.7139 Y-0.1177 I-0.1194 J0.2566
X-1.8333 Y-0.1316 I-0.2062 J1.2549
X-1.9533 Y-0.1357 I-0.12 J1.7529
G1 X-2.4529
G2 X-2.4821 Y-0.1316 J0.106
X-2.5097 Y-0.1212 I0.0511 J0.1784
G3 X-2.5374 I-0.0138 J-0.0295
G2 X-2.5649 Y-0.1316 I-0.0787 J0.168
X-2.5941 Y-0.1357 I-0.0292 J0.1019
G1 X-2.9824
G2 X-3.118 Y0 J0.1357
G1 Y1.5
G2 X-2.9824 Y1.6357 I0.1357
G1 X-2.5941
G2 X-2.5649 Y1.6316 J-0.106
X-2.5374 Y1.6212 I-0.0511 J-0.1784
G3 X-2.5097 I0.0138 J0.0295
G2 X-2.4821 Y1.6316 I0.0787 J-0.168
X-2.4529 Y1.6357 I0.0292 J-0.1019
G1 X-2.047 Y1.6346
G3 X-1.9912 Y1.6333 I0.0882 J2.5918
G2 X-1.9354 Y1.6307 I-0.0099 J-0.7933
G3 X-1.8474 Y1.6245 I0.2942 J3.5424
G2 X-1.7602 Y1.6112 I-0.0274 J-0.4715
X-1.6948 Y1.5939 I-0.6153 J-2.4597
X-1.6323 Y1.568 I-0.0754 J-0.2704
G3 X-1.599 Y1.5495 I1.2662 J2.2458
G2 X-1.5676 Y1.5278 I-0.0857 J-0.1574
X-1.5531 Y1.5144 I-0.207 J-0.2399
G3 X-1.5385 Y1.501 I0.2215 J0.2265
X-1.5279 Y1.5056 I0.0042 J0.0049
G2 X-1.4871 Y1.5975 I0.137 J-0.0058
X-1.3941 Y1.6357 I0.093 J-0.0943
G1 X-0.7235
G2 X-0.6683 Y1.6229 J-0.1261
X-0.6232 Y1.5886 I-0.0634 J-0.1302
G3 X-0.6077 I0.0078 J0.0069
G2 X-0.5626 Y1.6229 I0.1085 J-0.0959
X-0.5074 Y1.6357 I0.0552 J-0.1134
G1 X0.0662
G2 X0.2002 Y1.5209 J-0.1357
G1 X0.2289 Y1.3251
G3 X0.2367 Y1.3257 I0.0039 J0.0006
G1 X0.2349 Y1.5
G2 X0.3706 Y1.6357 I0.1357
G1 X0.7588
G2 X0.8945 Y1.5 J-0.1357
G1 X0.8927 Y0.4433
G3 X0.9021 Y0.4339 I0.0094
X0.9117 Y0.442 I0.0003 J0.0094
G1 X1.0523 Y1.5178
G2 X1.1868 Y1.6357 I0.1345 J-0.0178
G1 X1.7603
G2 X1.8943 Y1.5209 J-0.1357
X1.9087 Y1.423 I-5.374 J-0.8377
G3 X1.923 Y1.3251 I5.3883 J0.7398
X1.9308 Y1.3257 I0.0039 J0.0006
X1.9299 Y1.4129 I-4.2198
G2 X1.929 Y1.5 I4.2189 J0.0871
X2.0647 Y1.6357 I0.1357
G1 X2.5303 Y1.6347
X2.5999 Y1.6317
G2 X2.6691 Y1.6248 I-0.0263 J-0.6123
X2.8046 Y1.5957 I-0.1956 J-1.2399
X2.8456 Y1.579 I-0.0496 J-0.1812
G3 X2.8847 Y1.5585 I0.5453 J0.9911
G2 X2.923 Y1.5326 I-0.0785 J-0.1569
G3 X2.958 Y1.5025 I0.8048 J0.9029
G2 X2.9871 Y1.472 I-0.1125 J-0.1364
G3 X3.013 Y1.4387 I0.9591 J0.7172
G2 X3.0354 Y1.4025 I-0.136 J-0.1094
G3 X3.0539 Y1.3643 I1.1061 J0.5114
G2 X3.0682 Y1.3264 I-0.1683 J-0.0851
G3 X3.079 Y1.2873 I1.0928 J0.2821
G2 X3.092 Y1.2194 I-0.3357 J-0.0997
G1 X3.0985 Y1.1485
G2 X3.1016 Y1.0684 I-0.7703 J-0.0702
X3.0948 Y0.9885 I-0.5604 J0.0072
X3.0757 Y0.9043 I-0.6318 J0.0994
X3.0361 Y0.8276 I-0.2247 J0.0673
G3 X3.0357 Y0.8074 I0.0133 J-0.0104
G2 X3.0608 Y0.7706 I-0.8842 J-0.6314
X3.0803 Y0.7305 I-0.1467 J-0.0959
X3.118 Y0.4977 I-0.687 J-0.2308
G1 X3.1161 Y0.2865
G2 X3.1095 Y0.213 I-9.1996 J0.7936
X3.0947 Y0.1408 I-0.3432 J0.0324
X3.0712 Y0.0739 I-1.1137 J0.3548
X3.0349 Y0.013 I-0.197 J0.0762
X2.9826 Y-0.0425 I-0.593 J0.5057
X2.9187 Y-0.084 I-0.1399 J0.1452
X2.8541 Y-0.1076 I-0.3549 J0.8721
X2.7867 Y-0.1221 I-0.1047 J0.3233
G1 X2.6964 Y-0.1288
G2 X2.6682 Y-0.1126 I-0.0022 J0.0289
G3 X2.6402 Y-0.0959 I-0.0268 J-0.013
G2 X2.5208 Y-0.0983 I-0.1194 J2.9668
G1 X2.0647 Y-0.097
G2 X2.0573 Y-0.0965 J0.0535
X2.05 Y-0.0954 I0.0707 J0.5064
G3 X2.0088 I-0.0206 J-0.1332
G2 X2.0015 Y-0.0965 I-0.078 J0.5054
X1.9941 Y-0.097 I-0.0074 J0.053
G1 X1.5926 Y-0.0983
G2 X1.5268 Y-0.0721 J0.096
X1.496 Y-0.0083 I0.0683 J0.0723
X1.4955 Y0.0002 I0.1344 J0.0115
G3 X1.495 Y0.0086 I-0.1349 J-0.0031
X1.4873 I-0.0039 J-0.0003
X1.4869 Y0.0001 I0.1353 J-0.0117
G2 X1.4864 Y-0.0084 I-0.1357 J0.0032
X1.4555 Y-0.0721 I-0.0991 J0.0086
X1.3897 Y-0.0983 I-0.0658 J0.0698
G1 X0.3706 Y-0.097
G2 X0.3632 Y-0.0965 J0.0535
X0.3559 Y-0.0954 I0.0707 J0.5062
G3 X0.3147 I-0.0206 J-0.1332
G2 X0.3074 Y-0.0965 I-0.078 J0.5052
X0.3 Y-0.097 I-0.0074 J0.053
G1 X-0.1015 Y-0.0983
G2 X-0.1673 Y-0.0721 J0.096
X-0.1982 Y-0.0083 I0.0683 J0.0723
X-0.1986 Y0.0002 I0.1345 J0.0115
G3 X-0.1991 Y0.0086 I-0.1349 J-0.0031
X-0.2068 I-0.0039 J-0.0003
X-0.2073 Y0.0001 I0.1353 J-0.0117
G2 X-0.2077 Y-0.0084 I-0.1358 J0.0032
X-0.2385 Y-0.0721 I-0.0991 J0.0086
X-0.3043 Y-0.0983 I-0.0659 J0.0698
G1 X-1.3941
G2 X-1.4924 Y0 J0.0983
X-1.4915 Y0.0306 I0.5319
G3 X-1.4906 Y0.0612 I-0.531 J0.0306
X-1.5 Y0.0642 I-0.0051
X-1.517 Y0.0378 I0.3017 J-0.2138
G2 X-1.5372 Y0.0137 I-0.0823 J0.0484
G3 X-1.5621 Y-0.0085 I0.5467 J-0.6377
G2 X-1.5893 Y-0.028 I-0.0898 J0.0967
X-1.6525 Y-0.0598 I-0.6096 J1.1303
X-1.72 Y-0.0808 I-0.1091 J0.2321
X-1.8363 Y-0.0943 I-0.2003 J1.2187
X-1.9533 Y-0.0983 I-0.117 J1.717
G1 X-2.4529
G2 X-2.4858 Y-0.0917 J0.0852
X-2.5145 Y-0.0743 I0.0439 J0.105
G3 X-2.5326 I-0.009 J-0.0109
G2 X-2.5613 Y-0.0917 I-0.0726 J0.0877
X-2.5941 Y-0.0983 I-0.0329 J0.0786
G1 X-2.9824
G2 X-3.0806 Y0 J0.0983
G1 Y1.5
G2 X-2.9824 Y1.5983 I0.0983
G1 X-2.5941
G2 X-2.5613 Y1.5917 J-0.0852
X-2.5326 Y1.5743 I-0.0439 J-0.105
G3 X-2.5145 I0.009 J0.0109
G2 X-2.4858 Y1.5917 I0.0726 J-0.0877
X-2.4529 Y1.5983 I0.0329 J-0.0786
G1 X-2.0482 Y1.5973
G3 X-1.9934 Y1.596 I0.0838 J2.462
G2 X-1.9385 Y1.5934 I-0.0091 J-0.7719
G3 X-1.8535 Y1.5876 I0.2466 J2.9698
G2 X-1.7693 Y1.5749 I-0.0242 J-0.4464
X-1.7087 Y1.5591 I-0.8404 J-3.3598
X-1.6507 Y1.5354 I-0.0653 J-0.2424
G3 X-1.6203 Y1.5191 I0.3919 J0.6951
G2 X-1.5917 Y1.4999 I-0.0648 J-0.1275
X-1.5406 Y1.4516 I-0.4965 J-0.5756
X-1.4994 Y1.3946 I-0.1811 J-0.1744
G3 X-1.4906 Y1.3968 I0.0041 J0.0022
X-1.4915 Y1.4484 I-1.511
G2 X-1.4924 Y1.5 I1.5102 J0.0516
X-1.3941 Y1.5983 I0.0983
G1 X-0.7235
G2 X-0.6252 Y1.5 J-0.0983
X-0.6261 Y1.4445 I-1.7471
G3 X-0.627 Y1.389 I1.7462 J-0.0555
X-0.6195 Y1.3885 I0.0038
G1 X-0.6028 Y1.5147
G2 X-0.5074 Y1.5983 I0.0954 J-0.0126
G1 X0.0662
G2 X0.1633 Y1.5151 J-0.0983
G1 X0.2664 Y0.8419
G3 X0.2741 Y0.8425 I0.0038 J0.0006
G1 X0.2723 Y1.5
G2 X0.3706 Y1.5983 I0.0983
G1 X0.7588
G2 X0.8571 Y1.5 J-0.0983
G1 X0.8553 Y0.409
G3 X0.8679 Y0.3965 I0.0125
G1 X0.9304
G3 X0.9451 Y0.4094 J0.0148
G1 X1.0893 Y1.5129
G2 X1.1868 Y1.5983 I0.0974 J-0.0129
G1 X1.7603
G2 X1.8574 Y1.5151 J-0.0983
G1 X1.9606 Y0.8419
G3 X1.9682 Y0.8425 I0.0038 J0.0006
G1 X1.9664 Y1.5
G2 X2.0647 Y1.5983 I0.0983
G1 X2.5287 Y1.5973
X2.5983 Y1.5943
G2 X2.6633 Y1.5878 I-0.0247 J-0.5749
X2.7947 Y1.5596 I-0.1898 J-1.203
X2.8322 Y1.5441 I-0.0432 J-0.1579
G3 X2.868 Y1.525 I0.3877 J0.6844
G2 X2.9026 Y1.5012 I-0.0675 J-0.1349
G3 X2.9342 Y1.4736 I0.5323 J0.5793
G2 X2.9605 Y1.4457 I-0.0969 J-0.1175
G3 X2.9838 Y1.4152 I0.6359 J0.4622
G2 X3.0039 Y1.3823 I-0.1168 J-0.0939
G3 X3.0205 Y1.3474 I0.7197 J0.3205
G2 X3.0334 Y1.3126 I-0.1467 J-0.0742
G3 X3.0431 Y1.2767 I0.7644 J0.1881
G2 X3.0554 Y1.2114 I-0.3118 J-0.0925
G3 X3.0612 Y1.1452 I9.4155 J0.7912
G2 X3.0642 Y1.0696 I-0.7345 J-0.0669
X3.0579 Y0.9943 I-0.5237 J0.0061
X3.0413 Y0.916 I-0.753 J0.1185
X3.0035 Y0.8454 I-0.1692 J0.0452
X2.9941 Y0.8353 I-0.1657 J0.1461
G3 X2.9846 Y0.8253 I0.1563 J-0.1561
X2.9854 Y0.8071 I0.0099 J-0.0087
X2.9991 Y0.794 I1.9426 J2.0245
G2 X3.0109 Y0.7792 I-0.0466 J-0.0493
X3.0423 Y0.722 I-0.91 J-0.5364
X3.0635 Y0.6603 I-0.2094 J-0.1066
X3.0804 Y0.5078 I-0.9143 J-0.178
X3.0806 Y0.3544 I-2.9729 J-0.0816
G1 X3.0789 Y0.2841
G2 X3.0726 Y0.2222 I-0.4026 J0.0097
G1 X3.061 Y0.158
G2 X3.0391 Y0.0944 I-0.2182 J0.0394
G3 X3.0244 Y0.0649 I0.7775 J-0.4081
G2 X3.0064 Y0.0373 I-0.1145 J0.0547
G3 X2.9852 Y0.0115 I0.6897 J-0.5882
G2 X2.9611 Y-0.0117 I-0.0974 J0.0771
X2.9042 Y-0.0492 I-0.4093 J0.5596
X2.8406 Y-0.0736 I-0.1043 J0.1768
X2.6813 Y-0.0939 I-0.219 J1.0831
X2.6402 Y-0.0959 I-0.1605 J2.9649
X2.6104 Y-0.0775 I-0.0013 J0.0313
G3 X2.5807 Y-0.0587 I-0.029 J-0.0131
G1 X2.5722 Y-0.0589
G2 X2.5716 I-0.0011 J0.0594
G1 X2.5213 Y-0.0594
G2 X2.5208 I-0.0006 J0.0594
G1 X2.0647
G2 X2.0294 Y-0.0477 J0.0594
X1.9941 Y-0.0594 I-0.0353 J0.0477
G1 X1.5926
G2 X1.5335 Y-0.0051 J0.0594
G1 X1.5155 Y0.2053
X1.467
X1.4489 Y-0.0051
G2 X1.3897 Y-0.0594 I-0.0591 J0.0051
G1 X1.0059
X0.3706
G2 X0.3353 Y-0.0477 J0.0594
X0.3 Y-0.0594 I-0.0353 J0.0477
G1 X-0.1015
G2 X-0.1606 Y-0.0051 J0.0594
G1 X-0.1786 Y0.2053
X-0.2271
X-0.2453 Y-0.0051
G2 X-0.3044 Y-0.0594 I-0.0591 J0.0051
G1 X-0.7058 Y-0.0598
G2 X-0.7127 Y-0.0594 I-0.0001 J0.0594
G1 X-1.3941
G2 X-1.4535 Y0 J0.0594
G1 Y1.5
G2 X-1.3941 Y1.5594 I0.0594
G1 X-0.7235
G2 X-0.6642 Y1.5 J-0.0594
G1 Y1.2
G2 X-0.7235 Y1.1406 I-0.0594
G1 X-0.9465
Y0.977
X-0.7412
G2 X-0.6818 Y0.9176 J-0.0594
G1 Y0.6353
G2 Y0.6341 I-0.0594
G1 X-0.5662 Y1.5078
G2 X-0.5074 Y1.5594 I0.0589 J-0.0078
G1 X0.0662
G2 X0.1248 Y1.5091 J-0.0594
G1 X0.3112 Y0.3135
Y1.5
G2 X0.3706 Y1.5594 I0.0594
G1 X0.7588
G2 X0.8182 Y1.5 J-0.0594
G1 Y0.3594
X0.9759
X1.1279 Y1.5078
G2 X1.1868 Y1.5594 I0.0589 J-0.0078
G1 X1.7603
G2 X1.819 Y1.5091 J-0.0594
G1 X2.0053 Y0.3135
Y1.5
G2 X2.0647 Y1.5594 I0.0594
G1 X2.4626
G2 X2.4634 J-0.0594
G1 X2.5253 Y1.5585
G2 X2.527 I-0.0008 J-0.0594
G1 X2.5889 Y1.5558
G2 X2.5918 Y1.5556 I-0.0025 J-0.0593
G1 X2.6535 Y1.5499
G2 X2.6572 Y1.5494 I-0.0055 J-0.0591
G1 X2.7184 Y1.5398
G2 X2.7248 Y1.5384 I-0.0093 J-0.0586
G1 X2.7844 Y1.5221
G2 X2.7953 Y1.5179 I-0.0157 J-0.0573
G1 X2.8506 Y1.4903
G2 X2.8618 Y1.4829 I-0.0266 J-0.0531
G1 X2.9095 Y1.4436
G2 X2.918 Y1.435 I-0.0378 J-0.0458
G1 X2.9535 Y1.3909
G2 X2.9602 Y1.3804 I-0.0463 J-0.0372
G1 X2.9858 Y1.3299
G2 X2.9897 Y1.32 I-0.053 J-0.0268
G1 X3.0058 Y1.2656
G2 X3.0075 Y1.2584 I-0.0569 J-0.0169
G1 X3.0168 Y1.2025
G2 X3.0173 Y1.1981 I-0.0586 J-0.0097
G1 X3.0225 Y1.1416
G2 X3.0227 Y1.1376 I-0.0591 J-0.0054
G1 X3.0241 Y1.0809
G2 Y1.0782 I-0.0594 J-0.0014
G1 X3.0233 Y1.0432
G2 X3.0231 Y1.0391 I-0.0594 J0.0013
G1 X3.0199 Y1.0042
G2 X3.0195 Y1.0003 I-0.0591 J0.0053
G1 X3.014 Y0.9657
G2 X3.0124 Y0.9586 I-0.0586 J0.0092
G1 X3.0028 Y0.9249
G2 X2.9992 Y0.9154 I-0.0571 J0.0163
G1 X2.9839 Y0.8839
G2 X2.975 Y0.8705 I-0.0534 J0.0259
G1 X2.9519 Y0.8443
G2 X2.9405 Y0.8343 I-0.0445 J0.0393
G1 X2.9162 Y0.8179
X2.9219 Y0.8145
G2 X2.9324 Y0.8064 I-0.0306 J-0.0509
G1 X2.9679 Y0.7724
G2 X2.9779 Y0.7597 I-0.0411 J-0.0428
G1 X3.0028 Y0.7174
G2 X3.008 Y0.7062 I-0.0511 J-0.0302
G1 X3.0233 Y0.6604
G2 X3.0253 Y0.6529 I-0.0563 J-0.0189
G1 X3.0346 Y0.6054
G2 X3.0354 Y0.5998 I-0.0583 J-0.0113
G1 X3.04 Y0.5517
G2 X3.0402 Y0.5478 I-0.0591 J-0.0057
G1 X3.0417 Y0.4995
G2 Y0.4977 I-0.0593 J-0.0018
G1 Y0.3568
G2 Y0.3554 I-0.0594
G1 X3.0403 Y0.2967
G2 X3.0401 Y0.293 I-0.0594 J0.0014
G1 X3.035 Y0.2346
G2 X3.0343 Y0.2291 I-0.0592 J0.0051
G1 X3.0239 Y0.1714
G2 X3.022 Y0.1639 I-0.0584 J0.0106
G1 X3.0087 Y0.122
G2 X3.0047 Y0.1124 I-0.0566 J0.018
G1 X2.9842 Y0.0735
G2 X2.9768 Y0.0625 I-0.0526 J0.0276
G1 X2.9483 Y0.0291
G2 X2.9382 Y0.0197 I-0.0452 J0.0385
G1 X2.9027 Y-0.0063
G2 X2.89 Y-0.0134 I-0.0351 J0.0479
G1 X2.8435 Y-0.0323
G2 X2.8329 Y-0.0355 I-0.0224 J0.055
G1 X2.7836 Y-0.0455
G2 X2.7783 Y-0.0463 I-0.0118 J0.0582
G1 X2.7283 Y-0.0518
G2 X2.7261 Y-0.052 I-0.0065 J0.059
G1 X2.6759 Y-0.0556
G2 X2.6742 Y-0.0557 I-0.0043 J0.0592
G1 X2.6239 Y-0.0579
G2 X2.6225 Y-0.058 I-0.0026 J0.0593
G1 X2.5807 Y-0.0587
G3 X2.5764 Y-0.0733 I0.0001 J-0.008
G1 X3.0984 Y-0.4295
G3 X3.1029 Y-0.4308 I0.0045 J0.0066
G1 X3.2431
G3 X3.2558 Y-0.4181 J0.0128
G1 Y1.9181
G3 X3.2431 Y1.9308 I-0.0128
G1 X-3.2432
G3 X-3.2558 Y1.9182 J-0.0126
G1 Y-0.4181
G3 X-3.2431 Y-0.4308 I0.0128
G1 X2.833
X3.1029
G2 X3.149 Y-0.4616 J-0.05
G3 X3.1952 Y-0.4924 I0.0461 J0.0192
G1 X3.3046
G3 X3.3174 Y-0.4796 J0.0128
G1 Y1.9796
G3 X3.3046 Y1.9924 I-0.0128
G1 X-3.3048
G3 X-3.3174 Y1.9798 J-0.0126
G1 Y-0.4796
G3 X-3.3046 Y-0.4924 I0.0128
G1 X3.1952
G2 X3.2413 Y-0.5231 J-0.05
G3 X3.2875 Y-0.5539 I0.0461 J0.0192
G1 X3.3661
G3 X3.3789 Y-0.5411 J0.0128
G1 Y2.0411
G3 X3.3661 Y2.0539 I-0.0128
G1 X-3.3663
G3 X-3.3789 Y2.0413 J-0.0126
G1 Y-0.5411
G3 X-3.3661 Y-0.5539 I0.0128
G1 X3.2875
G2 X3.3338 Y-0.5848 J-0.0502
G3 X3.38 Y-0.6156 I0.0463 J0.0193
G1 X3.4406
Y2.1156
X-3.4406
Y-0.6156
X3.38
G3 X3.3838 Y-0.6147 Z-0.0989 J0.0079
X3.386 Y-0.6129 Z-0.0961 I-0.0038 J0.0069
X3.3867 Y-0.612 Z-0.0921 I-0.006 J0.0051
G0 Z0.2
X-0.8677 Y0.4534
G1 Z0.0079 F40
G3 X-0.8672 Y0.4525 Z0.004 I0.0333 J0.0171 F13.33
X-0.8658 Y0.4501 Z0.0011 I0.0328 J0.018
X-0.8635 Y0.447 Z0 I0.0314 J0.0204
X-0.8053 Y0.4939 Z-0.0041 I0.0291 J0.0235
X-0.8635 Y0.447 Z-0.0082 I-0.0291 J-0.0235
X-0.8053 Y0.4939 Z-0.0123 I0.0291 J0.0235
X-0.8635 Y0.447 Z-0.0164 I-0.0291 J-0.0235
X-0.8053 Y0.4939 Z-0.0205 I0.0291 J0.0235
X-0.8635 Y0.447 Z-0.0246 I-0.0291 J-0.0235
X-0.8053 Y0.4939 Z-0.0287 I0.0291 J0.0235
X-0.8635 Y0.447 Z-0.0328 I-0.0291 J-0.0235
X-0.8053 Y0.4939 Z-0.0369 I0.0291 J0.0235
X-0.8635 Y0.447 Z-0.041 I-0.0291 J-0.0235
X-0.8053 Y0.4939 Z-0.0451 I0.0291 J0.0235
X-0.8635 Y0.447 Z-0.0492 I-0.0291 J-0.0235
X-0.8053 Y0.4939 Z-0.0533 I0.0291 J0.0235
X-0.8635 Y0.447 Z-0.0574 I-0.0291 J-0.0235
X-0.8053 Y0.4939 Z-0.0615 I0.0291 J0.0235
X-0.8635 Y0.447 Z-0.0657 I-0.0291 J-0.0235
X-0.8053 Y0.4939 Z-0.0698 I0.0291 J0.0235
X-0.8635 Y0.447 Z-0.0739 I-0.0291 J-0.0235
X-0.8053 Y0.4939 Z-0.078 I0.0291 J0.0235
X-0.8635 Y0.447 Z-0.0821 I-0.0291 J-0.0235
X-0.8053 Y0.4939 Z-0.0862 I0.0291 J0.0235
X-0.8635 Y0.447 Z-0.0903 I-0.0291 J-0.0235
X-0.8053 Y0.4939 Z-0.0944 I0.0291 J0.0235
X-0.8635 Y0.447 Z-0.0985 I-0.0291 J-0.0235
X-0.8053 Y0.4939 Z-0.1026 I0.0291 J0.0235
X-0.8635 Y0.447 Z-0.1067 I-0.0291 J-0.0235
X-0.8053 Y0.4939 Z-0.1108 I0.0291 J0.0235
X-0.8635 Y0.447 Z-0.1149 I-0.0291 J-0.0235
X-0.8053 Y0.4939 Z-0.119 I0.0291 J0.0235
X-0.8635 Y0.447 Z-0.1231 I-0.0291 J-0.0235
X-0.8053 Y0.4939 Z-0.1272 I0.0291 J0.0235
X-0.8635 Y0.447 Z-0.1313 I-0.0291 J-0.0235
X-0.8053 Y0.4939 Z-0.1354 I0.0291 J0.0235
X-0.8635 Y0.447 Z-0.1395 I-0.0291 J-0.0235
X-0.8053 Y0.4939 Z-0.1436 I0.0291 J0.0235
X-0.8635 Y0.447 Z-0.1477 I-0.0291 J-0.0235
X-0.8053 Y0.4939 Z-0.1518 I0.0291 J0.0235
X-0.8635 Y0.447 Z-0.1559 I-0.0291 J-0.0235
X-0.8053 Y0.4939 Z-0.16 I0.0291 J0.0235
X-0.8635 Y0.447 Z-0.1641 I-0.0291 J-0.0235
X-0.8053 Y0.4939 Z-0.1682 I0.0291 J0.0235
X-0.8635 Y0.447 Z-0.1723 I-0.0291 J-0.0235
X-0.8053 Y0.4939 Z-0.1764 I0.0291 J0.0235
X-0.8635 Y0.447 Z-0.1805 I-0.0291 J-0.0235
X-0.8053 Y0.4939 Z-0.1846 I0.0291 J0.0235
X-0.8635 Y0.447 Z-0.1887 I-0.0291 J-0.0235
X-0.8053 Y0.4939 Z-0.1929 I0.0291 J0.0235
X-0.8635 Y0.447 Z-0.197 I-0.0291 J-0.0235
X-0.7973 Y0.4656 Z-0.2 I0.0291 J0.0235
G1 X-0.7966 Y0.4712 F40
G3 X-0.8074 Y0.4835 I-0.0109 J0.0014
G1 X-0.8415
G3 X-0.8541 Y0.4709 J-0.0126
G1 Y0.4645
G3 X-0.8413 Y0.4518 I0.0128
G1 X-0.8124
G3 X-0.7974 Y0.4649 J0.0151
G1 X-0.7973 Y0.4656
G2 X-0.7823 Y0.4893 I0.0332 J-0.0044
G3 X-0.7903 Y0.5162 I-0.008 J0.0123
G1 X-0.8742
G3 X-0.8868 Y0.5036 J-0.0126
G1 Y0.4319
G3 X-0.874 Y0.4191 I0.0128
G1 X-0.7838
G3 X-0.7688 Y0.4322 J0.0151
G1 X-0.7593 Y0.5038
G3 X-0.7702 Y0.5162 I-0.0109 J0.0014
G1 X-0.7903
G2 X-0.8351 Y0.5461 J0.0485
G3 X-0.8799 Y0.5759 I-0.0448 J-0.0187
G1 X-0.9465
Y0.3594
X-0.7182
X-0.6835 Y0.621
G2 X-0.7412 Y0.5759 I-0.0576 J0.0142
G1 X-0.8799
G3 X-0.8836 Y0.575 Z-0.1989 J-0.0079
X-0.8859 Y0.5732 Z-0.1961 I0.0038 J-0.0069
X-0.8865 Y0.5723 Z-0.1921 I0.006 J-0.0051
G0 Z0.2
X-1.6266 Y-0.083
G1 Z0.1079 F40
G3 X-1.626 Y-0.0821 Z0.104 I-0.0296 J0.0229 F13.33
X-1.6245 Y-0.0799 Z0.1011 I-0.0302 J0.0221
X-1.6226 Y-0.0765 Z0.1 I-0.0318 J0.0198
X-1.6898 Y-0.0437 Z0.0959 I-0.0336 J0.0164
X-1.6226 Y-0.0765 Z0.0918 I0.0336 J-0.0164
X-1.6898 Y-0.0437 Z0.0877 I-0.0336 J0.0164
X-1.6226 Y-0.0765 Z0.0836 I0.0336 J-0.0164
X-1.6898 Y-0.0437 Z0.0795 I-0.0336 J0.0164
X-1.6226 Y-0.0765 Z0.0754 I0.0336 J-0.0164
X-1.6898 Y-0.0437 Z0.0713 I-0.0336 J0.0164
X-1.6226 Y-0.0765 Z0.0672 I0.0336 J-0.0164
X-1.6898 Y-0.0437 Z0.0631 I-0.0336 J0.0164
X-1.6226 Y-0.0765 Z0.059 I0.0336 J-0.0164
X-1.6898 Y-0.0437 Z0.0549 I-0.0336 J0.0164
X-1.6226 Y-0.0765 Z0.0508 I0.0336 J-0.0164
X-1.6898 Y-0.0437 Z0.0467 I-0.0336 J0.0164
X-1.6226 Y-0.0765 Z0.0426 I0.0336 J-0.0164
X-1.6898 Y-0.0437 Z0.0385 I-0.0336 J0.0164
X-1.6226 Y-0.0765 Z0.0343 I0.0336 J-0.0164
X-1.6898 Y-0.0437 Z0.0302 I-0.0336 J0.0164
X-1.6226 Y-0.0765 Z0.0261 I0.0336 J-0.0164
X-1.6898 Y-0.0437 Z0.022 I-0.0336 J0.0164
X-1.6226 Y-0.0765 Z0.0179 I0.0336 J-0.0164
X-1.6898 Y-0.0437 Z0.0138 I-0.0336 J0.0164
X-1.6226 Y-0.0765 Z0.0097 I0.0336 J-0.0164
X-1.6898 Y-0.0437 Z0.0056 I-0.0336 J0.0164
X-1.6226 Y-0.0765 Z0.0015 I0.0336 J-0.0164
X-1.6898 Y-0.0437 Z-0.0026 I-0.0336 J0.0164
X-1.6226 Y-0.0765 Z-0.0067 I0.0336 J-0.0164
X-1.6898 Y-0.0437 Z-0.0108 I-0.0336 J0.0164
X-1.6226 Y-0.0765 Z-0.0149 I0.0336 J-0.0164
X-1.6898 Y-0.0437 Z-0.019 I-0.0336 J0.0164
X-1.6226 Y-0.0765 Z-0.0231 I0.0336 J-0.0164
X-1.6898 Y-0.0437 Z-0.0272 I-0.0336 J0.0164
X-1.6226 Y-0.0765 Z-0.0313 I0.0336 J-0.0164
X-1.6898 Y-0.0437 Z-0.0354 I-0.0336 J0.0164
X-1.6226 Y-0.0765 Z-0.0395 I0.0336 J-0.0164
X-1.6898 Y-0.0437 Z-0.0436 I-0.0336 J0.0164
X-1.6226 Y-0.0765 Z-0.0477 I0.0336 J-0.0164
X-1.6898 Y-0.0437 Z-0.0518 I-0.0336 J0.0164
X-1.6226 Y-0.0765 Z-0.0559 I0.0336 J-0.0164
X-1.6898 Y-0.0437 Z-0.06 I-0.0336 J0.0164
X-1.6226 Y-0.0765 Z-0.0641 I0.0336 J-0.0164
X-1.6898 Y-0.0437 Z-0.0682 I-0.0336 J0.0164
X-1.6226 Y-0.0765 Z-0.0723 I0.0336 J-0.0164
X-1.6898 Y-0.0437 Z-0.0764 I-0.0336 J0.0164
X-1.6226 Y-0.0765 Z-0.0805 I0.0336 J-0.0164
X-1.6898 Y-0.0437 Z-0.0846 I-0.0336 J0.0164
X-1.6226 Y-0.0765 Z-0.0887 I0.0336 J-0.0164
X-1.6898 Y-0.0437 Z-0.0929 I-0.0336 J0.0164
X-1.6226 Y-0.0765 Z-0.097 I0.0336 J-0.0164
X-1.6675 Y-0.0244 Z-0.1 I-0.0336 J0.0164
G1 X-1.718 Y-0.0404 F40
G2 X-1.7263 Y-0.0424 I-0.0179 J0.0566
G1 X-1.7802 Y-0.0513
G2 X-1.785 Y-0.0519 I-0.0096 J0.0586
G1 X-1.8394 Y-0.0563
G2 X-1.8416 Y-0.0564 I-0.0048 J0.0592
G1 X-1.8961 Y-0.0588
G2 X-1.8981 I-0.0026 J0.0593
G1 X-1.9527 Y-0.0594
G2 X-1.9533 I-0.0006 J0.0594
G1 X-2.4529
G2 X-2.5123 Y0 J0.0594
G1 Y1.5
G2 X-2.4529 Y1.5594 I0.0594
G1 X-2.1565
G2 X-2.156 J-0.0594
G1 X-2.051 Y1.5584
G2 X-2.0496 I-0.0005 J-0.0594
G1 X-1.9447 Y1.5548
G2 X-1.9418 Y1.5546 I-0.002 J-0.0593
G1 X-1.8372 Y1.546
G2 X-1.8334 Y1.5455 I-0.0049 J-0.0592
G1 X-1.7844 Y1.5383
G2 X-1.7788 Y1.5371 I-0.0087 J-0.0587
G1 X-1.7308 Y1.5251
G2 X-1.7239 Y1.523 I-0.0144 J-0.0576
G1 X-1.6777 Y1.5052
G2 X-1.6698 Y1.5015 I-0.0213 J-0.0554
G1 X-1.6267 Y1.4772
G2 X-1.6171 Y1.4705 I-0.0292 J-0.0517
G1 X-1.5797 Y1.4382
G2 X-1.5714 Y1.4295 I-0.0388 J-0.045
G1 X-1.5377 Y1.3858
G2 X-1.5315 Y1.3758 I-0.047 J-0.0363
G1 X-1.5071 Y1.3263
G2 X-1.5028 Y1.3145 I-0.0532 J-0.0263
G1 X-1.4893 Y1.261
G2 X-1.4878 Y1.2527 I-0.0576 J-0.0145
G1 X-1.4821 Y1.1978
G2 X-1.4819 Y1.195 I-0.0591 J-0.0061
G1 X-1.4788 Y1.1398
G2 X-1.4787 Y1.1383 I-0.0593 J-0.0033
G1 X-1.4771 Y1.0831
G2 X-1.477 Y1.0822 I-0.0593 J-0.0018
G1 X-1.4762 Y1.0269
G2 Y1.0264 I-0.0594 J-0.0009
G1 X-1.4759 Y0.9712
Y0.4456
G2 Y0.445 I-0.0594
G1 X-1.4766 Y0.3672
G2 X-1.4767 Y0.3654 I-0.0594 J0.0005
G1 X-1.4799 Y0.2876
G2 X-1.4801 Y0.2841 I-0.0593 J0.0024
G1 X-1.4878 Y0.2067
G2 X-1.4889 Y0.1998 I-0.0591 J0.0059
G1 X-1.4989 Y0.155
G2 X-1.5022 Y0.1447 I-0.058 J0.0129
G1 X-1.52 Y0.1025
G2 X-1.5263 Y0.0914 I-0.0547 J0.0232
G1 X-1.5527 Y0.054
G2 X-1.5625 Y0.0433 I-0.0484 J0.0343
G1 X-1.5973 Y0.0135
G2 X-1.6078 Y0.0063 I-0.0386 J0.0451
G1 X-1.6558 Y-0.0196
G2 X-1.666 Y-0.024 I-0.0282 J0.0523
G1 X-1.6675 Y-0.0244
G3 X-1.6697 Y-0.0262 I0.0012 J-0.0038
G1 X-1.6854 Y-0.0525
G2 X-1.6886 Y-0.0544 I-0.0034 J0.002
G1 X-2.5478 Y-0.0847
G2 X-2.5506 Y-0.0837 I-0.0001 J0.0039
G1 X-2.5784 Y-0.059
G3 X-2.5818 Y-0.0581 I-0.0026 J-0.0029
G2 X-2.5941 Y-0.0594 I-0.0123 J0.0581
G1 X-2.9824
G2 X-3.0417 Y0 J0.0594
G1 Y1.5
G2 X-2.9824 Y1.5594 I0.0594
G1 X-2.5941
G2 X-2.5347 Y1.5 J-0.0594
G1 Y0
G2 X-2.5818 Y-0.0581 I-0.0594
G3 X-2.582 Y-0.0737 I0.0017 J-0.0078
G1 X-1.616 Y-0.2994
G2 X-1.6105 Y-0.3041 I-0.0018 J-0.0078
G3 X-1.5417 Y-0.2746 Z-0.1041 I0.0344 J0.0147 F13.33
X-1.6105 Y-0.3041 Z-0.1082 I-0.0344 J-0.0147
X-1.5417 Y-0.2746 Z-0.1123 I0.0344 J0.0147
X-1.6105 Y-0.3041 Z-0.1164 I-0.0344 J-0.0147
X-1.5417 Y-0.2746 Z-0.1205 I0.0344 J0.0147
X-1.6105 Y-0.3041 Z-0.1246 I-0.0344 J-0.0147
X-1.5417 Y-0.2746 Z-0.1287 I0.0344 J0.0147
X-1.6105 Y-0.3041 Z-0.1328 I-0.0344 J-0.0147
X-1.5417 Y-0.2746 Z-0.1369 I0.0344 J0.0147
X-1.6105 Y-0.3041 Z-0.141 I-0.0344 J-0.0147
X-1.5417 Y-0.2746 Z-0.1451 I0.0344 J0.0147
X-1.6105 Y-0.3041 Z-0.1492 I-0.0344 J-0.0147
X-1.5417 Y-0.2746 Z-0.1533 I0.0344 J0.0147
X-1.6105 Y-0.3041 Z-0.1574 I-0.0344 J-0.0147
X-1.5417 Y-0.2746 Z-0.1615 I0.0344 J0.0147
X-1.6105 Y-0.3041 Z-0.1657 I-0.0344 J-0.0147
X-1.5417 Y-0.2746 Z-0.1698 I0.0344 J0.0147
X-1.6105 Y-0.3041 Z-0.1739 I-0.0344 J-0.0147
X-1.5417 Y-0.2746 Z-0.178 I0.0344 J0.0147
X-1.6105 Y-0.3041 Z-0.1821 I-0.0344 J-0.0147
X-1.5417 Y-0.2746 Z-0.1862 I0.0344 J0.0147
X-1.6105 Y-0.3041 Z-0.1903 I-0.0344 J-0.0147
X-1.5417 Y-0.2746 Z-0.1944 I0.0344 J0.0147
X-1.6105 Y-0.3041 Z-0.1985 I-0.0344 J-0.0147
X-1.5761 Y-0.3268 Z-0.2 I0.0344 J0.0147
G1 X-1.5379 F40
G3 X-1.5361 Y-0.318 J0.0046
G2 X-1.5696 Y-0.3008 I0.1419 J0.318
G3 X-1.5798 Y-0.2997 I-0.0064 J-0.0109
X-1.6097 Y-0.3093 I1.0049 J-3.172
G2 X-1.6398 Y-0.3185 I-0.2688 J0.8214
G3 X-1.6386 Y-0.3268 I0.0012 J-0.004
G1 X-1.5761
G3 X-1.5723 Y-0.3258 Z-0.1989 J0.0079
X-1.5701 Y-0.324 Z-0.1961 I-0.0038 J0.0069
X-1.5695 Y-0.3231 Z-0.1921 I-0.006 J0.0051
G0 Z0.2
X-0.6821 Y1.0091
G1 Z0.0079 F40
G3 X-0.6814 Y1.0098 Z0.004 I-0.0253 J0.0275 F13.33
X-0.6795 Y1.0118 Z0.0011 I-0.026 J0.0268
X-0.6771 Y1.0147 Z0 I-0.028 J0.0248
X-0.7378 Y1.0585 Z-0.0041 I-0.0303 J0.0219
X-0.6771 Y1.0147 Z-0.0082 I0.0303 J-0.0219
X-0.7378 Y1.0585 Z-0.0123 I-0.0303 J0.0219
X-0.6771 Y1.0147 Z-0.0164 I0.0303 J-0.0219
X-0.7378 Y1.0585 Z-0.0205 I-0.0303 J0.0219
X-0.6771 Y1.0147 Z-0.0246 I0.0303 J-0.0219
X-0.7378 Y1.0585 Z-0.0287 I-0.0303 J0.0219
X-0.6771 Y1.0147 Z-0.0328 I0.0303 J-0.0219
X-0.7378 Y1.0585 Z-0.0369 I-0.0303 J0.0219
X-0.6771 Y1.0147 Z-0.041 I0.0303 J-0.0219
X-0.7378 Y1.0585 Z-0.0451 I-0.0303 J0.0219
X-0.6771 Y1.0147 Z-0.0492 I0.0303 J-0.0219
X-0.7378 Y1.0585 Z-0.0533 I-0.0303 J0.0219
X-0.6771 Y1.0147 Z-0.0574 I0.0303 J-0.0219
X-0.7378 Y1.0585 Z-0.0615 I-0.0303 J0.0219
X-0.6771 Y1.0147 Z-0.0657 I0.0303 J-0.0219
X-0.7378 Y1.0585 Z-0.0698 I-0.0303 J0.0219
X-0.6771 Y1.0147 Z-0.0739 I0.0303 J-0.0219
X-0.7378 Y1.0585 Z-0.078 I-0.0303 J0.0219
X-0.6771 Y1.0147 Z-0.0821 I0.0303 J-0.0219
X-0.7378 Y1.0585 Z-0.0862 I-0.0303 J0.0219
X-0.6771 Y1.0147 Z-0.0903 I0.0303 J-0.0219
X-0.7378 Y1.0585 Z-0.0944 I-0.0303 J0.0219
X-0.6771 Y1.0147 Z-0.0985 I0.0303 J-0.0219
X-0.7378 Y1.0585 Z-0.1026 I-0.0303 J0.0219
X-0.6771 Y1.0147 Z-0.1067 I0.0303 J-0.0219
X-0.7378 Y1.0585 Z-0.1108 I-0.0303 J0.0219
X-0.6771 Y1.0147 Z-0.1149 I0.0303 J-0.0219
X-0.7378 Y1.0585 Z-0.119 I-0.0303 J0.0219
X-0.6771 Y1.0147 Z-0.1231 I0.0303 J-0.0219
X-0.7378 Y1.0585 Z-0.1272 I-0.0303 J0.0219
X-0.6771 Y1.0147 Z-0.1313 I0.0303 J-0.0219
X-0.7378 Y1.0585 Z-0.1354 I-0.0303 J0.0219
X-0.6771 Y1.0147 Z-0.1395 I0.0303 J-0.0219
X-0.7378 Y1.0585 Z-0.1436 I-0.0303 J0.0219
X-0.6771 Y1.0147 Z-0.1477 I0.0303 J-0.0219
X-0.7378 Y1.0585 Z-0.1518 I-0.0303 J0.0219
X-0.6771 Y1.0147 Z-0.1559 I0.0303 J-0.0219
X-0.7378 Y1.0585 Z-0.16 I-0.0303 J0.0219
X-0.6771 Y1.0147 Z-0.1641 I0.0303 J-0.0219
X-0.7378 Y1.0585 Z-0.1682 I-0.0303 J0.0219
X-0.6771 Y1.0147 Z-0.1723 I0.0303 J-0.0219
X-0.7378 Y1.0585 Z-0.1764 I-0.0303 J0.0219
X-0.6771 Y1.0147 Z-0.1805 I0.0303 J-0.0219
X-0.7378 Y1.0585 Z-0.1846 I-0.0303 J0.0219
X-0.6771 Y1.0147 Z-0.1887 I0.0303 J-0.0219
X-0.7378 Y1.0585 Z-0.1929 I-0.0303 J0.0219
X-0.6771 Y1.0147 Z-0.197 I0.0303 J-0.0219
X-0.7126 Y1.0737 Z-0.2 I-0.0303 J0.0219
G2 X-0.7847 Y1.0709 I-0.0498 J0.3614 F40
G3 X-0.8665 Y1.0734 I-0.0819 J-1.3362
X-0.8793 Y1.0607 J-0.0128
G1 Y1.057
G3 X-0.8665 Y1.0442 I0.0128
X-0.7871 Y1.0473 J1.0351
G2 X-0.708 Y1.0398 I0.0179 J-0.2328
G3 X-0.6948 Y1.0486 I0.0028 J0.0102
G1 X-0.6926 Y1.0651
G3 X-0.7029 Y1.0751 I-0.0089 J0.0012
G2 X-0.7126 Y1.0737 I-0.0595 J0.3599
X-0.7376 Y1.0868 I-0.0033 J0.0241
G3 X-0.7617 Y1.1018 I-0.0242 J-0.0121
G2 X-0.819 Y1.1026 I0.0205 J3.4348
G3 X-0.8968 Y1.1035 I-0.0778 J-3.434
X-0.9094 Y1.091 J-0.0125
G1 Y1.0267
G3 X-0.8968 Y1.0142 I0.0125
X-0.819 Y1.015 J3.4349
G2 X-0.7412 Y1.0159 I0.0778 J-3.434
X-0.7099 Y1.0099 J-0.084
X-0.6823 Y0.9941 I-0.0432 J-0.1078
G3 X-0.671 Y0.9988 I0.0043 J0.0056
G1 X-0.6552 Y1.1185
G3 X-0.6643 Y1.1238 I-0.0056 J0.0007
G2 X-0.7009 Y1.1063 I-0.0581 J0.0747
X-0.7412 Y1.1017 I-0.0403 J0.1729
X-0.7617 Y1.1018 J3.4349
G3 X-0.7642 Y1.0948 J-0.0039
G1 X-0.7212 Y1.0589
G3 X-0.719 Y1.058 I0.0025 J0.003
X-0.6881 Y1.0751 I0.002 J0.0327
G2 X-0.6696 Y1.1052 I0.2915 J-0.1581
G3 X-0.882 Y1.7807 I-0.3699 J0.2549
X-1.5896 Y1.8092 I-0.397 J-1.0605
G2 X-1.5931 Y1.8104 I-0.0009 J0.0031
G1 X-1.5963 Y1.8148
G3 X-1.5989 Y1.8161 I-0.0026 J-0.0019
G1 X-1.6301
G3 X-1.6315 Y1.8079 J-0.0042
G2 X-1.6166 Y1.8026 I-0.1137 J-0.3404
G1 X-1.6024 Y1.7971
G3 X-1.594 Y1.7981 I0.0033 J0.0086
G2 X-1.5798 Y1.8071 I0.1998 J-0.2981
G3 X-1.5823 Y1.8161 I-0.0025 J0.0042
G1 X-1.5989
G3 X-1.6027 Y1.8152 Z-0.1989 J-0.0079
X-1.6049 Y1.8134 Z-0.1961 I0.0038 J-0.0069
X-1.6055 Y1.8125 Z-0.1921 I0.006 J-0.0051
G0 Z0.2
X0.9941 Y1.7431
G1 Z0.0079 F40
G3 X0.9949 Y1.7437 Z0.004 I-0.0213 J0.0307 F13.33
X0.9971 Y1.7454 Z0.0011 I-0.0221 J0.0301
X0.9999 Y1.748 Z0 I-0.0243 J0.0284
X0.9457 Y1.7996 Z-0.0041 I-0.0271 J0.0258
X0.9999 Y1.748 Z-0.0082 I0.0271 J-0.0258
X0.9457 Y1.7996 Z-0.0123 I-0.0271 J0.0258
X0.9999 Y1.748 Z-0.0164 I0.0271 J-0.0258
X0.9457 Y1.7996 Z-0.0205 I-0.0271 J0.0258
X0.9999 Y1.748 Z-0.0246 I0.0271 J-0.0258
X0.9457 Y1.7996 Z-0.0287 I-0.0271 J0.0258
X0.9999 Y1.748 Z-0.0328 I0.0271 J-0.0258
X0.9457 Y1.7996 Z-0.0369 I-0.0271 J0.0258
X0.9999 Y1.748 Z-0.041 I0.0271 J-0.0258
X0.9457 Y1.7996 Z-0.0451 I-0.0271 J0.0258
X0.9999 Y1.748 Z-0.0492 I0.0271 J-0.0258
X0.9457 Y1.7996 Z-0.0533 I-0.0271 J0.0258
X0.9999 Y1.748 Z-0.0574 I0.0271 J-0.0258
X0.9457 Y1.7996 Z-0.0615 I-0.0271 J0.0258
X0.9999 Y1.748 Z-0.0657 I0.0271 J-0.0258
X0.9457 Y1.7996 Z-0.0698 I-0.0271 J0.0258
X0.9999 Y1.748 Z-0.0739 I0.0271 J-0.0258
X0.9457 Y1.7996 Z-0.078 I-0.0271 J0.0258
X0.9999 Y1.748 Z-0.0821 I0.0271 J-0.0258
X0.9457 Y1.7996 Z-0.0862 I-0.0271 J0.0258
X0.9999 Y1.748 Z-0.0903 I0.0271 J-0.0258
X0.9457 Y1.7996 Z-0.0944 I-0.0271 J0.0258
X0.9999 Y1.748 Z-0.0985 I0.0271 J-0.0258
X0.9457 Y1.7996 Z-0.1026 I-0.0271 J0.0258
X0.9999 Y1.748 Z-0.1067 I0.0271 J-0.0258
X0.9457 Y1.7996 Z-0.1108 I-0.0271 J0.0258
X0.9999 Y1.748 Z-0.1149 I0.0271 J-0.0258
X0.9457 Y1.7996 Z-0.119 I-0.0271 J0.0258
X0.9999 Y1.748 Z-0.1231 I0.0271 J-0.0258
X0.9457 Y1.7996 Z-0.1272 I-0.0271 J0.0258
X0.9999 Y1.748 Z-0.1313 I0.0271 J-0.0258
X0.9457 Y1.7996 Z-0.1354 I-0.0271 J0.0258
X0.9999 Y1.748 Z-0.1395 I0.0271 J-0.0258
X0.9457 Y1.7996 Z-0.1436 I-0.0271 J0.0258
X0.9999 Y1.748 Z-0.1477 I0.0271 J-0.0258
X0.9457 Y1.7996 Z-0.1518 I-0.0271 J0.0258
X0.9999 Y1.748 Z-0.1559 I0.0271 J-0.0258
X0.9457 Y1.7996 Z-0.16 I-0.0271 J0.0258
X0.9999 Y1.748 Z-0.1641 I0.0271 J-0.0258
X0.9457 Y1.7996 Z-0.1682 I-0.0271 J0.0258
X0.9999 Y1.748 Z-0.1723 I0.0271 J-0.0258
X0.9457 Y1.7996 Z-0.1764 I-0.0271 J0.0258
X0.9999 Y1.748 Z-0.1805 I0.0271 J-0.0258
X0.9457 Y1.7996 Z-0.1846 I-0.0271 J0.0258
X0.9999 Y1.748 Z-0.1887 I0.0271 J-0.0258
X0.9457 Y1.7996 Z-0.1929 I-0.0271 J0.0258
X0.9999 Y1.748 Z-0.197 I0.0271 J-0.0258
X0.9728 Y1.8112 Z-0.2 I-0.0271 J0.0258
G1 X0.9644 F40
G3 X0.9616 Y1.802 J-0.005
G2 X0.9688 Y1.797 I-0.2028 J-0.302
G3 X0.9768 I0.004 J0.0056
G2 X0.984 Y1.802 I0.21 J-0.297
G3 X0.9812 Y1.8112 I-0.0028 J0.0042
G1 X0.9728
G18 G3 X0.9649 Z-0.1921 K0.0079
G0 Z0.2
X3.0275 Y1.7386
G1 Z0.0079 F40
G17 G3 X3.0281 Y1.7378 Z0.004 I0.0307 J0.0213 F13.33
X3.0298 Y1.7356 Z0.0011 I0.0301 J0.0221
X3.0325 Y1.7329 Z0 I0.0284 J0.0243
X3.0841 Y1.787 Z-0.0041 I0.0258 J0.0271
X3.0325 Y1.7329 Z-0.0082 I-0.0258 J-0.0271
X3.0841 Y1.787 Z-0.0123 I0.0258 J0.0271
X3.0325 Y1.7329 Z-0.0164 I-0.0258 J-0.0271
X3.0841 Y1.787 Z-0.0205 I0.0258 J0.0271
X3.0325 Y1.7329 Z-0.0246 I-0.0258 J-0.0271
X3.0841 Y1.787 Z-0.0287 I0.0258 J0.0271
X3.0325 Y1.7329 Z-0.0328 I-0.0258 J-0.0271
X3.0841 Y1.787 Z-0.0369 I0.0258 J0.0271
X3.0325 Y1.7329 Z-0.041 I-0.0258 J-0.0271
X3.0841 Y1.787 Z-0.0451 I0.0258 J0.0271
X3.0325 Y1.7329 Z-0.0492 I-0.0258 J-0.0271
X3.0841 Y1.787 Z-0.0533 I0.0258 J0.0271
X3.0325 Y1.7329 Z-0.0574 I-0.0258 J-0.0271
X3.0841 Y1.787 Z-0.0615 I0.0258 J0.0271
X3.0325 Y1.7329 Z-0.0657 I-0.0258 J-0.0271
X3.0841 Y1.787 Z-0.0698 I0.0258 J0.0271
X3.0325 Y1.7329 Z-0.0739 I-0.0258 J-0.0271
X3.0841 Y1.787 Z-0.078 I0.0258 J0.0271
X3.0325 Y1.7329 Z-0.0821 I-0.0258 J-0.0271
X3.0841 Y1.787 Z-0.0862 I0.0258 J0.0271
X3.0325 Y1.7329 Z-0.0903 I-0.0258 J-0.0271
X3.0841 Y1.787 Z-0.0944 I0.0258 J0.0271
X3.0325 Y1.7329 Z-0.0985 I-0.0258 J-0.0271
X3.0841 Y1.787 Z-0.1026 I0.0258 J0.0271
X3.0325 Y1.7329 Z-0.1067 I-0.0258 J-0.0271
X3.0841 Y1.787 Z-0.1108 I0.0258 J0.0271
X3.0325 Y1.7329 Z-0.1149 I-0.0258 J-0.0271
X3.0841 Y1.787 Z-0.119 I0.0258 J0.0271
X3.0325 Y1.7329 Z-0.1231 I-0.0258 J-0.0271
X3.0841 Y1.787 Z-0.1272 I0.0258 J0.0271
X3.0325 Y1.7329 Z-0.1313 I-0.0258 J-0.0271
X3.0841 Y1.787 Z-0.1354 I0.0258 J0.0271
X3.0325 Y1.7329 Z-0.1395 I-0.0258 J-0.0271
X3.0841 Y1.787 Z-0.1436 I0.0258 J0.0271
X3.0325 Y1.7329 Z-0.1477 I-0.0258 J-0.0271
X3.0841 Y1.787 Z-0.1518 I0.0258 J0.0271
X3.0325 Y1.7329 Z-0.1559 I-0.0258 J-0.0271
X3.0841 Y1.787 Z-0.16 I0.0258 J0.0271
X3.0325 Y1.7329 Z-0.1641 I-0.0258 J-0.0271
X3.0841 Y1.787 Z-0.1682 I0.0258 J0.0271
X3.0325 Y1.7329 Z-0.1723 I-0.0258 J-0.0271
X3.0841 Y1.787 Z-0.1764 I0.0258 J0.0271
X3.0325 Y1.7329 Z-0.1805 I-0.0258 J-0.0271
X3.0841 Y1.787 Z-0.1846 I0.0258 J0.0271
X3.0325 Y1.7329 Z-0.1887 I-0.0258 J-0.0271
X3.0841 Y1.787 Z-0.1929 I0.0258 J0.0271
X3.0325 Y1.7329 Z-0.197 I-0.0258 J-0.0271
X3.0957 Y1.7599 Z-0.2 I0.0258 J0.0271
G1 Y1.7613 F40
G3 X3.0863 Y1.7707 I-0.0094
G1 X3.0692
G3 X3.066 Y1.7611 J-0.0053
G2 X3.0757 Y1.7536 I-0.216 J-0.2891
X3.0852 Y1.7459 I-0.5321 J-0.6642
G3 X3.0957 Y1.7509 I0.0041 J0.005
G1 Y1.7599
G2 X3.11 Y1.7869 I0.0326
G3 X3.101 Y1.8161 I-0.009 J0.0132
G1 X2.8749
G3 X2.8737 Y1.808 J-0.0042
G2 X2.9306 Y1.7862 I-0.1278 J-0.418
X2.9854 Y1.7597 I-0.9294 J-1.9939
X3.0633 Y1.709 I-0.1837 J-0.3672
X3.1313 Y1.6456 I-0.5026 J-0.6081
G3 X3.1411 Y1.6496 I0.0041 J0.0039
G1 Y1.8036
G3 X3.1286 Y1.8161 I-0.0125
G1 X3.101
G2 X3.0713 Y1.8359 J0.0321
G3 X3.0417 Y1.8557 I-0.0297 J-0.0124
G1 X-3.1681
G3 X-3.1807 Y1.8431 J-0.0126
G1 Y1.7638
G3 X-3.17 Y1.7583 I0.0067
G2 X-3.0812 Y1.8046 I0.1991 J-0.274
X-2.9824 Y1.8211 I0.0988 J-0.2871
G1 X-2.5941
G2 X-2.5604 Y1.8184 J-0.2136
X-2.5271 Y1.8122 I-0.1013 J-0.633
G3 X-2.52 I0.0035 J0.0165
G2 X-2.4867 Y1.8184 I0.1346 J-0.6268
X-2.4529 Y1.8211 I0.0338 J-0.2109
G1 X-2.0407 Y1.82
G3 X-1.9803 Y1.8185 I0.1136 J3.3366
G2 X-1.9201 Y1.8155 I-0.0144 J-0.9018
X-1.7735 Y1.8012 I-0.4277 J-5.1501
X-1.6305 Y1.7664 I-0.0643 J-0.5752
X-1.619 Y1.7616 I-0.0712 J-0.1857
G3 X-1.6076 Y1.7567 I0.0827 J0.1808
X-1.579 Y1.7604 I0.0109 J0.0285
G2 X-1.4913 Y1.8051 I0.1965 J-0.2768
X-1.3941 Y1.8211 I0.0972 J-0.2871
G1 X-0.7235
G2 X-0.6723 Y1.8161 J-0.2636
X-0.6226 Y1.8029 I-0.0793 J-0.4003
G3 X-0.6083 I0.0071 J0.0214
G2 X-0.5586 Y1.8161 I0.129 J-0.3871
X-0.5074 Y1.8211 I0.0512 J-0.2586
G1 X0.0662
G2 X0.1365 Y1.8124 J-0.288
X0.2032 Y1.7884 I-0.0881 J-0.3497
G3 X0.2335 I0.0152 J0.0319
G2 X0.3002 Y1.8124 I0.1548 J-0.3257
X0.3706 Y1.8211 I0.0703 J-0.2793
G1 X0.7588
G2 X0.8674 Y1.8012 J-0.3066
X0.9628 Y1.7456 I-0.1187 J-0.3134
G3 X0.9828 I0.01 J0.012
G2 X1.0782 Y1.8012 I0.2141 J-0.2578
X1.1868 Y1.8211 I0.1086 J-0.2867
G1 X1.7603
G2 X1.8306 Y1.8124 J-0.288
X1.8973 Y1.7884 I-0.0881 J-0.3497
G3 X1.9277 I0.0152 J0.0319
G2 X1.9944 Y1.8124 I0.1548 J-0.3257
X2.0647 Y1.8211 I0.0703 J-0.2793
G1 X2.5383 Y1.82
G2 X2.6777 Y1.8105 I-0.1208 J-2.8112
X2.7664 Y1.7963 I-0.0634 J-0.6824
X2.8535 Y1.7745 I-0.4612 J-2.027
X2.9124 Y1.752 I-0.0847 J-0.3097
G1 X2.9677 Y1.7243
G2 X3.0241 Y1.688 I-0.1386 J-0.2771
X3.0761 Y1.6455 I-4.7289 J-5.8374
X3.1277 Y1.5927 I-0.2202 J-0.267
X3.1713 Y1.5332 I-0.8268 J-0.6515
G3 X3.1807 Y1.5361 I0.0043 J0.0029
G1 Y1.8429
G3 X3.1679 Y1.8557 I-0.0128
G1 X3.0417
G2 X3.0137 Y1.8743 J0.0303
G3 X2.9857 Y1.8929 I-0.0279 J-0.0116
G1 X-1.3941 Y1.8913
X-3.2057 Y1.893
G3 X-3.218 Y1.8807 J-0.0124
G1 Y1.6713
G3 X-3.2087 Y1.6682 I0.0052
G2 X-3.1092 Y1.7528 I0.2331 J-0.1733
X-2.9824 Y1.7837 I0.1269 J-0.2447
G1 X-2.5941
G2 X-2.5642 Y1.7813 J-0.1827
X-2.5346 Y1.7756 I-0.1031 J-0.6203
G3 X-2.5124 I0.0111 J0.0515
G2 X-2.4829 Y1.7813 I0.1326 J-0.6147
X-2.4529 Y1.7837 I0.03 J-0.1802
G1 X-2.0419 Y1.7826
G3 X-1.9825 Y1.7812 I0.108 J3.1716
G2 X-1.9232 Y1.7782 I-0.0135 J-0.8796
X-1.7818 Y1.7652 I-0.6232 J-7.5045
X-1.6436 Y1.7322 I-0.0546 J-0.5353
X-1.6211 Y1.7228 I-0.1397 J-0.3641
G3 X-1.5987 Y1.7133 I0.1622 J0.3546
X-1.5737 Y1.7174 I0.009 J0.0235
G2 X-1.4897 Y1.7662 I0.1895 J-0.2295
X-1.3941 Y1.7837 I0.0955 J-0.252
G1 X-0.7235
G2 X-0.6783 Y1.7792 J-0.2284
X-0.6344 Y1.7675 I-0.0736 J-0.3643
G3 X-0.5965 I0.019 J0.057
G2 X-0.5526 Y1.7792 I0.1175 J-0.3526
X-0.5074 Y1.7837 I0.0452 J-0.2239
G1 X0.0662
G2 X0.1383 Y1.7735 J-0.2593
X0.2055 Y1.7451 I-0.0866 J-0.2988
G3 X0.2313 I0.0129 J0.0227
G2 X0.2984 Y1.7735 I0.1537 J-0.2705
X0.3706 Y1.7837 I0.0722 J-0.2491
G1 X0.7588
G2 X0.8712 Y1.7596 J-0.2734
X0.9646 Y1.6927 I-0.1204 J-0.2671
G3 X0.981 I0.0082 J0.0076
G2 X1.0744 Y1.7596 I0.2139 J-0.2003
X1.1868 Y1.7837 I0.1123 J-0.2492
G1 X1.7603
G2 X1.8325 Y1.7735 J-0.2593
X1.8996 Y1.7451 I-0.0866 J-0.2988
G3 X1.9254 I0.0129 J0.0227
G2 X1.9925 Y1.7735 I0.1537 J-0.2705
X2.0647 Y1.7837 I0.0722 J-0.2491
G1 X2.5367 Y1.7826
G2 X2.6146 Y1.779 I-0.5514 J-12.8319
X2.6922 Y1.771 I-0.0356 J-0.7253
X2.8436 Y1.7385 I-0.2187 J-1.3862
X2.8985 Y1.7173 I-0.0769 J-0.2813
G3 X2.951 Y1.6909 I5.2791 J10.4215
G2 X3.0046 Y1.656 I-0.1269 J-0.2538
G1 X3.0523 Y1.6167
G2 X3.0928 Y1.5756 I-0.1806 J-0.2189
G1 X3.1283 Y1.5315
G2 X3.1605 Y1.4816 I-0.2211 J-0.1778
G1 X3.186 Y1.4311
G2 X3.1995 Y1.3963 I-0.1718 J-0.0868
G3 X3.2099 Y1.3604 I2.4167 J0.6784
X3.218 Y1.3616 I0.004 J0.0012
G1 Y1.8805
G3 X3.2055 Y1.893 I-0.0125
G1 X2.9857 Y1.8929
G3 X2.9779 Y1.8833 J-0.008
G1 X3.2015 Y0.8192
G3 X3.2022 Y0.8172 I0.0078 J0.0016
G2 X3.2092 Y0.8029 I-0.2506 J-0.1299
G3 X3.2178 Y0.8047 I0.0041 J0.0018
G1 Y0.839
G3 X3.2094 Y0.8405 I-0.0043
G2 X3.2021 Y0.8232 I-0.2636 J0.1007
G3 X3.2022 Y0.8172 I0.0062 J-0.0029
G2 X3.2031 Y0.8126 I-0.0071 J-0.0037
G1 X3.0857 Y-0.2439
G2 X3.0823 Y-0.2495 I-0.008 J0.0009
X3.0692 Y-0.2588 I-0.6183 J0.8673
X3.0042 Y-0.2939 I-0.1931 J0.2797
X2.9889 Y-0.2996 I-0.0984 J0.2419
G3 X2.9736 Y-0.3053 I0.0831 J-0.2476
X2.9752 Y-0.3138 I0.0017 J-0.0041
G1 X3.1262
G3 X3.1388 Y-0.3012 J0.0125
G1 Y-0.2197
G3 X3.1285 Y-0.2147 I-0.0063
G2 X3.0823 Y-0.2495 I-0.6645 J0.8325
X3.0445 Y-0.2505 I-0.0196 J0.0275
G3 X3.0068 Y-0.2483 I-0.0208 J-0.0325
G2 X2.9888 Y-0.2563 I-0.128 J0.2624
X2.8998 Y-0.2879 I-0.3925 J0.9647
X2.8072 Y-0.3069 I-0.1488 J0.4884
X2.7465 Y-0.3134 I-0.6727 J6.0746
X2.6856 Y-0.3177 I-0.1075 J1.0682
G1 X2.5208 Y-0.3216
X1.5926
G2 X1.5446 Y-0.3171 J0.2576
X1.4979 Y-0.3055 I0.0793 J0.4179
G3 X1.4845 I-0.0067 J-0.0216
G2 X1.4377 Y-0.3171 I-0.126 J0.4062
X1.3897 Y-0.3216 I-0.048 J0.253
G1 X-0.1015
G2 X-0.1495 Y-0.3171 J0.2576
X-0.1962 Y-0.3055 I0.0793 J0.4179
G3 X-0.2096 I-0.0067 J-0.0216
G2 X-0.2563 Y-0.3171 I-0.1263 J0.4071
X-0.3041 Y-0.3216 I-0.0481 J0.2527
G1 X-1.3941
G2 X-1.4781 Y-0.3095 J0.2977
X-1.5559 Y-0.2759 I0.098 J0.3336
G3 X-1.5876 Y-0.2723 I-0.0199 J-0.0339
X-1.6352 Y-0.2885 I0.3649 J-1.152
G2 X-1.6838 Y-0.3012 I-0.0926 J0.2549
X-1.8181 Y-0.3169 I-0.2358 J1.4353
X-1.9533 Y-0.3216 I-0.1352 J1.9323
G1 X-2.4529
G2 X-2.4867 Y-0.3189 J0.2138
X-2.52 Y-0.3127 I0.1015 J0.635
G3 X-2.5271 I-0.0035 J-0.0165
G2 X-2.5604 Y-0.3189 I-0.1348 J0.6288
X-2.5941 Y-0.3216 I-0.0338 J0.2112
G1 X-2.9824
G2 X-3.0806 Y-0.3053 J0.3039
X-3.1691 Y-0.2597 I0.1098 J0.3213
G3 X-3.1802 Y-0.2654 I-0.0041 J-0.0057
G1 Y-0.3424
G3 X-3.1674 Y-0.3552 I0.0128
G1 X3.1674
G3 X3.1802 Y-0.3424 J0.0128
G1 Y-0.1156
G3 X3.1703 Y-0.112 I-0.0056
G2 X3.134 Y-0.1542 I-5.6059 J4.7811
X3.093 Y-0.192 I-0.1871 J0.1621
X3.0429 Y-0.2273 I-1.0447 J1.4282
X3.0068 Y-0.2483 I-0.1641 J0.2415
X2.9735 Y-0.243 I-0.0129 J0.0264
G3 X2.9406 Y-0.236 I-0.0221 J-0.0228
G2 X2.8908 Y-0.2527 I-0.3483 J0.9543
X2.8032 Y-0.2708 I-0.1401 J0.4557
X2.7437 Y-0.2771 I-0.6923 J6.2515
X2.684 Y-0.2815 I-0.105 J1.0382
G1 X2.5208 Y-0.2853
X2.0647
G2 X2.0471 Y-0.2842 J0.1427
G3 X2.0118 I-0.0176 J-0.1416
G2 X1.9941 Y-0.2853 I-0.0176 J0.1416
G1 X1.5926
G2 X1.5493 Y-0.2811 J0.2256
X1.5071 Y-0.2703 I0.074 J0.3781
G3 X1.4753 I-0.0159 J-0.0503
G2 X1.4331 Y-0.2811 I-0.1163 J0.3673
X1.3897 Y-0.2853 I-0.0434 J0.2214
G1 X0.3706
G2 X0.3529 Y-0.2842 J0.1427
G3 X0.3176 I-0.0176 J-0.1416
G2 X0.3 Y-0.2853 I-0.0176 J0.1416
G1 X-0.1015
G2 X-0.1448 Y-0.2811 J0.2256
X-0.187 Y-0.2703 I0.074 J0.3781
G3 X-0.2189 I-0.0159 J-0.0503
G2 X-0.2609 Y-0.2811 I-0.1165 J0.3681
X-0.3041 Y-0.2853 I-0.0434 J0.221
G1 X-1.3941
G2 X-1.4777 Y-0.2719 J0.2666
X-1.5536 Y-0.2345 I0.0955 J0.2895
G3 X-1.5807 Y-0.2314 I-0.0164 J-0.0242
G2 X-1.6343 Y-0.2513 I-0.5616 J1.4356
X-1.6897 Y-0.2654 I-0.1091 J0.3126
X-1.8211 Y-0.2807 I-0.23 J1.4
X-1.9533 Y-0.2853 I-0.1322 J1.8971
G1 X-2.4529
G2 X-2.4829 Y-0.2828 J0.1834
X-2.5125 Y-0.2772 I0.1039 J0.6269
G3 X-2.5346 I-0.0111 J-0.0515
G2 X-2.5641 Y-0.2828 I-0.1334 J0.6213
X-2.5941 Y-0.2853 I-0.03 J0.1809
G1 X-2.9824
G2 X-3.108 Y-0.2552 J0.277
X-3.2073 Y-0.1726 I0.1326 J0.2605
G3 X-3.2165 Y-0.1757 I-0.004 J-0.0031
G1 Y-0.3789
G3 X-3.2039 Y-0.3915 I0.0125
G1 X0.3706 Y-0.3897
X3.2039 Y-0.3915
G3 X3.2165 Y-0.3789 J0.0125
G1 Y0.0155
G3 X3.2078 Y0.0174 I-0.0046
G2 X3.1816 Y-0.0352 I-1.7749 J0.8511
X3.1487 Y-0.0841 I-0.2286 J0.1181
X3.0703 Y-0.1638 I-0.5962 J0.5084
X2.9751 Y-0.2226 I-0.2214 J0.2516
X2.9406 Y-0.236 I-0.3829 J0.941
X2.905 Y-0.2264 I-0.011 J0.0301
G3 X2.87 Y-0.215 I-0.0266 J-0.0221
G2 X2.8201 Y-0.2263 I-0.2618 J1.0368
X2.6982 Y-0.2404 I-0.1439 J0.7115
X2.5756 Y-0.2434 I-0.3132 J10.337
G1 X2.0647 Y-0.2429
G2 X2.052 Y-0.2421 J0.1108
G3 X2.0394 Y-0.2408 I-0.1459 J-1.2677
X2.0194 I-0.01 J-0.0953
X2.0068 Y-0.2421 I0.1333 J-1.2691
G2 X1.9941 Y-0.2429 I-0.0127 J0.1101
G1 X1.5926 Y-0.2439
G2 X1.5504 Y-0.2393 J0.1962
X1.5096 Y-0.2274 I0.0687 J0.3118
G3 X1.4727 I-0.0185 J-0.0505
G2 X1.4319 Y-0.2393 I-0.1095 J0.3
X1.3897 Y-0.2439 I-0.0422 J0.1916
G1 X0.3706 Y-0.2429
G2 X0.3579 Y-0.2421 J0.1108
G3 X0.3453 Y-0.2408 I-0.1459 J-1.2679
X0.3253 I-0.01 J-0.0953
X0.3127 Y-0.2421 I0.1333 J-1.2693
G2 X0.3 Y-0.2429 I-0.0127 J0.1101
G1 X-0.1015 Y-0.2439
G2 X-0.1441 Y-0.2392 J0.197
X-0.1853 Y-0.2271 I0.0687 J0.3097
G3 X-0.2206 I-0.0176 J-0.0477
G2 X-0.2616 Y-0.2392 I-0.1101 J0.2981
X-0.3042 Y-0.2439 I-0.0427 J0.1921
G1 X-1.3941
G2 X-1.4772 Y-0.2283 J0.2298
X-1.55 Y-0.1852 I0.0932 J0.2404
G3 X-1.5732 Y-0.1826 I-0.0136 J-0.0161
G2 X-1.7273 Y-0.2299 I-0.2088 J0.4059
X-1.888 Y-0.2431 I-0.2538 J2.1021
G1 X-2.4529 Y-0.2437
G2 X-2.4784 Y-0.2415 J0.1531
X-2.5035 Y-0.2367 I0.0981 J0.5817
G3 X-2.5435 I-0.02 J-0.0937
G2 X-2.5686 Y-0.2415 I-0.1233 J0.5769
X-2.5941 Y-0.2437 I-0.0255 J0.151
G1 X-2.9824 Y-0.2439
G2 X-3.2262 Y0 J0.2439
G1 Y1.5
G2 X-2.9824 Y1.7439 I0.2439
G1 X-2.5941 Y1.7437
G2 X-2.5686 Y1.7415 J-0.1531
X-2.5435 Y1.7367 I-0.0981 J-0.5817
G3 X-2.5035 I0.02 J0.0937
G2 X-2.4784 Y1.7415 I0.1233 J-0.5769
X-2.4529 Y1.7437 I0.0255 J-0.151
G1 X-2.0433 Y1.7428
G3 X-1.9849 Y1.7414 I0.1023 J3.0044
G2 X-1.9265 Y1.7385 I-0.0125 J-0.8561
X-1.7906 Y1.7264 I-0.9381 J-11.2966
X-1.6578 Y1.6952 I-0.0477 J-0.5017
X-1.6229 Y1.6812 I-0.4343 J-1.1316
X-1.5887 Y1.6653 I-0.1937 J-0.4615
G3 X-1.5676 Y1.6688 I0.0082 J0.016
G2 X-1.4885 Y1.7239 I0.1821 J-0.1771
X-1.3941 Y1.7439 I0.0944 J-0.2129
G1 X-0.7235
G2 X-0.6767 Y1.7384 J-0.2037
X-0.6319 Y1.7241 I-0.0692 J-0.2933
G3 X-0.599 I0.0164 J0.0402
G2 X-0.5541 Y1.7384 I0.1141 J-0.2789
X-0.5074 Y1.7439 I0.0468 J-0.1982
G1 X0.0662
G2 X0.1405 Y1.7313 J-0.2264
X0.2075 Y1.6966 I-0.0861 J-0.2477
G3 X0.2293 I0.0109 J0.0152
G2 X0.2962 Y1.7313 I0.153 J-0.2129
X0.3706 Y1.7439 I0.0744 J-0.2139
G1 X0.7588
G2 X0.8783 Y1.7116 J-0.2371
X0.9664 Y1.6245 I-0.1256 J-0.2152
G3 X0.9792 I0.0064 J0.0038
G2 X1.0673 Y1.7116 I0.2137 J-0.1282
X1.1868 Y1.7439 I0.1195 J-0.2048
G1 X1.7603
G2 X1.8347 Y1.7313 J-0.2264
X1.9016 Y1.6966 I-0.0861 J-0.2477
G3 X1.9234 I0.0109 J0.0152
G2 X1.9903 Y1.7313 I0.153 J-0.2129
X2.0647 Y1.7439 I0.0744 J-0.2139
G1 X2.535 Y1.7428
X2.6046 Y1.7398
G2 X2.686 Y1.7317 I-0.031 J-0.7204
X2.8331 Y1.7 I-0.2125 J-1.3468
X2.8842 Y1.6801 I-0.0693 J-0.2533
G3 X2.9331 Y1.6553 I2.0244 J3.9241
G2 X2.982 Y1.6233 I-0.1126 J-0.2251
G3 X3.0269 Y1.5859 I5.6774 J6.7899
G2 X3.0641 Y1.548 I-0.1609 J-0.1951
G3 X3.0973 Y1.5065 I6.1213 J4.8545
G2 X3.1263 Y1.4612 I-0.1955 J-0.1572
G3 X3.1504 Y1.4131 I8.6829 J4.3281
G2 X3.1815 Y1.3247 I-0.3219 J-0.1627
X3.1988 Y1.2327 I-2.1314 J-0.4489
X3.2074 Y1.1537 I-0.69 J-0.1146
X3.2085 Y1.0743 I-1.0987 J-0.0561
X3.1986 Y0.9517 I-1.0365 J0.022
X3.1628 Y0.8341 I-0.3926 J0.0553
G3 X3.1636 Y0.8044 I0.029 J-0.0141
G2 X3.2127 Y0.6584 I-0.3761 J-0.2078
X3.2261 Y0.505 I-1.3318 J-0.1939
X3.2254 Y0.3213 I-2.6858 J-0.0808
X3.2055 Y0.1386 I-1.309 J0.0502
X3.1823 Y0.0609 I-0.3589 J0.0648
X3.1476 Y-0.0123 I-0.9096 J0.386
X3.0878 Y-0.0915 I-0.2705 J0.142
X3.0116 Y-0.1552 I-0.5294 J0.556
X2.9197 Y-0.2011 I-0.1814 J0.248
X2.87 Y-0.215 I-0.3115 J1.023
X2.8411 Y-0.2039 I-0.0066 J0.026
G3 X2.8128 Y-0.1916 I-0.0238 J-0.016
G2 X2.6924 Y-0.2046 I-0.1892 J1.1908
X2.5208 Y-0.2095 I-0.1716 J3.0052
G1 X2.0647 Y-0.2084
G2 X2.0534 Y-0.2078 J0.0971
G1 X2.0406 Y-0.2063
G3 X2.0183 I-0.0111 J-0.0952
G1 X2.0054 Y-0.2078
G2 X1.9941 Y-0.2084 I-0.0113 J0.0964
G1 X1.5926 Y-0.2095
G2 X1.5471 Y-0.2036 J0.1777
X1.504 Y-0.1878 I0.0647 J0.2442
G3 X1.4783 I-0.0129 J-0.0273
G2 X1.4352 Y-0.2036 I-0.1078 J0.2285
X1.3897 Y-0.2095 I-0.0455 J0.1718
G1 X0.3706 Y-0.2084
G2 X0.3593 Y-0.2078 J0.0971
G1 X0.3464 Y-0.2063
G3 X0.3242 I-0.0111 J-0.0951
G1 X0.3113 Y-0.2078
G2 X0.3 Y-0.2084 I-0.0113 J0.0964
G1 X-0.1015 Y-0.2095
G2 X-0.1459 Y-0.2038 J0.1764
X-0.1881 Y-0.1888 I0.0643 J0.2472
G3 X-0.2178 I-0.0149 J-0.0325
G2 X-0.2599 Y-0.2038 I-0.1066 J0.2324
X-0.3042 Y-0.2095 I-0.0445 J0.1706
G1 X-1.3941
G2 X-1.4763 Y-0.1917 J0.1989
X-1.5447 Y-0.143 I0.0906 J0.1997
G3 X-1.5659 Y-0.1396 I-0.0128 J-0.0121
X-1.5926 Y-0.1546 I0.4497 J-0.8337
G2 X-1.6207 Y-0.1671 I-0.0702 J0.1206
X-1.6958 Y-0.1886 I-0.4234 J1.3366
X-1.7729 Y-0.2015 I-0.1141 J0.4448
X-1.8347 Y-0.2063 I-0.9528 J11.8005
X-1.8967 Y-0.209 I-0.0711 J0.9416
G1 X-2.4529 Y-0.2092
G2 X-2.4774 Y-0.207 J0.1368
X-2.5013 Y-0.202 I0.0784 J0.4322
G3 X-2.5457 I-0.0222 J-0.0926
G2 X-2.5697 Y-0.207 I-0.1024 J0.4272
X-2.5941 Y-0.2092 I-0.0244 J0.1346
G1 X-2.9824 Y-0.2095
G2 X-3.1918 Y0 J0.2095
G1 Y1.5
G2 X-2.9824 Y1.7095 I0.2095
G1 X-2.5941 Y1.7092
G2 X-2.5697 Y1.707 J-0.1368
X-2.5457 Y1.702 I-0.0784 J-0.4322
G3 X-2.5013 I0.0222 J0.0926
G2 X-2.4774 Y1.707 I0.1024 J-0.4272
X-2.4529 Y1.7092 I0.0244 J-0.1346
G1 X-2.0444 Y1.7084
G3 X-1.9869 Y1.707 I0.0976 J2.867
G2 X-1.9293 Y1.7043 I-0.0117 J-0.836
X-1.7591 Y1.6857 I-0.2786 J-3.355
X-1.5966 Y1.6313 I-0.0605 J-0.4499
X-1.5879 Y1.626 I-0.0804 J-0.1426
G3 X-1.5792 Y1.6207 I0.0891 J0.1373
X-1.5602 Y1.6246 I0.0072 J0.0128
G2 X-1.4872 Y1.6867 I0.1732 J-0.13
X-1.3941 Y1.7095 I0.0931 J-0.1784
G1 X-0.7235
G2 X-0.675 Y1.7029 J-0.1811
X-0.6293 Y1.6851 I-0.066 J-0.237
G3 X-0.6016 I0.0138 J0.0272
G2 X-0.5559 Y1.7029 I0.1117 J-0.2192
X-0.5074 Y1.7095 I0.0486 J-0.1745
G1 X0.0662
G2 X0.1435 Y1.6937 J-0.1976
X0.2095 Y1.6503 I-0.0865 J-0.2033
G3 X0.2273 I0.0089 J0.0093
G2 X0.2932 Y1.6937 I0.1525 J-0.1599
X0.3706 Y1.7095 I0.0774 J-0.1818
G1 X0.7588
G2 X0.9064 Y1.6479 J-0.2076
X0.9672 Y1.5 I-0.1495 J-0.1479
X0.9669 Y1.4887 I-0.1805
G3 X0.9665 Y1.4775 I0.1802 J-0.0113
X0.9742 Y1.477 I0.0039
X0.9768 Y1.5022 I-0.4028 J0.0533
G2 X0.9793 Y1.5275 I0.4053 J-0.0281
X1.1868 Y1.7095 I0.2077 J-0.0275
G1 X1.7603
G2 X1.8377 Y1.6937 J-0.1976
X1.9036 Y1.6503 I-0.0865 J-0.2033
G3 X1.9214 I0.0089 J0.0093
G2 X1.9873 Y1.6937 I0.1525 J-0.1599
X2.0647 Y1.7095 I0.0774 J-0.1818
G1 X2.5335 Y1.7084
X2.6031 Y1.7054
G2 X2.6806 Y1.6977 I-0.0295 J-0.686
X2.824 Y1.6669 I-0.2071 J-1.3129
X2.8719 Y1.648 I-0.0628 J-0.2297
G3 X2.9178 Y1.6245 I1.2144 J2.3125
G2 X2.9632 Y1.5944 I-0.1014 J-0.2028
G3 X3.005 Y1.5594 I2.3379 J2.7482
G2 X3.0396 Y1.5238 I-0.1451 J-0.1759
G3 X3.0705 Y1.4849 I2.7059 J2.1124
G2 X3.0974 Y1.4425 I-0.176 J-0.1416
G3 X3.1197 Y1.3976 I3.3571 J1.6405
G2 X3.1488 Y1.314 I-0.2968 J-0.15
X3.1649 Y1.2271 I-2.3682 J-0.483
X3.173 Y1.1513 I-0.6572 J-0.1092
X3.1741 Y1.0751 I-1.0673 J-0.0535
X3.1658 Y0.9605 I-1.1142 J0.0237
X3.1332 Y0.8504 I-0.3499 J0.0437
X3.1285 Y0.8414 I-0.1464 J0.071
G3 X3.1237 Y0.8324 I0.1417 J-0.08
X3.125 Y0.8023 I0.0286 J-0.0139
G1 X3.1388 Y0.7788
G2 X3.1502 Y0.754 I-0.1129 J-0.0666
X3.1777 Y0.6546 I-0.9018 J-0.3029
X3.1903 Y0.5523 I-0.5434 J-0.119
G1 X3.1918 Y0.3517
X3.1901 Y0.2814
G2 X3.182 Y0.2024 I-0.5138 J0.0124
X3.1659 Y0.1209 I-2.4899 J0.4498
X3.1376 Y0.0427 I-0.3001 J0.0645
X3.0905 Y-0.0357 I-0.6987 J0.3668
X3.0268 Y-0.1015 I-0.2234 J0.1526
X2.9491 Y-0.151 I-0.422 J0.5769
X2.8626 Y-0.1826 I-0.147 J0.2674
X2.8128 Y-0.1916 I-0.239 J1.1818
X2.7833 Y-0.1772 I-0.0045 J0.0283
G3 X2.7543 Y-0.1615 I-0.0267 J-0.0147
G1 X2.6245 Y-0.1712
X2.5734 Y-0.1721
G2 X2.5208 Y-0.1726 I-0.0527 J2.8576
G1 X2.0647 Y-0.1715
G2 X2.0526 Y-0.1707 J0.0911
G1 X2.0421 Y-0.1693
G3 X2.0167 I-0.0127 J-0.095
G1 X2.0062 Y-0.1707
G2 X1.9941 Y-0.1715 I-0.0121 J0.0903
G1 X1.5926 Y-0.1726
G2 X1.5459 Y-0.1652 J0.1516
X1.503 Y-0.1454 I0.061 J0.1885
G3 X1.4793 I-0.0119 J-0.0192
G2 X1.4364 Y-0.1652 I-0.104 J0.1686
X1.3897 Y-0.1726 I-0.0467 J0.1442
G1 X0.3706 Y-0.1715
G2 X0.3585 Y-0.1707 J0.0911
G1 X0.348 Y-0.1693
G3 X0.3226 I-0.0127 J-0.095
G1 X0.3121 Y-0.1707
G2 X0.3 Y-0.1715 I-0.0121 J0.0903
G1 X-0.1015 Y-0.1726
G2 X-0.1482 Y-0.1652 J0.1516
X-0.1911 Y-0.1454 I0.061 J0.1885
G3 X-0.2148 I-0.0119 J-0.0192
G2 X-0.2576 Y-0.1652 I-0.104 J0.1687
X-0.3042 Y-0.1726 I-0.0468 J0.1441
G1 X-1.3941
G2 X-1.4747 Y-0.1516 J0.1652
X-1.5359 Y-0.0952 I0.0871 J0.156
G3 X-1.5534 Y-0.091 I-0.0111 J-0.0074
X-1.5916 Y-0.1134 I0.4153 J-0.7523
G2 X-1.6318 Y-0.1319 I-0.094 J0.1513
X-1.7029 Y-0.1524 I-0.4255 J1.3432
X-1.7759 Y-0.1647 I-0.1073 J0.4129
G1 X-1.8286 Y-0.169
G2 X-1.8971 Y-0.172 I-0.0778 J0.9637
G1 X-2.4529 Y-0.1724
G2 X-2.4796 Y-0.1695 J0.1234
X-2.5055 Y-0.1625 I0.061 J0.2758
G3 X-2.5416 I-0.0181 J-0.0559
G2 X-2.5675 Y-0.1695 I-0.0869 J0.2688
X-2.5941 Y-0.1724 I-0.0267 J0.1205
G1 X-2.9824 Y-0.1726
G2 X-3.1549 Y0 J0.1726
G1 Y1.5
G2 X-2.9824 Y1.6726 I0.1726
G1 X-2.5941 Y1.6724
G2 X-2.5675 Y1.6695 J-0.1234
X-2.5416 Y1.6625 I-0.061 J-0.2758
G3 X-2.5055 I0.0181 J0.0559
G2 X-2.4796 Y1.6695 I0.0869 J-0.2688
X-2.4529 Y1.6724 I0.0267 J-0.1205
G1 X-2.0457 Y1.6715
G3 X-1.989 Y1.6702 I0.0928 J2.7261
G2 X-1.9324 Y1.6675 I-0.0108 J-0.8145
G3 X-1.8414 Y1.6609 I0.3537 J4.2588
G2 X-1.7513 Y1.647 I-0.0306 J-0.4965
X-1.6812 Y1.6282 I-0.5181 J-2.0712
X-1.6142 Y1.6001 I-0.0856 J-0.2985
X-1.5886 Y1.585 I-0.3562 J-0.6318
X-1.5634 Y1.5691 I-0.8883 J-1.4346
G3 X-1.5483 Y1.5734 I0.0057 J0.0088
G2 X-1.4856 Y1.6453 I0.1596 J-0.076
X-1.3941 Y1.6726 I0.0915 J-0.1396
G1 X-0.7235
G2 X-0.6725 Y1.6639 J-0.1547
X-0.6264 Y1.6405 I-0.0637 J-0.1822
G3 X-0.6045 I0.0109 J0.0158
G2 X-0.5584 Y1.6639 I0.1098 J-0.1587
X-0.5074 Y1.6726 I0.051 J-0.146
G1 X0.0662
G2 X0.15 Y1.6498 J-0.1658
X0.212 Y1.5889 I-0.0901 J-0.1536
G3 X0.2248 I0.0064 J0.0039
G2 X0.2867 Y1.6498 I0.152 J-0.0927
X0.3706 Y1.6726 I0.0839 J-0.143
G1 X0.7588
G2 X0.9314 Y1.5 J-0.1726
G1 X0.9296 Y0.9173
G3 X0.9373 Y0.9168 I0.0039
G1 X1.0157 Y1.5226
G2 X1.1868 Y1.6726 I0.1711 J-0.0226
G1 X1.7603
G2 X1.8442 Y1.6498 J-0.1658
X1.9061 Y1.5889 I-0.0901 J-0.1536
G3 X1.9189 I0.0064 J0.0039
G2 X1.9808 Y1.6498 I0.152 J-0.0927
X2.0647 Y1.6726 I0.0839 J-0.143
G1 X2.5319 Y1.6716
X2.6015 Y1.6686
G2 X2.6749 Y1.6612 I-0.0279 J-0.6492
X2.8143 Y1.6313 I-0.2014 J-1.2764
X2.8587 Y1.6135 I-0.0561 J-0.2051
G3 X2.9012 Y1.5915 I0.7892 J1.4707
G2 X2.9431 Y1.5635 I-0.0898 J-0.1794
G3 X2.9815 Y1.5309 I1.2854 J1.4789
G2 X3.0134 Y1.4979 I-0.1286 J-0.1558
G3 X3.0417 Y1.4618 I1.5197 J1.1633
G2 X3.0664 Y1.4225 I-0.1557 J-0.1252
G3 X3.0868 Y1.3809 I1.7986 J0.8571
G2 X3.1025 Y1.34 I-0.1904 J-0.0962
G3 X3.1144 Y1.2978 I1.6019 J0.4298
G2 X3.1288 Y1.2228 I-0.3711 J-0.1102
G1 X3.1352 Y1.1519
G2 X3.1385 Y1.0672 I-0.8058 J-0.0734
X3.1313 Y0.9827 I-0.5966 J0.0083
X3.1202 Y0.9233 I-1.0678 J0.1681
X3.1006 Y0.8662 I-0.2473 J0.0532
X3.0911 Y0.8479 I-0.3737 J0.1812
G3 X3.0813 Y0.8297 I1.3893 J-0.7611
X3.0819 Y0.8027 I0.0244 J-0.013
X3.1002 Y0.7733 I0.6197 J0.3653
G2 X3.1153 Y0.7422 I-0.1129 J-0.0741
X3.1549 Y0.4977 I-0.722 J-0.2425
G1 X3.1529 Y0.2833
G2 X3.1457 Y0.2058 I-5.7793 J0.4986
X3.1299 Y0.1296 I-0.3715 J0.0371
X3.1034 Y0.056 I-1.0126 J0.3225
X3.063 Y-0.0109 I-0.2248 J0.0903
X3.0043 Y-0.0724 I-0.5754 J0.4908
X2.9327 Y-0.1182 I-0.1597 J0.1707
X2.8631 Y-0.1434 I-0.3592 J0.8826
X2.7908 Y-0.1588 I-0.1134 J0.3555
G1 X2.7543 Y-0.1615
G2 X2.7254 Y-0.1452 I-0.0022 J0.0299
G3 X2.6964 Y-0.1288 I-0.0267 J-0.0135
G1 X2.6239 Y-0.1342
X2.5728 Y-0.1352
G2 X2.5208 Y-0.1357 I-0.052 J2.8207
G1 X2.0647 Y-0.1345
G2 X2.0544 Y-0.1338 J0.0744
X2.0441 Y-0.1323 I0.0956 J0.6818
G3 X2.0147 I-0.0147 J-0.0947
G2 X2.0044 Y-0.1338 I-0.1058 J0.6803
X1.9941 Y-0.1345 I-0.0103 J0.0737
G1 X1.5926 Y-0.1357
G2 X1.5425 Y-0.1251 J0.1242
X1.4999 Y-0.0965 I0.0596 J0.1349
G3 X1.4824 I-0.0087 J-0.0091
G2 X1.4399 Y-0.1251 I-0.1021 J0.1063
X1.3897 Y-0.1357 I-0.0502 J0.1136
G1 X0.3706 Y-0.1345
G2 X0.3603 Y-0.1338 J0.0744
X0.35 Y-0.1323 I0.0955 J0.6817
G3 X0.3206 I-0.0147 J-0.0947
G2 X0.3103 Y-0.1338 I-0.1058 J0.6802
X0.3 Y-0.1345 I-0.0103 J0.0737
G1 X-0.1015 Y-0.1357
G2 X-0.1517 Y-0.1251 J0.1242
X-0.1943 Y-0.0964 I0.0596 J0.1348
G3 X-0.2115 I-0.0086 J-0.0089
G2 X-0.2541 Y-0.125 I-0.1023 J0.1062
X-0.3043 Y-0.1357 I-0.0503 J0.1135
G1 X-1.3941
G2 X-1.4755 Y-0.1075 J0.1314
X-1.5231 Y-0.0358 I0.0857 J0.1087
G3 X-1.5358 Y-0.0319 I-0.0075 J-0.0021
X-1.553 Y-0.0472 I0.4292 J-0.5007
G2 X-1.5717 Y-0.0606 I-0.0628 J0.0682
X-1.6405 Y-0.095 I-0.6166 J1.1431
X-1.7139 Y-0.1177 I-0.1194 J0.2566
X-1.8333 Y-0.1316 I-0.2062 J1.2549
X-1.9533 Y-0.1357 I-0.12 J1.7529
G1 X-2.4529
G2 X-2.4821 Y-0.1316 J0.106
X-2.5097 Y-0.1212 I0.0511 J0.1784
G3 X-2.5374 I-0.0138 J-0.0295
G2 X-2.5649 Y-0.1316 I-0.0787 J0.168
X-2.5941 Y-0.1357 I-0.0292 J0.1019
G1 X-2.9824
G2 X-3.118 Y0 J0.1357
G1 Y1.5
G2 X-2.9824 Y1.6357 I0.1357
G1 X-2.5941
G2 X-2.5649 Y1.6316 J-0.106
X-2.5374 Y1.6212 I-0.0511 J-0.1784
G3 X-2.5097 I0.0138 J0.0295
G2 X-2.4821 Y1.6316 I0.0787 J-0.168
X-2.4529 Y1.6357 I0.0292 J-0.1019
G1 X-2.047 Y1.6346
G3 X-1.9912 Y1.6333 I0.0882 J2.5918
G2 X-1.9354 Y1.6307 I-0.0099 J-0.7933
G3 X-1.8474 Y1.6245 I0.2942 J3.5424
G2 X-1.7602 Y1.6112 I-0.0274 J-0.4715
X-1.6948 Y1.5939 I-0.6153 J-2.4597
X-1.6323 Y1.568 I-0.0754 J-0.2704
G3 X-1.599 Y1.5495 I1.2662 J2.2458
G2 X-1.5676 Y1.5278 I-0.0857 J-0.1574
X-1.5531 Y1.5144 I-0.207 J-0.2399
G3 X-1.5385 Y1.501 I0.2215 J0.2265
X-1.5279 Y1.5056 I0.0042 J0.0049
G2 X-1.4871 Y1.5975 I0.137 J-0.0058
X-1.3941 Y1.6357 I0.093 J-0.0943
G1 X-0.7235
G2 X-0.6683 Y1.6229 J-0.1261
X-0.6232 Y1.5886 I-0.0634 J-0.1302
G3 X-0.6077 I0.0078 J0.0069
G2 X-0.5626 Y1.6229 I0.1085 J-0.0959
X-0.5074 Y1.6357 I0.0552 J-0.1134
G1 X0.0662
G2 X0.2002 Y1.5209 J-0.1357
G1 X0.2289 Y1.3251
G3 X0.2367 Y1.3257 I0.0039 J0.0006
G1 X0.2349 Y1.5
G2 X0.3706 Y1.6357 I0.1357
G1 X0.7588
G2 X0.8945 Y1.5 J-0.1357
G1 X0.8927 Y0.4433
G3 X0.9021 Y0.4339 I0.0094
X0.9117 Y0.442 I0.0003 J0.0094
G1 X1.0523 Y1.5178
G2 X1.1868 Y1.6357 I0.1345 J-0.0178
G1 X1.7603
G2 X1.8943 Y1.5209 J-0.1357
X1.9087 Y1.423 I-5.374 J-0.8377
G3 X1.923 Y1.3251 I5.3883 J0.7398
X1.9308 Y1.3257 I0.0039 J0.0006
X1.9299 Y1.4129 I-4.2198
G2 X1.929 Y1.5 I4.2189 J0.0871
X2.0647 Y1.6357 I0.1357
G1 X2.5303 Y1.6347
X2.5999 Y1.6317
G2 X2.6691 Y1.6248 I-0.0263 J-0.6123
X2.8046 Y1.5957 I-0.1956 J-1.2399
X2.8456 Y1.579 I-0.0496 J-0.1812
G3 X2.8847 Y1.5585 I0.5453 J0.9911
G2 X2.923 Y1.5326 I-0.0785 J-0.1569
G3 X2.958 Y1.5025 I0.8048 J0.9029
G2 X2.9871 Y1.472 I-0.1125 J-0.1364
G3 X3.013 Y1.4387 I0.9591 J0.7172
G2 X3.0354 Y1.4025 I-0.136 J-0.1094
G3 X3.0539 Y1.3643 I1.1061 J0.5114
G2 X3.0682 Y1.3264 I-0.1683 J-0.0851
G3 X3.079 Y1.2873 I1.0928 J0.2821
G2 X3.092 Y1.2194 I-0.3357 J-0.0997
G1 X3.0985 Y1.1485
G2 X3.1016 Y1.0684 I-0.7703 J-0.0702
X3.0948 Y0.9885 I-0.5604 J0.0072
X3.0757 Y0.9043 I-0.6318 J0.0994
X3.0361 Y0.8276 I-0.2247 J0.0673
G3 X3.0357 Y0.8074 I0.0133 J-0.0104
G2 X3.0608 Y0.7706 I-0.8842 J-0.6314
X3.0803 Y0.7305 I-0.1467 J-0.0959
X3.118 Y0.4977 I-0.687 J-0.2308
G1 X3.1161 Y0.2865
G2 X3.1095 Y0.213 I-9.1996 J0.7936
X3.0947 Y0.1408 I-0.3432 J0.0324
X3.0712 Y0.0739 I-1.1137 J0.3548
X3.0349 Y0.013 I-0.197 J0.0762
X2.9826 Y-0.0425 I-0.593 J0.5057
X2.9187 Y-0.084 I-0.1399 J0.1452
X2.8541 Y-0.1076 I-0.3549 J0.8721
X2.7867 Y-0.1221 I-0.1047 J0.3233
G1 X2.6964 Y-0.1288
G2 X2.6682 Y-0.1126 I-0.0022 J0.0289
