%
(Idealab Coin)
(T1  D=0.0787 CR=0 - ZMIN=-0.05 - bullnose end mill)
G90 G94
G17
G20
G28 G91 Z0
G90

(2D Contour4)
M9
T1 M6
S5000 M3
G54
M8
G0 X0.1403 Y-0.215
Z0.6
Z0.2
G1 Z0.0394 F13.33
Z-0.0421
X0.1406 Y-0.2149 Z-0.0442
X0.1414 Y-0.2148 Z-0.0461
X0.1426 Y-0.2146 Z-0.0477
X0.1442 Y-0.2143 Z-0.0489
X0.1461 Y-0.214 Z-0.0497
X0.1481 Y-0.2137 Z-0.05
X0.1559 Y-0.2124 F40
G3 X0.1623 Y-0.2033 I-0.0013 J0.0078
G2 X0.1618 Y-0.1969 I0.0388 J0.0065
G1 Y0.2438
X0.0358
Y-0.2775
X0.2747
Y-0.2362
X0.2012
G2 X0.1623 Y-0.2033 J0.0394
G3 X0.1533 Y-0.1969 I-0.0078 J-0.0013
G1 X0.1455 Y-0.1982
X0.1435 Y-0.1985 Z-0.0497
X0.1416 Y-0.1988 Z-0.0489
X0.14 Y-0.1991 Z-0.0477
X0.1388 Y-0.1993 Z-0.0461
X0.138 Y-0.1994 Z-0.0442
X0.1377 Y-0.1995 Z-0.0421
G0 Z0.2
X-0.1442 Y0.1729
G1 Z0.0394 F13.33
Z-0.0421
G18 G2 X-0.1363 Z-0.05 I0.0079
G1 X-0.1284 F40
G17 G3 X-0.1205 Y0.1808 J0.0079
G1 Y0.2438
X-0.2465
Y-0.2775
X-0.1205
Y0.1808
G3 X-0.1284 Y0.1887 I-0.0079
G1 X-0.1363
G18 G3 X-0.1442 Z-0.0421 K0.0079
G0 Z0.6
G17
M9
G28 G91 Z0
G28 X0 Y0
M30
%
