%
(IDEAlabLOGO)
(ahhhh!!!!)
(T1  D=2 CR=0 - ZMIN=-4.5 - bullnose end mill)
G90 G94
G17
G21
G28 G91 Z0
G90

(2D Pocket1)
M9
T1 M6
S5000 M3
G54
M8
G0 X-0.184 Y1.236
Z15
Z5
G1 Z2.7 F1000
G3 X-0.207 Y1.224 Z2.602 I0.433 J-0.846 F333.3
X-0.267 Y1.188 Z2.529 I0.455 J-0.834
X-0.346 Y1.132 Z2.5 I0.516 J-0.798
X0.843 Y-0.351 Z2.396 I0.594 J-0.741
X-0.346 Y1.132 Z2.292 I-0.594 J0.741
X0.843 Y-0.351 Z2.187 I0.594 J-0.741
X-0.346 Y1.132 Z2.083 I-0.594 J0.741
X0.843 Y-0.351 Z1.979 I0.594 J-0.741
X-0.346 Y1.132 Z1.875 I-0.594 J0.741
X0.843 Y-0.351 Z1.77 I0.594 J-0.741
X-0.346 Y1.132 Z1.666 I-0.594 J0.741
X0.843 Y-0.351 Z1.562 I0.594 J-0.741
X-0.346 Y1.132 Z1.458 I-0.594 J0.741
X0.843 Y-0.351 Z1.354 I0.594 J-0.741
X-0.346 Y1.132 Z1.249 I-0.594 J0.741
X0.843 Y-0.351 Z1.145 I0.594 J-0.741
X-0.346 Y1.132 Z1.041 I-0.594 J0.741
X0.843 Y-0.351 Z0.937 I0.594 J-0.741
X-0.346 Y1.132 Z0.832 I-0.594 J0.741
X0.843 Y-0.351 Z0.728 I0.594 J-0.741
X-0.346 Y1.132 Z0.624 I-0.594 J0.741
X0.843 Y-0.351 Z0.52 I0.594 J-0.741
X-0.346 Y1.132 Z0.416 I-0.594 J0.741
X0.843 Y-0.351 Z0.311 I0.594 J-0.741
X-0.346 Y1.132 Z0.207 I-0.594 J0.741
X0.843 Y-0.351 Z0.103 I0.594 J-0.741
X-0.346 Y1.132 Z-0.001 I-0.594 J0.741
X0.843 Y-0.351 Z-0.106 I0.594 J-0.741
X-0.346 Y1.132 Z-0.21 I-0.594 J0.741
X0.843 Y-0.351 Z-0.314 I0.594 J-0.741
X-0.346 Y1.132 Z-0.418 I-0.594 J0.741
X0.248 Y-0.56 Z-0.5 I0.594 J-0.741
G1 X0.487 F1000
G3 X0.688 Y-0.268 J0.215
G1 X0.38 Y0.55
G3 X0.115 I-0.132 J-0.05
G1 X-0.191 Y-0.268
G3 X0.011 Y-0.56 I0.202 J-0.076
G1 X0.248
G2 X0.839 Y-0.953 J-0.64
G3 X1.43 Y-1.347 I0.591 J0.246
G1 X1.937
X0.33 Y2.918
X0.256 Y3.115
X0.245 Y3.144
X-1.437 Y-1.347
X1.43
G3 X1.589 Y-1.026 J0.2
G1 X-0.038 Y1.115
G3 X-0.316 Y1.155 I-0.159 J-0.121
X0.813 Y-0.374 Z-0.604 I0.564 J-0.764 F333.3
X-0.316 Y1.155 Z-0.708 I-0.564 J0.764
X0.813 Y-0.374 Z-0.813 I0.564 J-0.764
X-0.316 Y1.155 Z-0.917 I-0.564 J0.764
X0.248 Y-0.56 Z-1 I0.564 J-0.764
G1 X0.487 F1000
G3 X0.688 Y-0.268 J0.215
G1 X0.38 Y0.55
G3 X0.115 I-0.132 J-0.05
G1 X-0.191 Y-0.268
G3 X0.011 Y-0.56 I0.202 J-0.076
G1 X0.248
G2 X0.839 Y-0.953 J-0.64
G3 X1.43 Y-1.347 I0.591 J0.246
G1 X1.937
X0.33 Y2.918
X0.256 Y3.115
X0.245 Y3.144
X-1.437 Y-1.347
X1.43
G3 X1.589 Y-1.026 J0.2
G1 X-0.038 Y1.115
G3 X-0.316 Y1.155 I-0.159 J-0.121
X0.813 Y-0.374 Z-1.104 I0.564 J-0.764 F333.3
X-0.316 Y1.155 Z-1.208 I-0.564 J0.764
X0.813 Y-0.374 Z-1.313 I0.564 J-0.764
X-0.316 Y1.155 Z-1.417 I-0.564 J0.764
X0.248 Y-0.56 Z-1.5 I0.564 J-0.764
G1 X0.487 F1000
G3 X0.688 Y-0.268 J0.215
G1 X0.38 Y0.55
G3 X0.115 I-0.132 J-0.05
G1 X-0.191 Y-0.268
G3 X0.011 Y-0.56 I0.202 J-0.076
G1 X0.248
G2 X0.839 Y-0.953 J-0.64
G3 X1.43 Y-1.347 I0.591 J0.246
G1 X1.937
X0.33 Y2.918
X0.256 Y3.115
X0.245 Y3.144
X-1.437 Y-1.347
X1.43
G3 X1.589 Y-1.026 J0.2
G1 X-0.038 Y1.115
G3 X-0.316 Y1.155 I-0.159 J-0.121
X0.813 Y-0.374 Z-1.604 I0.564 J-0.764 F333.3
X-0.316 Y1.155 Z-1.708 I-0.564 J0.764
X0.813 Y-0.374 Z-1.813 I0.564 J-0.764
X-0.316 Y1.155 Z-1.917 I-0.564 J0.764
X0.248 Y-0.56 Z-2 I0.564 J-0.764
G1 X0.487 F1000
G3 X0.688 Y-0.268 J0.215
G1 X0.38 Y0.55
G3 X0.115 I-0.132 J-0.05
G1 X-0.191 Y-0.268
G3 X0.011 Y-0.56 I0.202 J-0.076
G1 X0.248
G2 X0.839 Y-0.953 J-0.64
G3 X1.43 Y-1.347 I0.591 J0.246
G1 X1.937
X0.33 Y2.918
X0.256 Y3.115
X0.245 Y3.144
X-1.437 Y-1.347
X1.43
G3 X1.589 Y-1.026 J0.2
G1 X-0.038 Y1.115
G3 X-0.316 Y1.155 I-0.159 J-0.121
X0.813 Y-0.374 Z-2.104 I0.564 J-0.764 F333.3
X-0.316 Y1.155 Z-2.208 I-0.564 J0.764
X0.813 Y-0.374 Z-2.313 I0.564 J-0.764
X-0.316 Y1.155 Z-2.417 I-0.564 J0.764
X0.248 Y-0.56 Z-2.5 I0.564 J-0.764
G1 X0.487 F1000
G3 X0.688 Y-0.268 J0.215
G1 X0.38 Y0.55
G3 X0.115 I-0.132 J-0.05
G1 X-0.191 Y-0.268
G3 X0.011 Y-0.56 I0.202 J-0.076
G1 X0.248
G2 X0.839 Y-0.953 J-0.64
G3 X1.43 Y-1.347 I0.591 J0.246
G1 X1.937
X0.33 Y2.918
X0.256 Y3.115
X0.245 Y3.144
X-1.437 Y-1.347
X1.43
G3 X1.589 Y-1.026 J0.2
G1 X-0.038 Y1.115
G3 X-0.316 Y1.155 I-0.159 J-0.121
X0.813 Y-0.374 Z-2.604 I0.564 J-0.764 F333.3
X-0.316 Y1.155 Z-2.708 I-0.564 J0.764
X0.813 Y-0.374 Z-2.813 I0.564 J-0.764
X-0.316 Y1.155 Z-2.917 I-0.564 J0.764
X0.248 Y-0.56 Z-3 I0.564 J-0.764
G1 X0.487 F1000
G3 X0.688 Y-0.268 J0.215
G1 X0.38 Y0.55
G3 X0.115 I-0.132 J-0.05
G1 X-0.191 Y-0.268
G3 X0.011 Y-0.56 I0.202 J-0.076
G1 X0.248
G2 X0.839 Y-0.953 J-0.64
G3 X1.43 Y-1.347 I0.591 J0.246
G1 X1.937
X0.33 Y2.918
X0.256 Y3.115
X0.245 Y3.144
X-1.437 Y-1.347
X1.43
G3 X1.589 Y-1.026 J0.2
G1 X-0.038 Y1.115
G3 X-0.316 Y1.155 I-0.159 J-0.121
X0.813 Y-0.374 Z-3.104 I0.564 J-0.764 F333.3
X-0.316 Y1.155 Z-3.208 I-0.564 J0.764
X0.813 Y-0.374 Z-3.313 I0.564 J-0.764
X-0.316 Y1.155 Z-3.417 I-0.564 J0.764
X0.248 Y-0.56 Z-3.5 I0.564 J-0.764
G1 X0.487 F1000
G3 X0.688 Y-0.268 J0.215
G1 X0.38 Y0.55
G3 X0.115 I-0.132 J-0.05
G1 X-0.191 Y-0.268
G3 X0.011 Y-0.56 I0.202 J-0.076
G1 X0.248
G2 X0.839 Y-0.953 J-0.64
G3 X1.43 Y-1.347 I0.591 J0.246
G1 X1.937
X0.33 Y2.918
X0.256 Y3.115
X0.245 Y3.144
X-1.437 Y-1.347
X1.43
G3 X1.589 Y-1.026 J0.2
G1 X-0.038 Y1.115
G3 X-0.316 Y1.155 I-0.159 J-0.121
X0.813 Y-0.374 Z-3.604 I0.564 J-0.764 F333.3
X-0.316 Y1.155 Z-3.708 I-0.564 J0.764
X0.813 Y-0.374 Z-3.813 I0.564 J-0.764
X-0.316 Y1.155 Z-3.917 I-0.564 J0.764
X0.248 Y-0.56 Z-4 I0.564 J-0.764
G1 X0.487 F1000
G3 X0.688 Y-0.268 J0.215
G1 X0.38 Y0.55
G3 X0.115 I-0.132 J-0.05
G1 X-0.191 Y-0.268
G3 X0.011 Y-0.56 I0.202 J-0.076
G1 X0.248
G2 X0.839 Y-0.953 J-0.64
G3 X1.43 Y-1.347 I0.591 J0.246
G1 X1.937
X0.33 Y2.918
X0.256 Y3.115
X0.245 Y3.144
X-1.437 Y-1.347
X1.43
G3 X1.589 Y-1.026 J0.2
G1 X-0.038 Y1.115
G3 X-0.316 Y1.155 I-0.159 J-0.121
X0.813 Y-0.374 Z-4.104 I0.564 J-0.764 F333.3
X-0.316 Y1.155 Z-4.208 I-0.564 J0.764
X0.813 Y-0.374 Z-4.313 I0.564 J-0.764
X-0.316 Y1.155 Z-4.417 I-0.564 J0.764
X0.248 Y-0.56 Z-4.5 I0.564 J-0.764
G1 X0.487 F1000
G3 X0.688 Y-0.268 J0.215
G1 X0.38 Y0.55
G3 X0.115 I-0.132 J-0.05
G1 X-0.191 Y-0.268
G3 X0.011 Y-0.56 I0.202 J-0.076
G1 X0.248
G2 X0.839 Y-0.953 J-0.64
G3 X1.43 Y-1.347 I0.591 J0.246
G1 X1.937
X0.33 Y2.918
X0.256 Y3.115
X0.245 Y3.144
X-1.437 Y-1.347
X1.43
G3 X1.526 Y-1.323 Z-4.473 J0.2
X1.582 Y-1.277 Z-4.4 I-0.096 J0.176
X1.598 Y-1.255 Z-4.3 I-0.152 J0.13
G0 Z5
X38.406 Y-0.387
G1 Z2.7 F1000
G3 X38.409 Y-0.413 Z2.602 I0.944 J0.109 F333.3
X38.422 Y-0.482 Z2.529 I0.941 J0.134
X38.447 Y-0.576 Z2.5 I0.928 J0.203
X40.252 Y0.018 Z2.396 I0.902 J0.297
X38.447 Y-0.576 Z2.292 I-0.902 J-0.297
X40.252 Y0.018 Z2.187 I0.902 J0.297
X38.447 Y-0.576 Z2.083 I-0.902 J-0.297
X40.252 Y0.018 Z1.979 I0.902 J0.297
X38.447 Y-0.576 Z1.875 I-0.902 J-0.297
X40.252 Y0.018 Z1.77 I0.902 J0.297
X38.447 Y-0.576 Z1.666 I-0.902 J-0.297
X40.252 Y0.018 Z1.562 I0.902 J0.297
X38.447 Y-0.576 Z1.458 I-0.902 J-0.297
X40.252 Y0.018 Z1.354 I0.902 J0.297
X38.447 Y-0.576 Z1.249 I-0.902 J-0.297
X40.252 Y0.018 Z1.145 I0.902 J0.297
X38.447 Y-0.576 Z1.041 I-0.902 J-0.297
X40.252 Y0.018 Z0.937 I0.902 J0.297
X38.447 Y-0.576 Z0.832 I-0.902 J-0.297
X40.252 Y0.018 Z0.728 I0.902 J0.297
X38.447 Y-0.576 Z0.624 I-0.902 J-0.297
X40.252 Y0.018 Z0.52 I0.902 J0.297
X38.447 Y-0.576 Z0.416 I-0.902 J-0.297
X40.252 Y0.018 Z0.311 I0.902 J0.297
X38.447 Y-0.576 Z0.207 I-0.902 J-0.297
X40.252 Y0.018 Z0.103 I0.902 J0.297
X38.447 Y-0.576 Z-0.001 I-0.902 J-0.297
X40.252 Y0.018 Z-0.106 I0.902 J0.297
X38.447 Y-0.576 Z-0.21 I-0.902 J-0.297
X40.252 Y0.018 Z-0.314 I0.902 J0.297
X38.447 Y-0.576 Z-0.418 I-0.902 J-0.297
X40.239 Y-0.612 Z-0.5 I0.902 J0.297
X38.727 Y-0.046 I-0.756 J0.283
G1 X38.643 Y-0.268 F1000
G3 X38.846 Y-0.56 I0.202 J-0.076
G1 X39.322
G3 X39.523 Y-0.268 J0.215
G1 X39.215 Y0.55
G3 X38.95 I-0.132 J-0.05
G1 X38.727 Y-0.046
G2 X38.151 Y-0.461 I-0.599 J0.224
G3 X37.575 Y-0.876 I0.023 J-0.64
G1 X37.398 Y-1.347
X40.772
X39.164 Y2.918
X39.09 Y3.115
X39.08 Y3.144
X37.575 Y-0.876
G3 X37.706 Y-1.138 I0.187 J-0.07
X37.958 Y-0.987 I0.056 J0.192
G1 X38.048 Y-0.554
G2 X38.436 Y-0.54 I0.196 J-0.041
G3 X40.263 Y-0.018 Z-0.604 I0.914 J0.261 F333.3
X38.436 Y-0.54 Z-0.708 I-0.914 J-0.261
X40.263 Y-0.018 Z-0.813 I0.914 J0.261
X38.436 Y-0.54 Z-0.917 I-0.914 J-0.261
X40.239 Y-0.612 Z-1 I0.914 J0.261
X38.727 Y-0.046 I-0.756 J0.283
G1 X38.643 Y-0.268 F1000
G3 X38.846 Y-0.56 I0.202 J-0.076
G1 X39.322
G3 X39.523 Y-0.268 J0.215
G1 X39.215 Y0.55
G3 X38.95 I-0.132 J-0.05
G1 X38.727 Y-0.046
G2 X38.151 Y-0.461 I-0.599 J0.224
G3 X37.575 Y-0.876 I0.023 J-0.64
G1 X37.398 Y-1.347
X40.772
X39.164 Y2.918
X39.09 Y3.115
X39.08 Y3.144
X37.575 Y-0.876
G3 X37.706 Y-1.138 I0.187 J-0.07
X37.958 Y-0.987 I0.056 J0.192
G1 X38.048 Y-0.554
G2 X38.436 Y-0.54 I0.196 J-0.041
G3 X40.263 Y-0.018 Z-1.104 I0.914 J0.261 F333.3
X38.436 Y-0.54 Z-1.208 I-0.914 J-0.261
X40.263 Y-0.018 Z-1.313 I0.914 J0.261
X38.436 Y-0.54 Z-1.417 I-0.914 J-0.261
X40.239 Y-0.612 Z-1.5 I0.914 J0.261
X38.727 Y-0.046 I-0.756 J0.283
G1 X38.643 Y-0.268 F1000
G3 X38.846 Y-0.56 I0.202 J-0.076
G1 X39.322
G3 X39.523 Y-0.268 J0.215
G1 X39.215 Y0.55
G3 X38.95 I-0.132 J-0.05
G1 X38.727 Y-0.046
G2 X38.151 Y-0.461 I-0.599 J0.224
G3 X37.575 Y-0.876 I0.023 J-0.64
G1 X37.398 Y-1.347
X40.772
X39.164 Y2.918
X39.09 Y3.115
X39.08 Y3.144
X37.575 Y-0.876
G3 X37.706 Y-1.138 I0.187 J-0.07
X37.958 Y-0.987 I0.056 J0.192
G1 X38.048 Y-0.554
G2 X38.436 Y-0.54 I0.196 J-0.041
G3 X40.263 Y-0.018 Z-1.604 I0.914 J0.261 F333.3
X38.436 Y-0.54 Z-1.708 I-0.914 J-0.261
X40.263 Y-0.018 Z-1.813 I0.914 J0.261
X38.436 Y-0.54 Z-1.917 I-0.914 J-0.261
X40.239 Y-0.612 Z-2 I0.914 J0.261
X38.727 Y-0.046 I-0.756 J0.283
G1 X38.643 Y-0.268 F1000
G3 X38.846 Y-0.56 I0.202 J-0.076
G1 X39.322
G3 X39.523 Y-0.268 J0.215
G1 X39.215 Y0.55
G3 X38.95 I-0.132 J-0.05
G1 X38.727 Y-0.046
G2 X38.151 Y-0.461 I-0.599 J0.224
G3 X37.575 Y-0.876 I0.023 J-0.64
G1 X37.398 Y-1.347
X40.772
X39.164 Y2.918
X39.09 Y3.115
X39.08 Y3.144
X37.575 Y-0.876
G3 X37.706 Y-1.138 I0.187 J-0.07
X37.958 Y-0.987 I0.056 J0.192
G1 X38.048 Y-0.554
G2 X38.436 Y-0.54 I0.196 J-0.041
G3 X40.263 Y-0.018 Z-2.104 I0.914 J0.261 F333.3
X38.436 Y-0.54 Z-2.208 I-0.914 J-0.261
X40.263 Y-0.018 Z-2.313 I0.914 J0.261
X38.436 Y-0.54 Z-2.417 I-0.914 J-0.261
X40.239 Y-0.612 Z-2.5 I0.914 J0.261
X38.727 Y-0.046 I-0.756 J0.283
G1 X38.643 Y-0.268 F1000
G3 X38.846 Y-0.56 I0.202 J-0.076
G1 X39.322
G3 X39.523 Y-0.268 J0.215
G1 X39.215 Y0.55
G3 X38.95 I-0.132 J-0.05
G1 X38.727 Y-0.046
G2 X38.151 Y-0.461 I-0.599 J0.224
G3 X37.575 Y-0.876 I0.023 J-0.64
G1 X37.398 Y-1.347
X40.772
X39.164 Y2.918
X39.09 Y3.115
X39.08 Y3.144
X37.575 Y-0.876
G3 X37.706 Y-1.138 I0.187 J-0.07
X37.958 Y-0.987 I0.056 J0.192
G1 X38.048 Y-0.554
G2 X38.436 Y-0.54 I0.196 J-0.041
G3 X40.263 Y-0.018 Z-2.604 I0.914 J0.261 F333.3
X38.436 Y-0.54 Z-2.708 I-0.914 J-0.261
X40.263 Y-0.018 Z-2.813 I0.914 J0.261
X38.436 Y-0.54 Z-2.917 I-0.914 J-0.261
X40.239 Y-0.612 Z-3 I0.914 J0.261
X38.727 Y-0.046 I-0.756 J0.283
G1 X38.643 Y-0.268 F1000
G3 X38.846 Y-0.56 I0.202 J-0.076
G1 X39.322
G3 X39.523 Y-0.268 J0.215
G1 X39.215 Y0.55
G3 X38.95 I-0.132 J-0.05
G1 X38.727 Y-0.046
G2 X38.151 Y-0.461 I-0.599 J0.224
G3 X37.575 Y-0.876 I0.023 J-0.64
G1 X37.398 Y-1.347
X40.772
X39.164 Y2.918
X39.09 Y3.115
X39.08 Y3.144
X37.575 Y-0.876
G3 X37.706 Y-1.138 I0.187 J-0.07
X37.958 Y-0.987 I0.056 J0.192
G1 X38.048 Y-0.554
G2 X38.436 Y-0.54 I0.196 J-0.041
G3 X40.263 Y-0.018 Z-3.104 I0.914 J0.261 F333.3
X38.436 Y-0.54 Z-3.208 I-0.914 J-0.261
X40.263 Y-0.018 Z-3.313 I0.914 J0.261
X38.436 Y-0.54 Z-3.417 I-0.914 J-0.261
X40.239 Y-0.612 Z-3.5 I0.914 J0.261
X38.727 Y-0.046 I-0.756 J0.283
G1 X38.643 Y-0.268 F1000
G3 X38.846 Y-0.56 I0.202 J-0.076
G1 X39.322
G3 X39.523 Y-0.268 J0.215
G1 X39.215 Y0.55
G3 X38.95 I-0.132 J-0.05
G1 X38.727 Y-0.046
G2 X38.151 Y-0.461 I-0.599 J0.224
G3 X37.575 Y-0.876 I0.023 J-0.64
G1 X37.398 Y-1.347
X40.772
X39.164 Y2.918
X39.09 Y3.115
X39.08 Y3.144
X37.575 Y-0.876
G3 X37.706 Y-1.138 I0.187 J-0.07
X37.958 Y-0.987 I0.056 J0.192
G1 X38.048 Y-0.554
G2 X38.436 Y-0.54 I0.196 J-0.041
G3 X40.263 Y-0.018 Z-3.604 I0.914 J0.261 F333.3
X38.436 Y-0.54 Z-3.708 I-0.914 J-0.261
X40.263 Y-0.018 Z-3.813 I0.914 J0.261
X38.436 Y-0.54 Z-3.917 I-0.914 J-0.261
X40.239 Y-0.612 Z-4 I0.914 J0.261
X38.727 Y-0.046 I-0.756 J0.283
G1 X38.643 Y-0.268 F1000
G3 X38.846 Y-0.56 I0.202 J-0.076
G1 X39.322
G3 X39.523 Y-0.268 J0.215
G1 X39.215 Y0.55
G3 X38.95 I-0.132 J-0.05
G1 X38.727 Y-0.046
G2 X38.151 Y-0.461 I-0.599 J0.224
G3 X37.575 Y-0.876 I0.023 J-0.64
G1 X37.398 Y-1.347
X40.772
X39.164 Y2.918
X39.09 Y3.115
X39.08 Y3.144
X37.575 Y-0.876
G3 X37.706 Y-1.138 I0.187 J-0.07
X37.958 Y-0.987 I0.056 J0.192
G1 X38.048 Y-0.554
G2 X38.436 Y-0.54 I0.196 J-0.041
G3 X40.263 Y-0.018 Z-4.104 I0.914 J0.261 F333.3
X38.436 Y-0.54 Z-4.208 I-0.914 J-0.261
X40.263 Y-0.018 Z-4.313 I0.914 J0.261
X38.436 Y-0.54 Z-4.417 I-0.914 J-0.261
X40.239 Y-0.612 Z-4.5 I0.914 J0.261
X38.727 Y-0.046 I-0.756 J0.283
G1 X38.643 Y-0.268 F1000
G3 X38.846 Y-0.56 I0.202 J-0.076
G1 X39.322
G3 X39.523 Y-0.268 J0.215
G1 X39.215 Y0.55
G3 X38.95 I-0.132 J-0.05
G1 X38.727 Y-0.046
G2 X38.151 Y-0.461 I-0.599 J0.224
G3 X37.575 Y-0.876 I0.023 J-0.64
G1 X37.398 Y-1.347
X40.772
X39.164 Y2.918
X39.09 Y3.115
X39.08 Y3.144
X37.575 Y-0.876
G3 X37.564 Y-0.974 Z-4.473 I0.187 J-0.07
X37.587 Y-1.043 Z-4.4 I0.198 J0.028
X37.602 Y-1.066 Z-4.3 I0.175 J0.097
G0 Z5
X60.47 Y2.95
G1 Z2.7 F1000
G3 X60.493 Y2.962 Z2.602 I-0.416 J0.854 F333.3
X60.554 Y2.996 Z2.529 I-0.439 J0.842
X60.634 Y3.052 Z2.5 I-0.5 J0.808
X59.474 Y4.556 Z2.396 I-0.58 J0.752
X60.634 Y3.052 Z2.292 I0.58 J-0.752
X59.474 Y4.556 Z2.187 I-0.58 J0.752
X60.634 Y3.052 Z2.083 I0.58 J-0.752
X59.474 Y4.556 Z1.979 I-0.58 J0.752
X60.634 Y3.052 Z1.875 I0.58 J-0.752
X59.474 Y4.556 Z1.77 I-0.58 J0.752
X60.634 Y3.052 Z1.666 I0.58 J-0.752
X59.474 Y4.556 Z1.562 I-0.58 J0.752
X60.634 Y3.052 Z1.458 I0.58 J-0.752
X59.474 Y4.556 Z1.354 I-0.58 J0.752
X60.634 Y3.052 Z1.249 I0.58 J-0.752
X59.474 Y4.556 Z1.145 I-0.58 J0.752
X60.634 Y3.052 Z1.041 I0.58 J-0.752
X59.474 Y4.556 Z0.937 I-0.58 J0.752
X60.634 Y3.052 Z0.832 I0.58 J-0.752
X59.474 Y4.556 Z0.728 I-0.58 J0.752
X60.634 Y3.052 Z0.624 I0.58 J-0.752
X59.474 Y4.556 Z0.52 I-0.58 J0.752
X60.634 Y3.052 Z0.416 I0.58 J-0.752
X59.474 Y4.556 Z0.311 I-0.58 J0.752
X60.634 Y3.052 Z0.207 I0.58 J-0.752
X59.474 Y4.556 Z0.103 I-0.58 J0.752
X60.634 Y3.052 Z-0.001 I0.58 J-0.752
X59.474 Y4.556 Z-0.106 I-0.58 J0.752
X60.634 Y3.052 Z-0.21 I0.58 J-0.752
X59.474 Y4.556 Z-0.314 I-0.58 J0.752
X60.634 Y3.052 Z-0.418 I0.58 J-0.752
X60.072 Y4.754 Z-0.5 I-0.58 J0.752
G2 X59.477 Y4.773 I0.426 J22.366 F1000
G3 X58.619 Y4.796 I-0.858 J-16.188
X58.303 Y4.48 J-0.315
G1 Y4.386
G3 X58.623 Y4.067 I0.319
X59.856 Y4.074 J110.019
X61.09 Y4.109 I-0.398 J35.483
X61.558 Y4.135 I-1.069 J23.238
X62.022 Y4.194 I-0.258 J3.894
X62.021 Y4.657 I-0.044 J0.231
X61.18 Y4.74 I-0.925 J-5.041
X60.335 Y4.75 I-1.524 J-93.059
G2 X60.072 Y4.754 I0.163 J22.369
X58.882 Y5.565 I0.025 J1.315
G3 X57.685 Y6.365 I-1.198 J-0.496
G1 X56.734
Y2.497
X60.148
X60.269
X60.387 Y2.498
X60.503
X60.618 Y2.499
X60.73 Y2.5
X60.841 Y2.502
X60.951 Y2.504
X61.058 Y2.508
X61.163 Y2.512
X61.267 Y2.517
X61.369 Y2.524
X61.469 Y2.531
X61.567 Y2.54
X61.663 Y2.55
X61.759 Y2.562
X61.856 Y2.575
X61.956 Y2.59
X62.059 Y2.607
X62.163 Y2.625
X62.271 Y2.644
X62.38 Y2.665
X62.492 Y2.686
X62.607 Y2.709
X62.617 Y2.711
X62.674 Y2.731
X62.747 Y2.758
X62.814 Y2.783
X62.876 Y2.807
X62.934 Y2.831
X62.985 Y2.853
X63.032 Y2.874
X63.073 Y2.894
X63.108 Y2.913
X63.139 Y2.93
X63.164 Y2.946
X63.186 Y2.96
X63.209 Y2.977
X63.236 Y2.999
X63.267 Y3.025
X63.302 Y3.056
X63.34 Y3.092
X63.382 Y3.133
X63.427 Y3.178
X63.475 Y3.229
X63.526 Y3.284
X63.571 Y3.359
X63.605 Y3.42
X63.636 Y3.478
X63.663 Y3.53
X63.686 Y3.577
X63.706 Y3.621
X63.723 Y3.66
X63.735 Y3.692
X63.745 Y3.721
X63.753 Y3.747
X63.761 Y3.777
X63.769 Y3.812
X63.777 Y3.853
X63.785 Y3.899
X63.792 Y3.95
X63.798 Y4.007
X63.804 Y4.068
X63.81 Y4.136
X63.815 Y4.208
X63.819 Y4.285
X63.824 Y4.366
X63.819 Y4.462
X63.814 Y4.538
X63.809 Y4.611
X63.803 Y4.68
X63.797 Y4.743
X63.79 Y4.802
X63.783 Y4.856
X63.775 Y4.906
X63.767 Y4.949
X63.758 Y4.989
X63.749 Y5.024
X63.74 Y5.056
X63.728 Y5.093
X63.714 Y5.133
X63.697 Y5.177
X63.676 Y5.225
X63.653 Y5.278
X63.627 Y5.335
X63.597 Y5.395
X63.565 Y5.46
X63.53 Y5.528
X63.513 Y5.561
X63.496 Y5.584
X63.453 Y5.639
X63.413 Y5.689
X63.375 Y5.735
X63.341 Y5.775
X63.31 Y5.809
X63.283 Y5.838
X63.259 Y5.862
X63.239 Y5.881
X63.223 Y5.894
X63.211 Y5.904
X63.197 Y5.914
X63.179 Y5.926
X63.155 Y5.941
X63.124 Y5.958
X63.088 Y5.977
X63.046 Y5.998
X62.997 Y6.02
X62.943 Y6.044
X62.884 Y6.07
X62.819 Y6.097
X62.8 Y6.105
X62.657 Y6.133
X62.521 Y6.16
X62.387 Y6.185
X62.256 Y6.209
X62.128 Y6.232
X62.002 Y6.252
X61.878 Y6.271
X61.757 Y6.288
X61.637 Y6.302
X61.517 Y6.315
X61.394 Y6.326
X61.27 Y6.335
X61.144 Y6.343
X61.016 Y6.349
X60.886 Y6.354
X60.754 Y6.358
X60.62 Y6.361
X60.484 Y6.363
X60.347 Y6.365
X60.208
X60.067 Y6.366
X59.924
X59.779 Y6.365
X57.685
G3 X57.539 Y6.028 J-0.2
G1 X60.342 Y3.055
G3 X60.604 Y3.029 I0.146 J0.137
X59.504 Y4.579 Z-0.604 I-0.55 J0.775 F333.3
X60.604 Y3.029 Z-0.708 I0.55 J-0.775
X59.504 Y4.579 Z-0.813 I-0.55 J0.775
X60.604 Y3.029 Z-0.917 I0.55 J-0.775
X60.072 Y4.754 Z-1 I-0.55 J0.775
G2 X59.477 Y4.773 I0.426 J22.366 F1000
G3 X58.619 Y4.796 I-0.858 J-16.188
X58.303 Y4.48 J-0.315
G1 Y4.386
G3 X58.623 Y4.067 I0.319
X59.856 Y4.074 J110.019
X61.09 Y4.109 I-0.398 J35.483
X61.558 Y4.135 I-1.069 J23.238
X62.022 Y4.194 I-0.258 J3.894
X62.021 Y4.657 I-0.044 J0.231
X61.18 Y4.74 I-0.925 J-5.041
X60.335 Y4.75 I-1.524 J-93.059
G2 X60.072 Y4.754 I0.163 J22.369
X58.882 Y5.565 I0.025 J1.315
G3 X57.685 Y6.365 I-1.198 J-0.496
G1 X56.734
Y2.497
X60.148
X60.269
X60.387 Y2.498
X60.503
X60.618 Y2.499
X60.73 Y2.5
X60.841 Y2.502
X60.951 Y2.504
X61.058 Y2.508
X61.163 Y2.512
X61.267 Y2.517
X61.369 Y2.524
X61.469 Y2.531
X61.567 Y2.54
X61.663 Y2.55
X61.759 Y2.562
X61.856 Y2.575
X61.956 Y2.59
X62.059 Y2.607
X62.163 Y2.625
X62.271 Y2.644
X62.38 Y2.665
X62.492 Y2.686
X62.607 Y2.709
X62.617 Y2.711
X62.674 Y2.731
X62.747 Y2.758
X62.814 Y2.783
X62.876 Y2.807
X62.934 Y2.831
X62.985 Y2.853
X63.032 Y2.874
X63.073 Y2.894
X63.108 Y2.913
X63.139 Y2.93
X63.164 Y2.946
X63.186 Y2.96
X63.209 Y2.977
X63.236 Y2.999
X63.267 Y3.025
X63.302 Y3.056
X63.34 Y3.092
X63.382 Y3.133
X63.427 Y3.178
X63.475 Y3.229
X63.526 Y3.284
X63.571 Y3.359
X63.605 Y3.42
X63.636 Y3.478
X63.663 Y3.53
X63.686 Y3.577
X63.706 Y3.621
X63.723 Y3.66
X63.735 Y3.692
X63.745 Y3.721
X63.753 Y3.747
X63.761 Y3.777
X63.769 Y3.812
X63.777 Y3.853
X63.785 Y3.899
X63.792 Y3.95
X63.798 Y4.007
X63.804 Y4.068
X63.81 Y4.136
X63.815 Y4.208
X63.819 Y4.285
X63.824 Y4.366
X63.819 Y4.462
X63.814 Y4.538
X63.809 Y4.611
X63.803 Y4.68
X63.797 Y4.743
X63.79 Y4.802
X63.783 Y4.856
X63.775 Y4.906
X63.767 Y4.949
X63.758 Y4.989
X63.749 Y5.024
X63.74 Y5.056
X63.728 Y5.093
X63.714 Y5.133
X63.697 Y5.177
X63.676 Y5.225
X63.653 Y5.278
X63.627 Y5.335
X63.597 Y5.395
X63.565 Y5.46
X63.53 Y5.528
X63.513 Y5.561
X63.496 Y5.584
X63.453 Y5.639
X63.413 Y5.689
X63.375 Y5.735
X63.341 Y5.775
X63.31 Y5.809
X63.283 Y5.838
X63.259 Y5.862
X63.239 Y5.881
X63.223 Y5.894
X63.211 Y5.904
X63.197 Y5.914
X63.179 Y5.926
X63.155 Y5.941
X63.124 Y5.958
X63.088 Y5.977
X63.046 Y5.998
X62.997 Y6.02
X62.943 Y6.044
X62.884 Y6.07
X62.819 Y6.097
X62.8 Y6.105
X62.657 Y6.133
X62.521 Y6.16
X62.387 Y6.185
X62.256 Y6.209
X62.128 Y6.232
X62.002 Y6.252
X61.878 Y6.271
X61.757 Y6.288
X61.637 Y6.302
X61.517 Y6.315
X61.394 Y6.326
X61.27 Y6.335
X61.144 Y6.343
X61.016 Y6.349
X60.886 Y6.354
X60.754 Y6.358
X60.62 Y6.361
X60.484 Y6.363
X60.347 Y6.365
X60.208
X60.067 Y6.366
X59.924
X59.779 Y6.365
X57.685
G3 X57.539 Y6.028 J-0.2
G1 X60.342 Y3.055
G3 X60.604 Y3.029 I0.146 J0.137
X59.504 Y4.579 Z-1.104 I-0.55 J0.775 F333.3
X60.604 Y3.029 Z-1.208 I0.55 J-0.775
X59.504 Y4.579 Z-1.313 I-0.55 J0.775
X60.604 Y3.029 Z-1.417 I0.55 J-0.775
X60.072 Y4.754 Z-1.5 I-0.55 J0.775
G2 X59.477 Y4.773 I0.426 J22.366 F1000
G3 X58.619 Y4.796 I-0.858 J-16.188
X58.303 Y4.48 J-0.315
G1 Y4.386
G3 X58.623 Y4.067 I0.319
X59.856 Y4.074 J110.019
X61.09 Y4.109 I-0.398 J35.483
X61.558 Y4.135 I-1.069 J23.238
X62.022 Y4.194 I-0.258 J3.894
X62.021 Y4.657 I-0.044 J0.231
X61.18 Y4.74 I-0.925 J-5.041
X60.335 Y4.75 I-1.524 J-93.059
G2 X60.072 Y4.754 I0.163 J22.369
X58.882 Y5.565 I0.025 J1.315
G3 X57.685 Y6.365 I-1.198 J-0.496
G1 X56.734
Y2.497
X60.148
X60.269
X60.387 Y2.498
X60.503
X60.618 Y2.499
X60.73 Y2.5
X60.841 Y2.502
X60.951 Y2.504
X61.058 Y2.508
X61.163 Y2.512
X61.267 Y2.517
X61.369 Y2.524
X61.469 Y2.531
X61.567 Y2.54
X61.663 Y2.55
X61.759 Y2.562
X61.856 Y2.575
X61.956 Y2.59
X62.059 Y2.607
X62.163 Y2.625
X62.271 Y2.644
X62.38 Y2.665
X62.492 Y2.686
X62.607 Y2.709
X62.617 Y2.711
X62.674 Y2.731
X62.747 Y2.758
X62.814 Y2.783
X62.876 Y2.807
X62.934 Y2.831
X62.985 Y2.853
X63.032 Y2.874
X63.073 Y2.894
X63.108 Y2.913
X63.139 Y2.93
X63.164 Y2.946
X63.186 Y2.96
X63.209 Y2.977
X63.236 Y2.999
X63.267 Y3.025
X63.302 Y3.056
X63.34 Y3.092
X63.382 Y3.133
X63.427 Y3.178
X63.475 Y3.229
X63.526 Y3.284
X63.571 Y3.359
X63.605 Y3.42
X63.636 Y3.478
X63.663 Y3.53
X63.686 Y3.577
X63.706 Y3.621
X63.723 Y3.66
X63.735 Y3.692
X63.745 Y3.721
X63.753 Y3.747
X63.761 Y3.777
X63.769 Y3.812
X63.777 Y3.853
X63.785 Y3.899
X63.792 Y3.95
X63.798 Y4.007
X63.804 Y4.068
X63.81 Y4.136
X63.815 Y4.208
X63.819 Y4.285
X63.824 Y4.366
X63.819 Y4.462
X63.814 Y4.538
X63.809 Y4.611
X63.803 Y4.68
X63.797 Y4.743
X63.79 Y4.802
X63.783 Y4.856
X63.775 Y4.906
X63.767 Y4.949
X63.758 Y4.989
X63.749 Y5.024
X63.74 Y5.056
X63.728 Y5.093
X63.714 Y5.133
X63.697 Y5.177
X63.676 Y5.225
X63.653 Y5.278
X63.627 Y5.335
X63.597 Y5.395
X63.565 Y5.46
X63.53 Y5.528
X63.513 Y5.561
X63.496 Y5.584
X63.453 Y5.639
X63.413 Y5.689
X63.375 Y5.735
X63.341 Y5.775
X63.31 Y5.809
X63.283 Y5.838
X63.259 Y5.862
X63.239 Y5.881
X63.223 Y5.894
X63.211 Y5.904
X63.197 Y5.914
X63.179 Y5.926
X63.155 Y5.941
X63.124 Y5.958
X63.088 Y5.977
X63.046 Y5.998
X62.997 Y6.02
X62.943 Y6.044
X62.884 Y6.07
X62.819 Y6.097
X62.8 Y6.105
X62.657 Y6.133
X62.521 Y6.16
X62.387 Y6.185
X62.256 Y6.209
X62.128 Y6.232
X62.002 Y6.252
X61.878 Y6.271
X61.757 Y6.288
X61.637 Y6.302
X61.517 Y6.315
X61.394 Y6.326
X61.27 Y6.335
X61.144 Y6.343
X61.016 Y6.349
X60.886 Y6.354
X60.754 Y6.358
X60.62 Y6.361
X60.484 Y6.363
X60.347 Y6.365
X60.208
X60.067 Y6.366
X59.924
X59.779 Y6.365
X57.685
G3 X57.539 Y6.028 J-0.2
G1 X60.342 Y3.055
G3 X60.604 Y3.029 I0.146 J0.137
X59.504 Y4.579 Z-1.604 I-0.55 J0.775 F333.3
X60.604 Y3.029 Z-1.708 I0.55 J-0.775
X59.504 Y4.579 Z-1.813 I-0.55 J0.775
X60.604 Y3.029 Z-1.917 I0.55 J-0.775
X60.072 Y4.754 Z-2 I-0.55 J0.775
G2 X59.477 Y4.773 I0.426 J22.366 F1000
G3 X58.619 Y4.796 I-0.858 J-16.188
X58.303 Y4.48 J-0.315
G1 Y4.386
G3 X58.623 Y4.067 I0.319
X59.856 Y4.074 J110.019
X61.09 Y4.109 I-0.398 J35.483
X61.558 Y4.135 I-1.069 J23.238
X62.022 Y4.194 I-0.258 J3.894
X62.021 Y4.657 I-0.044 J0.231
X61.18 Y4.74 I-0.925 J-5.041
X60.335 Y4.75 I-1.524 J-93.059
G2 X60.072 Y4.754 I0.163 J22.369
X58.882 Y5.565 I0.025 J1.315
G3 X57.685 Y6.365 I-1.198 J-0.496
G1 X56.734
Y2.497
X60.148
X60.269
X60.387 Y2.498
X60.503
X60.618 Y2.499
X60.73 Y2.5
X60.841 Y2.502
X60.951 Y2.504
X61.058 Y2.508
X61.163 Y2.512
X61.267 Y2.517
X61.369 Y2.524
X61.469 Y2.531
X61.567 Y2.54
X61.663 Y2.55
X61.759 Y2.562
X61.856 Y2.575
X61.956 Y2.59
X62.059 Y2.607
X62.163 Y2.625
X62.271 Y2.644
X62.38 Y2.665
X62.492 Y2.686
X62.607 Y2.709
X62.617 Y2.711
X62.674 Y2.731
X62.747 Y2.758
X62.814 Y2.783
X62.876 Y2.807
X62.934 Y2.831
X62.985 Y2.853
X63.032 Y2.874
X63.073 Y2.894
X63.108 Y2.913
X63.139 Y2.93
X63.164 Y2.946
X63.186 Y2.96
X63.209 Y2.977
X63.236 Y2.999
X63.267 Y3.025
X63.302 Y3.056
X63.34 Y3.092
X63.382 Y3.133
X63.427 Y3.178
X63.475 Y3.229
X63.526 Y3.284
X63.571 Y3.359
X63.605 Y3.42
X63.636 Y3.478
X63.663 Y3.53
X63.686 Y3.577
X63.706 Y3.621
X63.723 Y3.66
X63.735 Y3.692
X63.745 Y3.721
X63.753 Y3.747
X63.761 Y3.777
X63.769 Y3.812
X63.777 Y3.853
X63.785 Y3.899
X63.792 Y3.95
X63.798 Y4.007
X63.804 Y4.068
X63.81 Y4.136
X63.815 Y4.208
X63.819 Y4.285
X63.824 Y4.366
X63.819 Y4.462
X63.814 Y4.538
X63.809 Y4.611
X63.803 Y4.68
X63.797 Y4.743
X63.79 Y4.802
X63.783 Y4.856
X63.775 Y4.906
X63.767 Y4.949
X63.758 Y4.989
X63.749 Y5.024
X63.74 Y5.056
X63.728 Y5.093
X63.714 Y5.133
X63.697 Y5.177
X63.676 Y5.225
X63.653 Y5.278
X63.627 Y5.335
X63.597 Y5.395
X63.565 Y5.46
X63.53 Y5.528
X63.513 Y5.561
X63.496 Y5.584
X63.453 Y5.639
X63.413 Y5.689
X63.375 Y5.735
X63.341 Y5.775
X63.31 Y5.809
X63.283 Y5.838
X63.259 Y5.862
X63.239 Y5.881
X63.223 Y5.894
X63.211 Y5.904
X63.197 Y5.914
X63.179 Y5.926
X63.155 Y5.941
X63.124 Y5.958
X63.088 Y5.977
X63.046 Y5.998
X62.997 Y6.02
X62.943 Y6.044
X62.884 Y6.07
X62.819 Y6.097
X62.8 Y6.105
X62.657 Y6.133
X62.521 Y6.16
X62.387 Y6.185
X62.256 Y6.209
X62.128 Y6.232
X62.002 Y6.252
X61.878 Y6.271
X61.757 Y6.288
X61.637 Y6.302
X61.517 Y6.315
X61.394 Y6.326
X61.27 Y6.335
X61.144 Y6.343
X61.016 Y6.349
X60.886 Y6.354
X60.754 Y6.358
X60.62 Y6.361
X60.484 Y6.363
X60.347 Y6.365
X60.208
X60.067 Y6.366
X59.924
X59.779 Y6.365
X57.685
G3 X57.539 Y6.028 J-0.2
G1 X60.342 Y3.055
G3 X60.604 Y3.029 I0.146 J0.137
X59.504 Y4.579 Z-2.104 I-0.55 J0.775 F333.3
X60.604 Y3.029 Z-2.208 I0.55 J-0.775
X59.504 Y4.579 Z-2.313 I-0.55 J0.775
X60.604 Y3.029 Z-2.417 I0.55 J-0.775
X60.072 Y4.754 Z-2.5 I-0.55 J0.775
G2 X59.477 Y4.773 I0.426 J22.366 F1000
G3 X58.619 Y4.796 I-0.858 J-16.188
X58.303 Y4.48 J-0.315
G1 Y4.386
G3 X58.623 Y4.067 I0.319
X59.856 Y4.074 J110.019
X61.09 Y4.109 I-0.398 J35.483
X61.558 Y4.135 I-1.069 J23.238
X62.022 Y4.194 I-0.258 J3.894
X62.021 Y4.657 I-0.044 J0.231
X61.18 Y4.74 I-0.925 J-5.041
X60.335 Y4.75 I-1.524 J-93.059
G2 X60.072 Y4.754 I0.163 J22.369
X58.882 Y5.565 I0.025 J1.315
G3 X57.685 Y6.365 I-1.198 J-0.496
G1 X56.734
Y2.497
X60.148
X60.269
X60.387 Y2.498
X60.503
X60.618 Y2.499
X60.73 Y2.5
X60.841 Y2.502
X60.951 Y2.504
X61.058 Y2.508
X61.163 Y2.512
X61.267 Y2.517
X61.369 Y2.524
X61.469 Y2.531
X61.567 Y2.54
X61.663 Y2.55
X61.759 Y2.562
X61.856 Y2.575
X61.956 Y2.59
X62.059 Y2.607
X62.163 Y2.625
X62.271 Y2.644
X62.38 Y2.665
X62.492 Y2.686
X62.607 Y2.709
X62.617 Y2.711
X62.674 Y2.731
X62.747 Y2.758
X62.814 Y2.783
X62.876 Y2.807
X62.934 Y2.831
X62.985 Y2.853
X63.032 Y2.874
X63.073 Y2.894
X63.108 Y2.913
X63.139 Y2.93
X63.164 Y2.946
X63.186 Y2.96
X63.209 Y2.977
X63.236 Y2.999
X63.267 Y3.025
X63.302 Y3.056
X63.34 Y3.092
X63.382 Y3.133
X63.427 Y3.178
X63.475 Y3.229
X63.526 Y3.284
X63.571 Y3.359
X63.605 Y3.42
X63.636 Y3.478
X63.663 Y3.53
X63.686 Y3.577
X63.706 Y3.621
X63.723 Y3.66
X63.735 Y3.692
X63.745 Y3.721
X63.753 Y3.747
X63.761 Y3.777
X63.769 Y3.812
X63.777 Y3.853
X63.785 Y3.899
X63.792 Y3.95
X63.798 Y4.007
X63.804 Y4.068
X63.81 Y4.136
X63.815 Y4.208
X63.819 Y4.285
X63.824 Y4.366
X63.819 Y4.462
X63.814 Y4.538
X63.809 Y4.611
X63.803 Y4.68
X63.797 Y4.743
X63.79 Y4.802
X63.783 Y4.856
X63.775 Y4.906
X63.767 Y4.949
X63.758 Y4.989
X63.749 Y5.024
X63.74 Y5.056
X63.728 Y5.093
X63.714 Y5.133
X63.697 Y5.177
X63.676 Y5.225
X63.653 Y5.278
X63.627 Y5.335
X63.597 Y5.395
X63.565 Y5.46
X63.53 Y5.528
X63.513 Y5.561
X63.496 Y5.584
X63.453 Y5.639
X63.413 Y5.689
X63.375 Y5.735
X63.341 Y5.775
X63.31 Y5.809
X63.283 Y5.838
X63.259 Y5.862
X63.239 Y5.881
X63.223 Y5.894
X63.211 Y5.904
X63.197 Y5.914
X63.179 Y5.926
X63.155 Y5.941
X63.124 Y5.958
X63.088 Y5.977
X63.046 Y5.998
X62.997 Y6.02
X62.943 Y6.044
X62.884 Y6.07
X62.819 Y6.097
X62.8 Y6.105
X62.657 Y6.133
X62.521 Y6.16
X62.387 Y6.185
X62.256 Y6.209
X62.128 Y6.232
X62.002 Y6.252
X61.878 Y6.271
X61.757 Y6.288
X61.637 Y6.302
X61.517 Y6.315
X61.394 Y6.326
X61.27 Y6.335
X61.144 Y6.343
X61.016 Y6.349
X60.886 Y6.354
X60.754 Y6.358
X60.62 Y6.361
X60.484 Y6.363
X60.347 Y6.365
X60.208
X60.067 Y6.366
X59.924
X59.779 Y6.365
X57.685
G3 X57.539 Y6.028 J-0.2
G1 X60.342 Y3.055
G3 X60.604 Y3.029 I0.146 J0.137
X59.504 Y4.579 Z-2.604 I-0.55 J0.775 F333.3
X60.604 Y3.029 Z-2.708 I0.55 J-0.775
X59.504 Y4.579 Z-2.813 I-0.55 J0.775
X60.604 Y3.029 Z-2.917 I0.55 J-0.775
X60.072 Y4.754 Z-3 I-0.55 J0.775
G2 X59.477 Y4.773 I0.426 J22.366 F1000
G3 X58.619 Y4.796 I-0.858 J-16.188
X58.303 Y4.48 J-0.315
G1 Y4.386
G3 X58.623 Y4.067 I0.319
X59.856 Y4.074 J110.019
X61.09 Y4.109 I-0.398 J35.483
X61.558 Y4.135 I-1.069 J23.238
X62.022 Y4.194 I-0.258 J3.894
X62.021 Y4.657 I-0.044 J0.231
X61.18 Y4.74 I-0.925 J-5.041
X60.335 Y4.75 I-1.524 J-93.059
G2 X60.072 Y4.754 I0.163 J22.369
X58.882 Y5.565 I0.025 J1.315
G3 X57.685 Y6.365 I-1.198 J-0.496
G1 X56.734
Y2.497
X60.148
X60.269
X60.387 Y2.498
X60.503
X60.618 Y2.499
X60.73 Y2.5
X60.841 Y2.502
X60.951 Y2.504
X61.058 Y2.508
X61.163 Y2.512
X61.267 Y2.517
X61.369 Y2.524
X61.469 Y2.531
X61.567 Y2.54
X61.663 Y2.55
X61.759 Y2.562
X61.856 Y2.575
X61.956 Y2.59
X62.059 Y2.607
X62.163 Y2.625
X62.271 Y2.644
X62.38 Y2.665
X62.492 Y2.686
X62.607 Y2.709
X62.617 Y2.711
X62.674 Y2.731
X62.747 Y2.758
X62.814 Y2.783
X62.876 Y2.807
X62.934 Y2.831
X62.985 Y2.853
X63.032 Y2.874
X63.073 Y2.894
X63.108 Y2.913
X63.139 Y2.93
X63.164 Y2.946
X63.186 Y2.96
X63.209 Y2.977
X63.236 Y2.999
X63.267 Y3.025
X63.302 Y3.056
X63.34 Y3.092
X63.382 Y3.133
X63.427 Y3.178
X63.475 Y3.229
X63.526 Y3.284
X63.571 Y3.359
X63.605 Y3.42
X63.636 Y3.478
X63.663 Y3.53
X63.686 Y3.577
X63.706 Y3.621
X63.723 Y3.66
X63.735 Y3.692
X63.745 Y3.721
X63.753 Y3.747
X63.761 Y3.777
X63.769 Y3.812
X63.777 Y3.853
X63.785 Y3.899
X63.792 Y3.95
X63.798 Y4.007
X63.804 Y4.068
X63.81 Y4.136
X63.815 Y4.208
X63.819 Y4.285
X63.824 Y4.366
X63.819 Y4.462
X63.814 Y4.538
X63.809 Y4.611
X63.803 Y4.68
X63.797 Y4.743
X63.79 Y4.802
X63.783 Y4.856
X63.775 Y4.906
X63.767 Y4.949
X63.758 Y4.989
X63.749 Y5.024
X63.74 Y5.056
X63.728 Y5.093
X63.714 Y5.133
X63.697 Y5.177
X63.676 Y5.225
X63.653 Y5.278
X63.627 Y5.335
X63.597 Y5.395
X63.565 Y5.46
X63.53 Y5.528
X63.513 Y5.561
X63.496 Y5.584
X63.453 Y5.639
X63.413 Y5.689
X63.375 Y5.735
X63.341 Y5.775
X63.31 Y5.809
X63.283 Y5.838
X63.259 Y5.862
X63.239 Y5.881
X63.223 Y5.894
X63.211 Y5.904
X63.197 Y5.914
X63.179 Y5.926
X63.155 Y5.941
X63.124 Y5.958
X63.088 Y5.977
X63.046 Y5.998
X62.997 Y6.02
X62.943 Y6.044
X62.884 Y6.07
X62.819 Y6.097
X62.8 Y6.105
X62.657 Y6.133
X62.521 Y6.16
X62.387 Y6.185
X62.256 Y6.209
X62.128 Y6.232
X62.002 Y6.252
X61.878 Y6.271
X61.757 Y6.288
X61.637 Y6.302
X61.517 Y6.315
X61.394 Y6.326
X61.27 Y6.335
X61.144 Y6.343
X61.016 Y6.349
X60.886 Y6.354
X60.754 Y6.358
X60.62 Y6.361
X60.484 Y6.363
X60.347 Y6.365
X60.208
X60.067 Y6.366
X59.924
X59.779 Y6.365
X57.685
G3 X57.539 Y6.028 J-0.2
G1 X60.342 Y3.055
G3 X60.604 Y3.029 I0.146 J0.137
X59.504 Y4.579 Z-3.104 I-0.55 J0.775 F333.3
X60.604 Y3.029 Z-3.208 I0.55 J-0.775
X59.504 Y4.579 Z-3.313 I-0.55 J0.775
X60.604 Y3.029 Z-3.417 I0.55 J-0.775
X60.072 Y4.754 Z-3.5 I-0.55 J0.775
G2 X59.477 Y4.773 I0.426 J22.366 F1000
G3 X58.619 Y4.796 I-0.858 J-16.188
X58.303 Y4.48 J-0.315
G1 Y4.386
G3 X58.623 Y4.067 I0.319
X59.856 Y4.074 J110.019
X61.09 Y4.109 I-0.398 J35.483
X61.558 Y4.135 I-1.069 J23.238
X62.022 Y4.194 I-0.258 J3.894
X62.021 Y4.657 I-0.044 J0.231
X61.18 Y4.74 I-0.925 J-5.041
X60.335 Y4.75 I-1.524 J-93.059
G2 X60.072 Y4.754 I0.163 J22.369
X58.882 Y5.565 I0.025 J1.315
G3 X57.685 Y6.365 I-1.198 J-0.496
G1 X56.734
Y2.497
X60.148
X60.269
X60.387 Y2.498
X60.503
X60.618 Y2.499
X60.73 Y2.5
X60.841 Y2.502
X60.951 Y2.504
X61.058 Y2.508
X61.163 Y2.512
X61.267 Y2.517
X61.369 Y2.524
X61.469 Y2.531
X61.567 Y2.54
X61.663 Y2.55
X61.759 Y2.562
X61.856 Y2.575
X61.956 Y2.59
X62.059 Y2.607
X62.163 Y2.625
X62.271 Y2.644
X62.38 Y2.665
X62.492 Y2.686
X62.607 Y2.709
X62.617 Y2.711
X62.674 Y2.731
X62.747 Y2.758
X62.814 Y2.783
X62.876 Y2.807
X62.934 Y2.831
X62.985 Y2.853
X63.032 Y2.874
X63.073 Y2.894
X63.108 Y2.913
X63.139 Y2.93
X63.164 Y2.946
X63.186 Y2.96
X63.209 Y2.977
X63.236 Y2.999
X63.267 Y3.025
X63.302 Y3.056
X63.34 Y3.092
X63.382 Y3.133
X63.427 Y3.178
X63.475 Y3.229
X63.526 Y3.284
X63.571 Y3.359
X63.605 Y3.42
X63.636 Y3.478
X63.663 Y3.53
X63.686 Y3.577
X63.706 Y3.621
X63.723 Y3.66
X63.735 Y3.692
X63.745 Y3.721
X63.753 Y3.747
X63.761 Y3.777
X63.769 Y3.812
X63.777 Y3.853
X63.785 Y3.899
X63.792 Y3.95
X63.798 Y4.007
X63.804 Y4.068
X63.81 Y4.136
X63.815 Y4.208
X63.819 Y4.285
X63.824 Y4.366
X63.819 Y4.462
X63.814 Y4.538
X63.809 Y4.611
X63.803 Y4.68
X63.797 Y4.743
X63.79 Y4.802
X63.783 Y4.856
X63.775 Y4.906
X63.767 Y4.949
X63.758 Y4.989
X63.749 Y5.024
X63.74 Y5.056
X63.728 Y5.093
X63.714 Y5.133
X63.697 Y5.177
X63.676 Y5.225
X63.653 Y5.278
X63.627 Y5.335
X63.597 Y5.395
X63.565 Y5.46
X63.53 Y5.528
X63.513 Y5.561
X63.496 Y5.584
X63.453 Y5.639
X63.413 Y5.689
X63.375 Y5.735
X63.341 Y5.775
X63.31 Y5.809
X63.283 Y5.838
X63.259 Y5.862
X63.239 Y5.881
X63.223 Y5.894
X63.211 Y5.904
X63.197 Y5.914
X63.179 Y5.926
X63.155 Y5.941
X63.124 Y5.958
X63.088 Y5.977
X63.046 Y5.998
X62.997 Y6.02
X62.943 Y6.044
X62.884 Y6.07
X62.819 Y6.097
X62.8 Y6.105
X62.657 Y6.133
X62.521 Y6.16
X62.387 Y6.185
X62.256 Y6.209
X62.128 Y6.232
X62.002 Y6.252
X61.878 Y6.271
X61.757 Y6.288
X61.637 Y6.302
X61.517 Y6.315
X61.394 Y6.326
X61.27 Y6.335
X61.144 Y6.343
X61.016 Y6.349
X60.886 Y6.354
X60.754 Y6.358
X60.62 Y6.361
X60.484 Y6.363
X60.347 Y6.365
X60.208
X60.067 Y6.366
X59.924
X59.779 Y6.365
X57.685
G3 X57.539 Y6.028 J-0.2
G1 X60.342 Y3.055
G3 X60.604 Y3.029 I0.146 J0.137
X59.504 Y4.579 Z-3.604 I-0.55 J0.775 F333.3
X60.604 Y3.029 Z-3.708 I0.55 J-0.775
X59.504 Y4.579 Z-3.813 I-0.55 J0.775
X60.604 Y3.029 Z-3.917 I0.55 J-0.775
X60.072 Y4.754 Z-4 I-0.55 J0.775
G2 X59.477 Y4.773 I0.426 J22.366 F1000
G3 X58.619 Y4.796 I-0.858 J-16.188
X58.303 Y4.48 J-0.315
G1 Y4.386
G3 X58.623 Y4.067 I0.319
X59.856 Y4.074 J110.019
X61.09 Y4.109 I-0.398 J35.483
X61.558 Y4.135 I-1.069 J23.238
X62.022 Y4.194 I-0.258 J3.894
X62.021 Y4.657 I-0.044 J0.231
X61.18 Y4.74 I-0.925 J-5.041
X60.335 Y4.75 I-1.524 J-93.059
G2 X60.072 Y4.754 I0.163 J22.369
X58.882 Y5.565 I0.025 J1.315
G3 X57.685 Y6.365 I-1.198 J-0.496
G1 X56.734
Y2.497
X60.148
X60.269
X60.387 Y2.498
X60.503
X60.618 Y2.499
X60.73 Y2.5
X60.841 Y2.502
X60.951 Y2.504
X61.058 Y2.508
X61.163 Y2.512
X61.267 Y2.517
X61.369 Y2.524
X61.469 Y2.531
X61.567 Y2.54
X61.663 Y2.55
X61.759 Y2.562
X61.856 Y2.575
X61.956 Y2.59
X62.059 Y2.607
X62.163 Y2.625
X62.271 Y2.644
X62.38 Y2.665
X62.492 Y2.686
X62.607 Y2.709
X62.617 Y2.711
X62.674 Y2.731
X62.747 Y2.758
X62.814 Y2.783
X62.876 Y2.807
X62.934 Y2.831
X62.985 Y2.853
X63.032 Y2.874
X63.073 Y2.894
X63.108 Y2.913
X63.139 Y2.93
X63.164 Y2.946
X63.186 Y2.96
X63.209 Y2.977
X63.236 Y2.999
X63.267 Y3.025
X63.302 Y3.056
X63.34 Y3.092
X63.382 Y3.133
X63.427 Y3.178
X63.475 Y3.229
X63.526 Y3.284
X63.571 Y3.359
X63.605 Y3.42
X63.636 Y3.478
X63.663 Y3.53
X63.686 Y3.577
X63.706 Y3.621
X63.723 Y3.66
X63.735 Y3.692
X63.745 Y3.721
X63.753 Y3.747
X63.761 Y3.777
X63.769 Y3.812
X63.777 Y3.853
X63.785 Y3.899
X63.792 Y3.95
X63.798 Y4.007
X63.804 Y4.068
X63.81 Y4.136
X63.815 Y4.208
X63.819 Y4.285
X63.824 Y4.366
X63.819 Y4.462
X63.814 Y4.538
X63.809 Y4.611
X63.803 Y4.68
X63.797 Y4.743
X63.79 Y4.802
X63.783 Y4.856
X63.775 Y4.906
X63.767 Y4.949
X63.758 Y4.989
X63.749 Y5.024
X63.74 Y5.056
X63.728 Y5.093
X63.714 Y5.133
X63.697 Y5.177
X63.676 Y5.225
X63.653 Y5.278
X63.627 Y5.335
X63.597 Y5.395
X63.565 Y5.46
X63.53 Y5.528
X63.513 Y5.561
X63.496 Y5.584
X63.453 Y5.639
X63.413 Y5.689
X63.375 Y5.735
X63.341 Y5.775
X63.31 Y5.809
X63.283 Y5.838
X63.259 Y5.862
X63.239 Y5.881
X63.223 Y5.894
X63.211 Y5.904
X63.197 Y5.914
X63.179 Y5.926
X63.155 Y5.941
X63.124 Y5.958
X63.088 Y5.977
X63.046 Y5.998
X62.997 Y6.02
X62.943 Y6.044
X62.884 Y6.07
X62.819 Y6.097
X62.8 Y6.105
X62.657 Y6.133
X62.521 Y6.16
X62.387 Y6.185
X62.256 Y6.209
X62.128 Y6.232
X62.002 Y6.252
X61.878 Y6.271
X61.757 Y6.288
X61.637 Y6.302
X61.517 Y6.315
X61.394 Y6.326
X61.27 Y6.335
X61.144 Y6.343
X61.016 Y6.349
X60.886 Y6.354
X60.754 Y6.358
X60.62 Y6.361
X60.484 Y6.363
X60.347 Y6.365
X60.208
X60.067 Y6.366
X59.924
X59.779 Y6.365
X57.685
G3 X57.539 Y6.028 J-0.2
G1 X60.342 Y3.055
G3 X60.604 Y3.029 I0.146 J0.137
X59.504 Y4.579 Z-4.104 I-0.55 J0.775 F333.3
X60.604 Y3.029 Z-4.208 I0.55 J-0.775
X59.504 Y4.579 Z-4.313 I-0.55 J0.775
X60.604 Y3.029 Z-4.417 I0.55 J-0.775
X60.072 Y4.754 Z-4.5 I-0.55 J0.775
G2 X59.477 Y4.773 I0.426 J22.366 F1000
G3 X58.619 Y4.796 I-0.858 J-16.188
X58.303 Y4.48 J-0.315
G1 Y4.386
G3 X58.623 Y4.067 I0.319
X59.856 Y4.074 J110.019
X61.09 Y4.109 I-0.398 J35.483
X61.558 Y4.135 I-1.069 J23.238
X62.022 Y4.194 I-0.258 J3.894
X62.021 Y4.657 I-0.044 J0.231
X61.18 Y4.74 I-0.925 J-5.041
X60.335 Y4.75 I-1.524 J-93.059
G2 X60.072 Y4.754 I0.163 J22.369
X58.882 Y5.565 I0.025 J1.315
G3 X57.685 Y6.365 I-1.198 J-0.496
G1 X56.734
Y2.497
X60.148
X60.269
X60.387 Y2.498
X60.503
X60.618 Y2.499
X60.73 Y2.5
X60.841 Y2.502
X60.951 Y2.504
X61.058 Y2.508
X61.163 Y2.512
X61.267 Y2.517
X61.369 Y2.524
X61.469 Y2.531
X61.567 Y2.54
X61.663 Y2.55
X61.759 Y2.562
X61.856 Y2.575
X61.956 Y2.59
X62.059 Y2.607
X62.163 Y2.625
X62.271 Y2.644
X62.38 Y2.665
X62.492 Y2.686
X62.607 Y2.709
X62.617 Y2.711
X62.674 Y2.731
X62.747 Y2.758
X62.814 Y2.783
X62.876 Y2.807
X62.934 Y2.831
X62.985 Y2.853
X63.032 Y2.874
X63.073 Y2.894
X63.108 Y2.913
X63.139 Y2.93
X63.164 Y2.946
X63.186 Y2.96
X63.209 Y2.977
X63.236 Y2.999
X63.267 Y3.025
X63.302 Y3.056
X63.34 Y3.092
X63.382 Y3.133
X63.427 Y3.178
X63.475 Y3.229
X63.526 Y3.284
X63.571 Y3.359
X63.605 Y3.42
X63.636 Y3.478
X63.663 Y3.53
X63.686 Y3.577
X63.706 Y3.621
X63.723 Y3.66
X63.735 Y3.692
X63.745 Y3.721
X63.753 Y3.747
X63.761 Y3.777
X63.769 Y3.812
X63.777 Y3.853
X63.785 Y3.899
X63.792 Y3.95
X63.798 Y4.007
X63.804 Y4.068
X63.81 Y4.136
X63.815 Y4.208
X63.819 Y4.285
X63.824 Y4.366
X63.819 Y4.462
X63.814 Y4.538
X63.809 Y4.611
X63.803 Y4.68
X63.797 Y4.743
X63.79 Y4.802
X63.783 Y4.856
X63.775 Y4.906
X63.767 Y4.949
X63.758 Y4.989
X63.749 Y5.024
X63.74 Y5.056
X63.728 Y5.093
X63.714 Y5.133
X63.697 Y5.177
X63.676 Y5.225
X63.653 Y5.278
X63.627 Y5.335
X63.597 Y5.395
X63.565 Y5.46
X63.53 Y5.528
X63.513 Y5.561
X63.496 Y5.584
X63.453 Y5.639
X63.413 Y5.689
X63.375 Y5.735
X63.341 Y5.775
X63.31 Y5.809
X63.283 Y5.838
X63.259 Y5.862
X63.239 Y5.881
X63.223 Y5.894
X63.211 Y5.904
X63.197 Y5.914
X63.179 Y5.926
X63.155 Y5.941
X63.124 Y5.958
X63.088 Y5.977
X63.046 Y5.998
X62.997 Y6.02
X62.943 Y6.044
X62.884 Y6.07
X62.819 Y6.097
X62.8 Y6.105
X62.657 Y6.133
X62.521 Y6.16
X62.387 Y6.185
X62.256 Y6.209
X62.128 Y6.232
X62.002 Y6.252
X61.878 Y6.271
X61.757 Y6.288
X61.637 Y6.302
X61.517 Y6.315
X61.394 Y6.326
X61.27 Y6.335
X61.144 Y6.343
X61.016 Y6.349
X60.886 Y6.354
X60.754 Y6.358
X60.62 Y6.361
X60.484 Y6.363
X60.347 Y6.365
X60.208
X60.067 Y6.366
X59.924
X59.779 Y6.365
X57.685
G3 X57.589 Y6.341 Z-4.473 J-0.2
X57.532 Y6.295 Z-4.4 I0.096 J-0.176
X57.516 Y6.273 Z-4.3 I0.152 J-0.13
G0 Z5
X60.876 Y-6.596
G1 Z2.7 F1000
G3 X60.9 Y-6.584 Z2.602 I-0.406 J0.859 F333.3
X60.961 Y-6.55 Z2.529 I-0.429 J0.848
X61.041 Y-6.496 Z2.5 I-0.49 J0.814
X59.9 Y-4.977 Z2.396 I-0.571 J0.76
X61.041 Y-6.496 Z2.292 I0.571 J-0.76
X59.9 Y-4.977 Z2.187 I-0.571 J0.76
X61.041 Y-6.496 Z2.083 I0.571 J-0.76
X59.9 Y-4.977 Z1.979 I-0.571 J0.76
X61.041 Y-6.496 Z1.875 I0.571 J-0.76
X59.9 Y-4.977 Z1.77 I-0.571 J0.76
X61.041 Y-6.496 Z1.666 I0.571 J-0.76
X59.9 Y-4.977 Z1.562 I-0.571 J0.76
X61.041 Y-6.496 Z1.458 I0.571 J-0.76
X59.9 Y-4.977 Z1.354 I-0.571 J0.76
X61.041 Y-6.496 Z1.249 I0.571 J-0.76
X59.9 Y-4.977 Z1.145 I-0.571 J0.76
X61.041 Y-6.496 Z1.041 I0.571 J-0.76
X59.9 Y-4.977 Z0.937 I-0.571 J0.76
X61.041 Y-6.496 Z0.832 I0.571 J-0.76
X59.9 Y-4.977 Z0.728 I-0.571 J0.76
X61.041 Y-6.496 Z0.624 I0.571 J-0.76
X59.9 Y-4.977 Z0.52 I-0.571 J0.76
X61.041 Y-6.496 Z0.416 I0.571 J-0.76
X59.9 Y-4.977 Z0.311 I-0.571 J0.76
X61.041 Y-6.496 Z0.207 I0.571 J-0.76
X59.9 Y-4.977 Z0.103 I-0.571 J0.76
X61.041 Y-6.496 Z-0.001 I0.571 J-0.76
X59.9 Y-4.977 Z-0.106 I-0.571 J0.76
X61.041 Y-6.496 Z-0.21 I0.571 J-0.76
X59.9 Y-4.977 Z-0.314 I-0.571 J0.76
X61.041 Y-6.496 Z-0.418 I0.571 J-0.759
X60.501 Y-4.787 Z-0.5 I-0.571 J0.759
G1 X60.287 Y-4.78 F1000
G3 X58.619 Y-4.754 I-1.668 J-52.883
X58.303 Y-5.069 J-0.315
G1 Y-6.109
G3 X58.623 Y-6.429 I0.319
G1 X60.46
G3 X61.889 Y-6.382 J22.134
G2 X62.34 Y-6.354 I5.787 J-89.484
G3 X62.785 Y-6.276 I-0.118 J1.982
X63.187 Y-5.782 I-0.16 J0.541
X63.188 Y-5.475 I-1.922 J0.161
X62.752 Y-4.968 I-0.563 J-0.044
X61.996 Y-4.852 I-1.167 J-5.08
X61.233 Y-4.81 I-1.272 J-16.092
G1 X60.501 Y-4.787
G2 X59.33 Y-3.976 I0.041 J1.31
G3 X58.147 Y-3.185 I-1.183 J-0.488
G1 X56.734
Y-7.998
X60.892
X60.98
X61.064
X61.147
X61.229
X61.31
X61.39 Y-7.997
X61.469 Y-7.996
X61.547 Y-7.995
X61.623 Y-7.993
X61.699 Y-7.991
X61.774 Y-7.988
X61.848 Y-7.985
X61.92 Y-7.981
X61.992 Y-7.977
X62.063 Y-7.972
X62.135 Y-7.966
X62.208 Y-7.96
X62.283 Y-7.953
X62.36 Y-7.945
X62.438 Y-7.937
X62.517 Y-7.928
X62.598 Y-7.919
X62.681 Y-7.909
X62.699 Y-7.907
X62.78 Y-7.89
X62.849 Y-7.876
X62.916 Y-7.861
X62.979 Y-7.847
X63.039 Y-7.832
X63.097 Y-7.818
X63.152 Y-7.804
X63.203 Y-7.789
X63.252 Y-7.775
X63.297 Y-7.76
X63.339 Y-7.746
X63.38 Y-7.732
X63.421 Y-7.715
X63.464 Y-7.698
X63.51 Y-7.678
X63.559 Y-7.655
X63.61 Y-7.631
X63.664 Y-7.604
X63.72 Y-7.576
X63.779 Y-7.546
X63.841 Y-7.513
X63.874 Y-7.496
X63.894 Y-7.481
X63.943 Y-7.445
X63.989 Y-7.41
X64.031 Y-7.376
X64.069 Y-7.346
X64.104 Y-7.317
X64.133 Y-7.291
X64.159 Y-7.268
X64.182 Y-7.246
X64.201 Y-7.227
X64.217 Y-7.21
X64.233 Y-7.191
X64.252 Y-7.167
X64.273 Y-7.14
X64.295 Y-7.111
X64.32 Y-7.076
X64.347 Y-7.037
X64.375 Y-6.995
X64.404 Y-6.949
X64.435 Y-6.899
X64.468 Y-6.846
X64.491 Y-6.808
X64.517 Y-6.749
X64.546 Y-6.682
X64.573 Y-6.619
X64.598 Y-6.559
X64.621 Y-6.502
X64.641 Y-6.449
X64.659 Y-6.4
X64.674 Y-6.355
X64.687 Y-6.314
X64.697 Y-6.276
X64.706 Y-6.241
X64.714 Y-6.203
X64.722 Y-6.162
X64.729 Y-6.116
X64.736 Y-6.066
X64.742 Y-6.012
X64.748 Y-5.954
X64.753 Y-5.892
X64.758 Y-5.826
X64.762 Y-5.755
X64.766 Y-5.681
X64.77 Y-5.604
X64.769 Y-5.584
X64.763 Y-5.492
X64.757 Y-5.405
X64.751 Y-5.324
X64.744 Y-5.247
X64.736 Y-5.174
X64.728 Y-5.107
X64.719 Y-5.047
X64.709 Y-4.99
X64.699 Y-4.939
X64.689 Y-4.894
X64.678 Y-4.854
X64.666 Y-4.815
X64.651 Y-4.774
X64.634 Y-4.729
X64.612 Y-4.678
X64.588 Y-4.625
X64.559 Y-4.566
X64.527 Y-4.502
X64.492 Y-4.435
X64.453 Y-4.364
X64.411 Y-4.288
X64.383 Y-4.24
X64.351 Y-4.202
X64.297 Y-4.138
X64.246 Y-4.079
X64.198 Y-4.025
X64.153 Y-3.976
X64.111 Y-3.932
X64.072 Y-3.893
X64.036 Y-3.86
X64.003 Y-3.831
X63.974 Y-3.807
X63.947 Y-3.787
X63.919 Y-3.767
X63.885 Y-3.745
X63.846 Y-3.722
X63.802 Y-3.698
X63.752 Y-3.672
X63.696 Y-3.644
X63.634 Y-3.616
X63.568 Y-3.586
X63.495 Y-3.555
X63.418 Y-3.523
X63.357 Y-3.498
X63.336 Y-3.493
X63.203 Y-3.462
X63.073 Y-3.432
X62.946 Y-3.403
X62.821 Y-3.376
X62.699 Y-3.351
X62.579 Y-3.328
X62.462 Y-3.306
X62.347 Y-3.287
X62.235 Y-3.27
X62.123 Y-3.255
X62.01 Y-3.243
X61.895 Y-3.231
X61.777 Y-3.222
X61.657 Y-3.213
X61.535 Y-3.207
X61.41 Y-3.201
X61.284 Y-3.196
X61.155 Y-3.193
X61.024 Y-3.19
X60.891 Y-3.188
X60.755 Y-3.187
X60.618 Y-3.185
X60.484
X58.147
G3 X58 Y-3.52 J-0.2
G1 X60.75 Y-6.489
G3 X61.011 Y-6.518 I0.147 J0.136
X59.931 Y-4.955 Z-0.604 I-0.54 J0.782 F333.3
X61.011 Y-6.518 Z-0.708 I0.54 J-0.782
X59.931 Y-4.955 Z-0.813 I-0.54 J0.782
X61.011 Y-6.518 Z-0.917 I0.54 J-0.782
X60.501 Y-4.787 Z-1 I-0.54 J0.782
G1 X60.287 Y-4.78 F1000
G3 X58.619 Y-4.754 I-1.668 J-52.883
X58.303 Y-5.069 J-0.315
G1 Y-6.109
G3 X58.623 Y-6.429 I0.319
G1 X60.46
G3 X61.889 Y-6.382 J22.134
G2 X62.34 Y-6.354 I5.787 J-89.484
G3 X62.785 Y-6.276 I-0.118 J1.982
X63.187 Y-5.782 I-0.16 J0.541
X63.188 Y-5.475 I-1.922 J0.161
X62.752 Y-4.968 I-0.563 J-0.044
X61.996 Y-4.852 I-1.167 J-5.08
X61.233 Y-4.81 I-1.272 J-16.092
G1 X60.501 Y-4.787
G2 X59.33 Y-3.976 I0.041 J1.31
G3 X58.147 Y-3.185 I-1.183 J-0.488
G1 X56.734
Y-7.998
X60.892
X60.98
X61.064
X61.147
X61.229
X61.31
X61.39 Y-7.997
X61.469 Y-7.996
X61.547 Y-7.995
X61.623 Y-7.993
X61.699 Y-7.991
X61.774 Y-7.988
X61.848 Y-7.985
X61.92 Y-7.981
X61.992 Y-7.977
X62.063 Y-7.972
X62.135 Y-7.966
X62.208 Y-7.96
X62.283 Y-7.953
X62.36 Y-7.945
X62.438 Y-7.937
X62.517 Y-7.928
X62.598 Y-7.919
X62.681 Y-7.909
X62.699 Y-7.907
X62.78 Y-7.89
X62.849 Y-7.876
X62.916 Y-7.861
X62.979 Y-7.847
X63.039 Y-7.832
X63.097 Y-7.818
X63.152 Y-7.804
X63.203 Y-7.789
X63.252 Y-7.775
X63.297 Y-7.76
X63.339 Y-7.746
X63.38 Y-7.732
X63.421 Y-7.715
X63.464 Y-7.698
X63.51 Y-7.678
X63.559 Y-7.655
X63.61 Y-7.631
X63.664 Y-7.604
X63.72 Y-7.576
X63.779 Y-7.546
X63.841 Y-7.513
X63.874 Y-7.496
X63.894 Y-7.481
X63.943 Y-7.445
X63.989 Y-7.41
X64.031 Y-7.376
X64.069 Y-7.346
X64.104 Y-7.317
X64.133 Y-7.291
X64.159 Y-7.268
X64.182 Y-7.246
X64.201 Y-7.227
X64.217 Y-7.21
X64.233 Y-7.191
X64.252 Y-7.167
X64.273 Y-7.14
X64.295 Y-7.111
X64.32 Y-7.076
X64.347 Y-7.037
X64.375 Y-6.995
X64.404 Y-6.949
X64.435 Y-6.899
X64.468 Y-6.846
X64.491 Y-6.808
X64.517 Y-6.749
X64.546 Y-6.682
X64.573 Y-6.619
X64.598 Y-6.559
X64.621 Y-6.502
X64.641 Y-6.449
X64.659 Y-6.4
X64.674 Y-6.355
X64.687 Y-6.314
X64.697 Y-6.276
X64.706 Y-6.241
X64.714 Y-6.203
X64.722 Y-6.162
X64.729 Y-6.116
X64.736 Y-6.066
X64.742 Y-6.012
X64.748 Y-5.954
X64.753 Y-5.892
X64.758 Y-5.826
X64.762 Y-5.755
X64.766 Y-5.681
X64.77 Y-5.604
X64.769 Y-5.584
X64.763 Y-5.492
X64.757 Y-5.405
X64.751 Y-5.324
X64.744 Y-5.247
X64.736 Y-5.174
X64.728 Y-5.107
X64.719 Y-5.047
X64.709 Y-4.99
X64.699 Y-4.939
X64.689 Y-4.894
X64.678 Y-4.854
X64.666 Y-4.815
X64.651 Y-4.774
X64.634 Y-4.729
X64.612 Y-4.678
X64.588 Y-4.625
X64.559 Y-4.566
X64.527 Y-4.502
X64.492 Y-4.435
X64.453 Y-4.364
X64.411 Y-4.288
X64.383 Y-4.24
X64.351 Y-4.202
X64.297 Y-4.138
X64.246 Y-4.079
X64.198 Y-4.025
X64.153 Y-3.976
X64.111 Y-3.932
X64.072 Y-3.893
X64.036 Y-3.86
X64.003 Y-3.831
X63.974 Y-3.807
X63.947 Y-3.787
X63.919 Y-3.767
X63.885 Y-3.745
X63.846 Y-3.722
X63.802 Y-3.698
X63.752 Y-3.672
X63.696 Y-3.644
X63.634 Y-3.616
X63.568 Y-3.586
X63.495 Y-3.555
X63.418 Y-3.523
X63.357 Y-3.498
X63.336 Y-3.493
X63.203 Y-3.462
X63.073 Y-3.432
X62.946 Y-3.403
X62.821 Y-3.376
X62.699 Y-3.351
X62.579 Y-3.328
X62.462 Y-3.306
X62.347 Y-3.287
X62.235 Y-3.27
X62.123 Y-3.255
X62.01 Y-3.243
X61.895 Y-3.231
X61.777 Y-3.222
X61.657 Y-3.213
X61.535 Y-3.207
X61.41 Y-3.201
X61.284 Y-3.196
X61.155 Y-3.193
X61.024 Y-3.19
X60.891 Y-3.188
X60.755 Y-3.187
X60.618 Y-3.185
X60.484
X58.147
G3 X58 Y-3.52 J-0.2
G1 X60.75 Y-6.489
G3 X61.011 Y-6.518 I0.147 J0.136
X59.931 Y-4.955 Z-1.104 I-0.54 J0.782 F333.3
X61.011 Y-6.518 Z-1.208 I0.54 J-0.782
X59.931 Y-4.955 Z-1.313 I-0.54 J0.782
X61.011 Y-6.518 Z-1.417 I0.54 J-0.782
X60.501 Y-4.787 Z-1.5 I-0.54 J0.782
G1 X60.287 Y-4.78 F1000
G3 X58.619 Y-4.754 I-1.668 J-52.883
X58.303 Y-5.069 J-0.315
G1 Y-6.109
G3 X58.623 Y-6.429 I0.319
G1 X60.46
G3 X61.889 Y-6.382 J22.134
G2 X62.34 Y-6.354 I5.787 J-89.484
G3 X62.785 Y-6.276 I-0.118 J1.982
X63.187 Y-5.782 I-0.16 J0.541
X63.188 Y-5.475 I-1.922 J0.161
X62.752 Y-4.968 I-0.563 J-0.044
X61.996 Y-4.852 I-1.167 J-5.08
X61.233 Y-4.81 I-1.272 J-16.092
G1 X60.501 Y-4.787
G2 X59.33 Y-3.976 I0.041 J1.31
G3 X58.147 Y-3.185 I-1.183 J-0.488
G1 X56.734
Y-7.998
X60.892
X60.98
X61.064
X61.147
X61.229
X61.31
X61.39 Y-7.997
X61.469 Y-7.996
X61.547 Y-7.995
X61.623 Y-7.993
X61.699 Y-7.991
X61.774 Y-7.988
X61.848 Y-7.985
X61.92 Y-7.981
X61.992 Y-7.977
X62.063 Y-7.972
X62.135 Y-7.966
X62.208 Y-7.96
X62.283 Y-7.953
X62.36 Y-7.945
X62.438 Y-7.937
X62.517 Y-7.928
X62.598 Y-7.919
X62.681 Y-7.909
X62.699 Y-7.907
X62.78 Y-7.89
X62.849 Y-7.876
X62.916 Y-7.861
X62.979 Y-7.847
X63.039 Y-7.832
X63.097 Y-7.818
X63.152 Y-7.804
X63.203 Y-7.789
X63.252 Y-7.775
X63.297 Y-7.76
X63.339 Y-7.746
X63.38 Y-7.732
X63.421 Y-7.715
X63.464 Y-7.698
X63.51 Y-7.678
X63.559 Y-7.655
X63.61 Y-7.631
X63.664 Y-7.604
X63.72 Y-7.576
X63.779 Y-7.546
X63.841 Y-7.513
X63.874 Y-7.496
X63.894 Y-7.481
X63.943 Y-7.445
X63.989 Y-7.41
X64.031 Y-7.376
X64.069 Y-7.346
X64.104 Y-7.317
X64.133 Y-7.291
X64.159 Y-7.268
X64.182 Y-7.246
X64.201 Y-7.227
X64.217 Y-7.21
X64.233 Y-7.191
X64.252 Y-7.167
X64.273 Y-7.14
X64.295 Y-7.111
X64.32 Y-7.076
X64.347 Y-7.037
X64.375 Y-6.995
X64.404 Y-6.949
X64.435 Y-6.899
X64.468 Y-6.846
X64.491 Y-6.808
X64.517 Y-6.749
X64.546 Y-6.682
X64.573 Y-6.619
X64.598 Y-6.559
X64.621 Y-6.502
X64.641 Y-6.449
X64.659 Y-6.4
X64.674 Y-6.355
X64.687 Y-6.314
X64.697 Y-6.276
X64.706 Y-6.241
X64.714 Y-6.203
X64.722 Y-6.162
X64.729 Y-6.116
X64.736 Y-6.066
X64.742 Y-6.012
X64.748 Y-5.954
X64.753 Y-5.892
X64.758 Y-5.826
X64.762 Y-5.755
X64.766 Y-5.681
X64.77 Y-5.604
X64.769 Y-5.584
X64.763 Y-5.492
X64.757 Y-5.405
X64.751 Y-5.324
X64.744 Y-5.247
X64.736 Y-5.174
X64.728 Y-5.107
X64.719 Y-5.047
X64.709 Y-4.99
X64.699 Y-4.939
X64.689 Y-4.894
X64.678 Y-4.854
X64.666 Y-4.815
X64.651 Y-4.774
X64.634 Y-4.729
X64.612 Y-4.678
X64.588 Y-4.625
X64.559 Y-4.566
X64.527 Y-4.502
X64.492 Y-4.435
X64.453 Y-4.364
X64.411 Y-4.288
X64.383 Y-4.24
X64.351 Y-4.202
X64.297 Y-4.138
X64.246 Y-4.079
X64.198 Y-4.025
X64.153 Y-3.976
X64.111 Y-3.932
X64.072 Y-3.893
X64.036 Y-3.86
X64.003 Y-3.831
X63.974 Y-3.807
X63.947 Y-3.787
X63.919 Y-3.767
X63.885 Y-3.745
X63.846 Y-3.722
X63.802 Y-3.698
X63.752 Y-3.672
X63.696 Y-3.644
X63.634 Y-3.616
X63.568 Y-3.586
X63.495 Y-3.555
X63.418 Y-3.523
X63.357 Y-3.498
X63.336 Y-3.493
X63.203 Y-3.462
X63.073 Y-3.432
X62.946 Y-3.403
X62.821 Y-3.376
X62.699 Y-3.351
X62.579 Y-3.328
X62.462 Y-3.306
X62.347 Y-3.287
X62.235 Y-3.27
X62.123 Y-3.255
X62.01 Y-3.243
X61.895 Y-3.231
X61.777 Y-3.222
X61.657 Y-3.213
X61.535 Y-3.207
X61.41 Y-3.201
X61.284 Y-3.196
X61.155 Y-3.193
X61.024 Y-3.19
X60.891 Y-3.188
X60.755 Y-3.187
X60.618 Y-3.185
X60.484
X58.147
G3 X58 Y-3.52 J-0.2
G1 X60.75 Y-6.489
G3 X61.011 Y-6.518 I0.147 J0.136
X59.931 Y-4.955 Z-1.604 I-0.54 J0.782 F333.3
X61.011 Y-6.518 Z-1.708 I0.54 J-0.782
X59.931 Y-4.955 Z-1.813 I-0.54 J0.782
X61.011 Y-6.518 Z-1.917 I0.54 J-0.782
X60.501 Y-4.787 Z-2 I-0.54 J0.782
G1 X60.287 Y-4.78 F1000
G3 X58.619 Y-4.754 I-1.668 J-52.883
X58.303 Y-5.069 J-0.315
G1 Y-6.109
G3 X58.623 Y-6.429 I0.319
G1 X60.46
G3 X61.889 Y-6.382 J22.134
G2 X62.34 Y-6.354 I5.787 J-89.484
G3 X62.785 Y-6.276 I-0.118 J1.982
X63.187 Y-5.782 I-0.16 J0.541
X63.188 Y-5.475 I-1.922 J0.161
X62.752 Y-4.968 I-0.563 J-0.044
X61.996 Y-4.852 I-1.167 J-5.08
X61.233 Y-4.81 I-1.272 J-16.092
G1 X60.501 Y-4.787
G2 X59.33 Y-3.976 I0.041 J1.31
G3 X58.147 Y-3.185 I-1.183 J-0.488
G1 X56.734
Y-7.998
X60.892
X60.98
X61.064
X61.147
X61.229
X61.31
X61.39 Y-7.997
X61.469 Y-7.996
X61.547 Y-7.995
X61.623 Y-7.993
X61.699 Y-7.991
X61.774 Y-7.988
X61.848 Y-7.985
X61.92 Y-7.981
X61.992 Y-7.977
X62.063 Y-7.972
X62.135 Y-7.966
X62.208 Y-7.96
X62.283 Y-7.953
X62.36 Y-7.945
X62.438 Y-7.937
X62.517 Y-7.928
X62.598 Y-7.919
X62.681 Y-7.909
X62.699 Y-7.907
X62.78 Y-7.89
X62.849 Y-7.876
X62.916 Y-7.861
X62.979 Y-7.847
X63.039 Y-7.832
X63.097 Y-7.818
X63.152 Y-7.804
X63.203 Y-7.789
X63.252 Y-7.775
X63.297 Y-7.76
X63.339 Y-7.746
X63.38 Y-7.732
X63.421 Y-7.715
X63.464 Y-7.698
X63.51 Y-7.678
X63.559 Y-7.655
X63.61 Y-7.631
X63.664 Y-7.604
X63.72 Y-7.576
X63.779 Y-7.546
X63.841 Y-7.513
X63.874 Y-7.496
X63.894 Y-7.481
X63.943 Y-7.445
X63.989 Y-7.41
X64.031 Y-7.376
X64.069 Y-7.346
X64.104 Y-7.317
X64.133 Y-7.291
X64.159 Y-7.268
X64.182 Y-7.246
X64.201 Y-7.227
X64.217 Y-7.21
X64.233 Y-7.191
X64.252 Y-7.167
X64.273 Y-7.14
X64.295 Y-7.111
X64.32 Y-7.076
X64.347 Y-7.037
X64.375 Y-6.995
X64.404 Y-6.949
X64.435 Y-6.899
X64.468 Y-6.846
X64.491 Y-6.808
X64.517 Y-6.749
X64.546 Y-6.682
X64.573 Y-6.619
X64.598 Y-6.559
X64.621 Y-6.502
X64.641 Y-6.449
X64.659 Y-6.4
X64.674 Y-6.355
X64.687 Y-6.314
X64.697 Y-6.276
X64.706 Y-6.241
X64.714 Y-6.203
X64.722 Y-6.162
X64.729 Y-6.116
X64.736 Y-6.066
X64.742 Y-6.012
X64.748 Y-5.954
X64.753 Y-5.892
X64.758 Y-5.826
X64.762 Y-5.755
X64.766 Y-5.681
X64.77 Y-5.604
X64.769 Y-5.584
X64.763 Y-5.492
X64.757 Y-5.405
X64.751 Y-5.324
X64.744 Y-5.247
X64.736 Y-5.174
X64.728 Y-5.107
X64.719 Y-5.047
X64.709 Y-4.99
X64.699 Y-4.939
X64.689 Y-4.894
X64.678 Y-4.854
X64.666 Y-4.815
X64.651 Y-4.774
X64.634 Y-4.729
X64.612 Y-4.678
X64.588 Y-4.625
X64.559 Y-4.566
X64.527 Y-4.502
X64.492 Y-4.435
X64.453 Y-4.364
X64.411 Y-4.288
X64.383 Y-4.24
X64.351 Y-4.202
X64.297 Y-4.138
X64.246 Y-4.079
X64.198 Y-4.025
X64.153 Y-3.976
X64.111 Y-3.932
X64.072 Y-3.893
X64.036 Y-3.86
X64.003 Y-3.831
X63.974 Y-3.807
X63.947 Y-3.787
X63.919 Y-3.767
X63.885 Y-3.745
X63.846 Y-3.722
X63.802 Y-3.698
X63.752 Y-3.672
X63.696 Y-3.644
X63.634 Y-3.616
X63.568 Y-3.586
X63.495 Y-3.555
X63.418 Y-3.523
X63.357 Y-3.498
X63.336 Y-3.493
X63.203 Y-3.462
X63.073 Y-3.432
X62.946 Y-3.403
X62.821 Y-3.376
X62.699 Y-3.351
X62.579 Y-3.328
X62.462 Y-3.306
X62.347 Y-3.287
X62.235 Y-3.27
X62.123 Y-3.255
X62.01 Y-3.243
X61.895 Y-3.231
X61.777 Y-3.222
X61.657 Y-3.213
X61.535 Y-3.207
X61.41 Y-3.201
X61.284 Y-3.196
X61.155 Y-3.193
X61.024 Y-3.19
X60.891 Y-3.188
X60.755 Y-3.187
X60.618 Y-3.185
X60.484
X58.147
G3 X58 Y-3.52 J-0.2
G1 X60.75 Y-6.489
G3 X61.011 Y-6.518 I0.147 J0.136
X59.931 Y-4.955 Z-2.104 I-0.54 J0.782 F333.3
X61.011 Y-6.518 Z-2.208 I0.54 J-0.782
X59.931 Y-4.955 Z-2.313 I-0.54 J0.782
X61.011 Y-6.518 Z-2.417 I0.54 J-0.782
X60.501 Y-4.787 Z-2.5 I-0.54 J0.782
G1 X60.287 Y-4.78 F1000
G3 X58.619 Y-4.754 I-1.668 J-52.883
X58.303 Y-5.069 J-0.315
G1 Y-6.109
G3 X58.623 Y-6.429 I0.319
G1 X60.46
G3 X61.889 Y-6.382 J22.134
G2 X62.34 Y-6.354 I5.787 J-89.484
G3 X62.785 Y-6.276 I-0.118 J1.982
X63.187 Y-5.782 I-0.16 J0.541
X63.188 Y-5.475 I-1.922 J0.161
X62.752 Y-4.968 I-0.563 J-0.044
X61.996 Y-4.852 I-1.167 J-5.08
X61.233 Y-4.81 I-1.272 J-16.092
G1 X60.501 Y-4.787
G2 X59.33 Y-3.976 I0.041 J1.31
G3 X58.147 Y-3.185 I-1.183 J-0.488
G1 X56.734
Y-7.998
X60.892
X60.98
X61.064
X61.147
X61.229
X61.31
X61.39 Y-7.997
X61.469 Y-7.996
X61.547 Y-7.995
X61.623 Y-7.993
X61.699 Y-7.991
X61.774 Y-7.988
X61.848 Y-7.985
X61.92 Y-7.981
X61.992 Y-7.977
X62.063 Y-7.972
X62.135 Y-7.966
X62.208 Y-7.96
X62.283 Y-7.953
X62.36 Y-7.945
X62.438 Y-7.937
X62.517 Y-7.928
X62.598 Y-7.919
X62.681 Y-7.909
X62.699 Y-7.907
X62.78 Y-7.89
X62.849 Y-7.876
X62.916 Y-7.861
X62.979 Y-7.847
X63.039 Y-7.832
X63.097 Y-7.818
X63.152 Y-7.804
X63.203 Y-7.789
X63.252 Y-7.775
X63.297 Y-7.76
X63.339 Y-7.746
X63.38 Y-7.732
X63.421 Y-7.715
X63.464 Y-7.698
X63.51 Y-7.678
X63.559 Y-7.655
X63.61 Y-7.631
X63.664 Y-7.604
X63.72 Y-7.576
X63.779 Y-7.546
X63.841 Y-7.513
X63.874 Y-7.496
X63.894 Y-7.481
X63.943 Y-7.445
X63.989 Y-7.41
X64.031 Y-7.376
X64.069 Y-7.346
X64.104 Y-7.317
X64.133 Y-7.291
X64.159 Y-7.268
X64.182 Y-7.246
X64.201 Y-7.227
X64.217 Y-7.21
X64.233 Y-7.191
X64.252 Y-7.167
X64.273 Y-7.14
X64.295 Y-7.111
X64.32 Y-7.076
X64.347 Y-7.037
X64.375 Y-6.995
X64.404 Y-6.949
X64.435 Y-6.899
X64.468 Y-6.846
X64.491 Y-6.808
X64.517 Y-6.749
X64.546 Y-6.682
X64.573 Y-6.619
X64.598 Y-6.559
X64.621 Y-6.502
X64.641 Y-6.449
X64.659 Y-6.4
X64.674 Y-6.355
X64.687 Y-6.314
X64.697 Y-6.276
X64.706 Y-6.241
X64.714 Y-6.203
X64.722 Y-6.162
X64.729 Y-6.116
X64.736 Y-6.066
X64.742 Y-6.012
X64.748 Y-5.954
X64.753 Y-5.892
X64.758 Y-5.826
X64.762 Y-5.755
X64.766 Y-5.681
X64.77 Y-5.604
X64.769 Y-5.584
X64.763 Y-5.492
X64.757 Y-5.405
X64.751 Y-5.324
X64.744 Y-5.247
X64.736 Y-5.174
X64.728 Y-5.107
X64.719 Y-5.047
X64.709 Y-4.99
X64.699 Y-4.939
X64.689 Y-4.894
X64.678 Y-4.854
X64.666 Y-4.815
X64.651 Y-4.774
X64.634 Y-4.729
X64.612 Y-4.678
X64.588 Y-4.625
X64.559 Y-4.566
X64.527 Y-4.502
X64.492 Y-4.435
X64.453 Y-4.364
X64.411 Y-4.288
X64.383 Y-4.24
X64.351 Y-4.202
X64.297 Y-4.138
X64.246 Y-4.079
X64.198 Y-4.025
X64.153 Y-3.976
X64.111 Y-3.932
X64.072 Y-3.893
X64.036 Y-3.86
X64.003 Y-3.831
X63.974 Y-3.807
X63.947 Y-3.787
X63.919 Y-3.767
X63.885 Y-3.745
X63.846 Y-3.722
X63.802 Y-3.698
X63.752 Y-3.672
X63.696 Y-3.644
X63.634 Y-3.616
X63.568 Y-3.586
X63.495 Y-3.555
X63.418 Y-3.523
X63.357 Y-3.498
X63.336 Y-3.493
X63.203 Y-3.462
X63.073 Y-3.432
X62.946 Y-3.403
X62.821 Y-3.376
X62.699 Y-3.351
X62.579 Y-3.328
X62.462 Y-3.306
X62.347 Y-3.287
X62.235 Y-3.27
X62.123 Y-3.255
X62.01 Y-3.243
X61.895 Y-3.231
X61.777 Y-3.222
X61.657 Y-3.213
X61.535 Y-3.207
X61.41 Y-3.201
X61.284 Y-3.196
X61.155 Y-3.193
X61.024 Y-3.19
X60.891 Y-3.188
X60.755 Y-3.187
X60.618 Y-3.185
X60.484
X58.147
G3 X58 Y-3.52 J-0.2
G1 X60.75 Y-6.489
G3 X61.011 Y-6.518 I0.147 J0.136
X59.931 Y-4.955 Z-2.604 I-0.54 J0.782 F333.3
X61.011 Y-6.518 Z-2.708 I0.54 J-0.782
X59.931 Y-4.955 Z-2.813 I-0.54 J0.782
X61.011 Y-6.518 Z-2.917 I0.54 J-0.782
X60.501 Y-4.787 Z-3 I-0.54 J0.782
G1 X60.287 Y-4.78 F1000
G3 X58.619 Y-4.754 I-1.668 J-52.883
X58.303 Y-5.069 J-0.315
G1 Y-6.109
G3 X58.623 Y-6.429 I0.319
G1 X60.46
G3 X61.889 Y-6.382 J22.134
G2 X62.34 Y-6.354 I5.787 J-89.484
G3 X62.785 Y-6.276 I-0.118 J1.982
X63.187 Y-5.782 I-0.16 J0.541
X63.188 Y-5.475 I-1.922 J0.161
X62.752 Y-4.968 I-0.563 J-0.044
X61.996 Y-4.852 I-1.167 J-5.08
X61.233 Y-4.81 I-1.272 J-16.092
G1 X60.501 Y-4.787
G2 X59.33 Y-3.976 I0.041 J1.31
G3 X58.147 Y-3.185 I-1.183 J-0.488
G1 X56.734
Y-7.998
X60.892
X60.98
X61.064
X61.147
X61.229
X61.31
X61.39 Y-7.997
X61.469 Y-7.996
X61.547 Y-7.995
X61.623 Y-7.993
X61.699 Y-7.991
X61.774 Y-7.988
X61.848 Y-7.985
X61.92 Y-7.981
X61.992 Y-7.977
X62.063 Y-7.972
X62.135 Y-7.966
X62.208 Y-7.96
X62.283 Y-7.953
X62.36 Y-7.945
X62.438 Y-7.937
X62.517 Y-7.928
X62.598 Y-7.919
X62.681 Y-7.909
X62.699 Y-7.907
X62.78 Y-7.89
X62.849 Y-7.876
X62.916 Y-7.861
X62.979 Y-7.847
X63.039 Y-7.832
X63.097 Y-7.818
X63.152 Y-7.804
X63.203 Y-7.789
X63.252 Y-7.775
X63.297 Y-7.76
X63.339 Y-7.746
X63.38 Y-7.732
X63.421 Y-7.715
X63.464 Y-7.698
X63.51 Y-7.678
X63.559 Y-7.655
X63.61 Y-7.631
X63.664 Y-7.604
X63.72 Y-7.576
X63.779 Y-7.546
X63.841 Y-7.513
X63.874 Y-7.496
X63.894 Y-7.481
X63.943 Y-7.445
X63.989 Y-7.41
X64.031 Y-7.376
X64.069 Y-7.346
X64.104 Y-7.317
X64.133 Y-7.291
X64.159 Y-7.268
X64.182 Y-7.246
X64.201 Y-7.227
X64.217 Y-7.21
X64.233 Y-7.191
X64.252 Y-7.167
X64.273 Y-7.14
X64.295 Y-7.111
X64.32 Y-7.076
X64.347 Y-7.037
X64.375 Y-6.995
X64.404 Y-6.949
X64.435 Y-6.899
X64.468 Y-6.846
X64.491 Y-6.808
X64.517 Y-6.749
X64.546 Y-6.682
X64.573 Y-6.619
X64.598 Y-6.559
X64.621 Y-6.502
X64.641 Y-6.449
X64.659 Y-6.4
X64.674 Y-6.355
X64.687 Y-6.314
X64.697 Y-6.276
X64.706 Y-6.241
X64.714 Y-6.203
X64.722 Y-6.162
X64.729 Y-6.116
X64.736 Y-6.066
X64.742 Y-6.012
X64.748 Y-5.954
X64.753 Y-5.892
X64.758 Y-5.826
X64.762 Y-5.755
X64.766 Y-5.681
X64.77 Y-5.604
X64.769 Y-5.584
X64.763 Y-5.492
X64.757 Y-5.405
X64.751 Y-5.324
X64.744 Y-5.247
X64.736 Y-5.174
X64.728 Y-5.107
X64.719 Y-5.047
X64.709 Y-4.99
X64.699 Y-4.939
X64.689 Y-4.894
X64.678 Y-4.854
X64.666 Y-4.815
X64.651 Y-4.774
X64.634 Y-4.729
X64.612 Y-4.678
X64.588 Y-4.625
X64.559 Y-4.566
X64.527 Y-4.502
X64.492 Y-4.435
X64.453 Y-4.364
X64.411 Y-4.288
X64.383 Y-4.24
X64.351 Y-4.202
X64.297 Y-4.138
X64.246 Y-4.079
X64.198 Y-4.025
X64.153 Y-3.976
X64.111 Y-3.932
X64.072 Y-3.893
X64.036 Y-3.86
X64.003 Y-3.831
X63.974 Y-3.807
X63.947 Y-3.787
X63.919 Y-3.767
X63.885 Y-3.745
X63.846 Y-3.722
X63.802 Y-3.698
X63.752 Y-3.672
X63.696 Y-3.644
X63.634 Y-3.616
X63.568 Y-3.586
X63.495 Y-3.555
X63.418 Y-3.523
X63.357 Y-3.498
X63.336 Y-3.493
X63.203 Y-3.462
X63.073 Y-3.432
X62.946 Y-3.403
X62.821 Y-3.376
X62.699 Y-3.351
X62.579 Y-3.328
X62.462 Y-3.306
X62.347 Y-3.287
X62.235 Y-3.27
X62.123 Y-3.255
X62.01 Y-3.243
X61.895 Y-3.231
X61.777 Y-3.222
X61.657 Y-3.213
X61.535 Y-3.207
X61.41 Y-3.201
X61.284 Y-3.196
X61.155 Y-3.193
X61.024 Y-3.19
X60.891 Y-3.188
X60.755 Y-3.187
X60.618 Y-3.185
X60.484
X58.147
G3 X58 Y-3.52 J-0.2
G1 X60.75 Y-6.489
G3 X61.011 Y-6.518 I0.147 J0.136
X59.931 Y-4.955 Z-3.104 I-0.54 J0.782 F333.3
X61.011 Y-6.518 Z-3.208 I0.54 J-0.782
X59.931 Y-4.955 Z-3.313 I-0.54 J0.782
X61.011 Y-6.518 Z-3.417 I0.54 J-0.782
X60.501 Y-4.787 Z-3.5 I-0.54 J0.782
G1 X60.287 Y-4.78 F1000
G3 X58.619 Y-4.754 I-1.668 J-52.883
X58.303 Y-5.069 J-0.315
G1 Y-6.109
G3 X58.623 Y-6.429 I0.319
G1 X60.46
G3 X61.889 Y-6.382 J22.134
G2 X62.34 Y-6.354 I5.787 J-89.484
G3 X62.785 Y-6.276 I-0.118 J1.982
X63.187 Y-5.782 I-0.16 J0.541
X63.188 Y-5.475 I-1.922 J0.161
X62.752 Y-4.968 I-0.563 J-0.044
X61.996 Y-4.852 I-1.167 J-5.08
X61.233 Y-4.81 I-1.272 J-16.092
G1 X60.501 Y-4.787
G2 X59.33 Y-3.976 I0.041 J1.31
G3 X58.147 Y-3.185 I-1.183 J-0.488
G1 X56.734
Y-7.998
X60.892
X60.98
X61.064
X61.147
X61.229
X61.31
X61.39 Y-7.997
X61.469 Y-7.996
X61.547 Y-7.995
X61.623 Y-7.993
X61.699 Y-7.991
X61.774 Y-7.988
X61.848 Y-7.985
X61.92 Y-7.981
X61.992 Y-7.977
X62.063 Y-7.972
X62.135 Y-7.966
X62.208 Y-7.96
X62.283 Y-7.953
X62.36 Y-7.945
X62.438 Y-7.937
X62.517 Y-7.928
X62.598 Y-7.919
X62.681 Y-7.909
X62.699 Y-7.907
X62.78 Y-7.89
X62.849 Y-7.876
X62.916 Y-7.861
X62.979 Y-7.847
X63.039 Y-7.832
X63.097 Y-7.818
X63.152 Y-7.804
X63.203 Y-7.789
X63.252 Y-7.775
X63.297 Y-7.76
X63.339 Y-7.746
X63.38 Y-7.732
X63.421 Y-7.715
X63.464 Y-7.698
X63.51 Y-7.678
X63.559 Y-7.655
X63.61 Y-7.631
X63.664 Y-7.604
X63.72 Y-7.576
X63.779 Y-7.546
X63.841 Y-7.513
X63.874 Y-7.496
X63.894 Y-7.481
X63.943 Y-7.445
X63.989 Y-7.41
X64.031 Y-7.376
X64.069 Y-7.346
X64.104 Y-7.317
X64.133 Y-7.291
X64.159 Y-7.268
X64.182 Y-7.246
X64.201 Y-7.227
X64.217 Y-7.21
X64.233 Y-7.191
X64.252 Y-7.167
X64.273 Y-7.14
X64.295 Y-7.111
X64.32 Y-7.076
X64.347 Y-7.037
X64.375 Y-6.995
X64.404 Y-6.949
X64.435 Y-6.899
X64.468 Y-6.846
X64.491 Y-6.808
X64.517 Y-6.749
X64.546 Y-6.682
X64.573 Y-6.619
X64.598 Y-6.559
X64.621 Y-6.502
X64.641 Y-6.449
X64.659 Y-6.4
X64.674 Y-6.355
X64.687 Y-6.314
X64.697 Y-6.276
X64.706 Y-6.241
X64.714 Y-6.203
X64.722 Y-6.162
X64.729 Y-6.116
X64.736 Y-6.066
X64.742 Y-6.012
X64.748 Y-5.954
X64.753 Y-5.892
X64.758 Y-5.826
X64.762 Y-5.755
X64.766 Y-5.681
X64.77 Y-5.604
X64.769 Y-5.584
X64.763 Y-5.492
X64.757 Y-5.405
X64.751 Y-5.324
X64.744 Y-5.247
X64.736 Y-5.174
X64.728 Y-5.107
X64.719 Y-5.047
X64.709 Y-4.99
X64.699 Y-4.939
X64.689 Y-4.894
X64.678 Y-4.854
X64.666 Y-4.815
X64.651 Y-4.774
X64.634 Y-4.729
X64.612 Y-4.678
X64.588 Y-4.625
X64.559 Y-4.566
X64.527 Y-4.502
X64.492 Y-4.435
X64.453 Y-4.364
X64.411 Y-4.288
X64.383 Y-4.24
X64.351 Y-4.202
X64.297 Y-4.138
X64.246 Y-4.079
X64.198 Y-4.025
X64.153 Y-3.976
X64.111 Y-3.932
X64.072 Y-3.893
X64.036 Y-3.86
X64.003 Y-3.831
X63.974 Y-3.807
X63.947 Y-3.787
X63.919 Y-3.767
X63.885 Y-3.745
X63.846 Y-3.722
X63.802 Y-3.698
X63.752 Y-3.672
X63.696 Y-3.644
X63.634 Y-3.616
X63.568 Y-3.586
X63.495 Y-3.555
X63.418 Y-3.523
X63.357 Y-3.498
X63.336 Y-3.493
X63.203 Y-3.462
X63.073 Y-3.432
X62.946 Y-3.403
X62.821 Y-3.376
X62.699 Y-3.351
X62.579 Y-3.328
X62.462 Y-3.306
X62.347 Y-3.287
X62.235 Y-3.27
X62.123 Y-3.255
X62.01 Y-3.243
X61.895 Y-3.231
X61.777 Y-3.222
X61.657 Y-3.213
X61.535 Y-3.207
X61.41 Y-3.201
X61.284 Y-3.196
X61.155 Y-3.193
X61.024 Y-3.19
X60.891 Y-3.188
X60.755 Y-3.187
X60.618 Y-3.185
X60.484
X58.147
G3 X58 Y-3.52 J-0.2
G1 X60.75 Y-6.489
G3 X61.011 Y-6.518 I0.147 J0.136
X59.931 Y-4.955 Z-3.604 I-0.54 J0.782 F333.3
X61.011 Y-6.518 Z-3.708 I0.54 J-0.782
X59.931 Y-4.955 Z-3.813 I-0.54 J0.782
X61.011 Y-6.518 Z-3.917 I0.54 J-0.782
X60.501 Y-4.787 Z-4 I-0.54 J0.782
G1 X60.287 Y-4.78 F1000
G3 X58.619 Y-4.754 I-1.668 J-52.883
X58.303 Y-5.069 J-0.315
G1 Y-6.109
G3 X58.623 Y-6.429 I0.319
G1 X60.46
G3 X61.889 Y-6.382 J22.134
G2 X62.34 Y-6.354 I5.787 J-89.484
G3 X62.785 Y-6.276 I-0.118 J1.982
X63.187 Y-5.782 I-0.16 J0.541
X63.188 Y-5.475 I-1.922 J0.161
X62.752 Y-4.968 I-0.563 J-0.044
X61.996 Y-4.852 I-1.167 J-5.08
X61.233 Y-4.81 I-1.272 J-16.092
G1 X60.501 Y-4.787
G2 X59.33 Y-3.976 I0.041 J1.31
G3 X58.147 Y-3.185 I-1.183 J-0.488
G1 X56.734
Y-7.998
X60.892
X60.98
X61.064
X61.147
X61.229
X61.31
X61.39 Y-7.997
X61.469 Y-7.996
X61.547 Y-7.995
X61.623 Y-7.993
X61.699 Y-7.991
X61.774 Y-7.988
X61.848 Y-7.985
X61.92 Y-7.981
X61.992 Y-7.977
X62.063 Y-7.972
X62.135 Y-7.966
X62.208 Y-7.96
X62.283 Y-7.953
X62.36 Y-7.945
X62.438 Y-7.937
X62.517 Y-7.928
X62.598 Y-7.919
X62.681 Y-7.909
X62.699 Y-7.907
X62.78 Y-7.89
X62.849 Y-7.876
X62.916 Y-7.861
X62.979 Y-7.847
X63.039 Y-7.832
X63.097 Y-7.818
X63.152 Y-7.804
X63.203 Y-7.789
X63.252 Y-7.775
X63.297 Y-7.76
X63.339 Y-7.746
X63.38 Y-7.732
X63.421 Y-7.715
X63.464 Y-7.698
X63.51 Y-7.678
X63.559 Y-7.655
X63.61 Y-7.631
X63.664 Y-7.604
X63.72 Y-7.576
X63.779 Y-7.546
X63.841 Y-7.513
X63.874 Y-7.496
X63.894 Y-7.481
X63.943 Y-7.445
X63.989 Y-7.41
X64.031 Y-7.376
X64.069 Y-7.346
X64.104 Y-7.317
X64.133 Y-7.291
X64.159 Y-7.268
X64.182 Y-7.246
X64.201 Y-7.227
X64.217 Y-7.21
X64.233 Y-7.191
X64.252 Y-7.167
X64.273 Y-7.14
X64.295 Y-7.111
X64.32 Y-7.076
X64.347 Y-7.037
X64.375 Y-6.995
X64.404 Y-6.949
X64.435 Y-6.899
X64.468 Y-6.846
X64.491 Y-6.808
X64.517 Y-6.749
X64.546 Y-6.682
X64.573 Y-6.619
X64.598 Y-6.559
X64.621 Y-6.502
X64.641 Y-6.449
X64.659 Y-6.4
X64.674 Y-6.355
X64.687 Y-6.314
X64.697 Y-6.276
X64.706 Y-6.241
X64.714 Y-6.203
X64.722 Y-6.162
X64.729 Y-6.116
X64.736 Y-6.066
X64.742 Y-6.012
X64.748 Y-5.954
X64.753 Y-5.892
X64.758 Y-5.826
X64.762 Y-5.755
X64.766 Y-5.681
X64.77 Y-5.604
X64.769 Y-5.584
X64.763 Y-5.492
X64.757 Y-5.405
X64.751 Y-5.324
X64.744 Y-5.247
X64.736 Y-5.174
X64.728 Y-5.107
X64.719 Y-5.047
X64.709 Y-4.99
X64.699 Y-4.939
X64.689 Y-4.894
X64.678 Y-4.854
X64.666 Y-4.815
X64.651 Y-4.774
X64.634 Y-4.729
X64.612 Y-4.678
X64.588 Y-4.625
X64.559 Y-4.566
X64.527 Y-4.502
X64.492 Y-4.435
X64.453 Y-4.364
X64.411 Y-4.288
X64.383 Y-4.24
X64.351 Y-4.202
X64.297 Y-4.138
X64.246 Y-4.079
X64.198 Y-4.025
X64.153 Y-3.976
X64.111 Y-3.932
X64.072 Y-3.893
X64.036 Y-3.86
X64.003 Y-3.831
X63.974 Y-3.807
X63.947 Y-3.787
X63.919 Y-3.767
X63.885 Y-3.745
X63.846 Y-3.722
X63.802 Y-3.698
X63.752 Y-3.672
X63.696 Y-3.644
X63.634 Y-3.616
X63.568 Y-3.586
X63.495 Y-3.555
X63.418 Y-3.523
X63.357 Y-3.498
X63.336 Y-3.493
X63.203 Y-3.462
X63.073 Y-3.432
X62.946 Y-3.403
X62.821 Y-3.376
X62.699 Y-3.351
X62.579 Y-3.328
X62.462 Y-3.306
X62.347 Y-3.287
X62.235 Y-3.27
X62.123 Y-3.255
X62.01 Y-3.243
X61.895 Y-3.231
X61.777 Y-3.222
X61.657 Y-3.213
X61.535 Y-3.207
X61.41 Y-3.201
X61.284 Y-3.196
X61.155 Y-3.193
X61.024 Y-3.19
X60.891 Y-3.188
X60.755 Y-3.187
X60.618 Y-3.185
X60.484
X58.147
G3 X58 Y-3.52 J-0.2
G1 X60.75 Y-6.489
G3 X61.011 Y-6.518 I0.147 J0.136
X59.931 Y-4.955 Z-4.104 I-0.54 J0.782 F333.3
X61.011 Y-6.518 Z-4.208 I0.54 J-0.782
X59.931 Y-4.955 Z-4.313 I-0.54 J0.782
X61.011 Y-6.518 Z-4.417 I0.54 J-0.782
X60.501 Y-4.787 Z-4.5 I-0.54 J0.782
G1 X60.287 Y-4.78 F1000
G3 X58.619 Y-4.754 I-1.668 J-52.883
X58.303 Y-5.069 J-0.315
G1 Y-6.109
G3 X58.623 Y-6.429 I0.319
G1 X60.46
G3 X61.889 Y-6.382 J22.134
G2 X62.34 Y-6.354 I5.787 J-89.484
G3 X62.785 Y-6.276 I-0.118 J1.982
X63.187 Y-5.782 I-0.16 J0.541
X63.188 Y-5.475 I-1.922 J0.161
X62.752 Y-4.968 I-0.563 J-0.044
X61.996 Y-4.852 I-1.167 J-5.08
X61.233 Y-4.81 I-1.272 J-16.092
G1 X60.501 Y-4.787
G2 X59.33 Y-3.976 I0.041 J1.31
G3 X58.147 Y-3.185 I-1.183 J-0.488
G1 X56.734
Y-7.998
X60.892
X60.98
X61.064
X61.147
X61.229
X61.31
X61.39 Y-7.997
X61.469 Y-7.996
X61.547 Y-7.995
X61.623 Y-7.993
X61.699 Y-7.991
X61.774 Y-7.988
X61.848 Y-7.985
X61.92 Y-7.981
X61.992 Y-7.977
X62.063 Y-7.972
X62.135 Y-7.966
X62.208 Y-7.96
X62.283 Y-7.953
X62.36 Y-7.945
X62.438 Y-7.937
X62.517 Y-7.928
X62.598 Y-7.919
X62.681 Y-7.909
X62.699 Y-7.907
X62.78 Y-7.89
X62.849 Y-7.876
X62.916 Y-7.861
X62.979 Y-7.847
X63.039 Y-7.832
X63.097 Y-7.818
X63.152 Y-7.804
X63.203 Y-7.789
X63.252 Y-7.775
X63.297 Y-7.76
X63.339 Y-7.746
X63.38 Y-7.732
X63.421 Y-7.715
X63.464 Y-7.698
X63.51 Y-7.678
X63.559 Y-7.655
X63.61 Y-7.631
X63.664 Y-7.604
X63.72 Y-7.576
X63.779 Y-7.546
X63.841 Y-7.513
X63.874 Y-7.496
X63.894 Y-7.481
X63.943 Y-7.445
X63.989 Y-7.41
X64.031 Y-7.376
X64.069 Y-7.346
X64.104 Y-7.317
X64.133 Y-7.291
X64.159 Y-7.268
X64.182 Y-7.246
X64.201 Y-7.227
X64.217 Y-7.21
X64.233 Y-7.191
X64.252 Y-7.167
X64.273 Y-7.14
X64.295 Y-7.111
X64.32 Y-7.076
X64.347 Y-7.037
X64.375 Y-6.995
X64.404 Y-6.949
X64.435 Y-6.899
X64.468 Y-6.846
X64.491 Y-6.808
X64.517 Y-6.749
X64.546 Y-6.682
X64.573 Y-6.619
X64.598 Y-6.559
X64.621 Y-6.502
X64.641 Y-6.449
X64.659 Y-6.4
X64.674 Y-6.355
X64.687 Y-6.314
X64.697 Y-6.276
X64.706 Y-6.241
X64.714 Y-6.203
X64.722 Y-6.162
X64.729 Y-6.116
X64.736 Y-6.066
X64.742 Y-6.012
X64.748 Y-5.954
X64.753 Y-5.892
X64.758 Y-5.826
X64.762 Y-5.755
X64.766 Y-5.681
X64.77 Y-5.604
X64.769 Y-5.584
X64.763 Y-5.492
X64.757 Y-5.405
X64.751 Y-5.324
X64.744 Y-5.247
X64.736 Y-5.174
X64.728 Y-5.107
X64.719 Y-5.047
X64.709 Y-4.99
X64.699 Y-4.939
X64.689 Y-4.894
X64.678 Y-4.854
X64.666 Y-4.815
X64.651 Y-4.774
X64.634 Y-4.729
X64.612 Y-4.678
X64.588 Y-4.625
X64.559 Y-4.566
X64.527 Y-4.502
X64.492 Y-4.435
X64.453 Y-4.364
X64.411 Y-4.288
X64.383 Y-4.24
X64.351 Y-4.202
X64.297 Y-4.138
X64.246 Y-4.079
X64.198 Y-4.025
X64.153 Y-3.976
X64.111 Y-3.932
X64.072 Y-3.893
X64.036 Y-3.86
X64.003 Y-3.831
X63.974 Y-3.807
X63.947 Y-3.787
X63.919 Y-3.767
X63.885 Y-3.745
X63.846 Y-3.722
X63.802 Y-3.698
X63.752 Y-3.672
X63.696 Y-3.644
X63.634 Y-3.616
X63.568 Y-3.586
X63.495 Y-3.555
X63.418 Y-3.523
X63.357 Y-3.498
X63.336 Y-3.493
X63.203 Y-3.462
X63.073 Y-3.432
X62.946 Y-3.403
X62.821 Y-3.376
X62.699 Y-3.351
X62.579 Y-3.328
X62.462 Y-3.306
X62.347 Y-3.287
X62.235 Y-3.27
X62.123 Y-3.255
X62.01 Y-3.243
X61.895 Y-3.231
X61.777 Y-3.222
X61.657 Y-3.213
X61.535 Y-3.207
X61.41 Y-3.201
X61.284 Y-3.196
X61.155 Y-3.193
X61.024 Y-3.19
X60.891 Y-3.188
X60.755 Y-3.187
X60.618 Y-3.185
X60.484
X58.147
G3 X58.051 Y-3.209 Z-4.473 J-0.2
X57.995 Y-3.255 Z-4.4 I0.096 J-0.176
X57.979 Y-3.276 Z-4.3 I0.152 J-0.13
G0 Z5
X2.016 Y-48.433
G1 Z1.5 F1000
Z-0.3
X2.009 Y-48.432 Z-0.352
X1.99 Y-48.429 Z-0.4
X1.958 Y-48.424 Z-0.441
X1.917 Y-48.417 Z-0.473
X1.87 Y-48.409 Z-0.493
X1.819 Y-48.401 Z-0.5
X1.799 Y-48.398
G2 X1.306 Y-48.313 I7.107 J43.128
G3 X-0.584 I-0.945 J-5.35
G2 X-1.08 Y-48.398 I-7.601 J43.044
G1 X-34.728 Y-48.399
G3 X-36.318 I-0.796 J-7.906
G1 X-36.326 Y-48.4
X-36.378 Y-48.405 Z-0.493
X-36.426 Y-48.41 Z-0.473
X-36.467 Y-48.414 Z-0.441
X-36.498 Y-48.417 Z-0.4
X-36.518 Y-48.419 Z-0.352
X-36.525 Y-48.42 Z-0.3
G0 Z5
X-97.294 Y-49.882
G1 Z-0.3 F1000
X-97.299 Y-49.877 Z-0.352
X-97.312 Y-49.862 Z-0.4
X-97.334 Y-49.839 Z-0.441
X-97.363 Y-49.809 Z-0.473
X-97.395 Y-49.774 Z-0.493
X-97.431 Y-49.736 Z-0.5
X-98.691 Y-48.392
G2 X-100.896 Y-45.887 I38.614 J36.212
G3 X-101.53 Y-45.828 I-0.347 J-0.287
X-101.589 Y-46.462 I0.287 J-0.346
G1 X-100.591 Y-47.661
G3 X-100.489 Y-47.752 I0.346 J0.288
G1 X-99.019 Y-48.7
G3 X-98.851 Y-48.765 I0.244 J0.378
G1 X-96.577 Y-49.155
G3 X-96.184 Y-48.393 I0.076 J0.444
G2 X-100.895 Y-42.984 I36.107 J36.213
G3 X-101.531 Y-42.901 I-0.359 J-0.271
X-101.604 Y-43.538 I0.277 J-0.355
G1 X-99.374 Y-46.3
G3 X-99.313 Y-46.362 I0.35 J0.283
G1 X-96.501 Y-48.711
G3 X-96.282 Y-48.811 I0.289 J0.345
G1 X-93.957 Y-49.171
G3 X-93.582 Y-48.396 I0.069 J0.445
G2 X-100.895 Y-39.894 I33.505 J36.216
G3 X-101.53 Y-39.782 I-0.372 J-0.253
X-101.625 Y-40.42 I0.263 J-0.365
G1 X-98.223 Y-44.876
G3 X-98.163 Y-44.94 I0.358 J0.273
G1 X-93.888 Y-48.726
G3 X-93.654 Y-48.834 I0.298 J0.337
G1 X-91.225 Y-49.185
G3 X-90.869 Y-48.397 I0.064 J0.445
G2 X-100.897 Y-36.543 I30.792 J36.217
G3 X-101.529 Y-36.397 I-0.386 J-0.231
X-101.65 Y-37.035 I0.246 J-0.377
G1 X-97.124 Y-43.389
G3 X-97.057 Y-43.463 I0.367 J0.261
G1 X-91.16 Y-48.74
G3 X-90.921 Y-48.85 I0.3 J0.335
G1 X-88.346 Y-49.199
G3 X-88.011 Y-48.396 I0.06 J0.446
G2 X-100.897 Y-32.811 I27.934 J36.216
G3 X-101.523 Y-32.624 I-0.402 J-0.203
X-101.676 Y-33.26 I0.225 J-0.39
G1 X-96.098 Y-41.807
G3 X-96.02 Y-41.898 I0.377 J0.246
G1 X-88.285 Y-48.753
G3 X-88.044 Y-48.862 I0.298 J0.337
G1 X-85.261 Y-49.217
G3 X-84.949 Y-48.4 I0.057 J0.446
G2 X-100.895 Y-28.439 I24.872 J36.22
G3 X-101.51 Y-28.201 I-0.418 J-0.167
X-101.703 Y-28.832 I0.197 J-0.405
G1 X-95.202 Y-40.052
G3 X-95.108 Y-40.166 I0.389 J0.226
G1 X-85.204 Y-48.771
G3 X-84.96 Y-48.878 I0.295 J0.34
G1 X-81.9 Y-49.228
G3 X-81.619 Y-48.395 I0.051 J0.447
G2 X-100.898 Y-22.629 I21.542 J36.215
G1 X-100.9 Y-22.621
X-100.913 Y-22.571 Z-0.493
X-100.925 Y-22.524 Z-0.473
X-100.935 Y-22.484 Z-0.441
X-100.943 Y-22.453 Z-0.4
X-100.948 Y-22.434 Z-0.352
X-100.95 Y-22.427 Z-0.3
G0 Z5
X-102.402 Y45.33
G1 Z-0.3 F1000
X-102.398 Y45.335 Z-0.352
X-102.385 Y45.35 Z-0.4
X-102.363 Y45.374 Z-0.441
X-102.336 Y45.405 Z-0.473
X-102.304 Y45.441 Z-0.493
X-102.269 Y45.479 Z-0.5
X-100.897 Y47.015
G2 X-99.621 Y48.395 I40.82 J-36.468
G3 X-100.254 Y49.034 I-0.325 J0.311
G1 X-100.804 Y48.518
G3 X-100.926 Y48.321 I0.308 J-0.328
G1 X-101.233 Y47.315
G3 X-101.246 Y47.257 I0.43 J-0.131
G1 X-101.683 Y44.619
G3 X-100.892 Y44.259 I0.444 J-0.073
G2 X-97.086 Y48.398 I40.815 J-33.712
G3 X-97.083 Y49.038 I-0.315 J0.322
X-97.723 Y49.035 I-0.318 J-0.318
G1 X-99.647 Y47.064
G3 X-99.707 Y46.989 I0.322 J-0.314
G1 X-101.239 Y44.546
G3 X-101.303 Y44.372 I0.381 J-0.239
G1 X-101.7 Y41.688
G3 X-100.895 Y41.352 I0.445 J-0.066
G2 X-94.467 Y48.394 I40.818 J-30.804
G3 X-94.444 Y49.037 I-0.303 J0.333
X-95.087 Y49.046 I-0.326 J-0.31
G1 X-98.456 Y45.694
G3 X-98.51 Y45.63 I0.317 J-0.319
G1 X-101.254 Y41.623
G3 X-101.329 Y41.429 I0.371 J-0.254
G1 X-101.716 Y38.57
G3 X-100.898 Y38.257 I0.446 J-0.06
G2 X-91.726 Y48.396 I40.821 J-27.709
G3 X-91.679 Y49.042 I-0.289 J0.345
X-92.326 Y49.066 I-0.335 J-0.3
G1 X-97.273 Y44.32
G3 X-97.332 Y44.249 I0.312 J-0.325
G1 X-101.271 Y38.509
G3 X-101.346 Y38.31 I0.371 J-0.255
G1 X-101.729 Y35.197
G3 X-100.896 Y34.912 I0.447 J-0.055
G2 X-88.84 Y48.396 I40.819 J-24.364
G3 X-88.767 Y49.043 I-0.272 J0.358
X-89.417 Y49.085 I-0.345 J-0.289
G1 X-96.116 Y42.915
G3 X-96.186 Y42.832 I0.305 J-0.331
G1 X-101.282 Y35.142
G3 X-101.354 Y34.944 I0.375 J-0.249
G1 X-101.748 Y31.427
G3 X-100.899 Y31.175 I0.447 J-0.05
G2 X-85.752 Y48.398 I40.822 J-20.627
G3 X-85.649 Y49.046 I-0.253 J0.372
X-86.302 Y49.109 I-0.356 J-0.275
G1 X-95.014 Y41.446
G3 X-95.099 Y41.346 I0.297 J-0.338
G1 X-101.301 Y31.377
G3 X-101.366 Y31.182 I0.382 J-0.238
G1 X-101.765 Y27.007
G3 X-100.899 Y26.798 I0.448 J-0.043
G2 X-82.396 Y48.394 I40.822 J-16.25
G3 X-82.449 Y48.58 I-0.051 J0.086
G1 X-85.589 Y48.537
G3 X-85.671 Y48.493 I0.001 J-0.1
G1 X-102.098 Y24.148
G3 X-102.11 Y24.061 I0.083 J-0.056
G1 X-101.091 Y20.987
G3 X-100.899 Y20.994 I0.095 J0.031
G2 X-78.59 Y48.4 I40.822 J-10.447
G1 X-78.583 Y48.403
X-78.537 Y48.426 Z-0.493
X-78.494 Y48.447 Z-0.473
X-78.456 Y48.465 Z-0.441
X-78.428 Y48.479 Z-0.4
X-78.41 Y48.488 Z-0.352
X-78.404 Y48.491 Z-0.3
G0 Z5
X-77.638 Y-48.495
G1 Z1.5 F1000
Z-0.3
X-77.644 Y-48.492 Z-0.352
X-77.662 Y-48.483 Z-0.4
X-77.691 Y-48.469 Z-0.441
X-77.728 Y-48.451 Z-0.473
X-77.771 Y-48.429 Z-0.493
X-77.818 Y-48.407 Z-0.5
X-77.836 Y-48.398
G2 X-100.414 Y-12.18 I17.759 J36.218
G1 Y10.547
G2 X-74.025 Y48.396 I40.337
G1 X-74.018 Y48.399
X-73.969 Y48.417 Z-0.493
X-73.924 Y48.434 Z-0.473
X-73.885 Y48.448 Z-0.441
X-73.856 Y48.459 Z-0.4
X-73.837 Y48.466 Z-0.352
X-73.83 Y48.468 Z-0.3
G0 Z5
X-73.044 Y-48.471
G1 Z1.5 F1000
Z-0.3
X-73.05 Y-48.469 Z-0.352
X-73.069 Y-48.462 Z-0.4
X-73.099 Y-48.451 Z-0.441
X-73.138 Y-48.437 Z-0.473
X-73.183 Y-48.42 Z-0.493
X-73.232 Y-48.403 Z-0.5
X-73.25 Y-48.396
G2 X-98.614 Y-12.18 I13.173 J36.216
G1 Y10.547
G2 X-67.321 Y48.398 I38.537
G1 X-67.314 Y48.399
X-67.263 Y48.409 Z-0.493
X-67.215 Y48.418 Z-0.473
X-67.175 Y48.426 Z-0.441
X-67.144 Y48.432 Z-0.4
X-67.124 Y48.435 Z-0.352
X-67.117 Y48.437 Z-0.3
G0 Z5
X23.218 Y48.44
G1 Z1.5 F1000
Z-0.3
X23.225 Y48.439 Z-0.352
X23.244 Y48.435 Z-0.4
X23.275 Y48.429 Z-0.441
X23.316 Y48.421 Z-0.473
X23.363 Y48.412 Z-0.493
X23.414 Y48.403 Z-0.5
X23.434 Y48.399
G2 X26.218 Y47.766 I-7.778 J-40.667
G3 X27.586 I0.684 J2.594
G2 X30.375 Y48.4 I10.562 J-40.034
G1 X30.383 Y48.401
X30.434 Y48.411 Z-0.493
X30.481 Y48.42 Z-0.473
X30.522 Y48.428 Z-0.441
X30.553 Y48.434 Z-0.4
X30.573 Y48.438 Z-0.352
X30.579 Y48.439 Z-0.3
G0 Z5
X97.065 Y49.9
G1 Z-0.3 F1000
X97.07 Y49.896 Z-0.352
X97.086 Y49.883 Z-0.4
X97.11 Y49.863 Z-0.441
X97.142 Y49.837 Z-0.473
X97.179 Y49.806 Z-0.493
X97.219 Y49.773 Z-0.5
X98.881 Y48.396
G2 X100.896 Y46.645 I-36.165 J-43.655
G3 X101.506 Y47.307 I0.303 J0.333
G1 X100.628 Y48.123
G3 X100.49 Y48.211 I-0.307 J-0.329
G1 X99.168 Y48.742
G3 X99.071 Y48.769 I-0.168 J-0.418
G1 X96.328 Y49.201
G3 X95.986 Y48.398 I-0.07 J-0.445
G2 X100.899 Y44.173 I-33.27 J-43.657
G3 X101.539 Y44.188 I0.313 J0.323
X101.516 Y44.828 I-0.327 J0.309
G1 X99.163 Y46.987
G3 X99.092 Y47.041 I-0.304 J-0.332
G1 X96.258 Y48.756
G3 X96.087 Y48.817 I-0.233 J-0.385
G1 X93.248 Y49.209
G3 X92.931 Y48.393 I-0.062 J-0.446
G2 X100.892 Y41.633 I-30.215 J-43.653
G3 X101.536 Y41.63 I0.324 J0.313
X101.524 Y42.274 I-0.32 J0.316
G1 X97.726 Y45.845
G3 X97.661 Y45.896 I-0.308 J-0.328
G1 X93.187 Y48.763
G3 X93.002 Y48.831 I-0.243 J-0.379
G1 X89.94 Y49.229
G3 X89.647 Y48.399 I-0.058 J-0.446
G2 X90.587 Y47.81 I-27.177 J-44.424
G1 X94.148 Y45.297
G2 X96.908 Y42.998 I-29.139 J-37.799
X99.358 Y40.647 I-31.812 J-35.593
X100.899 Y38.993 I-35.152 J-34.3
G3 X101.546 Y38.966 I0.336 J0.299
X101.549 Y39.614 I-0.311 J0.325
G1 X96.273 Y44.745
G3 X96.2 Y44.803 I-0.314 J-0.323
G1 X89.881 Y48.783
G3 X89.693 Y48.849 I-0.24 J-0.381
G1 X86.293 Y49.239
G3 X86.029 Y48.395 I-0.051 J-0.447
G2 X100.894 Y36.232 I-23.313 J-43.654
G3 X101.543 Y36.185 I0.347 J0.286
X101.559 Y36.836 I-0.303 J0.333
G1 X94.713 Y43.671
G3 X94.627 Y43.738 I-0.318 J-0.318
G1 X86.241 Y48.792
G3 X86.055 Y48.854 I-0.232 J-0.385
G1 X82.101 Y49.26
G3 X81.875 Y48.4 I-0.046 J-0.448
G2 X88.644 Y44.78 I-19.411 J-44.435
G1 X91.95 Y42.445
G2 X94.509 Y40.314 I-26.944 J-34.952
X96.781 Y38.133 I-29.417 J-32.914
X99.219 Y35.426 I-32.579 J-31.79
X100.898 Y33.298 I-36.763 J-30.74
G3 X101.55 Y33.224 I0.361 J0.269
X101.583 Y33.879 I-0.291 J0.343
G1 X93.05 Y42.73
G3 X92.943 Y42.812 I-0.324 J-0.312
G1 X82.055 Y48.812
G3 X81.875 Y48.867 I-0.217 J-0.394
G1 X77 Y49.274
G3 X76.822 Y48.398 I-0.037 J-0.448
G2 X83.711 Y45.539 I-15.389 J-46.812
X97.75 Y34.377 I-20.146 J-39.747
X100.893 Y30.165 I-36.551 J-30.563
G3 X101.547 Y30.061 I0.375 J0.249
X101.597 Y30.721 I-0.279 J0.353
G1 X91.101 Y41.968
G3 X90.968 Y42.066 I-0.329 J-0.307
G1 X76.962 Y48.825
G3 X76.793 Y48.869 I-0.196 J-0.405
G1 X69.443 Y49.292
G3 X69.342 Y48.399 I-0.026 J-0.449
G2 X82.866 Y43.95 I-7.91 J-46.818
X96.369 Y33.222 I-19.305 J-38.161
X100.898 Y26.744 I-35.172 J-29.41
G1 X100.901 Y26.737
X100.927 Y26.692 Z-0.493
X100.951 Y26.65 Z-0.473
X100.972 Y26.615 Z-0.441
X100.988 Y26.587 Z-0.4
X100.998 Y26.57 Z-0.352
X101.001 Y26.564 Z-0.3
G0 Z5
X102.361 Y-45.182
G1 Z-0.3 F1000
X102.356 Y-45.187 Z-0.352
X102.342 Y-45.201 Z-0.4
X102.318 Y-45.222 Z-0.441
X102.288 Y-45.25 Z-0.473
X102.252 Y-45.283 Z-0.493
X102.215 Y-45.318 Z-0.5
X100.898 Y-46.539
G2 X98.792 Y-48.394 I-37.48 J40.427
G3 X99.368 Y-49.086 I0.289 J-0.345
G1 X100.35 Y-48.275
G3 X100.452 Y-48.155 I-0.286 J0.347
G1 X101.204 Y-46.869
G3 X101.258 Y-46.72 I-0.388 J0.227
G1 X101.652 Y-44.499
G3 X100.893 Y-44.1 I-0.443 J0.079
G2 X95.952 Y-48.396 I-37.275 J37.878
G3 X95.873 Y-49.032 I0.274 J-0.357
X96.51 Y-49.102 I0.353 J0.279
G1 X99.016 Y-47.066
G3 X99.08 Y-47.003 I-0.284 J0.349
G1 X101.209 Y-44.42
G3 X101.306 Y-44.204 I-0.347 J0.286
G1 X101.669 Y-41.904
G3 X100.898 Y-41.525 I-0.444 J0.07
G2 X92.905 Y-48.392 I-37.28 J35.303
G3 X92.799 Y-49.028 I0.257 J-0.37
X93.437 Y-49.118 I0.363 J0.266
G1 X97.603 Y-45.904
G3 X97.665 Y-45.847 I-0.275 J0.356
G1 X101.225 Y-41.834
G3 X101.334 Y-41.601 I-0.337 J0.299
G1 X101.684 Y-39.222
G3 X100.9 Y-38.86 I-0.445 J0.066
G2 X89.643 Y-48.393 I-37.072 J32.364
G3 X89.505 Y-49.026 I0.236 J-0.383
X90.143 Y-49.141 I0.374 J0.25
G1 X96.142 Y-44.801
G3 X96.212 Y-44.738 I-0.264 J0.365
G1 X101.239 Y-39.156
G3 X101.35 Y-38.916 I-0.334 J0.301
G1 X101.694 Y-36.392
G3 X100.896 Y-36.05 I-0.446 J0.061
G2 X85.989 Y-48.399 I-37.278 J29.829
G3 X85.814 Y-49.027 I0.211 J-0.398
X86.45 Y-49.171 I0.386 J0.231
G1 X94.564 Y-43.755
G3 X94.649 Y-43.681 I-0.25 J0.374
G1 X101.248 Y-36.331
G3 X101.359 Y-36.089 I-0.335 J0.301
G1 X101.707 Y-33.397
G3 X100.896 Y-33.076 I-0.446 J0.058
G2 X82.83 Y-47.955 I-37.277 J26.855
X81.835 Y-48.399 I-19.634 J42.65
G3 X81.614 Y-49.018 I0.179 J-0.413
X82.246 Y-49.198 I0.4 J0.206
G1 X92.862 Y-42.818
G3 X92.968 Y-42.73 I-0.232 J0.386
G1 X101.261 Y-33.339
G3 X101.37 Y-33.095 I-0.337 J0.298
G1 X101.721 Y-30.161
G3 X100.895 Y-29.867 I-0.447 J0.053
G2 X82.078 Y-46.32 I-37.276 J23.646
X78.737 Y-47.698 I-18.882 J41.016
X76.673 Y-48.397 I-16.322 J44.792
G3 X76.389 Y-48.992 I0.135 J-0.429
X77.002 Y-49.233 I0.419 J0.165
G1 X91.099 Y-42.48
G3 X91.253 Y-42.359 I-0.194 J0.406
G1 X101.275 Y-30.108
G3 X101.374 Y-29.873 I-0.348 J0.285
G1 X101.742 Y-26.55
G3 X100.899 Y-26.287 I-0.447 J0.05
G2 X82.21 Y-44.263 I-37.311 J20.087
X72.843 Y-47.592 I-19.277 J39.402
X68.519 Y-48.399 I-11.473 J49.468
G1 X40.634 Y-48.398
G2 X40.141 Y-48.313 I7.107 J43.128
G3 X38.251 I-0.945 J-5.35
G2 X37.754 Y-48.398 I-7.601 J43.044
G1 X37.747 Y-48.399
X37.696 Y-48.408 Z-0.493
X37.648 Y-48.416 Z-0.473
X37.607 Y-48.422 Z-0.441
X37.576 Y-48.428 Z-0.4
X37.556 Y-48.431 Z-0.352
X37.549 Y-48.432 Z-0.3
G0 Z5
X-66.015 Y-48.435
G1 Z1.5 F1000
Z-0.3
X-66.022 Y-48.434 Z-0.352
X-66.042 Y-48.43 Z-0.4
X-66.073 Y-48.425 Z-0.441
X-66.114 Y-48.418 Z-0.473
X-66.161 Y-48.41 Z-0.493
X-66.212 Y-48.401 Z-0.5
X-66.232 Y-48.398
G2 X-96.814 Y-12.18 I6.155 J36.218
G1 Y10.547
G2 X-60.077 Y47.285 I36.737
G1 X-57.069
G2 X-55.903 Y47.245 J-17.194
G1 X-54.581 Y47.155
G3 X-54.256 I0.162 J2.389
G1 X-52.934 Y47.245
G2 X-51.767 Y47.285 I1.166 J-17.155
G1 X-41.602 Y47.252
G2 X-38.348 Y47.059 I-1.817 J-58.036
X-37.432 Y46.944 I-1.319 J-14.241
G3 X-36.519 Y46.813 I4.892 J30.913
X-34.194 Y46.838 I1.075 J8.393
G2 X-31.494 Y47.162 I6.975 J-46.723
X-28.777 Y47.285 I2.717 J-29.905
G1 X-12.344
G2 X-11.296 Y47.258 J-20.971
X-10.249 Y47.202 I-7.386 J-147.609
X-9.203 Y47.116 I-1.196 J-20.935
X-8.161 Y47.001 I-15.733 J-146.313
G3 X-5.612 I1.274 J11.105
G2 X-4.57 Y47.116 I16.775 J-146.197
X-3.524 Y47.202 I2.242 J-20.849
X-2.477 Y47.258 I8.432 J-147.553
X-1.429 Y47.285 I1.048 J-20.945
G1 X1.811
G2 X2.961 Y47.255 J-22.626
X4.11 Y47.19 I-4.959 J-97.392
X5.258 Y47.089 I-1.417 J-22.578
X6.401 Y46.951 I-11.024 J-96.634
G3 X8.801 I1.2 J9.517
G2 X9.945 Y47.089 I12.168 J-96.496
X11.092 Y47.19 I2.564 J-22.477
X12.241 Y47.255 I6.108 J-97.327
X13.391 Y47.285 I1.151 J-22.596
G1 X16.399
G2 X21.372 Y46.924 J-34.448
X26.251 Y45.892 I-5.674 J-38.891
G3 X27.553 I0.651 J2.335
G2 X32.432 Y46.924 I10.553 J-37.86
X37.405 Y47.285 I4.974 J-34.087
G1 X40.646
G2 X41.796 Y47.255 J-22.626
X42.945 Y47.19 I-4.959 J-97.392
X44.092 Y47.089 I-1.417 J-22.578
X45.236 Y46.951 I-11.024 J-96.634
G3 X47.636 I1.2 J9.517
G2 X48.779 Y47.089 I12.168 J-96.497
X49.927 Y47.19 I2.564 J-22.477
X51.076 Y47.255 I6.108 J-97.327
X52.226 Y47.285 I1.151 J-22.596
G1 X63.359 Y47.221
G2 X78.683 Y43.9 I-2.203 J-47.174
X91.864 Y35.405 I-15.232 J-38.107
X94.355 Y32.805 I-29.61 J-30.861
X100.89 Y22.927 I-33.182 J-29.053
X100.896 Y22.915 I-36.895 J-17.812
X100.915 Y22.828 I-0.18 J-0.087
G1 Y-22.076
G2 X100.898 Y-22.155 I-0.2
X99.377 Y-25.315 I-38.41 J16.544
X81.418 Y-42.646 I-35.79 J19.116
X72.409 Y-45.845 I-18.49 J37.793
X62.929 Y-47.08 I-11.039 J47.733
G1 X46.521 Y-47.117
G2 X43.292 Y-46.945 J30.371
X40.093 Y-46.475 I4.365 J40.829
G3 X38.299 I-0.897 J-4.789
G2 X35.1 Y-46.945 I-7.564 J40.359
X31.871 Y-47.117 I-3.229 J30.199
G1 X11.113
X7.686
G2 X4.458 Y-46.945 J30.371
X1.259 Y-46.475 I4.365 J40.829
G3 X-0.536 I-0.897 J-4.789
G2 X-3.735 Y-46.945 I-7.564 J40.359
X-6.964 Y-47.117 I-3.229 J30.199
G1 X-28.777
G2 X-31.571 Y-46.983 J29.094
X-34.345 Y-46.625 I4.192 J43.454
G3 X-36.491 Y-46.601 I-1.154 J-7.138
G2 X-38.274 Y-46.838 I-21.812 J157.465
X-40.065 Y-47.006 I-3.457 J27.219
X-42.753 Y-47.108 I-3.609 J59.338
G1 X-51.767 Y-47.117
G2 X-52.987 Y-47.074 J17.155
G1 X-54.248 Y-46.984
G3 X-54.589 I-0.17 J-2.389
G1 X-55.85 Y-47.074
G2 X-57.069 Y-47.117 I-1.22 J17.111
G1 X-60.077
G2 X-95.014 Y-12.18 J34.937
G1 Y10.547
G2 X-60.077 Y45.485 I34.937
G1 X-57.069
G2 X-55.85 Y45.441 J-17.155
G1 X-54.589 Y45.351
G3 X-54.248 I0.17 J2.389
G1 X-52.987 Y45.441
G2 X-51.767 Y45.485 I1.22 J-17.111
G1 X-41.658 Y45.453
G2 X-40.085 Y45.384 I-1.938 J-61.914
X-38.515 Y45.267 I-2.503 J-44.092
X-37.475 Y45.138 I-1.561 J-16.85
G3 X-36.438 Y44.988 I7.56 J48.606
X-34.211 Y45.014 I1.024 J7.654
G2 X-31.503 Y45.356 I6.886 J-43.674
X-28.777 Y45.485 I2.726 J-28.722
G1 X-12.344
G2 X-11.279 Y45.457 J-20.631
X-10.217 Y45.397 I-5.87 J-113.659
X-9.155 Y45.305 I-1.257 J-20.59
X-8.098 Y45.18 I-12.742 J-112.688
G3 X-5.675 I1.211 J9.88
G2 X-4.617 Y45.305 I13.8 J-112.563
X-3.556 Y45.397 I2.318 J-20.498
X-2.494 Y45.457 I6.933 J-113.599
X-1.429 Y45.485 I1.064 J-20.604
G1 X1.811
G2 X2.977 Y45.454 J-22.146
X4.141 Y45.384 I-4.35 J-82.512
X5.303 Y45.276 I-1.478 J-22.092
X6.46 Y45.128 I-9.827 J-81.84
G3 X8.742 I1.141 J8.482
G2 X9.899 Y45.276 I10.984 J-81.693
X11.061 Y45.384 I2.64 J-21.984
X12.226 Y45.454 I5.514 J-82.443
X13.391 Y45.485 I1.166 J-22.115
G1 X16.399
G2 X21.395 Y45.103 J-32.879
X26.285 Y44.01 I-5.656 J-36.789
G3 X27.52 I0.618 J2.091
G2 X32.41 Y45.103 I10.545 J-35.696
X37.405 Y45.485 I4.996 J-32.497
G1 X40.646
G2 X41.811 Y45.454 J-22.146
X42.976 Y45.384 I-4.35 J-82.513
X44.138 Y45.276 I-1.478 J-22.092
X45.295 Y45.128 I-9.827 J-81.841
G3 X47.576 I1.141 J8.482
G2 X48.734 Y45.276 I10.985 J-81.693
X49.896 Y45.384 I2.64 J-21.984
X51.06 Y45.454 I5.514 J-82.443
X52.226 Y45.485 I1.166 J-22.115
G1 X63.275 Y45.423
G2 X77.973 Y42.246 I-2.12 J-45.387
X90.618 Y34.106 I-14.527 J-36.459
X93 Y31.619 I-28.366 J-29.563
X99.261 Y22.161 I-31.83 J-27.869
X100.899 Y18.242 I-35.268 J-17.047
X100.911 Y18.175 I-0.188 J-0.067
G1 X100.905 Y-16.802
G2 X100.897 Y-16.858 I-0.2
X97.798 Y-24.452 I-38.41 J11.246
X80.627 Y-41.029 I-34.211 J18.254
X71.975 Y-44.098 I-17.703 J36.184
X62.872 Y-45.281 I-10.606 J45.998
G1 X46.521 Y-45.317
G2 X43.267 Y-45.135 J29.06
X40.046 Y-44.633 I4.31 J38.247
G3 X38.346 I-0.85 J-4.261
G2 X35.125 Y-45.135 I-7.531 J37.745
X31.871 Y-45.317 I-3.254 J28.877
G1 X11.113
X7.686
G2 X4.432 Y-45.135 J29.06
X1.211 Y-44.633 I4.31 J38.247
G3 X-0.489 I-0.85 J-4.261
G2 X-3.71 Y-45.135 I-7.531 J37.745
X-6.964 Y-45.317 I-3.254 J28.877
G1 X-28.777
G2 X-31.582 Y-45.176 J27.87
X-34.364 Y-44.797 I4.106 J40.59
G3 X-36.429 Y-44.774 I-1.106 J-6.454
G2 X-38.124 Y-45.012 I-17.265 J116.662
X-39.827 Y-45.186 I-3.697 J27.754
X-41.296 Y-45.266 I-3.115 J43.643
X-42.766 Y-45.308 I-3.055 J81.117
G1 X-51.767 Y-45.317
G2 X-53.04 Y-45.27 J17.032
G1 X-54.239 Y-45.18
G3 X-54.597 I-0.179 J-2.388
G1 X-55.797 Y-45.27
G2 X-57.069 Y-45.317 I-1.272 J16.985
G1 X-60.077
G2 X-93.214 Y-12.18 J33.137
G1 Y10.547
G2 X-60.077 Y43.685 I33.137
G1 X-57.069
G2 X-55.797 Y43.637 J-17.032
G1 X-54.597 Y43.547
G3 X-54.239 I0.179 J2.388
G1 X-53.04 Y43.637
G2 X-51.767 Y43.685 I1.272 J-16.985
G1 X-41.714 Y43.654
X-37.525 Y43.347
G2 X-36.938 Y43.256 I-0.96 J-8.148
G3 X-36.352 Y43.159 I2.159 J11.245
X-34.222 Y43.189 I0.969 J6.987
G2 X-31.51 Y43.549 I6.798 J-40.748
X-28.777 Y43.685 I2.733 J-27.5
G1 X-12.344
G2 X-11.263 Y43.656 J-20.229
X-10.184 Y43.592 I-4.884 J-91.317
X-9.108 Y43.492 I-1.319 J-20.183
X-8.035 Y43.358 I-10.798 J-90.525
G3 X-5.738 I1.148 J8.742
G2 X-4.665 Y43.492 I11.871 J-90.391
X-3.588 Y43.592 I2.396 J-20.084
X-2.51 Y43.656 I5.962 J-91.253
X-1.429 Y43.685 I1.08 J-20.2
X2.552 Y43.636 J-161.95
X6.52 Y43.303 I-0.829 J-33.695
G3 X8.682 I1.081 J7.519
G2 X12.534 Y43.632 I4.773 J-33.199
X16.399 Y43.685 I3.865 J-140.641
X21.418 Y43.28 J-31.298
X26.318 Y42.118 I-5.638 J-34.703
G3 X27.486 I0.584 J1.859
G2 X32.386 Y43.28 I10.538 J-33.541
X37.405 Y43.685 I5.019 J-30.892
X41.387 Y43.636 J-161.949
X45.355 Y43.303 I-0.829 J-33.695
G3 X47.517 I1.081 J7.519
G2 X54.128 Y43.73 I6.03 J-41.94
G3 X60.753 Y43.685 I6.625 J482.799
G2 X72.734 Y42.098 J-46.018
X83.784 Y37.204 I-10.291 J-38.165
X86.455 Y35.317 I-19.757 J-30.8
X89.47 Y32.713 I-21.793 J-28.27
X91.736 Y30.33 I-24.986 J-26.041
X100.899 Y10.781 I-29.3 J-25.653
X100.199 Y9.285 I-1.455 J-0.231
G3 X99.446 Y7.815 I0.799 J-1.337
G2 X99.581 Y4.886 I-37.098 J-3.173
G3 X99.866 Y2.196 I13.445 J0.065
G2 X100.2 Y0.5 I-71.373 J-14.939
X100.457 Y-1.21 I-25.307 J-4.674
X96.22 Y-23.59 I-37.97 J-4.402
X79.837 Y-39.414 I-32.633 J17.391
X71.542 Y-42.352 I-16.917 J34.578
X62.814 Y-43.483 I-10.173 J44.267
G1 X46.521 Y-43.519
G2 X43.241 Y-43.324 J27.72
X39.999 Y-42.787 I4.259 J35.736
G3 X38.393 I-0.803 J-3.767
G2 X35.151 Y-43.324 I-7.501 J35.199
X31.871 Y-43.519 I-3.28 J27.525
G1 X11.113
X7.686
G2 X4.406 Y-43.324 J27.72
X1.164 Y-42.787 I4.259 J35.736
G3 X-0.442 I-0.803 J-3.767
G2 X-3.684 Y-43.324 I-7.501 J35.198
X-6.964 Y-43.519 I-3.28 J27.525
G1 X-28.777
G2 X-31.591 Y-43.37 J26.614
X-34.38 Y-42.968 I4.022 J37.829
G3 X-36.343 Y-42.942 I-1.059 J-5.82
G2 X-37.884 Y-43.175 I-32.767 J212.026
X-39.433 Y-43.353 I-3.604 J24.495
X-40.998 Y-43.453 I-3.396 J40.777
X-42.565 Y-43.505 I-3.103 J69.278
G1 X-51.767 Y-43.519
G2 X-53.092 Y-43.467 J16.827
G1 X-54.23 Y-43.377
G3 X-54.607 I-0.188 J-2.388
G1 X-55.745 Y-43.467
G2 X-57.069 Y-43.519 I-1.324 J16.775
G1 X-60.077
G2 X-91.416 Y-12.18 J31.339
G1 Y10.547
G2 X-60.077 Y41.886 I31.339
G1 X-57.069
G2 X-55.745 Y41.834 J-16.827
G1 X-54.607 Y41.744
G3 X-54.23 I0.188 J2.388
G1 X-53.092 Y41.834
G2 X-51.767 Y41.886 I1.324 J-16.775
G1 X-41.771 Y41.857
X-37.735 Y41.569
G2 X-37.005 Y41.455 I-1.166 J-9.902
G3 X-36.276 Y41.332 I3.003 J15.502
X-34.227 Y41.363 I0.928 J6.372
G2 X-31.513 Y41.744 I6.709 J-37.931
X-28.777 Y41.886 I2.737 J-26.244
G1 X-12.344
G2 X-11.247 Y41.856 J-19.764
X-10.152 Y41.787 I-4.191 J-75.423
X-9.06 Y41.68 I-1.383 J-19.712
X-7.971 Y41.534 I-9.436 J-74.738
G3 X-5.801 I1.085 J7.69
G2 X-4.713 Y41.68 I10.524 J-74.593
X-3.621 Y41.787 I2.475 J-19.605
X-2.526 Y41.856 I5.286 J-75.354
X-1.429 Y41.886 I1.097 J-19.734
X2.583 Y41.834 J-154.774
X6.58 Y41.476 I-0.819 J-31.592
G3 X8.623 I1.021 J6.625
G2 X12.503 Y41.83 I4.792 J-31.076
X16.399 Y41.886 I3.896 J-134.379
X21.443 Y41.455 J-29.705
X26.352 Y40.216 I-5.623 J-32.633
G3 X27.453 I0.551 J1.641
G2 X32.361 Y41.455 I10.532 J-31.395
X37.405 Y41.886 I5.044 J-29.274
X41.418 Y41.834 J-154.773
X45.414 Y41.476 I-0.819 J-31.592
G3 X47.457 I1.021 J6.625
G2 X49.834 Y41.772 I6.321 J-40.997
X52.226 Y41.886 I2.392 J-25.042
G1 X63.107 Y41.829
G2 X76.553 Y38.939 I-1.953 J-41.818
X88.126 Y31.509 I-13.12 J-33.166
X99.446 Y7.815 I-25.778 J-26.867
X98.644 Y6.381 I-1.46 J-0.125
G3 X97.787 Y4.977 I0.698 J-1.389
G2 X97.789 Y4.627 I-35.438 J-0.333
G3 X98.06 Y2.074 I11.78 J-0.043
G2 X95.993 Y-19.949 I-35.6 J-7.767
X81.376 Y-36.551 I-32.366 J13.759
X73.187 Y-40.064 I-18.209 J31.148
X64.411 Y-41.608 I-11.566 J40.009
X61.661 Y-41.719 I-3.416 J50.87
G1 X46.521 Y-41.727
G2 X43.214 Y-41.519 J26.356
X39.952 Y-40.941 I4.211 J33.297
G3 X38.44 I-0.756 J-3.308
G2 X35.178 Y-41.519 I-7.474 J32.719
X31.871 Y-41.727 I-3.307 J26.148
G1 X11.113
X7.686
G2 X4.379 Y-41.519 J26.356
X1.117 Y-40.941 I4.211 J33.297
G3 X-0.394 I-0.756 J-3.308
G2 X-3.657 Y-41.519 I-7.474 J32.719
X-6.964 Y-41.727 I-3.307 J26.148
G1 X-28.777
G2 X-31.598 Y-41.569 J25.329
X-34.39 Y-41.143 I3.941 J35.17
G3 X-36.258 Y-41.114 I-1.015 J-5.237
G2 X-38.165 Y-41.402 I-14.637 J90.444
X-40.083 Y-41.605 I-3.934 J28.038
X-41.459 Y-41.679 I-2.874 J40.262
X-42.836 Y-41.718 I-2.906 J78.252
G1 X-51.767 Y-41.727
G2 X-53.142 Y-41.67 J16.54
G1 X-54.219 Y-41.58
G3 X-54.617 I-0.199 J-2.387
G1 X-55.695 Y-41.67
G2 X-57.069 Y-41.727 I-1.375 J16.483
G1 X-60.077
G2 X-89.624 Y-12.18 J29.547
G1 Y10.547
G2 X-60.077 Y40.094 I29.547
G1 X-57.069
G2 X-55.695 Y40.037 J-16.54
G1 X-54.617 Y39.947
G3 X-54.219 I0.199 J2.387
G1 X-53.142 Y40.037
G2 X-51.767 Y40.094 I1.375 J-16.483
G1 X-41.827 Y40.065
G2 X-39.882 Y39.969 I-1.663 J-53.12
X-37.944 Y39.789 I-2.679 J-39.377
X-37.07 Y39.656 I-1.535 J-13.036
G3 X-36.199 Y39.508 I4.913 J26.312
X-34.224 Y39.542 I0.889 J5.817
G2 X-31.513 Y39.945 I6.618 J-35.223
X-28.777 Y40.094 I2.737 J-24.955
G1 X-12.344
G2 X-10.119 Y39.988 J-23.303
X-7.909 Y39.714 I-3.846 J-40.105
G3 X-5.864 I1.022 J6.722
G2 X-2.034 Y40.049 I4.542 J-29.871
X1.811 Y40.094 I3.845 J-163.177
X4.234 Y39.972 J-24.105
X6.639 Y39.651 I-3.83 J-37.903
G3 X8.563 I0.962 J5.799
G2 X12.472 Y40.034 I4.811 J-29
X16.399 Y40.094 I3.927 J-127.896
X21.469 Y39.633 J-28.106
X26.385 Y38.308 I-5.61 J-30.585
G3 X27.419 I0.517 J1.437
G2 X32.335 Y39.633 I10.526 J-29.259
X37.405 Y40.094 I5.07 J-27.645
X41.449 Y40.039 J-147.332
X45.474 Y39.651 I-0.811 J-29.538
G3 X47.398 I0.962 J5.799
G2 X49.803 Y39.972 I6.235 J-37.583
X52.226 Y40.094 I2.423 J-23.983
G1 X63.023 Y40.039
G2 X75.846 Y37.293 I-1.87 J-40.042
X86.886 Y30.216 I-12.42 J-31.527
X97.787 Y4.977 I-24.536 J-25.572
X96.927 Y3.672 I-1.4 J-0.013
G3 X96.187 Y2.294 I0.477 J-1.143
X96.25 Y1.992 I10.102 J1.946
G2 X97.125 Y-6.247 I-35.332 J-7.915
X96.001 Y-14.456 I-32.701 J0.293
X94.82 Y-18.054 I-33.756 J9.088
X94.374 Y-19.158 I-45.462 J17.734
X80.011 Y-35.278 I-30.598 J12.804
X72.193 Y-38.495 I-16.866 J29.884
X63.849 Y-39.856 I-10.624 J38.866
X61.461 Y-39.937 I-2.971 J52.42
G1 X46.521 Y-39.942
G2 X43.187 Y-39.719 J24.97
X39.904 Y-39.096 I4.166 J30.926
G3 X38.488 I-0.708 J-2.882
G2 X35.205 Y-39.719 I-7.449 J30.303
X31.871 Y-39.942 I-3.334 J24.746
G1 X11.113
X7.686
G2 X4.352 Y-39.719 J24.97
X1.07 Y-39.096 I4.166 J30.926
G3 X-0.347 I-0.708 J-2.882
G2 X-3.63 Y-39.719 I-7.449 J30.303
X-6.964 Y-39.942 I-3.334 J24.746
G1 X-28.777
G2 X-31.602 Y-39.776 J24.018
X-34.395 Y-39.322 I3.862 J32.604
G3 X-36.177 Y-39.291 I-0.973 J-4.699
G2 X-39.435 Y-39.734 I-8.098 J47.394
X-42.717 Y-39.931 I-4.072 J40.253
G1 X-43.014 Y-39.937
G2 X-43.566 Y-39.942 I-0.552 J28.281
G1 X-51.767
G2 X-53.093 Y-39.879 J13.881
G3 X-55.744 I-1.326 J-13.818
G2 X-57.069 Y-39.942 I-1.326 J13.818
G1 X-60.077
G2 X-87.839 Y-12.18 J27.762
G1 Y10.547
G2 X-60.077 Y38.31 I27.762
G1 X-57.069
G2 X-55.744 Y38.246 J-13.881
G3 X-53.093 I1.326 J13.818
G2 X-51.767 Y38.31 I1.326 J-13.818
G1 X-41.882 Y38.282
G2 X-40.015 Y38.189 I-1.609 J-51.393
X-38.153 Y38.017 I-2.55 J-37.628
X-37.127 Y37.862 I-1.88 J-15.957
G3 X-36.105 Y37.688 I7.386 J40.175
X-34.213 Y37.726 I0.838 J5.312
G2 X-31.509 Y38.152 I6.523 J-32.611
X-28.777 Y38.31 I2.732 J-23.638
G1 X-12.344
G2 X-10.086 Y38.195 J-22.309
X-7.846 Y37.897 I-3.711 J-36.488
G3 X-5.927 I0.959 J5.833
G2 X-2.067 Y38.261 I4.563 J-27.747
X1.811 Y38.31 I3.877 J-155.147
X4.265 Y38.178 J-23.007
X6.698 Y37.83 I-3.727 J-34.733
G3 X8.504 I0.903 J5.04
G2 X12.441 Y38.245 I4.831 J-26.968
X16.399 Y38.31 I3.958 J-121.209
X21.498 Y37.815 J-26.501
X26.419 Y36.39 I-5.599 J-28.557
G3 X27.386 I0.483 J1.247
G2 X32.306 Y37.815 I10.52 J-27.133
X37.405 Y38.31 I5.099 J-26.006
X41.48 Y38.25 J-139.645
X45.533 Y37.83 I-0.804 J-27.532
G3 X47.339 I0.903 J5.04
G2 X49.772 Y38.178 I6.16 J-34.385
X52.226 Y38.31 I2.454 J-22.875
G1 X62.94 Y38.256
G2 X75.141 Y35.653 I-1.788 J-38.276
X85.65 Y28.929 I-11.724 J-29.896
X96.002 Y4.374 I-23.298 J-24.282
G3 X96.187 Y2.294 I10.287 J-0.133
G2 X95.582 Y0.808 I-1.445 J-0.278
G3 X94.95 Y-0.667 I0.865 J-1.244
G2 X92.931 Y-18.053 I-32.638 J-5.021
X79.956 Y-33.254 I-29.212 J11.797
X72.571 Y-36.528 I-16.813 J27.955
X64.631 Y-38.022 I-10.913 J36.15
X61.827 Y-38.155 I-3.521 J44.585
G1 X51.087 Y-38.142
X46.521 Y-38.167
G2 X43.159 Y-37.926 J23.562
X39.857 Y-37.252 I4.125 J28.62
G3 X38.535 I-0.661 J-2.488
G2 X35.233 Y-37.926 I-7.427 J27.945
X31.871 Y-38.167 I-3.362 J23.321
G1 X11.113
X7.686
G2 X4.325 Y-37.926 J23.562
X1.023 Y-37.252 I4.125 J28.62
G3 X-0.3 I-0.661 J-2.488
G2 X-3.602 Y-37.926 I-7.427 J27.945
X-6.964 Y-38.167 I-3.362 J23.321
G1 X-28.777
G2 X-31.602 Y-37.99 J22.68
X-34.392 Y-37.507 I3.783 J30.13
G3 X-36.088 Y-37.473 I-0.934 J-4.212
G2 X-39.245 Y-37.931 I-8.439 J47.039
X-42.428 Y-38.149 I-4.166 J37.459
G1 X-51.767 Y-38.167
G2 X-53.093 Y-38.099 J12.994
G3 X-55.744 I-1.326 J-12.926
G2 X-57.069 Y-38.167 I-1.326 J12.926
G1 X-60.077
G2 X-86.064 Y-12.18 J25.987
G1 Y10.547
G2 X-60.077 Y36.535 I25.987
G1 X-57.069
G2 X-55.744 Y36.467 J-12.994
G3 X-53.093 I1.326 J12.926
G2 X-51.767 Y36.535 I1.326 J-12.926
G1 X-41.938 Y36.507
G2 X-40.147 Y36.419 I-1.555 J-49.68
X-38.361 Y36.254 I-2.422 J-35.89
X-37.176 Y36.076 I-2.229 J-18.92
G3 X-35.996 Y35.872 I12.401 J68.098
X-34.207 Y35.915 I0.781 J4.754
G2 X-31.508 Y36.368 I6.433 J-30.055
X-28.777 Y36.535 I2.731 J-22.312
G1 X-12.344
G2 X-10.053 Y36.411 J-21.262
X-7.783 Y36.086 I-3.592 J-33.153
G3 X-5.99 I0.897 J5.022
G2 X-2.099 Y36.482 I4.585 J-25.676
X1.811 Y36.535 I3.91 J-146.778
X4.296 Y36.393 J-21.864
X6.757 Y36.014 I-3.634 J-31.757
G3 X8.445 I0.844 J4.345
G2 X10.906 Y36.393 I6.095 J-31.378
X13.391 Y36.535 I2.486 J-21.723
G1 X16.399
G2 X21.529 Y36 J-24.893
X26.452 Y34.462 I-5.592 J-26.551
G3 X27.352 I0.45 J1.07
G2 X32.275 Y36 I10.515 J-25.013
X37.405 Y36.535 I5.13 J-24.359
X41.511 Y36.471 J-131.731
X45.592 Y36.014 I-0.797 J-25.572
G3 X47.28 I0.844 J4.345
G2 X49.74 Y36.393 I6.095 J-31.378
X52.226 Y36.535 I2.486 J-21.723
G1 X62.857 Y36.483
G2 X74.441 Y34.022 I-1.706 J-36.521
X84.421 Y27.648 I-11.032 J-28.274
X91.797 Y16.916 I-22.261 J-23.201
X94.222 Y4.121 I-28.666 J-12.06
G3 X94.456 Y1.873 I8.895 J-0.21
G2 X94.95 Y-0.667 I-32.145 J-7.561
X94.259 Y-2.125 I-1.422 J-0.219
G3 X93.508 Y-3.553 I0.779 J-1.321
G2 X91.373 Y-17.238 I-30.998 J-2.173
X79.047 Y-31.742 I-27.692 J11.044
X72.032 Y-34.848 I-15.908 J26.451
X64.492 Y-36.264 I-10.375 J34.481
X61.795 Y-36.392 I-3.383 J42.829
G1 X51.087 Y-36.376
X46.521 Y-36.403
G2 X43.131 Y-36.142 J22.137
X39.811 Y-35.408 I4.088 J26.376
G3 X38.581 I-0.615 J-2.127
G2 X35.261 Y-36.142 I-7.408 J25.642
X31.871 Y-36.403 I-3.39 J21.876
G1 X11.113
X7.686
G2 X4.296 Y-36.142 J22.137
X0.976 Y-35.408 I4.088 J26.376
G3 X-0.253 I-0.615 J-2.127
G2 X-3.574 Y-36.142 I-7.408 J25.642
X-6.964 Y-36.403 I-3.39 J21.876
G1 X-28.777
G2 X-31.597 Y-36.216 J21.316
X-34.376 Y-35.701 I3.703 J27.747
G3 X-36.005 Y-35.663 I-0.902 J-3.79
G2 X-39.102 Y-36.144 I-8.655 J45.553
X-42.226 Y-36.379 I-4.166 J34.507
X-43.109 Y-36.399 I-1.77 J59.012
G1 X-51.767 Y-36.403
G2 X-53.093 Y-36.33 J12.112
G3 X-55.744 I-1.326 J-12.039
G2 X-57.069 Y-36.403 I-1.326 J12.039
G1 X-60.077
G2 X-84.3 Y-12.18 J24.223
G1 Y10.547
G2 X-60.077 Y34.77 I24.223
G1 X-57.069
G2 X-55.744 Y34.698 J-12.112
G3 X-53.093 I1.326 J12.039
G2 X-51.767 Y34.77 I1.326 J-12.039
G1 X-41.993 Y34.744
G2 X-40.277 Y34.66 I-1.502 J-47.985
X-38.567 Y34.502 I-2.295 J-34.166
X-37.204 Y34.298 I-2.569 J-21.812
G3 X-35.847 Y34.059 I20.733 J113.933
X-34.21 Y34.107 I0.698 J4.116
G2 X-31.512 Y34.593 I6.354 J-27.55
X-28.777 Y34.77 I2.736 J-20.978
G1 X-12.344
G2 X-10.02 Y34.636 J-20.165
X-7.721 Y34.279 I-3.486 J-30.06
G3 X-6.052 I0.835 J4.285
G2 X-2.132 Y34.714 I4.607 J-23.654
X1.811 Y34.77 I3.943 J-138.097
X4.328 Y34.617 J-20.681
X6.816 Y34.202 I-3.551 J-28.953
G3 X8.386 I0.785 J3.71
G2 X10.874 Y34.617 I6.039 J-28.538
X13.391 Y34.77 I2.517 J-20.527
G1 X16.399
G2 X21.564 Y34.19 J-23.284
X26.486 Y32.521 I-5.589 J-24.566
G3 X27.318 I0.416 J0.906
G2 X32.24 Y34.19 I10.511 J-22.896
X37.405 Y34.77 I5.165 J-22.704
G1 X40.646
G2 X43.163 Y34.617 J-20.681
X45.651 Y34.202 I-3.551 J-28.953
G3 X47.221 I0.785 J3.71
G2 X49.709 Y34.617 I6.039 J-28.538
X52.226 Y34.77 I2.517 J-20.527
G1 X62.775 Y34.721
G2 X73.745 Y32.401 I-1.624 J-34.779
X83.2 Y26.375 I-10.345 J-26.663
X90.228 Y16.111 I-21.09 J-21.98
X92.45 Y3.872 I-26.881 J-11.201
G3 X92.671 Y1.752 I7.668 J-0.273
G2 X93.508 Y-3.553 I-30.161 J-7.479
X92.692 Y-4.955 I-1.439 J-0.101
G3 X91.812 Y-6.319 I0.668 J-1.396
G2 X89.881 Y-16.235 I-29.593 J0.616
X78.466 Y-30.046 I-26.071 J9.927
X71.891 Y-33.054 I-15.349 J24.859
X64.801 Y-34.48 I-10.212 J32.439
X60.892 Y-34.653 I-3.77 J40.887
G1 X46.521
G2 X43.101 Y-34.368 J20.697
X39.764 Y-33.566 I4.054 J24.193
G3 X38.628 I-0.568 J-1.797
G2 X35.291 Y-34.368 I-7.391 J23.391
X31.871 Y-34.653 I-3.42 J20.412
G1 X11.113
X7.686
G2 X4.266 Y-34.368 J20.697
X0.929 Y-33.566 I4.054 J24.193
G3 X-0.207 I-0.568 J-1.797
G2 X-3.544 Y-34.368 I-7.391 J23.391
X-6.964 Y-34.653 I-3.42 J20.412
G1 X-28.777
G2 X-31.59 Y-34.453 J19.94
X-34.357 Y-33.903 I3.625 J25.431
G3 X-35.89 Y-33.859 I-0.864 J-3.363
G2 X-38.77 Y-34.343 I-10.234 J52.052
X-41.678 Y-34.609 I-4.218 J30.134
X-42.41 Y-34.633 I-1.664 J38.615
X-43.142 Y-34.649 I-3.374 J139.918
G1 X-51.767 Y-34.653
G2 X-53.095 Y-34.614 J22.473
X-53.756 Y-34.545 I0.443 J7.48
G3 X-55.081 I-0.662 J-4.449
G2 X-55.742 Y-34.614 I-1.103 J7.411
G1 X-60.077 Y-34.653
G2 X-82.55 Y-12.18 J22.473
G1 Y10.547
G2 X-60.077 Y33.02 I22.473
G1 X-57.069
G2 X-55.742 Y32.981 J-22.473
X-55.081 Y32.912 I-0.443 J-7.48
G3 X-53.756 I0.662 J4.449
G2 X-53.095 Y32.981 I1.103 J-7.411
G1 X-42.194 Y32.999
G2 X-39.036 Y32.793 I-0.972 J-39.228
X-37.379 Y32.56 I-2.579 J-24.369
X-35.733 Y32.261 I-22.587 J-128.72
G3 X-34.218 Y32.305 I0.656 J3.478
G2 X-31.519 Y32.83 I6.281 J-25.112
X-28.777 Y33.02 I2.743 J-19.632
G1 X-12.344
G2 X-9.987 Y32.874 J-19.023
X-7.659 Y32.481 I-3.393 J-27.179
G3 X-6.114 I0.773 J3.618
G2 X-2.166 Y32.959 I4.63 J-21.68
X1.811 Y33.02 I3.976 J-129.14
X4.36 Y32.852 J-19.46
X6.874 Y32.396 I-3.476 J-26.303
G3 X8.328 I0.727 J3.135
G2 X10.842 Y32.852 I5.99 J-25.846
X13.391 Y33.02 I2.55 J-19.292
G1 X16.399
G2 X21.604 Y32.386 J-21.676
X26.52 Y30.562 I-5.591 J-22.602
G3 X27.285 I0.382 J0.756
G2 X32.2 Y32.386 I10.507 J-20.778
X37.405 Y33.02 I5.205 J-21.042
G1 X40.646
G2 X43.195 Y32.852 J-19.46
X45.709 Y32.396 I-3.476 J-26.303
G3 X47.163 I0.727 J3.135
G2 X49.677 Y32.852 I5.99 J-25.846
X52.226 Y33.02 I2.55 J-19.292
G1 X62.693 Y32.973
G2 X73.054 Y30.793 I-1.544 J-33.053
X81.988 Y25.112 I-9.665 J-25.066
X88.669 Y15.32 I-19.93 J-20.771
X90.688 Y3.639 I-25.099 J-10.355
G3 X90.89 Y1.653 I6.669 J-0.326
G2 X91.812 Y-6.319 I-28.67 J-7.356
X90.9 Y-7.605 I-1.403 J0.029
G3 X89.929 Y-8.848 I0.527 J-1.412
G2 X89.563 Y-11.181 I-27.452 J3.106
