%
(IDEALAB FOAM)
(T1  D=0.0787 CR=0 - ZMIN=0.02 - bullnose end mill)
G90 G94
G17
G20
G28 G91 Z0
G90

(2D Adaptive1)
M9
T1 M6
S5000 M3
G54
M8
G0 X0.4368 Y0.141
Z0.6
Z0.2
Z0.1299
G1 Z0.122 F40
G3 X0.5044 Y0.1732 Z0.1179 I0.0338 J0.0161 F13.33
X0.4368 Y0.141 Z0.1138 I-0.0338 J-0.0161
X0.5044 Y0.1732 Z0.1097 I0.0338 J0.0161
X0.4368 Y0.141 Z0.1056 I-0.0338 J-0.0161
X0.5044 Y0.1732 Z0.1015 I0.0338 J0.0161
X0.4368 Y0.141 Z0.0974 I-0.0338 J-0.0161
X0.5044 Y0.1732 Z0.0933 I0.0338 J0.0161
X0.4368 Y0.141 Z0.0892 I-0.0338 J-0.0161
X0.5044 Y0.1732 Z0.0851 I0.0338 J0.0161
X0.4368 Y0.141 Z0.081 I-0.0338 J-0.0161
X0.5044 Y0.1732 Z0.0769 I0.0338 J0.0161
X0.4368 Y0.141 Z0.0728 I-0.0338 J-0.0161
X0.5044 Y0.1732 Z0.0687 I0.0338 J0.0161
X0.4368 Y0.141 Z0.0646 I-0.0338 J-0.0161
X0.5044 Y0.1732 Z0.0605 I0.0338 J0.0161
X0.4368 Y0.141 Z0.0563 I-0.0338 J-0.0161
X0.5044 Y0.1732 Z0.0522 I0.0338 J0.0161
X0.4368 Y0.141 Z0.0481 I-0.0338 J-0.0161
X0.5044 Y0.1732 Z0.044 I0.0338 J0.0161
X0.4368 Y0.141 Z0.0399 I-0.0338 J-0.0161
X0.5044 Y0.1732 Z0.0358 I0.0338 J0.0161
X0.4368 Y0.141 Z0.0317 I-0.0338 J-0.0161
X0.5044 Y0.1732 Z0.0276 I0.0338 J0.0161
X0.4368 Y0.141 Z0.0235 I-0.0338 J-0.0161
X0.508 Y0.1571 Z0.02 I0.0338 J0.0161
X0.4332 I-0.0374
X0.508 I0.0374
G1 X0.5092 Y0.1803 F40
X0.509 Y0.1863
X0.5073 Y0.192
X0.5044 Y0.1973
X0.5006 Y0.2019
X0.4962 Y0.206
X0.4912 Y0.2093
X0.4858 Y0.2119
X0.4801 Y0.2138
X0.4742 Y0.2149
X0.4682 Y0.2154
X0.4622 Y0.2152
X0.4563 Y0.2143
X0.4505 Y0.2128
X0.4449 Y0.2106
X0.4395 Y0.2079
X0.4345 Y0.2046
X0.4299 Y0.2008
X0.4256 Y0.1966
X0.4218 Y0.1919
X0.4186 Y0.1869
X0.4158 Y0.1816
X0.4136 Y0.176
X0.412 Y0.1702
X0.4109 Y0.1643
X0.4105 Y0.1583
X0.4106 Y0.1523
X0.4114 Y0.1464
X0.4127 Y0.1405
X0.4147 Y0.1348
X0.4172 Y0.1294
X0.4202 Y0.1242
X0.4237 Y0.1193
X0.4277 Y0.1149
X0.4321 Y0.1108
X0.4369 Y0.1072
X0.442 Y0.1041
X0.4475 Y0.1015
X0.4531 Y0.0995
X0.4589 Y0.098
X0.4649 Y0.0971
X0.4708 Y0.0969
X0.4768 Y0.0972
X0.4828 Y0.0981
X0.4886 Y0.0996
X0.4942 Y0.1017
X0.4996 Y0.1043
X0.5047 Y0.1075
X0.5095 Y0.1111
X0.5139 Y0.1152
X0.5178 Y0.1197
X0.5213 Y0.1246
X0.5243 Y0.1298
X0.5273 Y0.1364
X0.5306 Y0.1452
X0.533 Y0.154
X0.5344 Y0.1608
X0.5351 Y0.1674
X0.5353 Y0.1734
X0.535 Y0.1793
X0.5341 Y0.1853
X0.5328 Y0.1911
X0.5309 Y0.1968
X0.5284 Y0.2023
X0.5255 Y0.2075
X0.5221 Y0.2125
X0.5182 Y0.2171
X0.514 Y0.2213
X0.5094 Y0.2251
X0.5044 Y0.2285
X0.4992 Y0.2315
X0.4938 Y0.234
X0.4881 Y0.236
X0.4823 Y0.2376
X0.4764 Y0.2387
X0.4704 Y0.2393
X0.4643 Y0.2394
X0.458 Y0.239
X0.4518 Y0.2381
X0.4458 Y0.2367
X0.4398 Y0.2348
X0.4337 Y0.2324
X0.428 Y0.2295
X0.4225 Y0.2262
X0.4172 Y0.2224
X0.4121 Y0.218
X0.4074 Y0.2134
X0.4032 Y0.2084
X0.3994 Y0.203
X0.3959 Y0.1973
X0.3928 Y0.1912
X0.3903 Y0.185
X0.3884 Y0.1787
X0.3869 Y0.1721
X0.3859 Y0.1653
X0.3855 Y0.1585
X0.3856 Y0.1517
X0.3863 Y0.1451
X0.3875 Y0.1384
X0.3892 Y0.1317
X0.3915 Y0.1252
X0.3943 Y0.119
X0.3975 Y0.1131
X0.4013 Y0.1074
X0.4055 Y0.102
X0.4102 Y0.0969
X0.4152 Y0.0922
X0.4204 Y0.0881
X0.4261 Y0.0843
X0.4322 Y0.0809
X0.4385 Y0.078
X0.4449 Y0.0757
X0.4514 Y0.0739
X0.4581 Y0.0727
X0.4649 Y0.072
X0.4719 Y0.0718
X0.4788 Y0.0721
X0.4854 Y0.0731
X0.4921 Y0.0745
X0.4987 Y0.0765
X0.5051 Y0.0791
X0.5113 Y0.0821
X0.5171 Y0.0856
X0.5227 Y0.0895
X0.528 Y0.0939
X0.5332 Y0.0991
X0.5383 Y0.105
X0.5431 Y0.1116
X0.5478 Y0.1192
X0.5519 Y0.1271
X0.5553 Y0.1353
X0.5579 Y0.1436
X0.5598 Y0.1518
X0.5611 Y0.1599
X0.5616 Y0.1679
Y0.1758
X0.5609 Y0.1835
X0.5596 Y0.191
X0.5577 Y0.1984
X0.5552 Y0.2055
X0.5523 Y0.2122
X0.5488 Y0.2188
X0.5448 Y0.225
X0.5403 Y0.2309
X0.5352 Y0.2365
X0.5297 Y0.2417
X0.5238 Y0.2464
X0.5175 Y0.2507
X0.5107 Y0.2545
X0.5036 Y0.2578
X0.4963 Y0.2606
X0.4886 Y0.2627
X0.4807 Y0.2643
X0.4727 Y0.2652
X0.4645 Y0.2655
X0.4563 Y0.2651
X0.4481 Y0.2641
X0.4399 Y0.2624
X0.4319 Y0.26
X0.424 Y0.2569
X0.4163 Y0.2533
X0.4089 Y0.2489
X0.4019 Y0.244
X0.3952 Y0.2385
X0.389 Y0.2325
X0.3832 Y0.2259
X0.3807 Y0.2225
X0.3787 Y0.2192
X0.3774 Y0.2154
X0.377 Y0.2115
Y0.1203
X0.3773 Y0.1143
X0.3785 Y0.1084
X0.3802 Y0.1026
X0.3825 Y0.0971
X0.3853 Y0.0918
X0.3887 Y0.0863
X0.3926 Y0.0811
X0.3972 Y0.0759
X0.4025 Y0.0708
X0.4085 Y0.0659
X0.4131 Y0.0627
X0.4164 Y0.0609
X0.4199 Y0.0597
X0.4236 Y0.0594
G3 X0.4297 Y0.0719 I-0.0003 J0.0079
G1 X0.4252 Y0.0781
X0.3943 Y0.1204
X0.3912 Y0.1246
G3 X0.377 Y0.1203 I-0.0064 J-0.0046
G1 Y0.0865
X0.3773 Y0.0805
X0.3784 Y0.0746
X0.3794 Y0.0718
X0.382 Y0.0668
X0.3861 Y0.0628
X0.3911 Y0.0602
X0.3968 Y0.0594
G3 X0.4032 Y0.0713 I-0.0003 J0.0079
G1 X0.3989 Y0.0785
X0.394 Y0.0864
X0.3916 Y0.0903
G3 X0.377 Y0.0865 I-0.0067 J-0.0041
G1 Y0.0671
X0.3771 Y0.0664
X0.3773 Y0.0657
X0.3775 Y0.065
X0.3778 Y0.0643
X0.3785 Y0.0629
X0.3791 Y0.0622
X0.3797 Y0.0615
X0.3805 Y0.0609
X0.3812 Y0.0604
X0.3819 Y0.0601
X0.3826 Y0.0598
X0.3833 Y0.0596
X0.384 Y0.0594
X0.3847
X0.4989
X0.5055 Y0.0597
X0.5115 Y0.0605
X0.5173 Y0.0619
X0.523 Y0.0638
X0.5286 Y0.0662
X0.5345 Y0.0693
X0.5407 Y0.0732
X0.5467 Y0.0777
X0.5527 Y0.0831
X0.5588 Y0.0894
X0.56 Y0.091
X0.5623 Y0.0945
X0.5637 Y0.0985
X0.5642 Y0.1026
G3 X0.5522 Y0.109 I-0.0079 J-0.0003
G1 X0.5451 Y0.1047
X0.499 Y0.0764
X0.4951 Y0.0739
G3 X0.4989 Y0.0594 I0.0041 J-0.0067
G1 X0.5384
X0.5444 Y0.0597
X0.5503 Y0.0607
X0.5513 Y0.061
X0.5565 Y0.0636
X0.5606 Y0.0677
X0.5632 Y0.0728
X0.5642 Y0.0786
G3 X0.5521 Y0.0849 I-0.0079 J-0.0003
G1 X0.5451 Y0.0806
X0.5385 Y0.0764
X0.5345 Y0.0739
G3 X0.5384 Y0.0594 I0.0042 J-0.0067
G1 X0.5553
X0.5568
X0.5575 Y0.0596
X0.5582 Y0.0598
X0.5589 Y0.06
X0.5596 Y0.0604
X0.5611 Y0.0615
X0.5619 Y0.0622
X0.5625 Y0.0629
X0.563 Y0.0636
X0.5634 Y0.0643
X0.5637 Y0.065
X0.5639 Y0.0657
X0.5641 Y0.0664
Y0.0671
X0.5642 Y0.1402
Y0.2164
X0.5639 Y0.2224
X0.5629 Y0.2284
X0.5612 Y0.2341
X0.5589 Y0.2397
X0.5561 Y0.245
X0.5528 Y0.2502
X0.5487 Y0.2555
X0.5441 Y0.2607
X0.5387 Y0.2658
X0.5326 Y0.2707
X0.5257 Y0.2755
X0.5181 Y0.2798
X0.5101 Y0.2835
X0.5016 Y0.2867
X0.4925 Y0.2893
X0.4831 Y0.2912
X0.4733 Y0.2923
X0.4633 Y0.2927
X0.4531 Y0.2922
X0.4429 Y0.2909
X0.4327 Y0.2888
X0.4226 Y0.2859
X0.4128 Y0.2821
X0.4032 Y0.2775
X0.3939 Y0.2721
X0.3851 Y0.266
X0.3837 Y0.2649
X0.3801 Y0.2609
X0.3778 Y0.256
X0.377 Y0.2507
Y0.2115
G3 X0.3851 Y0.204 I0.0079 J0.0003
G1 X0.3975 Y0.2043
X0.5437 Y0.2085
X0.5565 Y0.2088
G3 X0.5642 Y0.2164 I-0.0002 J0.0079
G1 Y0.2502
X0.5639 Y0.2562
X0.5628 Y0.2621
X0.5608 Y0.2678
X0.5582 Y0.2731
X0.555 Y0.2782
X0.5514 Y0.283
X0.5469 Y0.288
X0.542 Y0.2927
X0.5361 Y0.2974
X0.5292 Y0.3021
X0.5215 Y0.3065
X0.5133 Y0.3103
X0.5041 Y0.3137
X0.4941 Y0.3166
X0.4834 Y0.3187
X0.4721 Y0.32
X0.4605 Y0.3204
X0.4486 Y0.3199
X0.4365 Y0.3184
X0.4245 Y0.3159
X0.4126 Y0.3124
X0.4008 Y0.3079
X0.3913 Y0.3033
X0.3862 Y0.3003
X0.3813 Y0.2962
X0.3781 Y0.2907
X0.377 Y0.2844
Y0.2507
G3 X0.3849 Y0.2431 I0.0079 J0.0003
G1 X0.3975 Y0.243
X0.5436 Y0.2426
X0.5563
G3 X0.5642 Y0.2502 J0.0079
G1 Y0.2809
X0.5639 Y0.2868
X0.5625 Y0.2927
X0.5604 Y0.2983
X0.5576 Y0.3036
X0.5542 Y0.3085
X0.5503 Y0.3132
X0.546 Y0.3177
X0.5406 Y0.3224
X0.5344 Y0.327
X0.5273 Y0.3314
X0.519 Y0.3358
X0.5096 Y0.3397
X0.4997 Y0.343
X0.4887 Y0.3456
X0.4767 Y0.3475
X0.4639 Y0.3485
X0.4506
X0.437 Y0.3473
X0.4231 Y0.345
X0.4098 Y0.3417
X0.399 Y0.3381
X0.3907 Y0.3345
X0.3868 Y0.3325
X0.3816 Y0.3284
X0.3782 Y0.3227
X0.377 Y0.3162
Y0.2844
G3 X0.3847 Y0.2768 I0.0079 J0.0003
G1 X0.3975 Y0.2766
X0.5436 Y0.2735
X0.5561 Y0.2733
G3 X0.5642 Y0.2809 I0.0002 J0.0079
G1 Y0.309
X0.5639 Y0.315
X0.5626 Y0.3208
X0.5605 Y0.3265
X0.5577 Y0.3317
X0.5543 Y0.3367
X0.5504 Y0.3413
X0.5458 Y0.346
X0.5405 Y0.3506
X0.5342 Y0.3552
X0.5266 Y0.3599
X0.5184 Y0.364
X0.5089 Y0.3679
X0.4979 Y0.3715
X0.4857 Y0.3743
X0.4731 Y0.3762
X0.4594 Y0.3771
X0.4447 Y0.377
X0.4297 Y0.3756
X0.4152 Y0.3731
X0.4034 Y0.37
X0.3952 Y0.3672
X0.3885 Y0.3642
X0.3867 Y0.3633
X0.3816 Y0.3592
X0.3782 Y0.3535
X0.377 Y0.3471
Y0.3162
G3 X0.3846 Y0.3086 I0.0079 J0.0003
G1 X0.3975 Y0.3081
X0.5437 Y0.3019
X0.556 Y0.3014
G3 X0.5642 Y0.309 I0.0003 J0.0079
G1 Y0.3371
X0.5639 Y0.3431
X0.5626 Y0.349
X0.5605 Y0.3546
X0.5576 Y0.3599
X0.5542 Y0.3648
X0.5504 Y0.3694
X0.5457 Y0.3742
X0.5404 Y0.3786
X0.5339 Y0.3834
X0.5262 Y0.3881
X0.5177 Y0.3924
X0.5076 Y0.3965
X0.496 Y0.4002
X0.4839 Y0.403
X0.4703 Y0.405
X0.4553 Y0.4059
X0.4396 Y0.4057
X0.4244 Y0.4043
X0.4108 Y0.4019
X0.4012 Y0.3994
X0.3935 Y0.3967
X0.3876 Y0.3941
X0.3866 Y0.3935
X0.3815 Y0.3894
X0.3782 Y0.3838
X0.377 Y0.3774
Y0.3471
G3 X0.3844 Y0.3395 I0.0079 J0.0003
G1 X0.3975 Y0.3387
X0.5437 Y0.3302
X0.5558 Y0.3295
G3 X0.5642 Y0.3371 I0.0005 J0.0079
G1 Y0.3652
X0.5639 Y0.3712
X0.5626 Y0.3771
X0.5604 Y0.3827
X0.5576 Y0.388
X0.5542 Y0.3929
X0.5503 Y0.3975
X0.5455 Y0.4023
X0.5402 Y0.4069
X0.5334 Y0.4118
X0.5258 Y0.4164
X0.517 Y0.4209
X0.5065 Y0.4252
X0.4948 Y0.4288
X0.482 Y0.4318
X0.4674 Y0.4339
X0.4517 Y0.4349
X0.4359 Y0.4347
X0.4213 Y0.4333
X0.4086 Y0.4311
X0.4001 Y0.4289
X0.3927 Y0.4263
X0.3871 Y0.4238
X0.3866 Y0.4235
X0.3815 Y0.4194
X0.3782 Y0.4138
X0.377 Y0.4074
Y0.3774
G3 X0.3843 Y0.3698 I0.0079 J0.0003
G1 X0.3975 Y0.3689
X0.5437 Y0.3585
X0.5557 Y0.3577
G3 X0.5642 Y0.3652 I0.0006 J0.0079
G1 Y0.3934
X0.5639 Y0.3994
X0.5626 Y0.4052
X0.5604 Y0.4108
X0.5575 Y0.4161
X0.5541 Y0.421
X0.5503 Y0.4256
X0.5455 Y0.4304
X0.5401 Y0.4351
X0.5332 Y0.4402
X0.5257 Y0.4448
X0.5165 Y0.4494
X0.5056 Y0.4539
X0.494 Y0.4576
X0.4805 Y0.4607
X0.4653 Y0.463
X0.4495 Y0.4641
X0.4338 Y0.4639
X0.4197 Y0.4625
X0.4076 Y0.4604
X0.3997 Y0.4584
X0.3924 Y0.4559
X0.387 Y0.4534
X0.3866 Y0.4533
X0.3815 Y0.4492
X0.3782 Y0.4436
X0.377 Y0.4371
Y0.4074
G3 X0.3842 Y0.3998 I0.0079 J0.0003
G1 X0.3975 Y0.3987
X0.5437 Y0.3868
X0.5556 Y0.3858
G3 X0.5642 Y0.3934 I0.0006 J0.0078
G1 Y0.4215
X0.5639 Y0.4275
X0.5626 Y0.4333
X0.5604 Y0.4389
X0.5576 Y0.4442
X0.5542 Y0.4492
X0.5504 Y0.4538
X0.5456 Y0.4586
X0.5401 Y0.4634
X0.5331 Y0.4685
X0.5256 Y0.4732
X0.5162 Y0.478
X0.5052 Y0.4826
X0.4934 Y0.4864
X0.4795 Y0.4897
X0.4641 Y0.4921
X0.4483 Y0.4932
X0.4329 Y0.4931
X0.4191 Y0.4919
X0.4074 Y0.4898
X0.3996 Y0.4879
X0.3925 Y0.4854
X0.387 Y0.483
X0.3867 Y0.4829
X0.3816 Y0.4788
X0.3782 Y0.4732
X0.377 Y0.4667
Y0.4371
G3 X0.3842 Y0.4295 I0.0079 J0.0003
G1 X0.3975 Y0.4283
X0.5437 Y0.415
X0.5556 Y0.4139
G3 X0.5642 Y0.4215 I0.0007 J0.0078
G1 Y0.4496
X0.5639 Y0.4556
X0.5626 Y0.4615
X0.5605 Y0.4671
X0.5577 Y0.4724
X0.5543 Y0.4774
X0.5505 Y0.482
X0.5458 Y0.4868
X0.5403 Y0.4917
X0.5333 Y0.4969
X0.5258 Y0.5016
X0.5162 Y0.5066
X0.5053 Y0.5112
X0.4933 Y0.5152
X0.4792 Y0.5186
X0.4638 Y0.5211
X0.4481 Y0.5223
X0.4328
X0.4192 Y0.5212
X0.4076 Y0.5193
X0.3999 Y0.5174
X0.3928 Y0.515
X0.3872 Y0.5126
X0.3868 Y0.5124
X0.3816 Y0.5083
X0.3782 Y0.5027
X0.377 Y0.4962
Y0.4667
G3 X0.3841 Y0.4591 I0.0079 J0.0003
G1 X0.3975 Y0.4578
X0.5437 Y0.4432
X0.5555 Y0.4421
G3 X0.5642 Y0.4496 I0.0008 J0.0078
G1 Y0.4777
X0.5639 Y0.4837
X0.5627 Y0.4896
X0.5606 Y0.4952
X0.5578 Y0.5006
X0.5545 Y0.5056
X0.5507 Y0.5102
X0.5461 Y0.5151
X0.5406 Y0.52
X0.5337 Y0.5252
X0.5262 Y0.5301
X0.5166 Y0.5352
X0.5058 Y0.5398
X0.4936 Y0.544
X0.4795 Y0.5475
X0.4642 Y0.5501
X0.4486 Y0.5515
X0.4334 Y0.5516
X0.4198 Y0.5506
X0.4082 Y0.5487
X0.4004 Y0.5469
X0.3932 Y0.5446
X0.3877 Y0.5422
X0.387 Y0.5419
X0.3817 Y0.5378
X0.3782 Y0.5321
X0.377 Y0.5255
Y0.4962
G3 X0.384 Y0.4886 I0.0079 J0.0003
G1 X0.3975 Y0.4872
X0.5437 Y0.4714
X0.5554 Y0.4702
G3 X0.5642 Y0.4777 I0.0008 J0.0078
G1 Y0.5076
X0.5639 Y0.5136
X0.5624 Y0.5194
X0.5602 Y0.525
X0.5573 Y0.5302
X0.5539 Y0.5351
X0.55 Y0.5397
X0.545 Y0.5448
X0.5395 Y0.5497
X0.5322 Y0.555
X0.5243 Y0.5599
X0.5145 Y0.565
X0.5028 Y0.5698
X0.4904 Y0.5739
X0.4762 Y0.5772
X0.4608 Y0.5796
X0.4452 Y0.5808
X0.43 Y0.5806
X0.4172 Y0.5795
X0.4063 Y0.5777
X0.3991 Y0.5758
X0.392 Y0.5734
X0.3881 Y0.5717
X0.3823 Y0.5677
X0.3784 Y0.5618
X0.377 Y0.5548
Y0.5255
G3 X0.3841 Y0.518 I0.0079 J0.0003
G1 X0.3975 Y0.5166
X0.5437 Y0.5012
X0.5555 Y0.5
G3 X0.5642 Y0.5076 I0.0008 J0.0078
G1 Y0.5371
X0.5639 Y0.5431
X0.5623 Y0.5489
X0.56 Y0.5544
X0.557 Y0.5596
X0.5535 Y0.5645
X0.5494 Y0.5693
X0.5444 Y0.5743
X0.5384 Y0.5794
X0.5309 Y0.5848
X0.5228 Y0.5897
X0.5126 Y0.5948
X0.5007 Y0.5996
X0.4881 Y0.6035
X0.4736 Y0.6068
X0.458 Y0.609
X0.4425 Y0.61
X0.4277 Y0.6097
X0.4154 Y0.6085
X0.4055 Y0.6067
X0.3976 Y0.6046
X0.3912 Y0.6024
X0.3879 Y0.6009
X0.3822 Y0.5968
X0.3784 Y0.591
X0.377 Y0.5841
Y0.5548
G3 X0.3841 Y0.5473 I0.0079 J0.0003
G1 X0.3975 Y0.5459
X0.5437 Y0.5307
X0.5555 Y0.5295
G3 X0.5642 Y0.5371 I0.0008 J0.0078
G1 Y0.5652
X0.5639 Y0.5712
X0.5625 Y0.577
X0.5602 Y0.5826
X0.5573 Y0.5879
X0.5539 Y0.5928
X0.5498 Y0.5978
X0.5451 Y0.6025
X0.5389 Y0.6079
X0.5321 Y0.613
X0.5237 Y0.6181
X0.5135 Y0.6234
X0.5026 Y0.6279
X0.4896 Y0.6321
X0.475 Y0.6356
X0.4595 Y0.638
X0.4442 Y0.6391
X0.4297 Y0.639
X0.4167 Y0.6379
X0.4064 Y0.6361
X0.3988 Y0.6342
X0.3919 Y0.6319
X0.3881 Y0.6302
X0.3823 Y0.6262
X0.3784 Y0.6203
X0.377 Y0.6133
Y0.5841
G3 X0.384 Y0.5765 I0.0079 J0.0003
G1 X0.3975 Y0.5751
X0.5437 Y0.559
X0.5554 Y0.5577
G3 X0.5642 Y0.5652 I0.0009 J0.0078
G1 Y0.5933
X0.5639 Y0.5993
X0.5626 Y0.6052
X0.5605 Y0.6108
X0.5577 Y0.6161
X0.5543 Y0.6211
X0.5503 Y0.6261
X0.5457 Y0.6309
X0.5399 Y0.6361
X0.5331 Y0.6412
X0.525 Y0.6464
X0.5149 Y0.6517
X0.5042 Y0.6563
X0.4914 Y0.6607
X0.477 Y0.6643
X0.4617 Y0.6669
X0.4463 Y0.6682
X0.4317 Y0.6683
X0.4186 Y0.6673
X0.4077 Y0.6656
X0.4 Y0.6638
X0.3928 Y0.6614
X0.3873 Y0.6591
X0.3868 Y0.6589
X0.3816 Y0.6548
X0.3782 Y0.6491
X0.377 Y0.6426
Y0.6133
G3 X0.384 Y0.6058 I0.0079 J0.0003
G1 X0.3974 Y0.6042
X0.5437 Y0.5872
X0.5554 Y0.5858
G3 X0.5642 Y0.5933 I0.0009 J0.0078
G1 Y0.6229
X0.5639 Y0.6289
X0.5625 Y0.6347
X0.5603 Y0.6403
X0.5574 Y0.6455
X0.554 Y0.6505
X0.5501 Y0.6554
X0.5452 Y0.6604
X0.5395 Y0.6654
X0.5322 Y0.6709
X0.5243 Y0.6759
X0.5142 Y0.6811
X0.5026 Y0.686
X0.4901 Y0.6902
X0.4758 Y0.6937
X0.4605 Y0.6962
X0.445 Y0.6974
X0.4303
X0.4175 Y0.6964
X0.4066 Y0.6946
X0.3994 Y0.6928
X0.3924 Y0.6905
X0.3868 Y0.6881
X0.3816 Y0.684
X0.3782 Y0.6784
X0.377 Y0.6719
Y0.6426
G3 X0.384 Y0.6351 I0.0079 J0.0003
G1 X0.3974 Y0.6335
X0.5437 Y0.6167
X0.5554 Y0.6153
G3 X0.5642 Y0.6229 I0.0009 J0.0078
G1 Y0.6521
X0.5639 Y0.6581
X0.5624 Y0.6639
X0.5602 Y0.6695
X0.5573 Y0.6748
X0.5539 Y0.6797
X0.5499 Y0.6846
X0.545 Y0.6896
X0.5391 Y0.6948
X0.5318 Y0.7002
X0.5237 Y0.7053
X0.5135 Y0.7105
X0.5021 Y0.7153
X0.4895 Y0.7195
X0.475 Y0.723
X0.4596 Y0.7254
X0.4442 Y0.7266
X0.4294 Y0.7265
X0.4168 Y0.7255
X0.4061 Y0.7237
X0.399 Y0.7219
X0.3921 Y0.7196
X0.3881 Y0.7179
X0.3823 Y0.7139
X0.3784 Y0.708
X0.377 Y0.701
Y0.6719
G3 X0.384 Y0.6643 I0.0079 J0.0003
G1 X0.3974 Y0.6628
X0.5437 Y0.6459
X0.5554 Y0.6446
G3 X0.5642 Y0.6521 I0.0009 J0.0078
G1 Y0.6803
X0.5639 Y0.6862
X0.5626 Y0.6921
X0.5605 Y0.6977
X0.5577 Y0.703
X0.5544 Y0.7081
X0.5504 Y0.713
X0.5459 Y0.7178
X0.5399 Y0.7232
X0.5332 Y0.7283
X0.5251 Y0.7336
X0.515 Y0.7389
X0.5044 Y0.7436
X0.4916 Y0.748
X0.4772 Y0.7517
X0.4619 Y0.7543
X0.4465 Y0.7557
X0.4318 Y0.7558
X0.4188 Y0.7549
X0.4079 Y0.7533
X0.4002 Y0.7514
X0.393 Y0.7491
X0.3875 Y0.7468
X0.3869 Y0.7465
X0.3816 Y0.7424
X0.3782 Y0.7368
X0.377 Y0.7302
Y0.701
G3 X0.3839 Y0.6935 I0.0079 J0.0003
G1 X0.3974 Y0.6918
X0.5437 Y0.6741
X0.5553 Y0.6727
G3 X0.5642 Y0.6803 I0.0009 J0.0078
G1 Y0.7101
X0.5639 Y0.7161
X0.5625 Y0.7219
X0.5603 Y0.7275
X0.5574 Y0.7328
X0.554 Y0.7377
X0.55 Y0.7426
X0.5452 Y0.7476
X0.5394 Y0.7527
X0.5321 Y0.7582
X0.5242 Y0.7632
X0.5141 Y0.7685
X0.5024 Y0.7735
X0.4899 Y0.7776
X0.4756 Y0.7812
X0.4602 Y0.7837
X0.4448 Y0.7849
X0.43
X0.4174 Y0.7839
X0.4066 Y0.7822
X0.3994 Y0.7804
X0.3924 Y0.7781
X0.3868 Y0.7757
X0.3816 Y0.7716
X0.3782 Y0.7659
X0.377 Y0.7595
Y0.7302
G3 X0.384 Y0.7227 I0.0079 J0.0003
G1 X0.3974 Y0.7211
X0.5437 Y0.7039
X0.5554 Y0.7025
G3 X0.5642 Y0.7101 I0.0009 J0.0078
G1 Y0.7396
X0.5639 Y0.7456
X0.5624 Y0.7514
X0.5601 Y0.757
X0.5572 Y0.7622
X0.5538 Y0.7672
X0.5497 Y0.7721
X0.5448 Y0.7771
X0.5388 Y0.7823
X0.5315 Y0.7877
X0.5233 Y0.7928
X0.5131 Y0.7981
X0.5015 Y0.803
X0.4888 Y0.8071
X0.4743 Y0.8106
X0.4588 Y0.813
X0.4434 Y0.8141
X0.4288 Y0.814
X0.4164 Y0.813
X0.4057 Y0.8112
X0.3987 Y0.8094
X0.3919 Y0.8071
X0.3881 Y0.8054
X0.3823 Y0.8014
X0.3784 Y0.7955
X0.377 Y0.7886
Y0.7595
G3 X0.384 Y0.7519 I0.0079 J0.0003
G1 X0.3974 Y0.7503
X0.5437 Y0.7334
X0.5554 Y0.7321
G3 X0.5642 Y0.7396 I0.0009 J0.0078
G1 Y0.7677
X0.5639 Y0.7737
X0.5626 Y0.7796
X0.5605 Y0.7852
X0.5576 Y0.7905
X0.5543 Y0.7955
X0.5503 Y0.8005
X0.5457 Y0.8053
X0.5397 Y0.8107
X0.533 Y0.8158
X0.5247 Y0.8211
X0.5147 Y0.8265
X0.504 Y0.8311
X0.4911 Y0.8355
X0.4766 Y0.8392
X0.4613 Y0.8418
X0.446 Y0.8432
X0.4314 Y0.8433
X0.4184 Y0.8424
X0.4077 Y0.8407
X0.4 Y0.8389
X0.3929 Y0.8366
X0.3873 Y0.8343
X0.3868 Y0.834
X0.3816 Y0.83
X0.3782 Y0.8243
X0.377 Y0.8178
Y0.7886
G3 X0.3839 Y0.781 I0.0079 J0.0003
G1 X0.3974 Y0.7794
X0.5437 Y0.7616
X0.5553 Y0.7602
G3 X0.5642 Y0.7677 I0.001 J0.0078
G1 Y0.7972
X0.5639 Y0.8032
X0.5625 Y0.8091
X0.5603 Y0.8147
X0.5575 Y0.82
X0.5541 Y0.8249
X0.5501 Y0.8298
X0.5453 Y0.8348
X0.5396 Y0.84
X0.5324 Y0.8454
X0.5244 Y0.8505
X0.5143 Y0.8558
X0.5028 Y0.8607
X0.4902 Y0.865
X0.4759 Y0.8686
X0.4606 Y0.8711
X0.4451 Y0.8724
X0.4305
X0.4177 Y0.8715
X0.4068 Y0.8697
X0.3996 Y0.868
X0.3926 Y0.8657
X0.3871 Y0.8634
X0.3868 Y0.8632
X0.3816 Y0.8592
X0.3782 Y0.8535
X0.377 Y0.847
Y0.8178
G3 X0.3839 Y0.8102 I0.0079 J0.0003
G1 X0.3974 Y0.8086
X0.5437 Y0.7911
X0.5554 Y0.7897
G3 X0.5642 Y0.7972 I0.0009 J0.0078
G1 Y0.8265
X0.5639 Y0.8325
X0.5625 Y0.8383
X0.5603 Y0.8439
X0.5574 Y0.8492
X0.5541 Y0.8542
X0.55 Y0.8591
X0.5452 Y0.8641
X0.5393 Y0.8693
X0.5321 Y0.8747
X0.524 Y0.8798
X0.5139 Y0.8852
X0.5025 Y0.89
X0.4899 Y0.8942
X0.4754 Y0.8978
X0.4601 Y0.9003
X0.4447 Y0.9016
X0.4299
X0.4173 Y0.9006
X0.4065 Y0.8988
X0.3994 Y0.8971
X0.3924 Y0.8948
X0.3868 Y0.8924
X0.3816 Y0.8883
X0.3782 Y0.8827
X0.377 Y0.8762
Y0.847
G3 X0.384 Y0.8394 I0.0079 J0.0003
G1 X0.3974 Y0.8378
X0.5437 Y0.8204
X0.5554 Y0.819
G3 X0.5642 Y0.8265 I0.0009 J0.0078
G1 Y0.8546
X0.5639 Y0.8606
X0.5627 Y0.8665
X0.5606 Y0.8721
X0.5579 Y0.8775
X0.5546 Y0.8825
X0.5506 Y0.8875
X0.5461 Y0.8923
X0.5403 Y0.8976
X0.5336 Y0.9028
X0.5255 Y0.9081
X0.5155 Y0.9135
X0.505 Y0.9182
X0.4922 Y0.9226
X0.4779 Y0.9264
X0.4626 Y0.9291
X0.4473 Y0.9306
X0.4326 Y0.9308
X0.4195 Y0.93
X0.4081 Y0.9283
X0.4005 Y0.9266
X0.3935 Y0.9244
X0.388 Y0.9221
X0.3871 Y0.9217
X0.3818 Y0.9176
X0.3782 Y0.9119
X0.377 Y0.9053
Y0.8762
G3 X0.3839 Y0.8686 I0.0079 J0.0003
G1 X0.3974 Y0.8669
X0.5437 Y0.8486
X0.5553 Y0.8471
G3 X0.5642 Y0.8546 I0.001 J0.0078
G1 Y0.8845
X0.5639 Y0.8905
X0.5625 Y0.8963
X0.5604 Y0.9019
X0.5576 Y0.9072
X0.5542 Y0.9122
X0.5503 Y0.917
X0.5455 Y0.9221
X0.5398 Y0.9272
X0.5326 Y0.9327
X0.5247 Y0.9377
X0.5233 Y0.9385
X0.5205 Y0.9397
X0.5176 Y0.9404
X0.5146 Y0.9406
G3 X0.509 Y0.9276 I0.0003 J-0.0079
G1 X0.5136 Y0.9223
X0.5465 Y0.8841
X0.5503 Y0.8796
G3 X0.5642 Y0.8845 I0.006 J0.0051
G1 Y0.914
X0.5639 Y0.92
X0.5625 Y0.9258
X0.5612 Y0.929
X0.5573 Y0.9351
X0.5512 Y0.9392
X0.5441 Y0.9406
G3 X0.5378 Y0.9285 I0.0003 J-0.0079
G1 X0.5422 Y0.9217
X0.5471 Y0.914
X0.5497 Y0.91
G3 X0.5642 Y0.914 I0.0066 J0.0043
G1 Y0.9278
X0.5641 Y0.9334
X0.5638 Y0.9347
X0.5636 Y0.9354
X0.5633 Y0.936
X0.5629 Y0.9367
X0.5624 Y0.9374
X0.5617 Y0.9381
X0.561 Y0.9387
X0.5605 Y0.939
X0.5592 Y0.9398
X0.5586 Y0.9401
X0.5579 Y0.9403
X0.5566 Y0.9406
X0.5553
X0.3943
X0.3929
X0.3918
X0.3901
X0.3889
X0.3874
X0.3861
X0.3847
X0.384
X0.3833 Y0.9404
X0.3826 Y0.9402
X0.3819 Y0.9399
X0.3812 Y0.9396
X0.3803 Y0.939
X0.3796 Y0.9384
X0.3789 Y0.9376
X0.378 Y0.9362
X0.3777 Y0.9355
X0.3774 Y0.9348
X0.3772 Y0.9341
X0.3771 Y0.9334
X0.377 Y0.9278
Y0.9053
G3 X0.3894 Y0.8991 I0.0079 J0.0003
G1 X0.3904 Y0.9005 Z0.0202
X0.3914 Y0.9018 Z0.0208
X0.3923 Y0.9029 Z0.0217
X0.3925 Y0.9041 Z0.0229
X0.3927 Y0.905 Z0.0243
X0.3928 Y0.9056 Z0.0258
Y0.9059 Z0.0279
G0 Z0.2
X1.2658 Y0.1746
Z0.1299
G1 Z0.122 F40
G3 X1.3334 Y0.2067 Z0.1179 I0.0338 J0.0161 F13.33
X1.2658 Y0.1746 Z0.1138 I-0.0338 J-0.0161
X1.3334 Y0.2067 Z0.1097 I0.0338 J0.0161
X1.2658 Y0.1746 Z0.1056 I-0.0338 J-0.0161
X1.3334 Y0.2067 Z0.1015 I0.0338 J0.0161
X1.2658 Y0.1746 Z0.0974 I-0.0338 J-0.0161
X1.3334 Y0.2067 Z0.0933 I0.0338 J0.0161
X1.2658 Y0.1746 Z0.0892 I-0.0338 J-0.0161
X1.3334 Y0.2067 Z0.0851 I0.0338 J0.0161
X1.2658 Y0.1746 Z0.081 I-0.0338 J-0.0161
X1.3334 Y0.2067 Z0.0769 I0.0338 J0.0161
X1.2658 Y0.1746 Z0.0728 I-0.0338 J-0.0161
X1.3334 Y0.2067 Z0.0687 I0.0338 J0.0161
X1.2658 Y0.1746 Z0.0646 I-0.0338 J-0.0161
X1.3334 Y0.2067 Z0.0605 I0.0338 J0.0161
X1.2658 Y0.1746 Z0.0563 I-0.0338 J-0.0161
X1.3334 Y0.2067 Z0.0522 I0.0338 J0.0161
X1.2658 Y0.1746 Z0.0481 I-0.0338 J-0.0161
X1.3334 Y0.2067 Z0.044 I0.0338 J0.0161
X1.2658 Y0.1746 Z0.0399 I-0.0338 J-0.0161
X1.3334 Y0.2067 Z0.0358 I0.0338 J0.0161
X1.2658 Y0.1746 Z0.0317 I-0.0338 J-0.0161
X1.3334 Y0.2067 Z0.0276 I0.0338 J0.0161
X1.2658 Y0.1746 Z0.0235 I-0.0338 J-0.0161
X1.337 Y0.1907 Z0.02 I0.0338 J0.0161
X1.2622 I-0.0374
X1.337 I0.0374
G1 X1.3382 Y0.2138 F40
X1.338 Y0.2198
X1.3363 Y0.2256
X1.3334 Y0.2309
X1.3296 Y0.2355
X1.3252 Y0.2395
X1.3202 Y0.2429
X1.3148 Y0.2455
X1.3091 Y0.2473
X1.3032 Y0.2485
X1.2972 Y0.249
X1.2912 Y0.2488
X1.2853 Y0.2479
X1.2795 Y0.2463
X1.2739 Y0.2442
X1.2685 Y0.2415
X1.2635 Y0.2382
X1.2589 Y0.2344
X1.2546 Y0.2301
X1.2508 Y0.2255
X1.2476 Y0.2205
X1.2448 Y0.2151
X1.2426 Y0.2096
X1.241 Y0.2038
X1.2399 Y0.1979
X1.2395 Y0.1919
X1.2396 Y0.1859
X1.2404 Y0.1799
X1.2417 Y0.1741
X1.2437 Y0.1684
X1.2462 Y0.163
X1.2492 Y0.1578
X1.2527 Y0.1529
X1.2567 Y0.1484
X1.2611 Y0.1444
X1.2659 Y0.1408
X1.271 Y0.1377
X1.2765 Y0.1351
X1.2821 Y0.133
X1.2879 Y0.1316
X1.2939 Y0.1307
X1.2999 Y0.1304
X1.3058 Y0.1308
X1.3118 Y0.1317
X1.3176 Y0.1332
X1.3232 Y0.1353
X1.3286 Y0.1379
X1.3337 Y0.141
X1.3385 Y0.1447
X1.3429 Y0.1488
X1.3468 Y0.1533
X1.3503 Y0.1582
X1.3533 Y0.1634
X1.3563 Y0.17
X1.3596 Y0.1787
X1.362 Y0.1876
X1.3634 Y0.1944
X1.3641 Y0.2009
X1.3643 Y0.2069
X1.364 Y0.2129
X1.3632 Y0.2189
X1.3618 Y0.2247
X1.3599 Y0.2304
X1.3574 Y0.2359
X1.3545 Y0.2411
X1.3511 Y0.2461
X1.3472 Y0.2507
X1.343 Y0.2549
X1.3384 Y0.2587
X1.3334 Y0.2621
X1.3282 Y0.2651
X1.3228 Y0.2676
X1.3171 Y0.2696
X1.3113 Y0.2712
X1.3054 Y0.2723
X1.2994 Y0.2728
X1.2933 Y0.273
X1.287 Y0.2726
X1.2809 Y0.2717
X1.2749 Y0.2703
X1.2688 Y0.2684
X1.2627 Y0.266
X1.257 Y0.2631
X1.2515 Y0.2598
X1.2462 Y0.256
X1.2411 Y0.2516
X1.2364 Y0.2469
X1.2322 Y0.242
X1.2284 Y0.2366
X1.2249 Y0.2308
X1.2218 Y0.2248
X1.2193 Y0.2185
X1.2174 Y0.2122
X1.2159 Y0.2057
X1.2149 Y0.1989
X1.2145 Y0.192
X1.2146 Y0.1853
X1.2153 Y0.1786
X1.2165 Y0.172
X1.2182 Y0.1653
X1.2205 Y0.1588
X1.2233 Y0.1526
X1.2265 Y0.1467
X1.2303 Y0.141
X1.2345 Y0.1356
X1.2392 Y0.1305
X1.2442 Y0.1258
X1.2494 Y0.1217
X1.2551 Y0.1179
X1.2612 Y0.1145
X1.2675 Y0.1116
X1.2739 Y0.1093
X1.2804 Y0.1075
X1.2871 Y0.1063
X1.294 Y0.1055
X1.3009 Y0.1054
X1.3078 Y0.1057
X1.3144 Y0.1066
X1.3211 Y0.1081
X1.3277 Y0.1101
X1.3341 Y0.1126
X1.3403 Y0.1157
X1.3461 Y0.1191
X1.3517 Y0.123
X1.357 Y0.1275
X1.3622 Y0.1327
X1.3673 Y0.1386
X1.3722 Y0.1452
X1.3768 Y0.1527
X1.3809 Y0.1607
X1.3843 Y0.1689
X1.3869 Y0.1771
X1.3889 Y0.1854
X1.3901 Y0.1935
X1.3906 Y0.2015
Y0.2094
X1.3899 Y0.2171
X1.3886 Y0.2246
X1.3867 Y0.232
X1.3842 Y0.239
X1.3813 Y0.2458
X1.3778 Y0.2523
X1.3738 Y0.2586
X1.3693 Y0.2645
X1.3642 Y0.27
X1.3587 Y0.2752
X1.3528 Y0.28
X1.3465 Y0.2843
X1.3397 Y0.2881
X1.3326 Y0.2914
X1.3253 Y0.2942
X1.3176 Y0.2963
X1.3097 Y0.2979
X1.3017 Y0.2988
X1.2936 Y0.2991
X1.2853 Y0.2987
X1.2771 Y0.2976
X1.2689 Y0.2959
X1.2609 Y0.2936
X1.253 Y0.2905
X1.2453 Y0.2868
X1.2379 Y0.2825
X1.2309 Y0.2776
X1.2242 Y0.2721
X1.218 Y0.2661
X1.215 Y0.2627
X1.2128 Y0.2596
X1.2113 Y0.2563
X1.2105 Y0.2526
X1.2086 Y0.2359
X1.2044 Y0.2021
X1.204 Y0.1993
X1.2035 Y0.1965
X1.2022 Y0.1908
X1.2006 Y0.1852
X1.1997 Y0.1821
X1.1983 Y0.1763
X1.1976 Y0.1703
Y0.1643
X1.1982 Y0.1584
X1.1993 Y0.1525
X1.201 Y0.1464
X1.2033 Y0.1401
X1.2063 Y0.1337
X1.2098 Y0.1274
X1.2139 Y0.1212
X1.2188 Y0.1151
X1.2243 Y0.1093
X1.2304 Y0.1037
X1.237 Y0.0986
X1.2441 Y0.094
X1.2516 Y0.0899
X1.2596 Y0.0863
X1.2678 Y0.0834
X1.2764 Y0.0812
X1.2851 Y0.0797
X1.2939 Y0.0788
X1.3028 Y0.0787
X1.3117 Y0.0793
X1.3205 Y0.0806
X1.3293 Y0.0826
X1.3378 Y0.0853
X1.3461 Y0.0886
X1.3479 Y0.0896
X1.3491 Y0.0903
X1.362 Y0.0986
X1.3633 Y0.0995
X1.364 Y0.1001
X1.3646 Y0.1008
X1.3786 Y0.1177
X1.3793 Y0.1187
X1.3796 Y0.1194
X1.3881 Y0.1402
X1.3891 Y0.143
X1.3897 Y0.1458
X1.3924 Y0.1627
X1.3948 Y0.1796
X1.3962 Y0.1965
X1.3974 Y0.2134
X1.3978 Y0.219
X1.3986 Y0.2415
X1.3985 Y0.2475
X1.3978 Y0.2534
X1.3964 Y0.2593
X1.3945 Y0.265
X1.3921 Y0.2705
X1.389 Y0.2762
X1.3852 Y0.282
X1.3809 Y0.2876
X1.3758 Y0.2933
X1.3698 Y0.2988
X1.3632 Y0.3041
X1.3559 Y0.309
X1.3481 Y0.3134
X1.3397 Y0.3172
X1.3309 Y0.3205
X1.3216 Y0.3231
X1.3119 Y0.3249
X1.302 Y0.326
X1.2918 Y0.3263
X1.2816 Y0.3258
X1.2713 Y0.3245
X1.2611 Y0.3223
X1.251 Y0.3192
X1.2411 Y0.3154
X1.2315 Y0.3107
X1.2223 Y0.3053
X1.2196 Y0.3034
X1.2155 Y0.2994
X1.2128 Y0.2944
X1.2118 Y0.2888
X1.211 Y0.2584
X1.2105 Y0.2526
G3 X1.2179 Y0.2441 I0.0078 J-0.0006
G1 X1.2301 Y0.2434
X1.3778 Y0.2349
X1.3903 Y0.2342
G3 X1.3986 Y0.2415 I0.0005 J0.0079
G1 X1.399 Y0.2527
X1.3991 Y0.2584
X1.3993 Y0.2809
X1.3991 Y0.2868
X1.3977 Y0.2927
X1.3957 Y0.2983
X1.393 Y0.3037
X1.3898 Y0.3088
X1.386 Y0.314
X1.3816 Y0.319
X1.3762 Y0.3242
X1.3699 Y0.3295
X1.363 Y0.3343
X1.3551 Y0.3389
X1.3463 Y0.3431
X1.3366 Y0.3469
X1.3262 Y0.35
X1.3153 Y0.3523
X1.304 Y0.3537
X1.2923 Y0.3543
X1.2803 Y0.3539
X1.2682 Y0.3525
X1.2559 Y0.3501
X1.2438 Y0.3467
X1.2324 Y0.3425
X1.2246 Y0.3389
X1.2216 Y0.3372
X1.2167 Y0.3331
X1.2134 Y0.3276
X1.2123 Y0.3212
Y0.3146
X1.2122 Y0.309
X1.2118 Y0.2888
G3 X1.2193 Y0.281 I0.0079 J0.0001
G1 X1.2321 Y0.2804
X1.3787 Y0.2739
X1.3911 Y0.2733
G3 X1.3993 Y0.2809 I0.0004 J0.0079
G1 X1.3994 Y0.2921
X1.3995 Y0.3121
X1.3992 Y0.3181
X1.3978 Y0.3239
X1.3956 Y0.3295
X1.3928 Y0.3348
X1.3894 Y0.3398
X1.3856 Y0.3445
X1.3811 Y0.3493
X1.3754 Y0.3544
X1.3692 Y0.3592
X1.3617 Y0.364
X1.3529 Y0.3687
X1.3436 Y0.3727
X1.3333 Y0.3763
X1.3219 Y0.3792
X1.3096 Y0.3813
X1.2966 Y0.3825
X1.2831 Y0.3826
X1.2692 Y0.3816
X1.2553 Y0.3795
X1.2424 Y0.3764
X1.2333 Y0.3735
X1.2256 Y0.3703
X1.2223 Y0.3686
X1.217 Y0.3645
X1.2135 Y0.3588
X1.2123 Y0.3522
Y0.3212
G3 X1.2198 Y0.3136 I0.0079 J0.0003
G1 X1.2328 Y0.3129
X1.3789 Y0.3051
X1.3912 Y0.3045
G3 X1.3995 Y0.3121 I0.0004 J0.0079
G1 Y0.3402
X1.3992 Y0.3462
X1.398 Y0.3521
X1.396 Y0.3577
X1.3932 Y0.3631
X1.3899 Y0.3681
X1.3862 Y0.3728
X1.3815 Y0.3777
X1.3763 Y0.3823
X1.3699 Y0.3872
X1.3625 Y0.392
X1.3542 Y0.3965
X1.3444 Y0.4008
X1.3331 Y0.4046
X1.3213 Y0.4076
X1.3084 Y0.4099
X1.2943 Y0.4111
X1.2794 Y0.4113
X1.2643 Y0.4102
X1.2505 Y0.4081
X1.2392 Y0.4054
X1.2312 Y0.4029
X1.2245 Y0.4001
X1.2223 Y0.399
X1.217 Y0.3949
X1.2135 Y0.3892
X1.2123 Y0.3826
Y0.3522
G3 X1.2196 Y0.3447 I0.0079 J0.0003
G1 X1.2328 Y0.3437
X1.379 Y0.3335
X1.391 Y0.3326
G3 X1.3995 Y0.3402 I0.0006 J0.0079
G1 Y0.3709
X1.3992 Y0.3769
X1.3976 Y0.3827
X1.3953 Y0.3882
X1.3923 Y0.3934
X1.3888 Y0.3983
X1.3849 Y0.4028
X1.38 Y0.4076
X1.3743 Y0.4125
X1.3675 Y0.4173
X1.3593 Y0.4222
X1.3503 Y0.4267
X1.34 Y0.4308
X1.328 Y0.4345
X1.3144 Y0.4375
X1.3003 Y0.4394
X1.2852 Y0.4403
X1.2696 Y0.44
X1.2554 Y0.4385
X1.2432 Y0.4362
X1.235 Y0.434
X1.2274 Y0.4313
X1.2219 Y0.4288
X1.2217 Y0.4287
X1.2167 Y0.4246
X1.2134 Y0.419
X1.2123 Y0.4126
Y0.3826
G3 X1.2196 Y0.375 I0.0079 J0.0003
G1 X1.2328 Y0.3741
X1.379 Y0.3641
X1.391 Y0.3633
G3 X1.3995 Y0.3709 I0.0005 J0.0079
G1 Y0.399
X1.3992 Y0.405
X1.3977 Y0.4108
X1.3954 Y0.4163
X1.3925 Y0.4216
X1.389 Y0.4265
X1.385 Y0.4311
X1.3802 Y0.4359
X1.3746 Y0.4407
X1.3675 Y0.4458
X1.3598 Y0.4504
X1.3503 Y0.4551
X1.3392 Y0.4596
X1.3275 Y0.4632
X1.3139 Y0.4663
X1.2988 Y0.4684
X1.2831 Y0.4694
X1.2677 Y0.4691
X1.2539 Y0.4677
X1.242 Y0.4655
X1.2343 Y0.4635
X1.2272 Y0.4609
X1.2231 Y0.4591
X1.2174 Y0.4551
X1.2136 Y0.4492
X1.2123 Y0.4423
Y0.4126
G3 X1.2195 Y0.4051 I0.0079 J0.0003
G1 X1.2327 Y0.404
X1.379 Y0.3924
X1.391 Y0.3914
G3 X1.3995 Y0.399 I0.0006 J0.0078
G1 Y0.4271
X1.3992 Y0.4331
X1.3978 Y0.4389
X1.3955 Y0.4445
X1.3926 Y0.4497
X1.3891 Y0.4547
X1.3852 Y0.4593
X1.3804 Y0.4641
X1.3747 Y0.4691
X1.3676 Y0.4742
X1.3599 Y0.4789
X1.3502 Y0.4837
X1.3392 Y0.4882
X1.3271 Y0.492
X1.3131 Y0.4952
X1.2978 Y0.4975
X1.2821 Y0.4985
X1.2668 Y0.4983
X1.2532 Y0.497
X1.2421 Y0.495
X1.2342 Y0.4929
X1.2271 Y0.4905
X1.2232 Y0.4887
X1.2174 Y0.4847
X1.2136 Y0.4788
X1.2122 Y0.4719
X1.2123 Y0.4423
G3 X1.2194 Y0.4348 I0.0079 J0.0003
G1 X1.2327 Y0.4336
X1.379 Y0.4206
X1.3909 Y0.4195
G3 X1.3995 Y0.4271 I0.0007 J0.0078
G1 Y0.4552
X1.3992 Y0.4612
X1.3978 Y0.4671
X1.3956 Y0.4727
X1.3927 Y0.4779
X1.3893 Y0.4829
X1.3854 Y0.4876
X1.3807 Y0.4924
X1.3749 Y0.4974
X1.368 Y0.5025
X1.3602 Y0.5073
X1.3504 Y0.5123
X1.3395 Y0.5168
X1.3272 Y0.5208
X1.313 Y0.5242
X1.2976 Y0.5265
X1.2819 Y0.5277
X1.2669 Y0.5275
X1.2534 Y0.5263
X1.2424 Y0.5244
X1.2346 Y0.5224
X1.2274 Y0.52
X1.2218 Y0.5175
X1.2167 Y0.5134
X1.2134 Y0.5078
X1.2122 Y0.5014
Y0.4719
G3 X1.2194 Y0.4643 I0.0079 J0.0003
G1 X1.2327 Y0.463
X1.379 Y0.4488
X1.3908 Y0.4477
G3 X1.3995 Y0.4552 I0.0008 J0.0078
G1 Y0.4834
X1.3992 Y0.4894
X1.3979 Y0.4952
X1.3957 Y0.5008
X1.3929 Y0.5061
X1.3896 Y0.5111
X1.3857 Y0.5158
X1.381 Y0.5206
X1.3753 Y0.5257
X1.3684 Y0.5308
X1.3607 Y0.5357
X1.3509 Y0.5408
X1.3401 Y0.5454
X1.3277 Y0.5495
X1.3135 Y0.553
X1.2981 Y0.5555
X1.2825 Y0.5568
X1.2676
X1.2541 Y0.5557
X1.2426 Y0.5538
X1.235 Y0.552
X1.228 Y0.5496
X1.2224 Y0.5473
X1.222 Y0.5471
X1.2168 Y0.543
X1.2134 Y0.5373
X1.2122 Y0.5308
Y0.5014
G3 X1.2193 Y0.4939 I0.0079 J0.0003
G1 X1.2327 Y0.4924
X1.379 Y0.477
X1.3908 Y0.4758
G3 X1.3995 Y0.4834 I0.0008 J0.0078
G1 Y0.5115
X1.3992 Y0.5175
X1.398 Y0.5234
X1.3959 Y0.529
X1.3931 Y0.5343
X1.3898 Y0.5393
X1.386 Y0.5441
X1.3815 Y0.5489
X1.3759 Y0.5539
X1.3691 Y0.5591
X1.3614 Y0.5641
X1.3516 Y0.5693
X1.3409 Y0.574
X1.3286 Y0.5782
X1.3144 Y0.5818
X1.2992 Y0.5845
X1.2837 Y0.5859
X1.2686 Y0.586
X1.2551 Y0.5851
X1.2435 Y0.5833
X1.2357 Y0.5815
X1.2286 Y0.5792
X1.223 Y0.5769
X1.2222 Y0.5765
X1.2169 Y0.5724
X1.2134 Y0.5667
X1.2122 Y0.5601
Y0.5308
G3 X1.2192 Y0.5232 I0.0079 J0.0003
G1 X1.2327 Y0.5217
X1.379 Y0.5053
X1.3907 Y0.5039
G3 X1.3995 Y0.5115 I0.0009 J0.0078
G1 Y0.5413
X1.3992 Y0.5473
X1.3978 Y0.5532
X1.3956 Y0.5587
X1.3927 Y0.564
X1.3893 Y0.5689
X1.3854 Y0.5736
X1.3805 Y0.5787
X1.3749 Y0.5836
X1.3676 Y0.589
X1.3598 Y0.5939
X1.35 Y0.599
X1.3382 Y0.604
X1.3259 Y0.6081
X1.3117 Y0.6115
X1.2964 Y0.6139
X1.2807 Y0.6152
X1.2656 Y0.6151
X1.2528 Y0.614
X1.2419 Y0.6122
X1.2346 Y0.6104
X1.2275 Y0.608
X1.2219 Y0.6056
X1.2168 Y0.6015
X1.2134 Y0.5959
X1.2122 Y0.5894
Y0.5601
G3 X1.2192 Y0.5525 I0.0079 J0.0003
G1 X1.2327 Y0.5511
X1.379 Y0.5351
X1.3907 Y0.5338
G3 X1.3995 Y0.5413 I0.0009 J0.0078
G1 Y0.5708
X1.3992 Y0.5768
X1.3976 Y0.5826
X1.3954 Y0.5882
X1.3924 Y0.5934
X1.389 Y0.5983
X1.3849 Y0.6031
X1.38 Y0.6081
X1.374 Y0.6133
X1.3666 Y0.6187
X1.3585 Y0.6237
X1.3483 Y0.6288
X1.3365 Y0.6336
X1.324 Y0.6377
X1.3095 Y0.641
X1.2939 Y0.6433
X1.2784 Y0.6444
X1.2636 Y0.6442
X1.2512 Y0.6431
X1.2406 Y0.6412
X1.2336 Y0.6394
X1.2267 Y0.637
X1.2232 Y0.6354
X1.2174 Y0.6314
X1.2135 Y0.6255
X1.2122 Y0.6186
Y0.5894
G3 X1.2192 Y0.5819 I0.0079 J0.0003
G1 X1.2326 Y0.5804
X1.379 Y0.5646
X1.3907 Y0.5633
G3 X1.3995 Y0.5708 I0.0008 J0.0078
G1 Y0.599
X1.3992 Y0.605
X1.3978 Y0.6108
X1.3956 Y0.6164
X1.3928 Y0.6217
X1.3894 Y0.6266
X1.3853 Y0.6316
X1.3807 Y0.6364
X1.3746 Y0.6418
X1.3678 Y0.6469
X1.3595 Y0.6521
X1.3494 Y0.6574
X1.3386 Y0.6619
X1.3257 Y0.6662
X1.3112 Y0.6698
X1.2957 Y0.6723
X1.2804 Y0.6735
X1.2657
X1.2527 Y0.6725
X1.2422 Y0.6708
X1.2346 Y0.6689
X1.2276 Y0.6665
X1.2218 Y0.6641
X1.2167 Y0.66
X1.2133 Y0.6544
X1.2122 Y0.6479
Y0.6186
G3 X1.2192 Y0.6111 I0.0079 J0.0003
G1 X1.2326 Y0.6095
X1.379 Y0.5928
X1.3907 Y0.5914
G3 X1.3995 Y0.599 I0.0009 J0.0078
G1 Y0.6271
X1.3992 Y0.6331
X1.398 Y0.639
X1.3959 Y0.6446
X1.3931 Y0.6499
X1.3899 Y0.6549
X1.3859 Y0.6599
X1.3814 Y0.6647
X1.3756 Y0.6699
X1.3689 Y0.6751
X1.3609 Y0.6803
X1.351 Y0.6856
X1.3404 Y0.6903
X1.3277 Y0.6947
X1.3134 Y0.6985
X1.2981 Y0.7011
X1.2827 Y0.7026
X1.268 Y0.7028
X1.2548 Y0.7019
X1.2433 Y0.7002
X1.2356 Y0.6984
X1.2286 Y0.6962
X1.2231 Y0.6939
X1.2222 Y0.6935
X1.2169 Y0.6894
X1.2134 Y0.6837
X1.2122 Y0.6771
Y0.6479
G3 X1.2191 Y0.6404 I0.0079 J0.0003
G1 X1.2326 Y0.6387
X1.379 Y0.621
X1.3906 Y0.6196
G3 X1.3995 Y0.6271 I0.0009 J0.0078
G1 X1.3994 Y0.6521
Y0.6578
X1.399 Y0.6637
X1.3975 Y0.6696
X1.3953 Y0.6751
X1.3923 Y0.6803
X1.3889 Y0.6853
X1.385 Y0.69
X1.3799 Y0.6952
X1.3742 Y0.7002
X1.3667 Y0.7057
X1.3586 Y0.7107
X1.3486 Y0.7159
X1.3366 Y0.7209
X1.3238 Y0.725
X1.3096 Y0.7284
X1.2943 Y0.7308
X1.2788 Y0.7319
X1.264 Y0.7318
X1.2517 Y0.7307
X1.2411 Y0.7289
X1.234 Y0.7271
X1.227 Y0.7248
X1.2232 Y0.7231
X1.2174 Y0.7191
X1.2135 Y0.7132
X1.2122 Y0.7063
Y0.6771
G3 X1.2192 Y0.6695 I0.0079 J0.0003
G1 X1.2326 Y0.668
X1.379 Y0.6515
X1.3906 Y0.6501
G3 X1.3994 Y0.6578 I0.0009 J0.0078
G1 X1.3992 Y0.6859
X1.3988 Y0.6919
X1.3975 Y0.6977
X1.3954 Y0.7033
X1.3926 Y0.7086
X1.3893 Y0.7136
X1.3852 Y0.7186
X1.3807 Y0.7234
X1.3747 Y0.7287
X1.3679 Y0.7339
X1.3596 Y0.7391
X1.3496 Y0.7445
X1.3389 Y0.7491
X1.3261 Y0.7535
X1.3116 Y0.7571
X1.2963 Y0.7597
X1.281 Y0.761
X1.2664 Y0.7611
X1.2534 Y0.7601
X1.2427 Y0.7584
X1.235 Y0.7566
X1.2279 Y0.7543
X1.2224 Y0.752
X1.2218 Y0.7517
X1.2165 Y0.7475
X1.2131 Y0.7417
X1.212 Y0.7351
X1.2121 Y0.7253
X1.2122 Y0.7063
G3 X1.2191 Y0.6987 I0.0079 J0.0003
G1 X1.2326 Y0.6971
X1.3788 Y0.6797
X1.3904 Y0.6783
G3 X1.3992 Y0.6859 I0.0009 J0.0078
G1 X1.399 Y0.7028
X1.3989 Y0.7084
X1.3986 Y0.7171
X1.3981 Y0.7231
X1.3965 Y0.7289
X1.3941 Y0.7344
X1.3912 Y0.7396
X1.3877 Y0.7445
X1.3836 Y0.7492
X1.3784 Y0.7544
X1.3726 Y0.7594
X1.365 Y0.7648
X1.3567 Y0.7698
X1.3466 Y0.7749
X1.3344 Y0.7798
X1.3214 Y0.7839
X1.3071 Y0.7872
X1.2917 Y0.7894
X1.2763 Y0.7903
X1.2622 Y0.7901
X1.2501 Y0.7889
X1.2397 Y0.787
X1.2328 Y0.7852
X1.2261 Y0.7828
X1.2205 Y0.7803
X1.2153 Y0.776
X1.2121 Y0.7701
X1.2111 Y0.7635
X1.2113 Y0.759
X1.2117 Y0.7478
X1.2119 Y0.7421
X1.212 Y0.7351
G3 X1.219 Y0.7277 I0.0079 J0.0004
G1 X1.2326 Y0.7262
X1.3785 Y0.7105
X1.3899 Y0.7093
G3 X1.3986 Y0.7171 I0.0008 J0.0078
G1 X1.3975 Y0.7478
X1.397 Y0.7537
X1.3952 Y0.7595
X1.3927 Y0.7649
X1.3896 Y0.7701
X1.3861 Y0.7749
X1.3818 Y0.7797
X1.3766 Y0.7848
X1.3702 Y0.79
X1.3624 Y0.7954
X1.3539 Y0.8003
X1.3433 Y0.8054
X1.3309 Y0.8101
X1.318 Y0.8139
X1.3033 Y0.8169
X1.2879 Y0.8188
X1.2727 Y0.8195
X1.259 Y0.819
X1.2472 Y0.8176
X1.2373 Y0.8156
X1.2307 Y0.8137
X1.2241 Y0.8113
X1.2187 Y0.8087
X1.2176 Y0.8081
X1.2123 Y0.8033
X1.2092 Y0.7968
X1.2088 Y0.7897
X1.21 Y0.7815
X1.2111 Y0.7646
Y0.7635
G3 X1.2182 Y0.7562 I0.0078 J0.0006
G1 X1.2319 Y0.7549
X1.3773 Y0.741
X1.3889 Y0.7399
G3 X1.3975 Y0.7478 I0.0008 J0.0078
G1 X1.3971 Y0.759
X1.3968 Y0.7646
X1.3955 Y0.779
X1.3946 Y0.7849
X1.3928 Y0.7906
X1.3902 Y0.796
X1.387 Y0.8011
X1.3833 Y0.8059
X1.3789 Y0.8107
X1.3735 Y0.8156
X1.367 Y0.8208
X1.3591 Y0.826
X1.3504 Y0.8309
X1.3395 Y0.8358
X1.327 Y0.8403
X1.3139 Y0.8439
X1.2991 Y0.8466
X1.2838 Y0.8482
X1.2689 Y0.8486
X1.2556 Y0.8479
X1.2441 Y0.8463
X1.2342 Y0.8441
X1.2276 Y0.8421
X1.2209 Y0.8394
X1.2155 Y0.8368
X1.2123 Y0.8348
X1.208 Y0.8312
X1.205 Y0.8264
X1.2036 Y0.8209
X1.2039 Y0.8152
X1.2064 Y0.804
X1.2075 Y0.7984
X1.2088 Y0.7897
G3 X1.216 Y0.7832 I0.0077 J0.0014
G1 X1.2303 Y0.7822
X1.3757 Y0.7715
X1.3871 Y0.7707
G3 X1.3955 Y0.779 I0.0006 J0.0079
G1 X1.3926 Y0.8096
X1.3917 Y0.8156
X1.3899 Y0.8213
X1.3872 Y0.8267
X1.384 Y0.8317
X1.3803 Y0.8364
X1.3757 Y0.8413
X1.3705 Y0.846
X1.3638 Y0.8511
X1.3561 Y0.8562
X1.3472 Y0.861
X1.3362 Y0.8658
X1.3241 Y0.87
X1.3109 Y0.8734
X1.2962 Y0.876
X1.281 Y0.8774
X1.2663 Y0.8776
X1.2528 Y0.8767
X1.2413 Y0.875
X1.2309 Y0.8726
X1.2231 Y0.8701
X1.2161 Y0.8673
X1.2107 Y0.8645
X1.2056 Y0.8614
X1.2008 Y0.8578
X1.2001 Y0.8571
X1.1964 Y0.8522
X1.1944 Y0.8463
X1.1946 Y0.8402
X1.1968 Y0.8344
X1.1981 Y0.8321
X1.2007 Y0.8265
X1.2024 Y0.8209
X1.2039 Y0.8152
G3 X1.2112 Y0.8093 I0.0076 J0.002
G1 X1.2259 Y0.8086
X1.3729 Y0.8018
X1.3844 Y0.8013
G3 X1.3926 Y0.8096 I0.0004 J0.0079
G1 X1.3919 Y0.8167
X1.3916 Y0.8181
X1.384 Y0.8434
X1.3831 Y0.8462
X1.3824 Y0.8476
X1.3706 Y0.8659
X1.367 Y0.8708
X1.3629 Y0.8751
X1.3581 Y0.8793
X1.3524 Y0.8836
X1.3454 Y0.8879
X1.3371 Y0.8922
X1.3277 Y0.8962
X1.3161 Y0.9
X1.3034 Y0.9031
X1.29 Y0.9053
X1.2757 Y0.9064
X1.2614
X1.2481 Y0.9053
X1.2362 Y0.9033
X1.2257 Y0.9007
X1.2162 Y0.8975
X1.2085 Y0.8942
X1.2027 Y0.8912
X1.1972 Y0.8877
X1.1924 Y0.8841
X1.188 Y0.88
X1.184 Y0.8756
X1.183 Y0.8741
X1.1803 Y0.8686
X1.1795 Y0.8625
X1.1808 Y0.8565
X1.184 Y0.8513
X1.186 Y0.849
X1.1907 Y0.8434
X1.1927 Y0.8408
X1.1948 Y0.8378
X1.1968 Y0.8344
G3 X1.2045 Y0.8308 I0.0067 J0.0042
G1 X1.22 Y0.833
X1.3558 Y0.8527
X1.3649 Y0.854
G3 X1.3706 Y0.8659 I-0.0011 J0.0078
G1 X1.3676 Y0.8705
X1.3668 Y0.8715
X1.3611 Y0.8771
X1.345 Y0.8924
X1.3438 Y0.8933
X1.3394 Y0.8958
X1.3168 Y0.9085
X1.3099 Y0.9109
X1.275 Y0.9221
X1.2717 Y0.9232
X1.2661 Y0.9245
X1.2548 Y0.9263
X1.2453 Y0.9272
X1.238 Y0.9274
X1.2301 Y0.9269
X1.2221 Y0.9258
X1.2141 Y0.924
X1.2063 Y0.9216
X1.199 Y0.9187
X1.1921 Y0.9153
X1.1859 Y0.9115
X1.181 Y0.908
X1.1763 Y0.9041
X1.172 Y0.8998
X1.1682 Y0.8952
X1.1649 Y0.8901
X1.1631 Y0.8847
X1.163 Y0.8791
X1.1647 Y0.8737
X1.1679 Y0.869
X1.1708 Y0.8659
X1.1815 Y0.8543
X1.184 Y0.8513
G3 X1.1953 Y0.851 I0.0057 J0.0054
G1 X1.204 Y0.8596
X1.2534 Y0.9076
X1.2588 Y0.9129
G3 X1.2548 Y0.9263 I-0.0055 J0.0056
G1 X1.2322 Y0.9297
X1.2153 Y0.932
X1.2097 Y0.9327
X1.2009 Y0.9334
X1.1949 Y0.9336
X1.1889 Y0.9331
X1.183 Y0.9319
X1.1773 Y0.93
X1.1718 Y0.9275
X1.1666 Y0.9246
X1.1617 Y0.9212
X1.1571 Y0.9173
X1.153 Y0.9129
X1.1495 Y0.9081
X1.1465 Y0.9028
X1.1457 Y0.9007
X1.1443 Y0.894
X1.1455 Y0.8872
X1.1492 Y0.8813
X1.1548 Y0.8772
X1.1589 Y0.8753
X1.1645 Y0.8715
X1.1674 Y0.8696
X1.1679 Y0.869
G3 X1.1804 Y0.871 I0.0055 J0.0056
G1 X1.185 Y0.8799
X1.2026 Y0.9135
X1.2069 Y0.9219
G3 X1.2009 Y0.9334 I-0.007 J0.0036
G1 X1.1758 Y0.9354
X1.1671 Y0.936
X1.1611 Y0.9361
X1.1552 Y0.935
X1.1495 Y0.933
X1.1443 Y0.9301
X1.1394 Y0.9266
X1.1351 Y0.9224
X1.1314 Y0.9177
X1.1284 Y0.9125
X1.1262 Y0.9069
X1.1259 Y0.9055
X1.1256 Y0.8989
X1.1276 Y0.8926
X1.1317 Y0.8874
X1.1374 Y0.884
X1.1476 Y0.8803
X1.1533 Y0.878
X1.1548 Y0.8772
G3 X1.1656 Y0.883 I0.0031 J0.0072
G1 X1.1676 Y0.8934
X1.1718 Y0.9152
X1.174 Y0.9267
G3 X1.1671 Y0.936 I-0.0077 J0.0015
G1 X1.1589 Y0.9366
X1.1533 Y0.9369
X1.142 Y0.9374
X1.136 Y0.9373
X1.1301 Y0.9359
X1.1247 Y0.9334
X1.1197 Y0.93
X1.1155 Y0.9258
X1.1119 Y0.921
X1.1091 Y0.9157
X1.1082 Y0.9128
X1.1073 Y0.907
X1.1084 Y0.9011
X1.1112 Y0.8959
X1.1156 Y0.8919
X1.121 Y0.8895
X1.1251 Y0.8884
X1.1307 Y0.8865
X1.1374 Y0.884
G3 X1.1478 Y0.8912 I0.0025 J0.0075
G1 X1.1482 Y0.9013
X1.1488 Y0.9166
X1.1493 Y0.9292
G3 X1.142 Y0.9374 I-0.0079 J0.0003
G1 X1.1194 Y0.9383
X1.1134 Y0.9382
X1.1077 Y0.9364
X1.1025 Y0.9334
X1.098 Y0.9294
X1.0943 Y0.9246
X1.0916 Y0.9193
X1.0898 Y0.9136
X1.0896 Y0.9124
X1.0902 Y0.9052
X1.0934 Y0.8987
X1.0989 Y0.894
X1.1057 Y0.8918
X1.1138 Y0.8909
X1.1194 Y0.8899
X1.121 Y0.8895
G3 X1.1306 Y0.8981 I0.0017 J0.0077
G1 X1.1294 Y0.9077
X1.1283 Y0.9176
X1.1266 Y0.9314
G3 X1.1194 Y0.9383 I-0.0078 J-0.0009
G1 X1.1 Y0.939
X1.094 Y0.9389
X1.0883 Y0.9369
X1.0833 Y0.9337
X1.079 Y0.9295
X1.0757 Y0.9245
X1.0732 Y0.9191
X1.0719 Y0.9132
Y0.9128
X1.0729 Y0.9058
X1.0764 Y0.8996
X1.082 Y0.8953
X1.0889 Y0.8934
X1.0968 Y0.8928
X1.1057 Y0.8918
G3 X1.1141 Y0.9013 I0.0006 J0.0078
G1 X1.1119 Y0.9111
X1.1103 Y0.9186
X1.1071 Y0.9329
G3 X1.1 Y0.939 I-0.0077 J-0.0017
G1 X1.0912 Y0.9392
X1.0825 Y0.9394
X1.0765 Y0.9393
X1.0707 Y0.9375
X1.0657 Y0.9343
X1.0614 Y0.9301
X1.0581 Y0.9251
X1.0557 Y0.9195
X1.0546 Y0.9137
X1.0545 Y0.9133
X1.0557 Y0.9062
X1.0595 Y0.9001
X1.0654 Y0.8959
X1.0724 Y0.8943
X1.0799 Y0.8941
X1.0889 Y0.8934
G3 X1.0969 Y0.9031 I0.0003 J0.0079
G1 X1.0945 Y0.913
X1.0931 Y0.9191
X1.0897 Y0.9334
G3 X1.0825 Y0.9394 I-0.0077 J-0.0018
G1 X1.0641 Y0.9398
X1.0581 Y0.9397
X1.0525 Y0.9377
X1.0475 Y0.9343
X1.0434 Y0.9299
X1.0403 Y0.9248
X1.0381 Y0.9192
X1.0372 Y0.9133
Y0.9127
X1.0382 Y0.9069
X1.0409 Y0.9016
X1.0453 Y0.8976
X1.0506 Y0.8951
X1.0565 Y0.8944
X1.0574 Y0.8945
X1.063 Y0.8946
X1.0724 Y0.8943
G3 X1.0799 Y0.9044 I-0.0001 J0.0079
G1 X1.0771 Y0.9142
X1.0755 Y0.9197
X1.0713 Y0.9342
G3 X1.0641 Y0.9398 I-0.0076 J-0.0022
G1 X1.0461 Y0.9402
X1.0401 Y0.94
X1.0345 Y0.9378
X1.0296 Y0.9343
X1.0256 Y0.9299
X1.0226 Y0.9247
X1.0205 Y0.9191
X1.0196 Y0.9131
X1.0197 Y0.9071
X1.0199 Y0.9064
X1.022 Y0.9008
X1.0258 Y0.8962
X1.0308 Y0.893
X1.0367 Y0.8916
X1.0426 Y0.8922
X1.0461 Y0.8931
X1.0517 Y0.8942
X1.0565 Y0.8944
G3 X1.0633 Y0.9048 I-0.0007 J0.0078
G1 X1.0599 Y0.9148
X1.058 Y0.9203
X1.0531 Y0.9349
G3 X1.0461 Y0.9402 I-0.0075 J-0.0025
G1 X1.0404 Y0.9403
X1.0292 Y0.9404
X1.0232 Y0.9401
X1.0175 Y0.9381
X1.0126 Y0.9347
X1.0084 Y0.9304
X1.0051 Y0.9254
X1.0028 Y0.9198
X1.0014 Y0.914
X1.0011 Y0.908
X1.0018 Y0.902
X1.003 Y0.8978
X1.0058 Y0.892
X1.0105 Y0.8876
X1.0165 Y0.885
X1.023 Y0.8847
X1.0292 Y0.8867
X1.0324 Y0.8884
X1.0348 Y0.8895
X1.0404 Y0.8916
X1.0426 Y0.8922
G3 X1.0478 Y0.9024 I-0.0023 J0.0075
G1 X1.0438 Y0.9137
X1.0413 Y0.9207
X1.0363 Y0.9351
G3 X1.0292 Y0.9404 I-0.0074 J-0.0026
G1 X1.0105 Y0.9405
X1.0045 Y0.9402
X0.999 Y0.938
X0.9941 Y0.9345
X0.9899 Y0.9302
X0.9866 Y0.9252
X0.9841 Y0.9197
X0.9825 Y0.914
X0.9816 Y0.908
Y0.902
X0.9825 Y0.8961
X0.9842 Y0.8903
X0.9868 Y0.8849
X0.9901 Y0.8799
X0.9912 Y0.8787
X0.9972 Y0.8744
X1.0043 Y0.8727
X1.0115 Y0.874
X1.0177 Y0.878
X1.0179 Y0.8782
X1.0236 Y0.8828
X1.0292 Y0.8867
G3 X1.0326 Y0.8963 I-0.0039 J0.0068
G1 X1.0277 Y0.909
X1.0232 Y0.9209
X1.0176 Y0.9355
G3 X1.0105 Y0.9405 I-0.0073 J-0.0028
G1 X0.9922 Y0.9406
X0.9862 Y0.9403
X0.9806 Y0.9382
X0.9756 Y0.9348
X0.9714 Y0.9306
X0.9678 Y0.9258
X0.965 Y0.9205
X0.9629 Y0.9148
X0.9616 Y0.909
X0.9609 Y0.903
Y0.897
X0.9616 Y0.8911
X0.963 Y0.8852
X0.965 Y0.8796
X0.9677 Y0.8742
X0.9711 Y0.8692
X0.9751 Y0.8648
X0.9796 Y0.8609
X0.9822 Y0.8593
X0.9889 Y0.8566
X0.9962 Y0.8569
X1.0028 Y0.8598
X1.0077 Y0.8652
X1.0118 Y0.8715
X1.0151 Y0.8752
X1.0168 Y0.8771
X1.0177 Y0.878
G3 X1.0193 Y0.8864 I-0.0057 J0.0054
G1 X1.0133 Y0.9009
X1.0051 Y0.9211
X0.9992 Y0.9357
G3 X0.9922 Y0.9406 I-0.0073 J-0.003
G1 X0.9739
X0.9679 Y0.9403
X0.9622 Y0.9385
X0.957 Y0.9354
X0.9525 Y0.9315
X0.9487 Y0.9269
X0.9455 Y0.9218
X0.943 Y0.9163
X0.9411 Y0.9106
X0.9398 Y0.9048
X0.9391 Y0.8988
X0.939 Y0.8928
X0.9394 Y0.8868
X0.9405 Y0.8809
X0.942 Y0.8751
X0.9441 Y0.8695
X0.9467 Y0.8641
X0.9498 Y0.8589
X0.9533 Y0.8541
X0.9574 Y0.8497
X0.9619 Y0.8457
X0.9668 Y0.8423
X0.9721 Y0.8395
X0.9777 Y0.8374
X0.9799 Y0.8369
X0.9869 Y0.8368
X0.9934 Y0.8392
X0.9985 Y0.8439
X1.0015 Y0.8502
X1.0027 Y0.8546
X1.0051 Y0.8603
X1.0066 Y0.8633
X1.0077 Y0.8652
G3 X1.0081 Y0.8721 I-0.0069 J0.0039
G1 X1.0012 Y0.8882
X0.9871 Y0.9213
X0.9808 Y0.9359
G3 X0.9739 Y0.9406 I-0.0072 J-0.0031
G1 X0.9541
X0.9481 Y0.9403
X0.9424 Y0.9386
X0.9372 Y0.9356
X0.9325 Y0.9319
X0.9284 Y0.9274
X0.925 Y0.9225
X0.9221 Y0.9173
X0.9198 Y0.9117
X0.9181 Y0.906
X0.9169 Y0.9001
X0.9162 Y0.8941
X0.916 Y0.8881
X0.9164 Y0.8819
X0.9172 Y0.8755
X0.9186 Y0.8693
X0.9204 Y0.8632
X0.9228 Y0.8572
X0.9257 Y0.8512
X0.9289 Y0.8458
X0.9324 Y0.8408
X0.9365 Y0.8359
X0.9408 Y0.8315
X0.9453 Y0.8276
X0.9501 Y0.824
X0.9553 Y0.821
X0.9607 Y0.8184
X0.9664 Y0.8164
X0.9723 Y0.8151
X0.9782 Y0.8146
X0.9843 Y0.8147
X0.9903 Y0.8169
X0.9952 Y0.821
X0.9984 Y0.8265
X0.9995 Y0.8328
Y0.8378
X1.0002 Y0.8434
X1.001 Y0.848
X1.0015 Y0.8502
G3 X1.0009 Y0.8554 I-0.0077 J0.0018
G1 X0.9923 Y0.8728
X0.9681 Y0.9217
X0.9609 Y0.9363
G3 X0.9541 Y0.9406 I-0.0071 J-0.0035
G1 X0.9333
X0.9273 Y0.9403
X0.9215 Y0.9386
X0.9162 Y0.9358
X0.9114 Y0.9322
X0.9072 Y0.9279
X0.9036 Y0.9231
X0.9005 Y0.918
X0.8979 Y0.9126
X0.8958 Y0.907
X0.8942 Y0.9012
X0.893 Y0.8949
X0.8923 Y0.8882
X0.8921 Y0.8813
X0.8925 Y0.8742
X0.8935 Y0.8668
X0.8951 Y0.8594
X0.8973 Y0.852
X0.9002 Y0.8447
X0.9037 Y0.8375
X0.9078 Y0.8307
X0.9123 Y0.8242
X0.9173 Y0.8183
X0.9226 Y0.8129
X0.9282 Y0.808
X0.9337 Y0.804
X0.9396 Y0.8004
X0.9457 Y0.7972
X0.9517 Y0.7947
X0.9574 Y0.7929
X0.9633 Y0.7915
X0.9692 Y0.7907
X0.9752 Y0.7905
X0.9812 Y0.791
X0.9847 Y0.7917
X0.9906 Y0.794
X0.9953 Y0.7981
X0.9984 Y0.8035
X0.9995 Y0.8097
Y0.8328
G3 X0.9984 Y0.8365 I-0.0079 J-0.0002
G1 X0.9879 Y0.8545
X0.9483 Y0.9222
X0.9398 Y0.9367
G3 X0.9333 Y0.9406 I-0.0068 J-0.004
G1 X0.9107
X0.9047 Y0.9403
X0.899 Y0.9385
X0.8937 Y0.9357
X0.8889 Y0.9321
X0.8847 Y0.9278
X0.8809 Y0.9232
X0.8777 Y0.9181
X0.8749 Y0.9128
X0.8726 Y0.9072
X0.8706 Y0.9011
X0.869 Y0.8944
X0.8678 Y0.887
X0.8672 Y0.8794
X0.8673 Y0.8715
X0.868 Y0.8631
X0.8695 Y0.8544
X0.8717 Y0.8456
X0.8747 Y0.8368
X0.8784 Y0.8282
X0.8828 Y0.8198
X0.888 Y0.8117
X0.8936 Y0.8042
X0.8999 Y0.7973
X0.9066 Y0.7909
X0.9137 Y0.7851
X0.921 Y0.7801
X0.9285 Y0.7758
X0.9359 Y0.7723
X0.9434 Y0.7695
X0.9506 Y0.7674
X0.9574 Y0.766
X0.9633 Y0.7653
X0.9696 Y0.7651
X0.9756 Y0.7654
X0.9815 Y0.7662
X0.9875 Y0.7677
X0.9923 Y0.7704
X0.9962 Y0.7745
X0.9986 Y0.7795
X0.9995 Y0.785
Y0.8097
G3 X0.9982 Y0.8138 I-0.0079 J-0.0003
G1 X0.9869 Y0.8308
X0.9265 Y0.9227
X0.917 Y0.9371
G3 X0.9107 Y0.9406 I-0.0066 J-0.0043
G1 X0.8881
X0.8821 Y0.9403
X0.8764 Y0.9386
X0.8711 Y0.9358
X0.8662 Y0.9323
X0.8618 Y0.9282
X0.8579 Y0.9237
X0.8545 Y0.9187
X0.8515 Y0.9135
X0.8488 Y0.9079
X0.8464 Y0.9014
X0.8443 Y0.8941
X0.8428 Y0.8866
X0.8418 Y0.8783
X0.8415 Y0.8694
X0.8419 Y0.8599
X0.8431 Y0.85
X0.8451 Y0.8401
X0.848 Y0.83
X0.8519 Y0.8199
X0.8566 Y0.81
X0.8622 Y0.8003
X0.8686 Y0.791
X0.8758 Y0.7822
X0.8836 Y0.7741
X0.8919 Y0.7667
X0.9007 Y0.7601
X0.9097 Y0.7544
X0.9189 Y0.7496
X0.9279 Y0.7457
X0.9367 Y0.7427
X0.9455 Y0.7406
X0.9538 Y0.7392
X0.9619 Y0.7385
X0.9681
X0.9742 Y0.739
X0.9802 Y0.7399
X0.986 Y0.7414
X0.9875 Y0.742
X0.9923 Y0.7447
X0.9962 Y0.7487
X0.9986 Y0.7537
X0.9995 Y0.7592
Y0.785
G3 X0.998 Y0.7892 I-0.0079 J-0.0003
G1 X0.9864 Y0.8058
X0.9043 Y0.923
X0.8943 Y0.9373
G3 X0.8881 Y0.9406 I-0.0064 J-0.0045
G1 X0.8656
X0.8596 Y0.9403
X0.8538 Y0.9388
X0.8484 Y0.9363
X0.8434 Y0.9329
X0.8388 Y0.929
X0.8347 Y0.9246
X0.8311 Y0.9198
X0.8279 Y0.9148
X0.8248 Y0.909
X0.8219 Y0.9022
X0.8195 Y0.895
X0.8175 Y0.887
X0.816 Y0.8781
X0.8152 Y0.8683
X0.8151 Y0.8582
X0.8159 Y0.8477
X0.8177 Y0.8366
X0.8205 Y0.8251
X0.8243 Y0.8134
X0.8292 Y0.8018
X0.8351 Y0.7903
X0.8421 Y0.7792
X0.8499 Y0.7686
X0.8586 Y0.7587
X0.868 Y0.7495
X0.8781 Y0.7412
X0.8885 Y0.7339
X0.8992 Y0.7276
X0.9101 Y0.7223
X0.9211 Y0.7181
X0.9319 Y0.7149
X0.942 Y0.7127
X0.9516 Y0.7115
X0.9605 Y0.711
X0.9677 Y0.7113
X0.9744 Y0.712
X0.9803 Y0.7132
X0.9861 Y0.7148
X0.9879 Y0.7155
X0.9939 Y0.7195
X0.998 Y0.7255
X0.9995 Y0.7326
Y0.7592
G3 X0.998 Y0.7636 I-0.0079 J-0.0003
G1 X0.9862 Y0.7798
X0.882 Y0.9232
X0.8717 Y0.9374
G3 X0.8656 Y0.9406 I-0.0064 J-0.0046
G1 X0.8413
X0.8353 Y0.9403
X0.8295 Y0.9388
X0.8241 Y0.9363
X0.8191 Y0.933
X0.8189 Y0.9328
X0.8153 Y0.9289
X0.8131 Y0.924
X0.8123 Y0.9188
G3 X0.8245 Y0.9125 I0.0079 J0.0003
G1 X0.8312 Y0.9169
X0.8413 Y0.9235
X0.8454 Y0.9262
G3 X0.8413 Y0.9406 I-0.0043 J0.0066
G1 X0.8205
X0.8193 Y0.9405
X0.8182 Y0.9402
X0.817 Y0.9397
X0.8159 Y0.939
X0.8148 Y0.9381
X0.8142 Y0.9375
X0.8138 Y0.9369
X0.8134 Y0.9364
X0.8131 Y0.9358
X0.8126 Y0.9346
X0.8124 Y0.9334
X0.8123 Y0.9278
Y0.8009
X0.8126 Y0.7949
X0.8135 Y0.789
X0.8151 Y0.7825
X0.8172 Y0.7759
X0.8205 Y0.7681
X0.8246 Y0.7602
X0.83 Y0.7517
X0.8368 Y0.7425
X0.8448 Y0.7334
X0.8538 Y0.7247
X0.8639 Y0.7164
X0.875 Y0.7086
X0.8868 Y0.7017
X0.8992 Y0.6958
X0.9116 Y0.691
X0.9238 Y0.6873
X0.9353 Y0.6849
X0.9462 Y0.6835
X0.9563 Y0.683
X0.9654 Y0.6833
X0.9719 Y0.6841
X0.9787 Y0.6854
X0.9845 Y0.687
X0.9876 Y0.6882
X0.9924 Y0.6909
X0.9962 Y0.695
X0.9986 Y0.6999
X0.9995 Y0.7054
Y0.7326
G3 X0.9945 Y0.7396 I-0.0079 J-0.0003
G1 X0.98 Y0.7454
X0.8321 Y0.8044
X0.8231 Y0.808
G3 X0.8123 Y0.8009 I-0.0029 J-0.0073
G1 Y0.7559
X0.8126 Y0.7499
X0.8138 Y0.744
X0.8156 Y0.7383
X0.818 Y0.7324
X0.8211 Y0.7264
X0.8254 Y0.7195
X0.8305 Y0.7125
X0.837 Y0.705
X0.8451 Y0.6971
X0.8542 Y0.6895
X0.8646 Y0.6821
X0.8763 Y0.6751
X0.889 Y0.6689
X0.9021 Y0.6638
X0.9154 Y0.6597
X0.9284 Y0.6569
X0.9407 Y0.6553
X0.9517 Y0.6547
X0.9619 Y0.6549
X0.9699 Y0.6558
X0.9772 Y0.6572
X0.983 Y0.6588
X0.9886 Y0.6609
X0.989 Y0.661
X0.9945 Y0.6651
X0.9982 Y0.6709
X0.9995 Y0.6776
Y0.7054
G3 X0.9938 Y0.7127 I-0.0079 J-0.0003
G1 X0.9795 Y0.7169
X0.8324 Y0.7603
X0.8224 Y0.7632
G3 X0.8123 Y0.7559 I-0.0022 J-0.0076
G1 Y0.7196
X0.8126 Y0.7136
X0.8137 Y0.7077
X0.8155 Y0.702
X0.818 Y0.6965
X0.8208 Y0.6913
X0.8248 Y0.6851
X0.8295 Y0.6791
X0.8358 Y0.6721
X0.8428 Y0.6655
X0.8516 Y0.6586
X0.862 Y0.6515
X0.8737 Y0.6449
X0.8862 Y0.6392
X0.8997 Y0.6342
X0.9136 Y0.6304
X0.9272 Y0.6277
X0.9399 Y0.6263
X0.9518 Y0.626
X0.9625 Y0.6265
X0.9711 Y0.6277
X0.9776 Y0.629
X0.9839 Y0.631
X0.9878 Y0.6324
X0.9939 Y0.6364
X0.998 Y0.6424
X0.9995 Y0.6496
Y0.6776
G3 X0.9935 Y0.685 I-0.0079 J-0.0003
G1 X0.9793 Y0.6885
X0.8325 Y0.7244
X0.8221 Y0.727
G3 X0.8123 Y0.7196 I-0.0019 J-0.0076
G1 Y0.6859
X0.8126 Y0.6799
X0.8137 Y0.674
X0.8156 Y0.6683
X0.818 Y0.6628
X0.821 Y0.6576
X0.8249 Y0.6519
X0.8296 Y0.6462
X0.8356 Y0.6399
X0.8428 Y0.6334
X0.8511 Y0.6271
X0.8613 Y0.6206
X0.8731 Y0.6144
X0.8857 Y0.6089
X0.8993 Y0.6043
X0.9134 Y0.6008
X0.9276 Y0.5984
X0.9409 Y0.5973
X0.9528 Y0.5972
X0.9638 Y0.598
X0.9717 Y0.5993
X0.9793 Y0.6011
X0.985 Y0.603
X0.9882 Y0.6043
X0.9941 Y0.6083
X0.9981 Y0.6142
X0.9995 Y0.6212
Y0.6496
G3 X0.9932 Y0.657 I-0.0079 J-0.0003
G1 X0.9792 Y0.66
X0.8326 Y0.691
X0.8218 Y0.6933
G3 X0.8123 Y0.6859 I-0.0016 J-0.0077
G1 Y0.6521
X0.8126 Y0.6461
X0.814 Y0.6403
X0.816 Y0.6347
X0.8187 Y0.6293
X0.8219 Y0.6242
X0.8259 Y0.6188
X0.8309 Y0.6131
X0.8369 Y0.6072
X0.8446 Y0.6008
X0.853 Y0.5949
X0.8632 Y0.5889
X0.8752 Y0.5831
X0.8884 Y0.5779
X0.9023 Y0.5737
X0.9167 Y0.5707
X0.9309 Y0.5688
X0.944 Y0.5681
X0.9562 Y0.5685
X0.9668 Y0.5697
X0.9742 Y0.5711
X0.9816 Y0.5732
X0.9872 Y0.5752
X0.9889 Y0.576
X0.9945 Y0.5801
X0.9982 Y0.5859
X0.9995 Y0.5926
Y0.6212
G3 X0.993 Y0.6287 I-0.0079 J-0.0003
G1 X0.9792 Y0.6312
X0.8326 Y0.6576
X0.8216 Y0.6596
G3 X0.8123 Y0.6521 I-0.0014 J-0.0077
G1 Y0.6209
X0.8126 Y0.6149
X0.8139 Y0.6091
X0.816 Y0.6034
X0.8187 Y0.5981
X0.8219 Y0.593
X0.826 Y0.5876
X0.8307 Y0.5823
X0.8369 Y0.5764
X0.8441 Y0.5706
X0.8527 Y0.5647
X0.8631 Y0.5587
X0.8747 Y0.5532
X0.8874 Y0.5484
X0.9015 Y0.5444
X0.9161 Y0.5414
X0.9308 Y0.5397
X0.9447 Y0.5391
X0.9568 Y0.5396
X0.9675 Y0.541
X0.9749 Y0.5425
X0.9821 Y0.5446
X0.9877 Y0.5467
X0.989 Y0.5473
X0.9945 Y0.5514
X0.9982 Y0.5572
X0.9995 Y0.5639
Y0.5926
G3 X0.9929 Y0.6001 I-0.0079 J-0.0003
G1 X0.9791 Y0.6024
X0.8327 Y0.6266
X0.8215 Y0.6284
G3 X0.8123 Y0.6209 I-0.0013 J-0.0078
G1 Y0.5902
X0.8126 Y0.5843
X0.8139 Y0.5784
X0.816 Y0.5728
X0.8187 Y0.5674
X0.822 Y0.5624
X0.8261 Y0.557
X0.8308 Y0.5519
X0.8369 Y0.5461
X0.844 Y0.5404
X0.8523 Y0.5348
X0.8627 Y0.529
X0.8741 Y0.5237
X0.8867 Y0.5191
X0.9009 Y0.5151
X0.9159 Y0.5122
X0.9307 Y0.5106
X0.945 Y0.5101
X0.9571 Y0.5107
X0.9679 Y0.5121
X0.9753 Y0.5137
X0.9824 Y0.5158
X0.988 Y0.518
X0.9892 Y0.5186
X0.9946 Y0.5226
X0.9982 Y0.5284
X0.9995 Y0.5351
Y0.5639
G3 X0.9928 Y0.5714 I-0.0079 J-0.0003
G1 X0.9791 Y0.5735
X0.8327 Y0.596
X0.8214 Y0.5978
G3 X0.8123 Y0.5902 I-0.0012 J-0.0078
G1 Y0.559
X0.8126 Y0.553
X0.8141 Y0.5472
X0.8163 Y0.5416
X0.8191 Y0.5364
X0.8225 Y0.5314
X0.8266 Y0.5262
X0.8316 Y0.5209
X0.8377 Y0.5154
X0.8452 Y0.5096
X0.8535 Y0.5043
X0.8638 Y0.4987
X0.8759 Y0.4934
X0.8886 Y0.489
X0.9029 Y0.4853
X0.9181 Y0.4826
X0.9331 Y0.4812
X0.9471 Y0.4811
X0.9591 Y0.4819
X0.9696 Y0.4835
X0.9767 Y0.4851
X0.9837 Y0.4873
X0.9892 Y0.4896
X0.9895 Y0.4898
X0.9948 Y0.4939
X0.9982 Y0.4995
X0.9995 Y0.5061
Y0.5351
G3 X0.9927 Y0.5426 I-0.0079 J-0.0003
G1 X0.9791 Y0.5445
X0.8327 Y0.565
X0.8213 Y0.5666
G3 X0.8123 Y0.559 I-0.0011 J-0.0078
G1 Y0.5309
X0.8126 Y0.5249
X0.8137 Y0.519
X0.8157 Y0.5134
X0.8184 Y0.508
X0.8216 Y0.5029
X0.8255 Y0.4978
X0.8299 Y0.4928
X0.8359 Y0.4872
X0.8424 Y0.482
X0.8508 Y0.4763
X0.8604 Y0.4708
X0.8712 Y0.4658
X0.8841 Y0.4611
X0.8983 Y0.457
X0.9133 Y0.4541
X0.9282 Y0.4524
X0.9426 Y0.4519
X0.9555 Y0.4525
X0.967 Y0.4539
X0.9749 Y0.4556
X0.9818 Y0.4577
X0.9875 Y0.4599
X0.989 Y0.4606
X0.9945 Y0.4646
X0.9982 Y0.4704
X0.9995 Y0.4771
Y0.5061
G3 X0.9927 Y0.5136 I-0.0079 J-0.0003
G1 X0.9791 Y0.5156
X0.8327 Y0.5368
X0.8213 Y0.5384
G3 X0.8123 Y0.5309 I-0.0011 J-0.0078
G1 Y0.5002
X0.8126 Y0.4942
X0.8139 Y0.4884
X0.816 Y0.4828
X0.8188 Y0.4775
X0.8221 Y0.4724
X0.8259 Y0.4676
X0.8308 Y0.4623
X0.8364 Y0.4572
X0.8437 Y0.4515
X0.8517 Y0.4463
X0.8616 Y0.4408
X0.8734 Y0.4355
X0.8859 Y0.4311
X0.8999 Y0.4274
X0.915 Y0.4246
X0.9302 Y0.4231
X0.9449 Y0.4228
X0.9574 Y0.4236
X0.9683 Y0.4251
X0.9757 Y0.4268
X0.9829 Y0.429
X0.9885 Y0.4313
X0.9894 Y0.4317
X0.9947 Y0.4358
X0.9982 Y0.4415
X0.9995 Y0.4481
Y0.4771
G3 X0.9926 Y0.4847 I-0.0079 J-0.0003
G1 X0.9791 Y0.4865
X0.8327 Y0.5062
X0.8212 Y0.5078
G3 X0.8123 Y0.5002 I-0.0011 J-0.0078
G1 Y0.4704
X0.8126 Y0.4644
X0.814 Y0.4586
X0.8161 Y0.453
X0.8189 Y0.4477
X0.8222 Y0.4427
X0.8262 Y0.4377
X0.831 Y0.4326
X0.8369 Y0.4273
X0.8442 Y0.4217
X0.8523 Y0.4165
X0.8624 Y0.411
X0.8739 Y0.406
X0.8864 Y0.4016
X0.9007 Y0.398
X0.916 Y0.3953
X0.9312 Y0.3939
X0.9458 Y0.3937
X0.9583 Y0.3945
X0.9691 Y0.3962
X0.9764 Y0.3979
X0.9834 Y0.4001
X0.989 Y0.4024
X0.9895 Y0.4027
X0.9948 Y0.4067
X0.9982 Y0.4124
X0.9995 Y0.419
Y0.4481
G3 X0.9926 Y0.4556 I-0.0079 J-0.0003
G1 X0.9791 Y0.4574
X0.8327 Y0.4764
X0.8212 Y0.4779
G3 X0.8123 Y0.4704 I-0.001 J-0.0078
G1 Y0.4409
X0.8126 Y0.4349
X0.814 Y0.4291
X0.8161 Y0.4235
X0.8189 Y0.4182
X0.8223 Y0.4132
X0.8263 Y0.4082
X0.831 Y0.4032
X0.837 Y0.3978
X0.8441 Y0.3923
X0.8523 Y0.3871
X0.8624 Y0.3817
X0.8738 Y0.3767
X0.8864 Y0.3724
X0.9008 Y0.3687
X0.9161 Y0.3661
X0.9313 Y0.3647
X0.946 Y0.3646
X0.9585 Y0.3655
X0.9694 Y0.3671
X0.9766 Y0.3688
X0.9836 Y0.3711
X0.9891 Y0.3734
X0.9895 Y0.3736
X0.9948 Y0.3777
X0.9982 Y0.3834
X0.9995 Y0.3899
Y0.419
G3 X0.9926 Y0.4265 I-0.0079 J-0.0003
G1 X0.979 Y0.4283
X0.8327 Y0.447
X0.8212 Y0.4484
G3 X0.8123 Y0.4409 I-0.001 J-0.0078
G1 Y0.4114
X0.8126 Y0.4054
X0.814 Y0.3995
X0.8162 Y0.394
X0.819 Y0.3887
X0.8223 Y0.3837
X0.8264 Y0.3787
X0.8312 Y0.3737
X0.8371 Y0.3684
X0.8443 Y0.3629
X0.8524 Y0.3577
X0.8626 Y0.3523
X0.874 Y0.3474
X0.8867 Y0.3431
X0.9011 Y0.3395
X0.9164 Y0.3369
X0.9317 Y0.3355
X0.9464 Y0.3354
X0.9589 Y0.3364
X0.9697 Y0.3381
X0.9768 Y0.3398
X0.9838 Y0.342
X0.9893 Y0.3444
X0.9896 Y0.3445
X0.9948 Y0.3486
X0.9983 Y0.3542
X0.9995 Y0.3608
Y0.3899
G3 X0.9926 Y0.3974 I-0.0079 J-0.0003
G1 X0.979 Y0.3991
X0.8327 Y0.4175
X0.8212 Y0.4189
G3 X0.8123 Y0.4114 I-0.001 J-0.0078
G1 Y0.3821
X0.8126 Y0.3761
X0.814 Y0.3703
X0.8161 Y0.3647
X0.819 Y0.3594
X0.8223 Y0.3544
X0.8264 Y0.3494
X0.8311 Y0.3444
X0.8371 Y0.3391
X0.8441 Y0.3337
X0.8523 Y0.3285
X0.8625 Y0.3231
X0.8737 Y0.3183
X0.8865 Y0.3139
X0.9009 Y0.3103
X0.9163 Y0.3077
X0.9316 Y0.3064
X0.9462 Y0.3063
X0.9589 Y0.3072
X0.9697 Y0.3089
X0.9768 Y0.3106
X0.9838 Y0.3129
X0.9894 Y0.3152
X0.9896 Y0.3154
X0.9948 Y0.3194
X0.9983 Y0.3251
X0.9995 Y0.3316
Y0.3608
G3 X0.9926 Y0.3683 I-0.0079 J-0.0003
G1 X0.979 Y0.37
X0.8327 Y0.3882
X0.8212 Y0.3896
G3 X0.8123 Y0.3821 I-0.001 J-0.0078
G1 Y0.354
X0.8126 Y0.348
X0.8137 Y0.3421
X0.8158 Y0.3365
X0.8185 Y0.3311
X0.8217 Y0.3261
X0.8257 Y0.321
X0.8301 Y0.3162
X0.8359 Y0.3108
X0.8425 Y0.3057
X0.8506 Y0.3003
X0.8605 Y0.2949
X0.871 Y0.2901
X0.8837 Y0.2856
X0.898 Y0.2817
X0.9133 Y0.2789
X0.9285 Y0.2774
X0.9432 Y0.277
X0.9563 Y0.2778
X0.9678 Y0.2794
X0.9755 Y0.2811
X0.9825 Y0.2833
X0.9881 Y0.2855
X0.9892 Y0.2861
X0.9946 Y0.2902
X0.9982 Y0.2959
X0.9995 Y0.3025
Y0.3316
G3 X0.9926 Y0.3392 I-0.0079 J-0.0003
G1 X0.9791 Y0.3409
X0.8327 Y0.36
X0.8212 Y0.3615
G3 X0.8123 Y0.354 I-0.001 J-0.0078
G1 Y0.3228
X0.8126 Y0.3168
X0.8141 Y0.311
X0.8164 Y0.3054
X0.8193 Y0.3002
X0.8228 Y0.2953
X0.8267 Y0.2905
X0.8319 Y0.2852
X0.8376 Y0.2802
X0.845 Y0.2747
X0.8533 Y0.2695
X0.8633 Y0.2643
X0.8754 Y0.2592
X0.8885 Y0.2549
X0.9026 Y0.2515
X0.9179 Y0.2491
X0.9333 Y0.2479
X0.9477 Y0.248
X0.96 Y0.249
X0.9705 Y0.2508
X0.9776 Y0.2526
X0.9845 Y0.2549
X0.9883 Y0.2566
X0.9942 Y0.2606
X0.9981 Y0.2665
X0.9995 Y0.2734
Y0.3025
G3 X0.9925 Y0.3101 I-0.0079 J-0.0003
G1 X0.979 Y0.3117
X0.8327 Y0.3289
X0.8211 Y0.3303
G3 X0.8123 Y0.3228 I-0.0009 J-0.0078
G1 Y0.2946
X0.8126 Y0.2886
X0.8139 Y0.2828
X0.816 Y0.2772
X0.8189 Y0.2719
X0.8222 Y0.2669
X0.8262 Y0.2619
X0.8308 Y0.257
X0.8369 Y0.2516
X0.8436 Y0.2464
X0.8521 Y0.241
X0.8622 Y0.2356
X0.873 Y0.2309
X0.8859 Y0.2265
X0.9003 Y0.2228
X0.9156 Y0.2202
X0.9308 Y0.2189
X0.9453 Y0.2188
X0.9582 Y0.2197
X0.9688 Y0.2213
X0.9765 Y0.2231
X0.9836 Y0.2254
X0.9892 Y0.2277
X0.9896 Y0.228
X0.9948 Y0.2321
X0.9983 Y0.2377
X0.9995 Y0.2443
Y0.2734
G3 X0.9926 Y0.281 I-0.0079 J-0.0003
G1 X0.979 Y0.2826
X0.8327 Y0.3007
X0.8211 Y0.3022
G3 X0.8123 Y0.2946 I-0.001 J-0.0078
G1 Y0.2651
X0.8126 Y0.2591
X0.814 Y0.2533
X0.8161 Y0.2477
X0.819 Y0.2424
X0.8223 Y0.2374
X0.8264 Y0.2325
X0.8312 Y0.2275
X0.837 Y0.2223
X0.8442 Y0.2168
X0.8522 Y0.2117
X0.8624 Y0.2063
X0.8738 Y0.2014
X0.8864 Y0.1972
X0.9008 Y0.1936
X0.9161 Y0.191
X0.9314 Y0.1897
X0.946 Y0.1896
X0.9588 Y0.1906
X0.9696 Y0.1923
X0.9768 Y0.1941
X0.9838 Y0.1964
X0.9894 Y0.1987
X0.9896 Y0.1988
X0.9948 Y0.2029
X0.9983 Y0.2086
X0.9995 Y0.2151
Y0.2443
G3 X0.9925 Y0.2518 I-0.0079 J-0.0003
G1 X0.979 Y0.2534
X0.8327 Y0.2712
X0.8211 Y0.2727
G3 X0.8123 Y0.2651 I-0.001 J-0.0078
G1 Y0.2359
X0.8126 Y0.2299
X0.814 Y0.224
X0.8162 Y0.2184
X0.819 Y0.2132
X0.8224 Y0.2082
X0.8264 Y0.2032
X0.8312 Y0.1983
X0.8371 Y0.193
X0.8443 Y0.1876
X0.8524 Y0.1824
X0.8626 Y0.1771
X0.8739 Y0.1722
X0.8866 Y0.168
X0.901 Y0.1644
X0.9163 Y0.1618
X0.9317 Y0.1605
X0.9464
X0.959 Y0.1615
X0.9698 Y0.1632
X0.977 Y0.1649
X0.984 Y0.1672
X0.9897 Y0.1696
X0.9949 Y0.1737
X0.9983 Y0.1794
X0.9995 Y0.1859
Y0.2151
G3 X0.9925 Y0.2226 I-0.0079 J-0.0003
G1 X0.979 Y0.2242
X0.8327 Y0.242
X0.8211 Y0.2434
G3 X0.8123 Y0.2359 I-0.0009 J-0.0078
G1 Y0.2077
X0.8126 Y0.2017
X0.8138 Y0.1958
X0.8158 Y0.1902
X0.8186 Y0.1849
X0.8218 Y0.1798
X0.8258 Y0.1748
X0.8303 Y0.17
X0.8361 Y0.1647
X0.8427 Y0.1595
X0.8508 Y0.1542
X0.8607 Y0.1488
X0.8713 Y0.1441
X0.884 Y0.1396
X0.8983 Y0.1358
X0.9136 Y0.133
X0.9289 Y0.1315
X0.9436 Y0.1312
X0.9567 Y0.1321
X0.9681 Y0.1337
X0.9758 Y0.1354
X0.9828 Y0.1376
X0.9884 Y0.1399
X0.9899 Y0.1406
X0.9944 Y0.1438
X0.9978 Y0.1482
X0.9996 Y0.1535
X0.9999 Y0.159
X0.9995 Y0.1627
Y0.1859
G3 X0.9926 Y0.1934 I-0.0079 J-0.0003
G1 X0.979 Y0.1952
X0.8327 Y0.2138
X0.8212 Y0.2153
G3 X0.8123 Y0.2077 I-0.001 J-0.0078
G1 Y0.1765
X0.8126 Y0.1705
X0.8142 Y0.1647
X0.8165 Y0.1592
X0.8194 Y0.154
X0.8229 Y0.1491
X0.8269 Y0.1443
X0.8321 Y0.139
X0.8378 Y0.134
X0.8453 Y0.1285
X0.8536 Y0.1233
X0.8637 Y0.1182
X0.8758 Y0.1132
X0.889 Y0.1089
X0.9031 Y0.1056
X0.9185 Y0.1032
X0.9339 Y0.1021
X0.9482 Y0.1022
X0.9605 Y0.1033
X0.971 Y0.1051
X0.9787 Y0.1071
X0.9851 Y0.1093
X0.9906 Y0.1117
X0.9958 Y0.1145
X0.9988 Y0.1165
X1.0035 Y0.121
X1.0063 Y0.1269
X1.0069 Y0.1335
X1.0051 Y0.1398
X1.0049 Y0.1402
X1.0026 Y0.1458
X1.001 Y0.1521
X1.0001 Y0.1571
X0.9999 Y0.159
G3 X0.9929 Y0.1657 I-0.0078 J-0.0011
G1 X0.9787 Y0.1672
X0.8328 Y0.1828
X0.821 Y0.1841
G3 X0.8123 Y0.1765 I-0.0008 J-0.0078
G1 Y0.1484
X0.8126 Y0.1424
X0.8139 Y0.1365
X0.8161 Y0.1309
X0.819 Y0.1257
X0.8223 Y0.1207
X0.8264 Y0.1156
X0.831 Y0.1108
X0.8372 Y0.1054
X0.844 Y0.1003
X0.8525 Y0.0949
X0.8626 Y0.0895
X0.8735 Y0.0848
X0.8864 Y0.0805
X0.901 Y0.0768
X0.9163 Y0.0743
X0.9315 Y0.073
X0.946
X0.9591 Y0.074
X0.9702 Y0.0757
X0.9799 Y0.0781
X0.9877 Y0.0806
X0.9945 Y0.0835
X1 Y0.0863
X1.005 Y0.0895
X1.0098 Y0.0932
X1.0142 Y0.0973
X1.0162 Y0.0996
X1.0195 Y0.1052
X1.0206 Y0.1117
X1.0194 Y0.1181
X1.016 Y0.1237
X1.0122 Y0.128
X1.0114 Y0.129
X1.0072 Y0.1358
X1.0066 Y0.1367
X1.0051 Y0.1398
G3 X0.9987 Y0.1439 I-0.007 J-0.0037
G1 X0.982 Y0.1451
X0.8328 Y0.1551
X0.8207 Y0.156
G3 X0.8123 Y0.1484 I-0.0005 J-0.0079
G1 Y0.1203
X0.8126 Y0.1143
X0.8138 Y0.1084
X0.8158 Y0.1027
X0.8185 Y0.0974
X0.8218 Y0.0923
X0.8257 Y0.0873
X0.8302 Y0.0825
X0.836 Y0.0772
X0.8426 Y0.0721
X0.8507 Y0.0668
X0.8606 Y0.0613
X0.8614 Y0.061
X0.8638 Y0.0601
X0.8663 Y0.0596
X0.8689 Y0.0594
G3 X0.8744 Y0.0726 I-0.0003 J0.0079
G1 X0.8698 Y0.0776
X0.8301 Y0.1208
X0.826 Y0.1253
G3 X0.8123 Y0.1203 I-0.0058 J-0.0053
G1 Y0.0896
X0.8126 Y0.0836
X0.8141 Y0.0778
X0.8163 Y0.0722
X0.8181 Y0.0689
X0.8222 Y0.0638
X0.8278 Y0.0605
X0.8342 Y0.0594
G3 X0.8406 Y0.0714 I-0.0003 J0.0079
G1 X0.8363 Y0.0784
X0.8293 Y0.0895
X0.8269 Y0.0935
G3 X0.8123 Y0.0896 I-0.0067 J-0.0042
G1 Y0.0671
X0.8125 Y0.0658
X0.813 Y0.0645
X0.8133 Y0.0639
X0.8137 Y0.0632
X0.8142 Y0.0626
X0.8148 Y0.0619
X0.816 Y0.0609
X0.8166 Y0.0605
X0.8172 Y0.0602
X0.8179 Y0.0599
X0.8192 Y0.0595
X0.8205 Y0.0594
X0.984
X0.99 Y0.0597
X0.9959 Y0.0607
X1.0017 Y0.0623
X1.0074 Y0.0643
X1.0128 Y0.0669
X1.018 Y0.0699
X1.0228 Y0.0734
X1.0273 Y0.0774
X1.0313 Y0.0819
X1.0347 Y0.0868
X1.0364 Y0.0901
X1.0383 Y0.0965
X1.0376 Y0.1032
X1.0344 Y0.1091
X1.0292 Y0.1133
X1.0235 Y0.1173
X1.0229 Y0.1177
X1.0179 Y0.1218
X1.0163 Y0.1233
X1.016 Y0.1237
G3 X1.0033 Y0.1219 I-0.0057 J-0.0054
G1 X0.9989 Y0.1133
X0.9813 Y0.0788
X0.9773 Y0.0708
G3 X0.984 Y0.0594 I0.007 J-0.0036
G1 X1.0196
X1.0256 Y0.0597
X1.0314 Y0.0611
X1.0369 Y0.0635
X1.042 Y0.0667
X1.0465 Y0.0706
X1.0504 Y0.0752
X1.0535 Y0.0803
X1.0546 Y0.0829
X1.0561 Y0.089
X1.0554 Y0.0952
X1.0526 Y0.1008
X1.0482 Y0.1052
X1.0425 Y0.1078
X1.0404 Y0.1084
X1.0348 Y0.1105
X1.0315 Y0.1121
X1.0292 Y0.1133
G3 X1.018 Y0.1074 I-0.0034 J-0.0071
G1 X1.0165 Y0.0975
X1.0138 Y0.0797
X1.0121 Y0.0684
G3 X1.0196 Y0.0594 I0.0078 J-0.0012
G1 X1.0435
X1.0495 Y0.0597
X1.0553 Y0.0613
X1.0605 Y0.0643
X1.0651 Y0.0681
X1.0688 Y0.0729
X1.0716 Y0.0782
X1.0734 Y0.0839
X1.0736 Y0.0848
X1.0734 Y0.0908
X1.0712 Y0.0964
X1.0674 Y0.1011
X1.0622 Y0.1043
X1.0563 Y0.1056
X1.0517 Y0.1058
X1.0461 Y0.1069
X1.0425 Y0.1078
G3 X1.0329 Y0.0994 I-0.0018 J-0.0077
G1 X1.0338 Y0.0896
X1.0347 Y0.0798
X1.036 Y0.0665
G3 X1.0435 Y0.0594 I0.0078 J0.0007
G1 X1.0647
X1.0707 Y0.0597
X1.0763 Y0.0619
X1.0812 Y0.0654
X1.0852 Y0.0699
X1.0883 Y0.075
X1.0903 Y0.0806
X1.0913 Y0.0865
Y0.0879
X1.0897 Y0.095
X1.0855 Y0.1009
X1.0793 Y0.1048
X1.0721 Y0.1059
X1.063 Y0.1055
X1.0574
X1.0563 Y0.1056
G3 X1.0486 Y0.0955 I-0.0001 J-0.0079
G1 X1.0514 Y0.0859
X1.0533 Y0.0793
X1.0574 Y0.0651
G3 X1.0647 Y0.0594 I0.0076 J0.0022
G1 X1.0816
X1.0876 Y0.0597
X1.0933 Y0.0617
X1.0982 Y0.0651
X1.1024 Y0.0694
X1.1056 Y0.0745
X1.1078 Y0.0801
X1.1089 Y0.086
Y0.0886
X1.1079 Y0.0946
X1.1051 Y0.0999
X1.1006 Y0.1041
X1.0951 Y0.1065
X1.089 Y0.107
X1.0799 Y0.1063
X1.0721 Y0.1059
G3 X1.0652 Y0.0958 I0.0006 J-0.0078
G1 X1.0683 Y0.0855
X1.0701 Y0.0793
X1.0744 Y0.065
G3 X1.0816 Y0.0594 I0.0075 J0.0022
G1 X1.0999
X1.1059 Y0.0597
X1.1115 Y0.0619
X1.1164 Y0.0654
X1.1205 Y0.0698
X1.1236 Y0.0749
X1.1257 Y0.0805
X1.1269 Y0.0864
X1.127 Y0.0924
X1.1267 Y0.094
X1.1242 Y0.1008
X1.1192 Y0.1061
X1.1126 Y0.109
X1.1054 Y0.1092
X1.0968 Y0.1077
X1.089 Y0.107
G3 X1.0824 Y0.0968 I0.0009 J-0.0078
G1 X1.0858 Y0.0865
X1.0881 Y0.0792
X1.0927 Y0.0648
G3 X1.0999 Y0.0594 I0.0075 J0.0024
G1 X1.1169
X1.1229 Y0.0597
X1.1287 Y0.0612
X1.1339 Y0.0642
X1.1383 Y0.0682
X1.142 Y0.073
X1.1448 Y0.0783
X1.1466 Y0.084
X1.1475 Y0.0899
X1.1473 Y0.0959
X1.147 Y0.0979
X1.1443 Y0.1047
X1.1392 Y0.11
X1.1324 Y0.1129
X1.125
X1.1138 Y0.1107
X1.1054 Y0.1092
G3 X1.0995 Y0.0992 I0.0017 J-0.0077
G1 X1.1028 Y0.088
X1.1054 Y0.0793
X1.1096 Y0.065
G3 X1.1169 Y0.0594 I0.0076 J0.0022
G1 X1.138
X1.144 Y0.0598
X1.1496 Y0.0621
X1.1544 Y0.0656
X1.1587 Y0.0701
X1.1642 Y0.073
X1.1762 Y0.0761
X1.201 Y0.0749
X1.2244 Y0.0664
X1.2313 Y0.0638
X1.2338 Y0.0631
X1.2363 Y0.0627
X1.2389 Y0.0626
G3 X1.2379 Y0.0784 I-0.0007 J0.0078
G1 X1.2374 Y0.0783
X1.1384 Y0.0752
X1.138 Y0.0751
G3 Y0.0594 I0.0003 J-0.0079
G1 X1.1927 Y0.0601
X1.1984 Y0.0604
X1.2435 Y0.0629
X1.2491 Y0.0632
X1.2971 Y0.0703
X1.2985 Y0.0705
X1.2999 Y0.071
X1.3394 Y0.0847
X1.3422 Y0.0859
X1.3491 Y0.0903
G3 X1.3486 Y0.1035 I-0.0045 J0.0065
G1 X1.3409 Y0.1081
X1.2204 Y0.1808
X1.2112 Y0.1863
G3 X1.1997 Y0.1821 I-0.0041 J-0.0067
G1 X1.1984 Y0.1778
X1.1971 Y0.174
X1.1946 Y0.1683
X1.1927 Y0.1646
X1.1871 Y0.1554
X1.1846 Y0.1515
X1.1815 Y0.1471
X1.1754 Y0.1402
X1.1686 Y0.1346
X1.1645 Y0.1317
X1.1589 Y0.1279
X1.1508 Y0.1227
X1.1363 Y0.1167
X1.1307 Y0.1145
X1.125 Y0.1129
G3 X1.1225 Y0.0993 I0.0024 J-0.0075
G1 X1.1241 Y0.0987 Z0.0202
X1.1256 Y0.0981 Z0.0208
X1.127 Y0.0976 Z0.0217
X1.1275 Y0.0975 Z0.0222
X1.1286 Y0.0977 Z0.0235
X1.1293 Y0.0978 Z0.025
X1.1297 Y0.0979 Z0.0264
X1.1299 Z0.0279
G0 Z0.2
X1.7102 Y0.5015
Z0.1299
G1 Z0.122 F40
G3 X1.7777 Y0.5336 Z0.1179 I0.0338 J0.0161 F13.33
X1.7102 Y0.5015 Z0.1138 I-0.0338 J-0.0161
X1.7777 Y0.5336 Z0.1097 I0.0338 J0.0161
X1.7102 Y0.5015 Z0.1056 I-0.0338 J-0.0161
X1.7777 Y0.5336 Z0.1015 I0.0338 J0.0161
X1.7102 Y0.5015 Z0.0974 I-0.0338 J-0.0161
X1.7777 Y0.5336 Z0.0933 I0.0338 J0.0161
X1.7102 Y0.5015 Z0.0892 I-0.0338 J-0.0161
X1.7777 Y0.5336 Z0.0851 I0.0338 J0.0161
X1.7102 Y0.5015 Z0.081 I-0.0338 J-0.0161
X1.7777 Y0.5336 Z0.0769 I0.0338 J0.0161
X1.7102 Y0.5015 Z0.0728 I-0.0338 J-0.0161
X1.7777 Y0.5336 Z0.0687 I0.0338 J0.0161
X1.7102 Y0.5015 Z0.0646 I-0.0338 J-0.0161
X1.7777 Y0.5336 Z0.0605 I0.0338 J0.0161
X1.7102 Y0.5015 Z0.0563 I-0.0338 J-0.0161
X1.7777 Y0.5336 Z0.0522 I0.0338 J0.0161
X1.7102 Y0.5015 Z0.0481 I-0.0338 J-0.0161
X1.7777 Y0.5336 Z0.044 I0.0338 J0.0161
X1.7102 Y0.5015 Z0.0399 I-0.0338 J-0.0161
X1.7777 Y0.5336 Z0.0358 I0.0338 J0.0161
X1.7102 Y0.5015 Z0.0317 I-0.0338 J-0.0161
X1.7777 Y0.5336 Z0.0276 I0.0338 J0.0161
X1.7102 Y0.5015 Z0.0235 I-0.0338 J-0.0161
X1.7814 Y0.5175 Z0.02 I0.0338 J0.0161
X1.7066 I-0.0374
X1.7814 I0.0374
G1 X1.7825 Y0.5407 F40
X1.7824 Y0.5467
X1.7807 Y0.5524
X1.7778 Y0.5577
X1.774 Y0.5624
X1.7695 Y0.5664
X1.7645 Y0.5697
X1.7591 Y0.5723
X1.7534 Y0.5742
X1.7476 Y0.5754
X1.7416 Y0.5758
X1.7356 Y0.5756
X1.7296 Y0.5747
X1.7238 Y0.5732
X1.7182 Y0.571
X1.7129 Y0.5683
X1.7079 Y0.565
X1.7032 Y0.5612
X1.699 Y0.557
X1.6952 Y0.5523
X1.6919 Y0.5473
X1.6892 Y0.542
X1.687 Y0.5364
X1.6853 Y0.5306
X1.6843 Y0.5247
X1.6838 Y0.5187
X1.684 Y0.5127
X1.6848 Y0.5068
X1.6861 Y0.5009
X1.688 Y0.4953
X1.6905 Y0.4898
X1.6935 Y0.4846
X1.6971 Y0.4798
X1.7011 Y0.4753
X1.7055 Y0.4712
X1.7103 Y0.4676
X1.7154 Y0.4645
X1.7208 Y0.4619
X1.7265 Y0.4599
X1.7323 Y0.4584
X1.7382 Y0.4576
X1.7442 Y0.4573
X1.7502 Y0.4576
X1.7561 Y0.4585
X1.7619 Y0.46
X1.7676 Y0.4621
X1.773 Y0.4647
X1.7781 Y0.4679
X1.7828 Y0.4715
X1.7872 Y0.4756
X1.7912 Y0.4801
X1.7947 Y0.485
X1.7977 Y0.4902
X1.8007 Y0.4968
X1.8039 Y0.5056
X1.8064 Y0.5144
X1.8077 Y0.5212
X1.8085 Y0.5278
X1.8087 Y0.5338
X1.8083 Y0.5398
X1.8075 Y0.5457
X1.8061 Y0.5516
X1.8042 Y0.5573
X1.8018 Y0.5627
X1.7989 Y0.568
X1.7955 Y0.5729
X1.7916 Y0.5775
X1.7874 Y0.5817
X1.7827 Y0.5856
X1.7778 Y0.589
X1.7726 Y0.5919
X1.7671 Y0.5944
X1.7615 Y0.5965
X1.7557 Y0.598
X1.7497 Y0.5991
X1.7438 Y0.5997
X1.7377 Y0.5998
X1.7314 Y0.5994
X1.7252 Y0.5985
X1.7192 Y0.5972
X1.7131 Y0.5953
X1.7071 Y0.5928
X1.7013 Y0.5899
X1.6959 Y0.5866
X1.6906 Y0.5828
X1.6855 Y0.5785
X1.6808 Y0.5738
X1.6766 Y0.5688
X1.6727 Y0.5635
X1.6692 Y0.5577
X1.6662 Y0.5516
X1.6637 Y0.5454
X1.6617 Y0.5391
X1.6602 Y0.5325
X1.6593 Y0.5257
X1.6588 Y0.5189
X1.659 Y0.5121
X1.6596 Y0.5055
X1.6608 Y0.4988
X1.6626 Y0.4922
X1.6649 Y0.4856
X1.6677 Y0.4795
X1.6709 Y0.4736
X1.6746 Y0.4679
X1.6789 Y0.4624
X1.6836 Y0.4573
X1.6885 Y0.4527
X1.6938 Y0.4485
X1.6995 Y0.4447
X1.7055 Y0.4414
X1.7118 Y0.4385
X1.7183 Y0.4362
X1.7248 Y0.4344
X1.7315 Y0.4331
X1.7383 Y0.4324
X1.7453 Y0.4322
X1.7521 Y0.4326
X1.7588 Y0.4335
X1.7654 Y0.4349
X1.772 Y0.4369
X1.7785 Y0.4395
X1.7847 Y0.4425
X1.7905 Y0.446
X1.796 Y0.4499
X1.8013 Y0.4544
X1.8066 Y0.4595
X1.8117 Y0.4654
X1.8165 Y0.472
X1.8212 Y0.4796
X1.8252 Y0.4875
X1.8286 Y0.4958
X1.8313 Y0.504
X1.8332 Y0.5122
X1.8344 Y0.5203
X1.835 Y0.5283
X1.8349 Y0.5362
X1.8342 Y0.5439
X1.8329 Y0.5514
X1.831 Y0.5588
X1.8286 Y0.5659
X1.8256 Y0.5727
X1.8221 Y0.5792
X1.8181 Y0.5854
X1.8136 Y0.5913
X1.8086 Y0.5969
X1.8031 Y0.6021
X1.7972 Y0.6069
X1.7908 Y0.6112
X1.7841 Y0.615
X1.777 Y0.6183
X1.7696 Y0.621
X1.762 Y0.6232
X1.7541 Y0.6247
X1.7461 Y0.6257
X1.7379 Y0.6259
X1.7297 Y0.6256
X1.7215 Y0.6245
X1.7133 Y0.6228
X1.7053 Y0.6204
X1.6974 Y0.6174
X1.6897 Y0.6137
X1.6823 Y0.6094
X1.6752 Y0.6045
X1.6686 Y0.599
X1.6623 Y0.5929
X1.6566 Y0.5864
X1.6513 Y0.5793
X1.6467 Y0.5719
X1.6426 Y0.5641
X1.6392 Y0.556
X1.6364 Y0.5475
X1.6361 Y0.546
X1.6359 Y0.5446
X1.6358 Y0.5431
Y0.5059
X1.6362 Y0.4994
X1.6371 Y0.4921
X1.6387 Y0.4847
X1.6409 Y0.4773
X1.6438 Y0.4699
X1.6474 Y0.4625
X1.6516 Y0.4553
X1.6565 Y0.4484
X1.662 Y0.4418
X1.668 Y0.4356
X1.6746 Y0.4298
X1.6817 Y0.4246
X1.6892 Y0.4199
X1.6971 Y0.4159
X1.7053 Y0.4124
X1.7138 Y0.4097
X1.7225 Y0.4076
X1.7313 Y0.4062
X1.7402 Y0.4055
X1.7492 Y0.4056
X1.7582 Y0.4063
X1.7671 Y0.4078
X1.7758 Y0.41
X1.7843 Y0.4129
X1.7925 Y0.4165
X1.8006 Y0.4207
X1.8084 Y0.4257
X1.816 Y0.4315
X1.8214 Y0.4364
X1.8236 Y0.4386
X1.8254 Y0.4412
X1.8268 Y0.444
X1.8291 Y0.4496
X1.8324 Y0.4552
X1.8358 Y0.4603
X1.8362 Y0.4609
X1.8371 Y0.4618
X1.841 Y0.4664
X1.8452 Y0.4726
X1.8493 Y0.4796
X1.853 Y0.4874
X1.8561 Y0.4958
X1.8587 Y0.5046
X1.8605 Y0.5138
X1.8616 Y0.5231
X1.862 Y0.5327
X1.8616 Y0.5422
X1.861 Y0.5471
X1.8596 Y0.5523
X1.8567 Y0.5569
X1.8525 Y0.5605
X1.8499 Y0.5621
X1.8471 Y0.5642
X1.8426 Y0.5677
X1.8414 Y0.5689
X1.8372 Y0.5734
X1.8358 Y0.575
X1.8329 Y0.579
X1.8298 Y0.5846
X1.8272 Y0.5902
X1.8252 Y0.5959
X1.8248 Y0.5977
X1.8233 Y0.6035
X1.8209 Y0.609
X1.8179 Y0.6142
X1.8144 Y0.6191
X1.8105 Y0.6236
X1.8059 Y0.6281
X1.8008 Y0.6323
X1.7949 Y0.6363
X1.7883 Y0.6402
X1.7809 Y0.6438
X1.773 Y0.6468
X1.7647 Y0.6493
X1.7558 Y0.6511
X1.7465 Y0.6523
X1.7368 Y0.6528
X1.727 Y0.6524
X1.7169 Y0.6513
X1.7069 Y0.6493
X1.6969 Y0.6465
X1.6871 Y0.6428
X1.6775 Y0.6384
X1.6683 Y0.6331
X1.6594 Y0.6271
X1.651 Y0.6204
X1.6431 Y0.6129
X1.6406 Y0.6101
X1.638 Y0.6064
X1.6364 Y0.6022
X1.6358 Y0.5978
Y0.5431
Y0.5306
Y0.5059
Y0.4578
X1.6361 Y0.4518
X1.6373 Y0.4459
X1.6391 Y0.4402
X1.6414 Y0.4346
X1.6444 Y0.4292
X1.6478 Y0.4239
X1.6522 Y0.4182
X1.6574 Y0.4125
X1.6632 Y0.407
X1.67 Y0.4016
X1.6776 Y0.3965
X1.6859 Y0.3918
X1.695 Y0.3876
X1.7046 Y0.3841
X1.7146 Y0.3813
X1.7249 Y0.3793
X1.7356 Y0.3781
X1.7464 Y0.3778
X1.7573 Y0.3783
X1.7682 Y0.3798
X1.7791 Y0.3821
X1.7898 Y0.3853
X1.8003 Y0.3894
X1.8105 Y0.3943
X1.8139 Y0.3963
X1.8187 Y0.4004
X1.8219 Y0.4059
X1.823 Y0.4121
Y0.4215
X1.8232 Y0.4271
X1.8238 Y0.4327
X1.8245 Y0.4361
X1.825 Y0.4384
X1.8268 Y0.444
G3 X1.8197 Y0.4539 I-0.0076 J0.0021
G1 X1.809 Y0.4546
X1.6563 Y0.4646
X1.6442 Y0.4654
G3 X1.6358 Y0.4578 I-0.0005 J-0.0079
G1 Y0.424
X1.6361 Y0.418
X1.6373 Y0.4121
X1.6393 Y0.4065
X1.6419 Y0.4011
X1.645 Y0.396
X1.6488 Y0.3908
X1.6531 Y0.3859
X1.6585 Y0.3807
X1.6649 Y0.3754
X1.6718 Y0.3705
X1.68 Y0.3657
X1.6892 Y0.3613
X1.6993 Y0.3574
X1.71 Y0.3541
X1.7213 Y0.3518
X1.7332 Y0.3502
X1.7456 Y0.3496
X1.7582 Y0.35
X1.7711 Y0.3514
X1.784 Y0.3539
X1.7966 Y0.3575
X1.8049 Y0.3605
X1.8121 Y0.3639
X1.8136 Y0.3647
X1.8186 Y0.3688
X1.8219 Y0.3744
X1.823 Y0.3807
Y0.4121
G3 X1.8157 Y0.4197 I-0.0079 J-0.0003
G1 X1.8025 Y0.4206
X1.6563 Y0.4308
X1.6443 Y0.4316
G3 X1.6358 Y0.424 I-0.0005 J-0.0079
G1 Y0.3934
X1.6361 Y0.3874
X1.6374 Y0.3815
X1.6394 Y0.3759
X1.6421 Y0.3705
X1.6454 Y0.3655
X1.6491 Y0.3607
X1.6536 Y0.3558
X1.6591 Y0.3508
X1.6653 Y0.3459
X1.6729 Y0.3409
X1.6815 Y0.3362
X1.6908 Y0.332
X1.7014 Y0.3282
X1.7132 Y0.3251
X1.7259 Y0.3227
X1.7394 Y0.3213
X1.7533 Y0.321
X1.7675 Y0.3219
X1.7816 Y0.3239
X1.7939 Y0.3266
X1.8022 Y0.3292
X1.8096 Y0.3321
X1.8128 Y0.3337
X1.8182 Y0.3378
X1.8217 Y0.3435
X1.823 Y0.3502
Y0.3807
G3 X1.8157 Y0.3883 I-0.0079 J-0.0003
G1 X1.8025 Y0.3893
X1.6563 Y0.4001
X1.6443 Y0.4009
G3 X1.6358 Y0.3934 I-0.0006 J-0.0079
G1 Y0.3621
X1.6361 Y0.3561
X1.6377 Y0.3504
X1.6401 Y0.3448
X1.643 Y0.3396
X1.6465 Y0.3347
X1.6504 Y0.3301
X1.6553 Y0.3253
X1.6611 Y0.3203
X1.6677 Y0.3155
X1.6759 Y0.3105
X1.685 Y0.306
X1.6952 Y0.3018
X1.7069 Y0.2981
X1.7201 Y0.2952
X1.7342 Y0.2931
X1.7489 Y0.2922
X1.764 Y0.2924
X1.7781 Y0.2938
X1.7906 Y0.2961
X1.7994 Y0.2984
X1.8072 Y0.3011
X1.8127 Y0.3036
X1.8134 Y0.3039
X1.8185 Y0.308
X1.8218 Y0.3136
X1.823 Y0.3201
Y0.3502
G3 X1.8157 Y0.3578 I-0.0079 J-0.0003
G1 X1.8025 Y0.3587
X1.6563 Y0.3689
X1.6443 Y0.3697
G3 X1.6358 Y0.3621 I-0.0005 J-0.0079
G1 Y0.334
X1.6361 Y0.328
X1.6376 Y0.3222
X1.6398 Y0.3166
X1.6427 Y0.3114
X1.6462 Y0.3065
X1.6501 Y0.3018
X1.6549 Y0.297
X1.6605 Y0.2922
X1.6676 Y0.287
X1.6752 Y0.2824
X1.6846 Y0.2776
X1.6956 Y0.2731
X1.7073 Y0.2694
X1.7206 Y0.2664
X1.7353 Y0.2642
X1.7507 Y0.2632
X1.766 Y0.2634
X1.78 Y0.2647
X1.7922 Y0.2669
X1.8003 Y0.269
X1.8075 Y0.2715
X1.813 Y0.2739
X1.8134 Y0.2741
X1.8185 Y0.2782
X1.8218 Y0.2838
X1.823 Y0.2903
Y0.3201
G3 X1.8158 Y0.3276 I-0.0079 J-0.0003
G1 X1.8025 Y0.3287
X1.6563 Y0.3406
X1.6443 Y0.3416
G3 X1.6358 Y0.334 I-0.0006 J-0.0078
G1 Y0.3059
X1.6361 Y0.2999
X1.6375 Y0.294
X1.6397 Y0.2885
X1.6426 Y0.2832
X1.646 Y0.2783
X1.6499 Y0.2736
X1.6546 Y0.2688
X1.6603 Y0.2639
X1.6673 Y0.2587
X1.6749 Y0.254
X1.6844 Y0.2491
X1.6953 Y0.2446
X1.7071 Y0.2408
X1.7209 Y0.2375
X1.736 Y0.2352
X1.7516 Y0.2341
X1.767 Y0.2342
X1.7807 Y0.2354
X1.7926 Y0.2375
X1.8003 Y0.2394
X1.8075 Y0.2419
X1.813 Y0.2443
X1.8133 Y0.2444
X1.8184 Y0.2485
X1.8218 Y0.2542
X1.823 Y0.2606
Y0.2903
G3 X1.8158 Y0.2978 I-0.0079 J-0.0003
G1 X1.8025 Y0.299
X1.6563 Y0.3124
X1.6444 Y0.3135
G3 X1.6358 Y0.3059 I-0.0007 J-0.0078
G1 Y0.2778
X1.6361 Y0.2718
X1.6374 Y0.2659
X1.6396 Y0.2603
X1.6424 Y0.255
X1.6458 Y0.25
X1.6496 Y0.2454
X1.6543 Y0.2406
X1.6599 Y0.2356
X1.6668 Y0.2304
X1.6744 Y0.2257
X1.684 Y0.2207
X1.6949 Y0.2161
X1.7069 Y0.2121
X1.7209 Y0.2087
X1.7361 Y0.2062
X1.7518 Y0.205
X1.767
X1.7806 Y0.2061
X1.7923 Y0.208
X1.8 Y0.2099
X1.8072 Y0.2123
X1.8127 Y0.2147
X1.8132 Y0.2149
X1.8184 Y0.219
X1.8218 Y0.2247
X1.823 Y0.2312
Y0.2606
G3 X1.8159 Y0.2682 I-0.0079 J-0.0003
G1 X1.8025 Y0.2695
X1.6563 Y0.2841
X1.6445 Y0.2853
G3 X1.6358 Y0.2778 I-0.0008 J-0.0078
G1 Y0.2496
X1.6361 Y0.2436
X1.6373 Y0.2378
X1.6394 Y0.2321
X1.6422 Y0.2268
X1.6455 Y0.2218
X1.6493 Y0.2171
X1.6539 Y0.2123
X1.6594 Y0.2073
X1.6663 Y0.2021
X1.6739 Y0.1973
X1.6835 Y0.1922
X1.6942 Y0.1875
X1.7064 Y0.1834
X1.7204 Y0.1798
X1.7357 Y0.1772
X1.7513 Y0.1759
X1.7664 Y0.1757
X1.78 Y0.1767
X1.7917 Y0.1785
X1.7995 Y0.1804
X1.8067 Y0.1827
X1.8114 Y0.1847
X1.8175 Y0.1888
X1.8216 Y0.1949
X1.823 Y0.2021
Y0.2312
G3 X1.816 Y0.2387 I-0.0079 J-0.0003
G1 X1.8025 Y0.2402
X1.6563 Y0.2559
X1.6446 Y0.2572
G3 X1.6358 Y0.2496 I-0.0008 J-0.0078
G1 Y0.219
X1.6361 Y0.213
X1.6377 Y0.2072
X1.6401 Y0.2017
X1.643 Y0.1965
X1.6465 Y0.1916
X1.6504 Y0.187
X1.6556 Y0.1818
X1.6613 Y0.177
X1.6687 Y0.1717
X1.677 Y0.1667
X1.6868 Y0.1618
X1.6986 Y0.157
X1.7118 Y0.1529
X1.7258 Y0.1497
X1.7412 Y0.1475
X1.7569 Y0.1465
X1.7717 Y0.1468
X1.7841 Y0.148
X1.7941 Y0.1498
X1.8022 Y0.1519
X1.8085 Y0.1542
X1.814 Y0.1566
X1.8194 Y0.1597
X1.8237 Y0.1637
X1.8264 Y0.1689
X1.8274 Y0.1747
X1.8265 Y0.1805
X1.825 Y0.1852
X1.8237 Y0.1908
X1.8232 Y0.1965
X1.823 Y0.2021
G3 X1.8159 Y0.2093 I-0.0078 J-0.0006
G1 X1.8022 Y0.2107
X1.6563 Y0.2253
X1.6445 Y0.2265
G3 X1.6358 Y0.219 I-0.0008 J-0.0078
G1 Y0.1908
X1.6361 Y0.1849
X1.6376 Y0.179
X1.6398 Y0.1735
X1.6427 Y0.1682
X1.6462 Y0.1633
X1.6503 Y0.1584
X1.655 Y0.1536
X1.6611 Y0.1483
X1.668 Y0.1432
X1.6764 Y0.1381
X1.6867 Y0.1328
X1.6976 Y0.1283
X1.7105 Y0.1242
X1.7251 Y0.1208
X1.7406 Y0.1184
X1.7559 Y0.1173
X1.7704 Y0.1175
X1.7835 Y0.1187
X1.7944 Y0.1206
X1.8039 Y0.123
X1.8105 Y0.1253
X1.8169 Y0.1281
X1.8221 Y0.1309
X1.8271 Y0.1342
X1.8318 Y0.138
X1.8335 Y0.1397
X1.8372 Y0.1449
X1.8389 Y0.151
X1.8384 Y0.1574
X1.8358 Y0.1632
X1.8323 Y0.1683
X1.8291 Y0.174
X1.8268 Y0.1796
X1.8265 Y0.1805
G3 X1.8197 Y0.1856 I-0.0074 J-0.0027
G1 X1.8041 Y0.1868
X1.6563 Y0.1976
X1.6443 Y0.1984
G3 X1.6358 Y0.1908 I-0.0006 J-0.0079
G1 Y0.1627
X1.6361 Y0.1567
X1.6374 Y0.1509
X1.6396 Y0.1453
X1.6424 Y0.14
X1.6458 Y0.135
X1.6498 Y0.13
X1.6544 Y0.1253
X1.6603 Y0.12
X1.6671 Y0.1149
X1.6753 Y0.1098
X1.6854 Y0.1045
X1.6961 Y0.0999
X1.7089 Y0.0956
X1.7234 Y0.092
X1.7386 Y0.0895
X1.7541 Y0.0882
X1.7689
X1.7828 Y0.0893
X1.7949 Y0.0913
X1.8054 Y0.0938
X1.8146 Y0.0968
X1.8229 Y0.1004
X1.8292 Y0.1037
X1.8349 Y0.1073
X1.8398 Y0.1109
X1.8442 Y0.1148
X1.8483 Y0.1193
X1.8519 Y0.124
X1.8537 Y0.1272
X1.856 Y0.1334
X1.8559 Y0.1401
X1.8534 Y0.1463
X1.8489 Y0.1511
X1.8471 Y0.1525
X1.8414 Y0.1571
X1.8362 Y0.1627
X1.8358 Y0.1632
G3 X1.8299 Y0.1661 I-0.0061 J-0.005
G1 X1.8119 Y0.1665
X1.6564 Y0.17
X1.6439 Y0.1703
G3 X1.6358 Y0.1627 I-0.0002 J-0.0079
G1 Y0.1346
X1.6361 Y0.1286
X1.6373 Y0.1227
X1.6393 Y0.1171
X1.6421 Y0.1117
X1.6454 Y0.1067
X1.6493 Y0.1018
X1.6538 Y0.097
X1.6595 Y0.0918
X1.6662 Y0.0867
X1.6741 Y0.0815
X1.684 Y0.0761
X1.6945 Y0.0715
X1.7071 Y0.0671
X1.7213 Y0.0634
X1.7366 Y0.0607
X1.7497 Y0.0594
X1.7508
G3 X1.7548 Y0.0739 I-0.0003 J0.0079
G1 X1.7508 Y0.0764
X1.6549 Y0.1366
X1.6479 Y0.141
G3 X1.6358 Y0.1346 I-0.0042 J-0.0067
G1 Y0.1048
X1.6361 Y0.0988
X1.6375 Y0.0929
X1.6396 Y0.0873
X1.6425 Y0.082
X1.6458 Y0.0771
X1.6497 Y0.0723
X1.6546 Y0.0672
X1.6581 Y0.064
X1.6618 Y0.0615
X1.6659 Y0.0599
X1.6704 Y0.0594
G3 X1.6765 Y0.0718 I-0.0003 J0.0079
G1 X1.672 Y0.0781
X1.6531 Y0.1049
X1.6501 Y0.109
G3 X1.6358 Y0.1048 I-0.0064 J-0.0045
G1 Y0.0752
Y0.0739
Y0.0727
Y0.071
X1.6359 Y0.0698
Y0.0683
Y0.0671
X1.6361 Y0.0658
X1.6365 Y0.0645
X1.6368 Y0.0639
X1.6372 Y0.0632
X1.6377 Y0.0626
X1.6383 Y0.0619
X1.6389 Y0.0615
X1.6402 Y0.0605
X1.6408 Y0.0602
X1.6414 Y0.0599
X1.6427 Y0.0595
X1.644 Y0.0594
X1.7624
X1.7819 Y0.0603
X1.7949 Y0.062
X1.8071 Y0.0647
X1.8182 Y0.068
X1.8278 Y0.0717
X1.8365 Y0.0759
X1.8441 Y0.0804
X1.851 Y0.0853
X1.8566 Y0.0899
X1.861 Y0.0942
X1.8653 Y0.0991
X1.8688 Y0.1039
X1.8719 Y0.1091
X1.8744 Y0.1145
X1.8764 Y0.1202
X1.8768 Y0.1224
X1.8769 Y0.1292
X1.8746 Y0.1356
X1.87 Y0.1406
X1.864 Y0.1437
X1.8583 Y0.1459
X1.8527 Y0.1486
X1.8506 Y0.1499
X1.8489 Y0.1511
G3 X1.839 Y0.1504 I-0.0045 J-0.0065
G1 X1.8288 Y0.1408
X1.7618 Y0.0773
X1.7573 Y0.073
G3 X1.7624 Y0.0594 I0.0054 J-0.0057
G1 X1.8358
X1.8418 Y0.0597
X1.8477 Y0.0608
X1.8534 Y0.0625
X1.859 Y0.0648
X1.8643 Y0.0676
X1.8694 Y0.0708
X1.8742 Y0.0744
X1.8789 Y0.0786
X1.8832 Y0.083
X1.887 Y0.0877
X1.8904 Y0.0926
X1.8934 Y0.0978
X1.8958 Y0.1033
X1.8977 Y0.109
X1.8989 Y0.1149
X1.8994 Y0.1209
X1.8993 Y0.1232
X1.8977 Y0.1298
X1.8938 Y0.1355
X1.8881 Y0.1393
X1.8814 Y0.1407
X1.8809 Y0.1408
X1.8753 Y0.1412
X1.8696 Y0.1421
X1.864 Y0.1437
G3 X1.8547 Y0.1389 I-0.002 J-0.0076
G1 X1.85 Y0.1265
X1.8321 Y0.0792
X1.8287 Y0.07
G3 X1.8358 Y0.0594 I0.0074 J-0.0028
G1 X1.8696
X1.8756 Y0.0597
X1.8815 Y0.0609
X1.8871 Y0.0629
X1.8924 Y0.0657
X1.8974 Y0.069
X1.902 Y0.0729
X1.9062 Y0.0772
X1.91 Y0.0819
X1.9133 Y0.0869
X1.9161 Y0.0922
X1.9185 Y0.0977
X1.9203 Y0.1034
X1.9215 Y0.1093
X1.9221 Y0.1152
X1.922 Y0.1212
X1.9211 Y0.1273
X1.9186 Y0.1326
X1.9145 Y0.1369
X1.9092 Y0.1397
X1.9034 Y0.1406
X1.8865
X1.8814 Y0.1407
G3 X1.8737 Y0.1342 I0.0001 J-0.0079
G1 X1.8713 Y0.1206
X1.8641 Y0.0797
X1.8621 Y0.0686
G3 X1.8696 Y0.0594 I0.0078 J-0.0014
G1 X1.8978
X1.9038 Y0.0597
X1.9097 Y0.061
X1.9152 Y0.0634
X1.9203 Y0.0665
X1.925 Y0.0702
X1.9293 Y0.0744
X1.9331 Y0.0791
X1.9364 Y0.0841
X1.9392 Y0.0894
X1.9415 Y0.0949
X1.9433 Y0.1006
X1.9446 Y0.1065
X1.9453 Y0.1124
Y0.1184
X1.9447 Y0.1244
X1.9441 Y0.1266
X1.9418 Y0.1322
X1.9377 Y0.1367
X1.9323 Y0.1396
X1.9263 Y0.1406
X1.9034
G3 X1.8958 Y0.1334 I0.0003 J-0.0079
G1 X1.8947 Y0.1202
X1.8913 Y0.0798
X1.8902 Y0.0679
G3 X1.8978 Y0.0594 I0.0078 J-0.0007
G1 X1.9235
X1.9295 Y0.0597
X1.9353 Y0.0612
X1.9407 Y0.0637
X1.9457 Y0.067
X1.9503 Y0.0709
X1.9543 Y0.0753
X1.9579 Y0.0802
X1.961 Y0.0853
X1.9636 Y0.0907
X1.9657 Y0.0963
X1.9672 Y0.1021
X1.9683 Y0.108
X1.9686 Y0.114
X1.9685 Y0.12
X1.9675 Y0.126
X1.9672 Y0.1272
X1.9647 Y0.1326
X1.9606 Y0.1369
X1.9553 Y0.1397
X1.9495 Y0.1406
X1.9263
G3 X1.9187 Y0.1331 I0.0003 J-0.0079
G1 X1.9181 Y0.1201
X1.9164 Y0.0799
X1.9159 Y0.0676
G3 X1.9235 Y0.0594 I0.0079 J-0.0003
G1 X1.9486
X1.9546 Y0.0597
X1.9603 Y0.0614
X1.9657 Y0.0641
X1.9705 Y0.0676
X1.9749 Y0.0717
X1.9789 Y0.0763
X1.9823 Y0.0812
X1.9852 Y0.0864
X1.9876 Y0.0919
X1.9895 Y0.0976
X1.9909 Y0.1034
X1.9918 Y0.1094
X1.992 Y0.1154
X1.9916 Y0.1214
X1.9905 Y0.1273
X1.9904 Y0.1277
X1.9878 Y0.1329
X1.9837 Y0.137
X1.9786 Y0.1397
X1.9728 Y0.1406
G3 X1.9657 Y0.1355 I0.0003 J-0.0079
G1 X1.9604 Y0.121
X1.9449 Y0.0792
X1.9415 Y0.07
G3 X1.9486 Y0.0594 I0.0074 J-0.0027
G1 X1.9711
X1.9771 Y0.0597
X1.983 Y0.0612
X1.9884 Y0.0637
X1.9933 Y0.0671
X1.9978 Y0.0711
X2.0018 Y0.0756
X2.0053 Y0.0805
X2.0083 Y0.0857
X2.0107 Y0.0911
X2.0127 Y0.0968
X2.0141 Y0.1026
X2.0151 Y0.1086
X2.0154 Y0.1145
X2.0151 Y0.1205
X2.0141 Y0.1265
X2.0138 Y0.1274
X2.0113 Y0.1327
X2.0072 Y0.137
X2.002 Y0.1397
X1.9962 Y0.1406
G3 X1.9891 Y0.1356 I0.0003 J-0.0079
G1 X1.9836 Y0.1211
X1.9676 Y0.0792
X1.9641 Y0.0701
G3 X1.9711 Y0.0594 I0.0074 J-0.0028
G1 X1.9954
X2.0014 Y0.0597
X2.0072 Y0.0614
X2.0125 Y0.0641
X2.0174 Y0.0675
X2.0218 Y0.0716
X2.0257 Y0.0762
X2.0291 Y0.0811
X2.032 Y0.0864
X2.0344 Y0.0919
X2.0363 Y0.0976
X2.0377 Y0.1034
X2.0386 Y0.1093
X2.0388 Y0.1153
X2.0384 Y0.1213
X2.0373 Y0.1272
X2.0371 Y0.1277
X2.0346 Y0.1329
X2.0305 Y0.1371
X2.0253 Y0.1397
X2.0196 Y0.1406
G3 X2.0125 Y0.1355 I0.0003 J-0.0079
G1 X2.0071 Y0.121
X1.9917 Y0.0792
X1.9883 Y0.07
G3 X1.9954 Y0.0594 I0.0074 J-0.0027
G1 X2.0194
X2.0254 Y0.0597
X2.0311 Y0.0615
X2.0364 Y0.0643
X2.0412 Y0.0678
X2.0456 Y0.0719
X2.0495 Y0.0765
X2.0528 Y0.0815
X2.0557 Y0.0868
X2.0568 Y0.0895
X2.0576 Y0.0918
X2.0581 Y0.0942
X2.0583 Y0.0967
G3 X2.045 Y0.1021 I-0.0079 J-0.0003
G1 X2.0402 Y0.0975
X2.0188 Y0.0773
X2.0142 Y0.073
G3 X2.0194 Y0.0594 I0.0054 J-0.0057
G1 X2.0419
X2.0433
X2.0445
X2.0462
X2.0474
X2.0489
X2.0501
X2.0514 Y0.0595
X2.0527 Y0.0599
X2.0534 Y0.0601
X2.054 Y0.0605
X2.0547 Y0.0609
X2.0553 Y0.0615
X2.0564 Y0.0625
X2.0569 Y0.0632
X2.0573 Y0.0638
X2.0576 Y0.0645
X2.058 Y0.0658
X2.0583 Y0.0671
Y0.1208
Y0.1222
Y0.1233
Y0.125
Y0.1262
Y0.1277
Y0.129
Y0.1305
Y0.1318
X2.0582 Y0.1332
X2.0581 Y0.1339
X2.0579 Y0.1346
X2.0576 Y0.1355
X2.0571 Y0.1363
X2.0565 Y0.1372
X2.0558 Y0.1381
X2.0549 Y0.1389
X2.0541 Y0.1394
X2.0533 Y0.1399
X2.0525 Y0.1402
X2.0513 Y0.1405
X2.0501 Y0.1406
X1.9495
G3 X1.9433 Y0.1283 I0.0003 J-0.0079
G1 X1.9447 Y0.1272 Z0.0202
X1.946 Y0.1262 Z0.0208
X1.9471 Y0.1253 Z0.0217
X1.9483 Y0.1251 Z0.0229
X1.9492 Y0.125 Z0.0243
X1.9498 Y0.1249 Z0.0258
X1.95 Z0.0279
G0 Z0.2
X1.8082 Y0.4471
Z0.0357
G1 Z0.0279 F40
X1.8085 Z0.0258
X1.8092 Y0.4473 Z0.0239
X1.8104 Y0.4477 Z0.0223
X1.812 Y0.4481 Z0.0211
X1.8138 Y0.4487 Z0.0203
X1.8158 Y0.4492 Z0.02
G3 X1.8371 Y0.4618 I-0.0138 J0.0479
G1 X1.8415 Y0.4665
X1.8471 Y0.471
X1.8527 Y0.4749
X1.8572 Y0.4771
X1.8625 Y0.4799
X1.8671 Y0.4837
X1.8712 Y0.4881
X1.8748 Y0.4929
X1.8778 Y0.4981
X1.8803 Y0.5036
X1.8827 Y0.51
X1.8847 Y0.5167
X1.8859 Y0.5229
X1.8866 Y0.5292
X1.8869 Y0.5352
X1.8868 Y0.5365
X1.8854 Y0.5426
X1.882 Y0.5478
X1.8771 Y0.5516
X1.8712 Y0.5536
X1.8696 Y0.5538
X1.864 Y0.5555
X1.8608 Y0.5565
X1.8525 Y0.5605
G3 X1.8408 Y0.553 I-0.0039 J-0.0068
G1 X1.8413 Y0.5454
X1.8454 Y0.4934
X1.8462 Y0.4837
G3 X1.8572 Y0.4771 I0.0078 J0.0006
G1 X1.8586 Y0.4777
X1.864 Y0.4798
X1.8696 Y0.4815
X1.8741 Y0.4822
X1.88 Y0.4834
X1.8854 Y0.4859
X1.8903 Y0.4894
X1.8946 Y0.4936
X1.8984 Y0.4982
X1.9017 Y0.5033
X1.9044 Y0.5086
X1.9066 Y0.5142
X1.9081 Y0.52
X1.9091 Y0.5259
X1.9093 Y0.5319
X1.9088 Y0.538
X1.9064 Y0.5437
X1.9023 Y0.5483
X1.8969 Y0.5514
X1.8908 Y0.5524
X1.8865
X1.8809 Y0.5525
X1.8753 Y0.553
X1.8712 Y0.5536
G3 X1.8624 Y0.5454 I-0.0009 J-0.0078
G1 X1.863 Y0.5343
X1.8647 Y0.5014
X1.8653 Y0.4896
G3 X1.8741 Y0.4822 I0.0079 J0.0004
G1 X1.8753 Y0.4823
X1.8809 Y0.4828
X1.8865 Y0.4829
X1.8922
X1.8982 Y0.4832
X1.9039 Y0.4849
X1.9092 Y0.4877
X1.914 Y0.4913
X1.9183 Y0.4956
X1.922 Y0.5003
X1.9251 Y0.5054
X1.9276 Y0.5109
X1.9295 Y0.5166
X1.9308 Y0.5224
X1.9313 Y0.5284
X1.9312 Y0.5344
X1.9307 Y0.5371
X1.9285 Y0.5431
X1.9244 Y0.5481
X1.9189 Y0.5513
X1.9126 Y0.5524
G3 X1.9055 Y0.5473 I0.0003 J-0.0079
G1 X1.9 Y0.5328
X1.8886 Y0.5027
X1.8851 Y0.4936
G3 X1.8922 Y0.4829 I0.0074 J-0.0028
G1 X1.9147
X1.9207 Y0.4832
X1.9265 Y0.485
X1.9317 Y0.4878
X1.9365 Y0.4915
X1.9407 Y0.4958
X1.9443 Y0.5005
X1.9474 Y0.5057
X1.9498 Y0.5112
X1.9517 Y0.5169
X1.9528 Y0.5228
X1.9533 Y0.5288
X1.953 Y0.5348
X1.9526 Y0.5373
X1.9504 Y0.5432
X1.9463 Y0.5481
X1.9407 Y0.5513
X1.9345 Y0.5524
G3 X1.9274 Y0.5472 I0.0003 J-0.0079
G1 X1.9221 Y0.5328
X1.911 Y0.5028
X1.9076 Y0.4935
G3 X1.9147 Y0.4829 I0.0074 J-0.0027
G1 X1.9373
X1.9433 Y0.4832
X1.949 Y0.4851
X1.9542 Y0.488
X1.959 Y0.4917
X1.9631 Y0.496
X1.9666 Y0.5009
X1.9696 Y0.5061
X1.972 Y0.5116
X1.9738 Y0.5173
X1.9749 Y0.5232
X1.9753 Y0.5292
X1.9749 Y0.5352
X1.9745 Y0.5375
X1.9723 Y0.5434
X1.9682 Y0.5482
X1.9627 Y0.5513
X1.9564 Y0.5524
G3 X1.9493 Y0.5472 I0.0003 J-0.0079
G1 X1.9442 Y0.5327
X1.9335 Y0.5028
X1.9302 Y0.4934
G3 X1.9373 Y0.4829 I0.0074 J-0.0026
G1 X1.9587
X1.9647 Y0.4832
X1.9705 Y0.4849
X1.9758 Y0.4877
X1.9805 Y0.4914
X1.9847 Y0.4957
X1.9883 Y0.5005
X1.9914 Y0.5057
X1.9938 Y0.5111
X1.9956 Y0.5169
X1.9967 Y0.5227
X1.9972 Y0.5287
X1.9969 Y0.5347
X1.9965 Y0.5373
X1.9943 Y0.5433
X1.9902 Y0.5481
X1.9847 Y0.5513
X1.9784 Y0.5524
G3 X1.9713 Y0.5472 I0.0003 J-0.0079
G1 X1.966 Y0.5328
X1.955 Y0.5028
X1.9516 Y0.4935
G3 X1.9587 Y0.4829 I0.0074 J-0.0027
G1 X1.9799
X1.9859 Y0.4832
X1.9917 Y0.4847
X1.997 Y0.4874
X2.0019 Y0.491
X2.0062 Y0.4952
X2.0098 Y0.4999
X2.013 Y0.5051
X2.0155 Y0.5105
X2.0174 Y0.5162
X2.0186 Y0.5221
X2.0191 Y0.528
X2.019 Y0.534
X2.0185 Y0.537
X2.0163 Y0.5431
X2.0122 Y0.548
X2.0067 Y0.5513
X2.0003 Y0.5524
G3 X1.9932 Y0.5473 I0.0003 J-0.0079
G1 X1.9877 Y0.5328
X1.9763 Y0.5027
X1.9728 Y0.4936
G3 X1.9799 Y0.4829 I0.0074 J-0.0028
G1 X2.0025
X2.0039
X2.005
X2.0067
X2.0079
X2.0094
X2.0106
X2.0122
X2.0135
X2.0149
X2.0156 Y0.483
X2.0163 Y0.4831
X2.0173 Y0.4834
X2.0184 Y0.4839
X2.019 Y0.4843
X2.0196 Y0.4847
X2.0209 Y0.486
X2.0215 Y0.4867
X2.0219 Y0.4874
X2.0223 Y0.4882
X2.0226 Y0.489
X2.0228 Y0.4897
X2.0229 Y0.4904
X2.023 Y0.4918
Y0.5396
X2.0229 Y0.5452
X2.0228 Y0.5459
X2.0226 Y0.5467
X2.0223 Y0.5474
X2.0219 Y0.5481
X2.0215 Y0.5488
X2.0209 Y0.5495
X2.0201 Y0.5502
X2.0193 Y0.5509
X2.0185 Y0.5514
X2.0178 Y0.5517
X2.017 Y0.552
X2.0163 Y0.5522
X2.0156 Y0.5523
X2.0149 Y0.5524
X1.8908
G3 X1.8846 Y0.54 I0.0003 J-0.0079
G1 X1.886 Y0.539 Z0.0202
X1.8873 Y0.538 Z0.0208
X1.8885 Y0.5371 Z0.0217
X1.8896 Y0.5369 Z0.0229
X1.8905 Y0.5368 Z0.0243
X1.8911 Y0.5367 Z0.0258
X1.8914 Z0.0279
G0 Z0.2
X1.8066 Y0.5849
Z0.0279
G1 Z0.02 F40
X1.8194 Y0.5888
G3 X1.8248 Y0.5977 I-0.0023 J0.0075
G1 X1.824 Y0.6015
X1.8233 Y0.6071
X1.823 Y0.6127
Y0.6215
X1.8227 Y0.6275
X1.8211 Y0.6333
X1.8187 Y0.6387
X1.8155 Y0.6438
X1.8119 Y0.6486
X1.8077 Y0.653
X1.8032 Y0.657
X1.7979 Y0.661
X1.7916 Y0.6651
X1.7848 Y0.6687
X1.7772 Y0.672
X1.7685 Y0.6749
X1.7591 Y0.6773
X1.749 Y0.679
X1.7386 Y0.6799
X1.7277 Y0.68
X1.7163 Y0.6792
X1.7046 Y0.6774
X1.6928 Y0.6746
X1.6811 Y0.6708
X1.6696 Y0.666
X1.6583 Y0.6602
X1.6474 Y0.6534
X1.6433 Y0.6504
X1.6393 Y0.6463
X1.6367 Y0.6412
X1.6358 Y0.6356
Y0.5978
G3 X1.6448 Y0.5902 I0.0079 J0.0003
G1 X1.6562 Y0.5918
X1.8026 Y0.6121
X1.8162 Y0.6139
G3 X1.823 Y0.6215 I-0.0011 J0.0078
G1 Y0.6482
X1.8227 Y0.6542
X1.8211 Y0.66
X1.8187 Y0.6655
X1.8155 Y0.6706
X1.8118 Y0.6753
X1.8077 Y0.6797
X1.803 Y0.6839
X1.7975 Y0.688
X1.7913 Y0.692
X1.784 Y0.6959
X1.7757 Y0.6994
X1.7669 Y0.7024
X1.757 Y0.7049
X1.746 Y0.7067
X1.7342 Y0.7077
X1.7219
X1.7093 Y0.7068
X1.6962 Y0.7047
X1.6828 Y0.7015
X1.6693 Y0.697
X1.6562 Y0.6915
X1.6475 Y0.687
X1.6445 Y0.6852
X1.6399 Y0.6811
X1.6369 Y0.6757
X1.6358 Y0.6696
Y0.6356
G3 X1.6443 Y0.628 I0.0079 J0.0003
G1 X1.6563 Y0.6289
X1.8025 Y0.6397
X1.8157 Y0.6406
G3 X1.823 Y0.6482 I-0.0006 J0.0079
G1 Y0.6746
X1.8227 Y0.6806
X1.8212 Y0.6864
X1.8188 Y0.6919
X1.8157 Y0.6971
X1.812 Y0.7018
X1.8079 Y0.7062
X1.8031 Y0.7106
X1.7978 Y0.7147
X1.7914 Y0.7188
X1.7838 Y0.7229
X1.7758 Y0.7264
X1.7662 Y0.7298
X1.7554 Y0.7326
X1.7439 Y0.7346
X1.7317 Y0.7357
X1.7184 Y0.7359
X1.7043 Y0.7349
X1.6895 Y0.7327
X1.6744 Y0.7292
X1.6608 Y0.7249
X1.6522 Y0.7214
X1.6452 Y0.7178
X1.6446 Y0.7175
X1.6399 Y0.7134
X1.6369 Y0.7079
X1.6358 Y0.7018
Y0.6696
G3 X1.6439 Y0.662 I0.0079 J0.0003
G1 X1.6563 Y0.6623
X1.8025 Y0.6667
X1.8153 Y0.667
G3 X1.823 Y0.6746 I-0.0002 J0.0079
G1 Y0.7002
X1.8227 Y0.7062
X1.8214 Y0.7121
X1.8192 Y0.7176
X1.8162 Y0.7229
X1.8127 Y0.7277
X1.8087 Y0.7322
X1.8041 Y0.7366
X1.7989 Y0.7408
X1.7924 Y0.7453
X1.7853 Y0.7493
X1.7768 Y0.7533
X1.767 Y0.757
X1.7564 Y0.76
X1.7448 Y0.7623
X1.7316 Y0.7638
X1.7171 Y0.7644
X1.7016 Y0.7637
X1.6859 Y0.7617
X1.6716 Y0.7588
X1.6596 Y0.7553
X1.652 Y0.7523
X1.6455 Y0.7492
X1.645 Y0.7489
X1.6401 Y0.7448
X1.6369 Y0.7393
X1.6358 Y0.733
Y0.7018
G3 X1.6436 Y0.6942 I0.0079 J0.0003
G1 X1.6564 Y0.6941
X1.8025 Y0.6927
X1.815 Y0.6926
G3 X1.823 Y0.7002 I0.0001 J0.0079
G1 Y0.7283
X1.8227 Y0.7343
X1.8212 Y0.7402
X1.8188 Y0.7457
X1.8158 Y0.7508
X1.8122 Y0.7556
X1.8081 Y0.7601
X1.8032 Y0.7647
X1.7977 Y0.769
X1.7911 Y0.7735
X1.7832 Y0.7779
X1.7747 Y0.7818
X1.7645 Y0.7855
X1.7526 Y0.7888
X1.7401 Y0.7912
X1.726 Y0.7927
X1.7104 Y0.7931
X1.6944 Y0.7923
X1.6789 Y0.7902
X1.6657 Y0.7873
X1.6571 Y0.7847
X1.6497 Y0.7818
X1.6461 Y0.7801
X1.6407 Y0.776
X1.6371 Y0.7703
X1.6358 Y0.7636
Y0.733
G3 X1.6435 Y0.7254 I0.0079 J0.0003
G1 X1.6563 Y0.7251
X1.8025 Y0.7211
X1.8149 Y0.7208
G3 X1.823 Y0.7283 I0.0002 J0.0079
G1 Y0.7551
X1.8227 Y0.7611
X1.8213 Y0.7669
X1.819 Y0.7725
X1.816 Y0.7777
X1.8125 Y0.7825
X1.8086 Y0.787
X1.8039 Y0.7916
X1.7984 Y0.796
X1.7915 Y0.8008
X1.7841 Y0.8051
X1.775 Y0.8095
X1.7644 Y0.8135
X1.7532 Y0.8168
X1.7398 Y0.8195
X1.7248 Y0.8214
X1.7089 Y0.8221
X1.6929 Y0.8215
X1.6785 Y0.8198
X1.6659 Y0.8173
X1.6577 Y0.815
X1.6502 Y0.8121
X1.6464 Y0.8104
X1.6408 Y0.8063
X1.6371 Y0.8005
X1.6358 Y0.7937
Y0.7636
G3 X1.6433 Y0.756 I0.0079 J0.0003
G1 X1.6563 Y0.7553
X1.8025 Y0.7481
X1.8147 Y0.7475
G3 X1.823 Y0.7551 I0.0004 J0.0079
G1 Y0.7832
X1.8227 Y0.7892
X1.8212 Y0.795
X1.8188 Y0.8005
X1.8158 Y0.8057
X1.8123 Y0.8106
X1.8083 Y0.815
X1.8033 Y0.8198
X1.7977 Y0.8244
X1.7907 Y0.8292
X1.783 Y0.8337
X1.7737 Y0.8381
X1.7624 Y0.8424
X1.7506 Y0.8458
X1.7367 Y0.8486
X1.7213 Y0.8505
X1.7054 Y0.8512
X1.6897 Y0.8506
X1.6757 Y0.8489
X1.6645 Y0.8467
X1.6565 Y0.8444
X1.6496 Y0.8418
X1.6464 Y0.8402
X1.6408 Y0.8362
X1.6371 Y0.8304
X1.6358 Y0.8236
Y0.7937
G3 X1.6432 Y0.7862 I0.0079 J0.0003
G1 X1.6563 Y0.7854
X1.8025 Y0.7764
X1.8146 Y0.7756
G3 X1.823 Y0.7832 I0.0005 J0.0079
G1 Y0.7984
X1.8233 Y0.804
X1.8236 Y0.8071
X1.8239 Y0.8131
X1.8229 Y0.819
X1.821 Y0.8247
X1.8184 Y0.8301
X1.8152 Y0.8352
X1.8115 Y0.8399
X1.8072 Y0.8444
X1.8018 Y0.8494
X1.7958 Y0.8541
X1.7881 Y0.8591
X1.7797 Y0.8637
X1.7697 Y0.8682
X1.7576 Y0.8724
X1.7444 Y0.8759
X1.7301 Y0.8785
X1.7143 Y0.88
X1.6983 Y0.8803
X1.6833 Y0.8794
X1.6708 Y0.8776
X1.6615 Y0.8755
X1.6537 Y0.873
X1.6478 Y0.8706
X1.646 Y0.8697
X1.6406 Y0.8657
X1.6371 Y0.8599
X1.6358 Y0.8533
Y0.8236
G3 X1.643 Y0.8161 I0.0079 J0.0003
G1 X1.6563 Y0.8148
X1.8024 Y0.8015
X1.8151 Y0.8003
G3 X1.8236 Y0.8071 I0.0007 J0.0078
G1 X1.8238 Y0.8096
X1.8251 Y0.8153
X1.827 Y0.8209
X1.8277 Y0.8226
X1.8297 Y0.8282
X1.8303 Y0.8342
X1.8296 Y0.8402
X1.828 Y0.846
X1.8258 Y0.8515
X1.8229 Y0.8568
X1.8195 Y0.8617
X1.8155 Y0.8668
X1.8106 Y0.8719
X1.8048 Y0.877
X1.7976 Y0.8826
X1.7897 Y0.8876
X1.78 Y0.8927
X1.7686 Y0.8977
X1.7565 Y0.9018
X1.7425 Y0.9054
X1.727 Y0.908
X1.7107 Y0.9094
X1.6949 Y0.9095
X1.6805 Y0.9085
X1.6685 Y0.9066
X1.6601 Y0.9046
X1.6526 Y0.9022
X1.647 Y0.8998
X1.6458 Y0.8992
X1.6405 Y0.8952
X1.6371 Y0.8895
X1.6358 Y0.8829
Y0.8533
G3 X1.6425 Y0.8458 I0.0079 J0.0003
G1 X1.6562 Y0.8437
X1.8049 Y0.8204
X1.8193 Y0.8181
G3 X1.8277 Y0.8226 I0.0012 J0.0078
G1 X1.8293 Y0.8265
X1.8326 Y0.8321
X1.8358 Y0.8368
X1.8391 Y0.8417
X1.8407 Y0.8475
X1.841 Y0.8535
X1.8405 Y0.8595
X1.8391 Y0.8653
X1.837 Y0.871
X1.8345 Y0.8764
X1.8314 Y0.8816
X1.8275 Y0.8872
X1.8229 Y0.8927
X1.8172 Y0.8986
X1.8103 Y0.9046
X1.8026 Y0.9104
X1.7932 Y0.9162
X1.7821 Y0.9219
X1.7702 Y0.9269
X1.7566 Y0.9314
X1.7412 Y0.9351
X1.7248 Y0.9377
X1.7081 Y0.9389
X1.6921 Y0.9388
X1.6782 Y0.9376
X1.6666 Y0.9357
X1.6588 Y0.9338
X1.6515 Y0.9313
X1.646 Y0.9289
X1.6456 Y0.9287
X1.6404 Y0.9246
X1.637 Y0.919
X1.6358 Y0.9125
Y0.8829
G3 X1.642 Y0.8755 I0.0079 J0.0003
G1 X1.656 Y0.8724
X1.8122 Y0.8379
X1.8282 Y0.8343
G3 X1.8358 Y0.8368 I0.0017 J0.0077
G1 X1.8366 Y0.8378
X1.8414 Y0.8429
X1.8419 Y0.8434
X1.8448 Y0.8456
X1.8492 Y0.8496
X1.8524 Y0.8547
X1.8543 Y0.8604
X1.8552 Y0.8663
Y0.8723
X1.8545 Y0.8783
X1.8531 Y0.8841
X1.8512 Y0.8898
X1.8488 Y0.8954
X1.8456 Y0.9013
X1.8415 Y0.9077
X1.8367 Y0.9139
X1.8308 Y0.9205
X1.8235 Y0.9275
X1.8154 Y0.934
X1.8103 Y0.9375
X1.8071 Y0.9392
X1.8036 Y0.9403
X1.8 Y0.9406
X1.6465
X1.6451
X1.644
X1.6429 Y0.9405
X1.6417 Y0.9402
X1.6406 Y0.9397
X1.6395 Y0.939
X1.6383 Y0.9381
X1.6378 Y0.9375
X1.6373 Y0.937
X1.6369 Y0.9364
X1.6366 Y0.9358
X1.6362 Y0.9346
X1.6359 Y0.9334
X1.6358 Y0.9278
Y0.9125
G3 X1.6414 Y0.9052 I0.0079 J0.0003
G1 X1.6557 Y0.9008
X1.8212 Y0.8496
X1.8377 Y0.8444
G3 X1.8448 Y0.8456 I0.0023 J0.0075
G1 X1.8471 Y0.8475
X1.8509 Y0.8503
X1.8518 Y0.8509
X1.8527 Y0.8514
X1.8572 Y0.8536
X1.8625 Y0.8564
X1.8664 Y0.8609
X1.8693 Y0.8662
X1.8713 Y0.8718
X1.8724 Y0.8777
X1.8727 Y0.8837
X1.8724 Y0.8897
X1.8716 Y0.8956
X1.8701 Y0.9016
X1.8681 Y0.9078
X1.8654 Y0.9143
X1.8617 Y0.9214
X1.8573 Y0.9285
X1.8538 Y0.9332
X1.8497 Y0.9372
X1.8447 Y0.9397
X1.839 Y0.9406
X1.8
G3 X1.7939 Y0.928 I0.0003 J-0.0079
G1 X1.7985 Y0.922
X1.8392 Y0.8674
X1.8477 Y0.8561
G3 X1.8572 Y0.8536 I0.0063 J0.0047
G1 X1.8595 Y0.8546
X1.864 Y0.8563
X1.8696 Y0.8579
X1.8713 Y0.8582
X1.8772 Y0.8594
X1.8818 Y0.8633
X1.8855 Y0.868
X1.8884 Y0.8732
X1.8905 Y0.8788
X1.892 Y0.8847
X1.8928 Y0.8906
X1.893 Y0.8966
X1.8926 Y0.9028
X1.8918 Y0.9091
X1.8903 Y0.9159
X1.8883 Y0.9225
X1.8859 Y0.9285
X1.885 Y0.9304
X1.8809 Y0.9358
X1.8752 Y0.9394
X1.8685 Y0.9406
X1.839
G3 X1.8322 Y0.9294 I0.0003 J-0.0079
G1 X1.8361 Y0.9211
X1.857 Y0.8762
X1.8633 Y0.8627
G3 X1.8713 Y0.8582 I0.0071 J0.0033
G1 X1.8753 Y0.8588
X1.8809 Y0.8592
X1.884 Y0.8593
X1.89 Y0.8597
X1.8955 Y0.8622
X1.9003 Y0.8658
X1.9043 Y0.8702
X1.9076 Y0.8752
X1.9103 Y0.8806
X1.9123 Y0.8862
X1.9138 Y0.8921
X1.9147 Y0.898
X1.9151 Y0.904
Y0.9103
X1.9145 Y0.9162
X1.9134 Y0.9221
X1.9119 Y0.9279
X1.9115 Y0.9289
X1.9075 Y0.935
X1.9015 Y0.9392
X1.8943 Y0.9406
X1.8685
G3 X1.8611 Y0.931 I0.0003 J-0.0079
G1 X1.8636 Y0.9204
X1.8732 Y0.8793
X1.8764 Y0.8654
G3 X1.884 Y0.8593 I0.0077 J0.0018
G1 X1.8865 Y0.8594
X1.9009
X1.9069 Y0.8597
X1.9126 Y0.8615
X1.9178 Y0.8646
X1.9224 Y0.8685
X1.9263 Y0.873
X1.9297 Y0.878
X1.9324 Y0.8833
X1.9347 Y0.8888
X1.9364 Y0.8946
X1.9376 Y0.9005
X1.9383 Y0.9064
X1.9385 Y0.9124
X1.9381 Y0.9184
X1.9371 Y0.9243
X1.9364 Y0.9271
X1.9339 Y0.9325
X1.9298 Y0.9369
X1.9246 Y0.9397
X1.9187 Y0.9406
G3 X1.9113 Y0.9348 I0.0003 J-0.0079
G1 X1.9075 Y0.9206
X1.8964 Y0.8795
X1.8936 Y0.8693
G3 X1.9009 Y0.8594 I0.0076 J-0.0021
G1 X1.9221
X1.9281 Y0.8597
X1.9338 Y0.8616
X1.939 Y0.8646
X1.9436 Y0.8684
X1.9477 Y0.8727
X1.9513 Y0.8776
X1.9544 Y0.8827
X1.9569 Y0.8882
X1.9589 Y0.8938
X1.9604 Y0.8996
X1.9614 Y0.9055
X1.9619 Y0.9115
X1.9618 Y0.9175
X1.9611 Y0.9235
X1.9603 Y0.9267
X1.9579 Y0.9322
X1.9538 Y0.9367
X1.9484 Y0.9396
X1.9424 Y0.9406
G3 X1.9352 Y0.9351 I0.0003 J-0.0079
G1 X1.9307 Y0.9208
X1.9179 Y0.8794
X1.9148 Y0.8696
G3 X1.9221 Y0.8594 I0.0075 J-0.0023
G1 X1.9429
X1.9489 Y0.8597
X1.9547 Y0.8613
X1.9601 Y0.864
X1.9649 Y0.8675
X1.9693 Y0.8717
X1.9731 Y0.8763
X1.9764 Y0.8813
X1.9792 Y0.8866
X1.9814 Y0.8922
X1.9832 Y0.8979
X1.9845 Y0.9038
X1.9852 Y0.9097
X1.9853 Y0.9157
X1.9848 Y0.9217
X1.9836 Y0.9276
X1.9835 Y0.9279
X1.9809 Y0.933
X1.9769 Y0.9371
X1.9717 Y0.9397
X1.9661 Y0.9406
G3 X1.9589 Y0.9354 I0.0003 J-0.0079
G1 X1.9538 Y0.9209
X1.9391 Y0.8793
X1.9358 Y0.8699
G3 X1.9429 Y0.8594 I0.0074 J-0.0026
G1 X1.9655
X1.9715 Y0.8597
X1.9773 Y0.8612
X1.9827 Y0.8639
X1.9876 Y0.8674
X1.992 Y0.8714
X1.9959 Y0.876
X1.9993 Y0.881
X2.0021 Y0.8862
X2.0045 Y0.8917
X2.0064 Y0.8974
X2.0077 Y0.9033
X2.0085 Y0.9092
X2.0087 Y0.9152
X2.0084 Y0.9212
X2.0073 Y0.9271
X2.0071 Y0.9277
X2.0045 Y0.9329
X2.0004 Y0.9371
X1.9953 Y0.9397
X1.9895 Y0.9406
G3 X1.9824 Y0.9355 I0.0003 J-0.0079
G1 X1.9771 Y0.921
X1.9618 Y0.8792
X1.9584 Y0.8699
G3 X1.9655 Y0.8594 I0.0074 J-0.0027
G1 X1.9898
X1.9958 Y0.8597
X2.0015 Y0.8615
X2.0068 Y0.8644
X2.0116 Y0.8679
X2.0159 Y0.8721
X2.0197 Y0.8767
X2.023 Y0.8817
X2.0258 Y0.887
X2.0281 Y0.8926
X2.03 Y0.8983
X2.0313 Y0.9041
X2.032 Y0.9101
X2.0321 Y0.9161
X2.0317 Y0.9221
X2.0305 Y0.928
X2.0278 Y0.9331
X2.0238 Y0.9371
X2.0187 Y0.9397
X2.013 Y0.9406
G3 X2.0059 Y0.9354 I0.0003 J-0.0079
G1 X2.0007 Y0.9209
X1.986 Y0.8793
X1.9826 Y0.8699
G3 X1.9898 Y0.8594 I0.0074 J-0.0026
G1 X2.0123
X2.0183 Y0.8597
X2.0241 Y0.8613
X2.0246 Y0.8616
X2.03 Y0.8657
X2.0335 Y0.8714
X2.0347 Y0.878
G3 X2.0222 Y0.8841 I-0.0079 J-0.0003
G1 X2.0161 Y0.8796
X2.0122 Y0.8767
X2.0079 Y0.8736
G3 X2.0123 Y0.8594 I0.0047 J-0.0063
G1 X2.0219
X2.0276 Y0.8595
X2.0287 Y0.8598
X2.0299 Y0.8603
X2.0308 Y0.8608
X2.0316 Y0.8614
X2.0325 Y0.8622
X2.0332 Y0.8631
X2.0337 Y0.8638
X2.034 Y0.8645
X2.0343 Y0.8652
X2.0345 Y0.8659
X2.0347 Y0.8666
Y0.8673
Y0.9278
Y0.9334
X2.0345 Y0.9343
X2.0342 Y0.9352
X2.0338 Y0.9362
X2.0332 Y0.9371
X2.0327 Y0.9376
X2.0322 Y0.9382
X2.0311 Y0.939
X2.0302 Y0.9396
X2.0293 Y0.94
X2.0284 Y0.9403
X2.0276 Y0.9405
X2.0219 Y0.9406
X1.8943
G3 X1.8881 Y0.9283 I0.0003 J-0.0079
G1 X1.8895 Y0.9272 Z0.0202
X1.8908 Y0.9262 Z0.0208
X1.892 Y0.9253 Z0.0217
X1.8931 Y0.9251 Z0.0229
X1.894 Y0.925 Z0.0243
X1.8946 Y0.9249 Z0.0258
X1.8949 Z0.0279
G0 Z0.2
X2.2761 Y0.1325
Z0.1299
G1 Z0.122 F40
G3 X2.3436 Y0.1647 Z0.1179 I0.0338 J0.0161 F13.33
X2.2761 Y0.1325 Z0.1138 I-0.0338 J-0.0161
X2.3436 Y0.1647 Z0.1097 I0.0338 J0.0161
X2.2761 Y0.1325 Z0.1056 I-0.0338 J-0.0161
X2.3436 Y0.1647 Z0.1015 I0.0338 J0.0161
X2.2761 Y0.1325 Z0.0974 I-0.0338 J-0.0161
X2.3436 Y0.1647 Z0.0933 I0.0338 J0.0161
X2.2761 Y0.1325 Z0.0892 I-0.0338 J-0.0161
X2.3436 Y0.1647 Z0.0851 I0.0338 J0.0161
X2.2761 Y0.1325 Z0.081 I-0.0338 J-0.0161
X2.3436 Y0.1647 Z0.0769 I0.0338 J0.0161
X2.2761 Y0.1325 Z0.0728 I-0.0338 J-0.0161
X2.3436 Y0.1647 Z0.0687 I0.0338 J0.0161
X2.2761 Y0.1325 Z0.0646 I-0.0338 J-0.0161
X2.3436 Y0.1647 Z0.0605 I0.0338 J0.0161
X2.2761 Y0.1325 Z0.0563 I-0.0338 J-0.0161
X2.3436 Y0.1647 Z0.0522 I0.0338 J0.0161
X2.2761 Y0.1325 Z0.0481 I-0.0338 J-0.0161
X2.3436 Y0.1647 Z0.044 I0.0338 J0.0161
X2.2761 Y0.1325 Z0.0399 I-0.0338 J-0.0161
X2.3436 Y0.1647 Z0.0358 I0.0338 J0.0161
X2.2761 Y0.1325 Z0.0317 I-0.0338 J-0.0161
X2.3436 Y0.1647 Z0.0276 I0.0338 J0.0161
X2.2761 Y0.1325 Z0.0235 I-0.0338 J-0.0161
X2.3472 Y0.1486 Z0.02 I0.0338 J0.0161
X2.2724 I-0.0374
X2.3472 I0.0374
G1 X2.3484 Y0.1718 F40
X2.3482 Y0.1778
X2.3465 Y0.1835
X2.3436 Y0.1888
X2.3399 Y0.1935
X2.3354 Y0.1975
X2.3304 Y0.2008
X2.325 Y0.2034
X2.3193 Y0.2053
X2.3134 Y0.2064
X2.3074 Y0.2069
X2.3014 Y0.2067
X2.2955 Y0.2058
X2.2897 Y0.2043
X2.2841 Y0.2021
X2.2788 Y0.1994
X2.2737 Y0.1961
X2.2691 Y0.1923
X2.2649 Y0.1881
X2.2611 Y0.1834
X2.2578 Y0.1784
X2.255 Y0.1731
X2.2528 Y0.1675
X2.2512 Y0.1617
X2.2501 Y0.1558
X2.2497 Y0.1498
X2.2499 Y0.1438
X2.2506 Y0.1379
X2.252 Y0.132
X2.2539 Y0.1263
X2.2564 Y0.1209
X2.2594 Y0.1157
X2.2629 Y0.1108
X2.2669 Y0.1064
X2.2713 Y0.1023
X2.2761 Y0.0987
X2.2813 Y0.0956
X2.2867 Y0.093
X2.2923 Y0.091
X2.2982 Y0.0895
X2.3041 Y0.0886
X2.3101 Y0.0884
X2.3161 Y0.0887
X2.322 Y0.0896
X2.3278 Y0.0911
X2.3334 Y0.0932
X2.3388 Y0.0958
X2.3439 Y0.099
X2.3487 Y0.1026
X2.3531 Y0.1067
X2.3571 Y0.1112
X2.3605 Y0.1161
X2.3635 Y0.1213
X2.3666 Y0.1279
X2.3698 Y0.1367
X2.3723 Y0.1455
X2.3736 Y0.1523
X2.3743 Y0.1589
X2.3745 Y0.1649
X2.3742 Y0.1709
X2.3734 Y0.1768
X2.372 Y0.1826
X2.3701 Y0.1883
X2.3677 Y0.1938
X2.3647 Y0.199
X2.3613 Y0.204
X2.3575 Y0.2086
X2.3532 Y0.2128
X2.3486 Y0.2166
X2.3437 Y0.2201
X2.3384 Y0.223
X2.333 Y0.2255
X2.3273 Y0.2275
X2.3215 Y0.2291
X2.3156 Y0.2302
X2.3096 Y0.2308
X2.3035 Y0.2309
X2.2972 Y0.2305
X2.2911 Y0.2296
X2.2851 Y0.2282
X2.279 Y0.2263
X2.2729 Y0.2239
X2.2672 Y0.221
X2.2618 Y0.2177
X2.2565 Y0.2139
X2.2514 Y0.2096
X2.2467 Y0.2049
X2.2425 Y0.1999
X2.2386 Y0.1945
X2.2351 Y0.1888
X2.2321 Y0.1827
X2.2296 Y0.1765
X2.2276 Y0.1702
X2.2261 Y0.1636
X2.2251 Y0.1568
X2.2247 Y0.15
X2.2248 Y0.1432
X2.2255 Y0.1366
X2.2267 Y0.1299
X2.2285 Y0.1232
X2.2308 Y0.1167
X2.2335 Y0.1105
X2.2368 Y0.1046
X2.2405 Y0.0989
X2.2447 Y0.0935
X2.2494 Y0.0884
X2.2544 Y0.0837
X2.2597 Y0.0796
X2.2653 Y0.0758
X2.2714 Y0.0724
X2.2777 Y0.0696
X2.2841 Y0.0672
X2.2906 Y0.0655
X2.2973 Y0.0642
X2.3042 Y0.0635
X2.3111 Y0.0633
X2.318 Y0.0637
X2.3247 Y0.0646
X2.3313 Y0.066
X2.3379 Y0.068
X2.3444 Y0.0706
X2.3506 Y0.0736
X2.3564 Y0.0771
X2.3619 Y0.081
X2.3672 Y0.0854
X2.3724 Y0.0906
X2.3775 Y0.0965
X2.3824 Y0.1031
X2.387 Y0.1107
X2.3911 Y0.1186
X2.3945 Y0.1268
X2.3971 Y0.1351
X2.3987 Y0.1417
X2.3989 Y0.1433
X2.3998 Y0.1515
X2.4003 Y0.1631
X2.4001 Y0.1705
X2.3993 Y0.1777
X2.3979 Y0.1849
X2.396 Y0.192
X2.3934 Y0.199
X2.3903 Y0.2057
X2.3867 Y0.2121
X2.3826 Y0.2182
X2.378 Y0.224
X2.373 Y0.2294
X2.3674 Y0.2344
X2.3614 Y0.239
X2.355 Y0.2432
X2.3482 Y0.2469
X2.3411 Y0.25
X2.3337 Y0.2526
X2.326 Y0.2547
X2.3181 Y0.2561
X2.31 Y0.2568
X2.3018 Y0.2569
X2.2936 Y0.2564
X2.2854 Y0.2552
X2.2772 Y0.2533
X2.2692 Y0.2508
X2.2613 Y0.2476
X2.2537 Y0.2437
X2.2464 Y0.2392
X2.2394 Y0.2342
X2.2374 Y0.2325
X2.2345 Y0.2293
X2.2324 Y0.2256
X2.2313 Y0.2215
X2.2154 Y0.1233
X2.2147 Y0.1174
Y0.1114
X2.2154 Y0.1054
X2.2168 Y0.0996
X2.2187 Y0.0939
X2.2211 Y0.0884
X2.2241 Y0.0829
X2.2278 Y0.0773
X2.232 Y0.0719
X2.2368 Y0.0666
X2.2392 Y0.0643
X2.243 Y0.0616
X2.2472 Y0.0599
X2.2518 Y0.0594
