%
(Idea Class Tokens x10 Thick Board)
(T2  D=0.08 CR=0 - ZMIN=-0.35 - flat end mill)
G90 G94
G17
G20
G28 G91 Z0
G90

(2D Adaptive2)
M9
T2 M6
S5000 M3
G54
M8
G0 X0.538 Y0.6021
Z0.6
Z0.2
Z0.128
G1 Z0.12 F40
G3 X0.4624 Y0.5948 Z0.1158 I-0.0378 J-0.0036 F13.33
X0.538 Y0.6021 Z0.1117 I0.0378 J0.0036
X0.4624 Y0.5948 Z0.1075 I-0.0378 J-0.0036
X0.538 Y0.6021 Z0.1033 I0.0378 J0.0036
X0.4624 Y0.5948 Z0.0992 I-0.0378 J-0.0036
X0.538 Y0.6021 Z0.095 I0.0378 J0.0036
X0.4624 Y0.5948 Z0.0908 I-0.0378 J-0.0036
X0.538 Y0.6021 Z0.0866 I0.0378 J0.0036
X0.4624 Y0.5948 Z0.0825 I-0.0378 J-0.0036
X0.538 Y0.6021 Z0.0783 I0.0378 J0.0036
X0.4624 Y0.5948 Z0.0741 I-0.0378 J-0.0036
X0.538 Y0.6021 Z0.07 I0.0378 J0.0036
X0.4624 Y0.5948 Z0.0658 I-0.0378 J-0.0036
X0.538 Y0.6021 Z0.0616 I0.0378 J0.0036
X0.4624 Y0.5948 Z0.0575 I-0.0378 J-0.0036
X0.538 Y0.6021 Z0.0533 I0.0378 J0.0036
X0.4624 Y0.5948 Z0.0491 I-0.0378 J-0.0036
X0.538 Y0.6021 Z0.045 I0.0378 J0.0036
X0.4624 Y0.5948 Z0.0408 I-0.0378 J-0.0036
X0.538 Y0.6021 Z0.0366 I0.0378 J0.0036
X0.4624 Y0.5948 Z0.0325 I-0.0378 J-0.0036
X0.538 Y0.6021 Z0.0283 I0.0378 J0.0036
X0.4624 Y0.5948 Z0.0241 I-0.0378 J-0.0036
X0.538 Y0.6021 Z0.0199 I0.0378 J0.0036
X0.4624 Y0.5948 Z0.0158 I-0.0378 J-0.0036
X0.538 Y0.6021 Z0.0116 I0.0378 J0.0036
X0.4624 Y0.5948 Z0.0074 I-0.0378 J-0.0036
X0.538 Y0.6021 Z0.0033 I0.0378 J0.0036
X0.4624 Y0.5948 Z-0.0009 I-0.0378 J-0.0036
X0.538 Y0.6021 Z-0.0051 I0.0378 J0.0036
X0.4624 Y0.5948 Z-0.0092 I-0.0378 J-0.0036
X0.538 Y0.6021 Z-0.0134 I0.0378 J0.0036
X0.4624 Y0.5948 Z-0.0176 I-0.0378 J-0.0036
X0.538 Y0.6021 Z-0.0217 I0.0378 J0.0036
X0.4624 Y0.5948 Z-0.0259 I-0.0378 J-0.0036
X0.5382 Y0.5984 Z-0.03 I0.0378 J0.0036
X0.4622 I-0.038
X0.5382 I0.038
G1 X0.5394 Y0.6219 F40
X0.5393 Y0.6279
X0.5376 Y0.6337
X0.5347 Y0.639
X0.531 Y0.6437
X0.5266 Y0.6477
X0.5216 Y0.6511
X0.5163 Y0.6538
X0.5106 Y0.6558
X0.5047 Y0.6571
X0.4988 Y0.6576
X0.4928 Y0.6575
X0.4868 Y0.6568
X0.481 Y0.6553
X0.4753 Y0.6533
X0.4699 Y0.6507
X0.4648 Y0.6476
X0.4601 Y0.6439
X0.4557 Y0.6398
X0.4518 Y0.6352
X0.4483 Y0.6303
X0.4454 Y0.6251
X0.443 Y0.6196
X0.4412 Y0.6139
X0.4399 Y0.608
X0.4393 Y0.6021
X0.4392 Y0.5961
X0.4397 Y0.5901
X0.4408 Y0.5842
X0.4425 Y0.5784
X0.4447 Y0.5729
X0.4475 Y0.5675
X0.4507 Y0.5625
X0.4545 Y0.5578
X0.4587 Y0.5535
X0.4633 Y0.5497
X0.4682 Y0.5463
X0.4735 Y0.5434
X0.479 Y0.5411
X0.4848 Y0.5393
X0.4906 Y0.538
X0.4966 Y0.5374
X0.5026 Y0.5373
X0.5086 Y0.5379
X0.5145 Y0.539
X0.5202 Y0.5406
X0.5258 Y0.5429
X0.5311 Y0.5457
X0.5361 Y0.5489
X0.5408 Y0.5527
X0.5451 Y0.5569
X0.5489 Y0.5615
X0.5523 Y0.5664
X0.5552 Y0.5717
X0.5584 Y0.5788
X0.5616 Y0.5878
X0.5639 Y0.5967
X0.5651 Y0.6032
X0.5658 Y0.6099
X0.5659 Y0.6159
X0.5655 Y0.6219
X0.5646 Y0.6278
X0.5632 Y0.6336
X0.5612 Y0.6393
X0.5587 Y0.6448
X0.5558 Y0.65
X0.5523 Y0.6549
X0.5485 Y0.6595
X0.5442 Y0.6637
X0.5396 Y0.6675
X0.5346 Y0.6709
X0.5294 Y0.6739
X0.524 Y0.6764
X0.5183 Y0.6785
X0.5126 Y0.6801
X0.5065 Y0.6812
X0.5004 Y0.6819
X0.4944 Y0.682
X0.4881 Y0.6817
X0.4817 Y0.6808
X0.4755 Y0.6794
X0.4695 Y0.6776
X0.4634 Y0.6752
X0.4574 Y0.6722
X0.4518 Y0.6689
X0.4465 Y0.6651
X0.4414 Y0.6608
X0.4365 Y0.6561
X0.4321 Y0.6509
X0.4282 Y0.6455
X0.4247 Y0.6398
X0.4216 Y0.6338
X0.4189 Y0.6274
X0.4168 Y0.6208
X0.4153 Y0.6142
X0.4143 Y0.6075
X0.4138 Y0.6006
X0.4139 Y0.5937
X0.4145 Y0.5867
X0.4157 Y0.5799
X0.4174 Y0.5733
X0.4196 Y0.5668
X0.4224 Y0.5604
X0.4257 Y0.5542
X0.4295 Y0.5484
X0.4337 Y0.543
X0.4383 Y0.5379
X0.4433 Y0.5331
X0.4488 Y0.5287
X0.4546 Y0.5247
X0.4606 Y0.5213
X0.4668 Y0.5185
X0.4733 Y0.516
X0.4801 Y0.5141
X0.487 Y0.5128
X0.4939 Y0.512
X0.5008 Y0.5118
X0.5077 Y0.5121
X0.5146 Y0.513
X0.5215 Y0.5144
X0.5282 Y0.5164
X0.5347 Y0.5189
X0.5409 Y0.5219
X0.5469 Y0.5254
X0.5526 Y0.5294
X0.5581 Y0.5339
X0.5634 Y0.5391
X0.5684 Y0.5448
X0.5735 Y0.5516
X0.5783 Y0.5593
X0.5824 Y0.5673
X0.5859 Y0.5756
X0.5887 Y0.5839
X0.5907 Y0.5922
X0.592 Y0.6005
X0.5927 Y0.6087
Y0.6167
X0.592 Y0.6246
X0.5907 Y0.6322
X0.5889 Y0.6397
X0.5865 Y0.6468
X0.5835 Y0.6537
X0.58 Y0.6604
X0.576 Y0.6668
X0.5714 Y0.6728
X0.5664 Y0.6785
X0.5608 Y0.6838
X0.5548 Y0.6887
X0.5484 Y0.6931
X0.5416 Y0.6971
X0.5344 Y0.7005
X0.527 Y0.7033
X0.5192 Y0.7056
X0.5112 Y0.7072
X0.5031 Y0.7082
X0.4948 Y0.7085
X0.4865 Y0.7082
X0.4781 Y0.7072
X0.4698 Y0.7055
X0.4616 Y0.7032
X0.4536 Y0.7002
X0.4458 Y0.6965
X0.4383 Y0.6922
X0.431 Y0.6872
X0.4242 Y0.6817
X0.4179 Y0.6756
X0.412 Y0.669
X0.4066 Y0.6619
X0.4018 Y0.6544
X0.3976 Y0.6465
X0.3941 Y0.6383
X0.3912 Y0.6298
X0.389 Y0.621
X0.3875 Y0.6121
X0.3867 Y0.6031
X0.3866 Y0.594
X0.3873 Y0.585
X0.3887 Y0.576
X0.3908 Y0.5672
X0.3937 Y0.5585
X0.3972 Y0.5501
X0.4014 Y0.5421
X0.4062 Y0.5343
X0.4116 Y0.527
X0.4176 Y0.5201
X0.4242 Y0.5137
X0.4312 Y0.5079
X0.4386 Y0.5027
X0.4465 Y0.498
X0.4547 Y0.494
X0.4633 Y0.4907
X0.472 Y0.4881
X0.4809 Y0.4862
X0.49 Y0.485
X0.4991 Y0.4846
X0.5083 Y0.4848
X0.5174 Y0.4859
X0.5263 Y0.4876
X0.5351 Y0.49
X0.5437 Y0.4932
X0.552 Y0.497
X0.5601 Y0.5016
X0.5679 Y0.5068
X0.5755 Y0.5129
X0.5829 Y0.5198
X0.5898 Y0.5275
X0.5963 Y0.5359
X0.6021 Y0.5448
X0.6072 Y0.5543
X0.6116 Y0.564
X0.615 Y0.5741
X0.6177 Y0.5843
X0.6195 Y0.5946
X0.6205 Y0.6049
X0.6206 Y0.6151
X0.62 Y0.6252
X0.6185 Y0.6352
X0.6162 Y0.6449
X0.6132 Y0.6543
X0.6095 Y0.6635
X0.605 Y0.6723
X0.5999 Y0.6807
X0.5941 Y0.6887
X0.5876 Y0.6962
X0.5805 Y0.7033
X0.5729 Y0.7097
X0.5647 Y0.7156
X0.556 Y0.7208
X0.5469 Y0.7253
X0.5374 Y0.7291
X0.5275 Y0.7321
X0.5174 Y0.7344
X0.5071 Y0.7358
X0.4966 Y0.7364
X0.486 Y0.7362
X0.4754 Y0.7351
X0.4649 Y0.7331
X0.4545 Y0.7303
X0.4498 Y0.7286
X0.4495 Y0.7285
X0.4401 Y0.7245
X0.4288 Y0.7196
X0.4279 Y0.7192
X0.4269 Y0.7186
X0.398 Y0.6947
X0.3972 Y0.694
X0.3966 Y0.6933
X0.377 Y0.6645
X0.3752 Y0.6619
X0.3749 Y0.6612
X0.3746 Y0.6605
X0.363 Y0.625
X0.3627 Y0.6236
X0.3626 Y0.6222
X0.3615 Y0.5882
X0.3616 Y0.5825
X0.3638 Y0.5712
X0.365 Y0.5655
X0.3663 Y0.5598
X0.3696 Y0.5479
X0.3729 Y0.5389
X0.3771 Y0.5299
X0.3821 Y0.521
X0.3879 Y0.5124
X0.3945 Y0.5041
X0.4019 Y0.4962
X0.41 Y0.4888
X0.4188 Y0.4821
X0.4282 Y0.476
X0.4381 Y0.4706
X0.4484 Y0.4661
X0.4591 Y0.4623
X0.4701 Y0.4595
X0.4813 Y0.4575
X0.4927 Y0.4564
X0.5041 Y0.4563
X0.5154 Y0.457
X0.5267 Y0.4587
X0.5378 Y0.4613
X0.5488 Y0.4647
X0.5594 Y0.4691
X0.5698 Y0.4744
X0.5799 Y0.4805
X0.5897 Y0.4877
X0.599 Y0.4957
X0.6079 Y0.5046
X0.616 Y0.5142
X0.6193 Y0.5188
X0.6201 Y0.5201
X0.6208 Y0.5214
X0.6214 Y0.5228
X0.6227 Y0.5258
X0.6248 Y0.5315
X0.6306 Y0.5485
X0.6319 Y0.5542
X0.6383 Y0.5825
X0.6386 Y0.5844
X0.6387 Y0.5882
X0.6383 Y0.6165
X0.6382 Y0.6179
X0.638 Y0.6194
X0.6323 Y0.6392
X0.6274 Y0.6562
X0.6273 Y0.6565
X0.6241 Y0.6619
X0.6072 Y0.6888
X0.6067 Y0.6895
X0.6061 Y0.6902
X0.6046 Y0.6917
X0.5774 Y0.7158
X0.5763 Y0.7165
X0.5479 Y0.73
X0.5422 Y0.7327
X0.5408 Y0.7332
X0.5366 Y0.7339
X0.5082 Y0.7385
X0.5025 Y0.7393
X0.4969 Y0.7387
X0.4642 Y0.7346
X0.4628 Y0.7342
X0.4515 Y0.7294
X0.4495 Y0.7285
G3 X0.4457 Y0.7248 I0.0034 J-0.0072
G1 X0.437 Y0.7071
X0.3758 Y0.5828
X0.367 Y0.5648
G3 X0.3663 Y0.5598 I0.0072 J-0.0035
G1 X0.3676 Y0.5542
X0.3689 Y0.5485
X0.375 Y0.5315
X0.3778 Y0.524
X0.3814 Y0.5145
X0.3834 Y0.5097
X0.3915 Y0.4918
X0.3967 Y0.4805
X0.3995 Y0.4751
X0.4028 Y0.4701
X0.4065 Y0.4654
X0.4112 Y0.4605
X0.4164 Y0.4558
X0.4229 Y0.4509
X0.4305 Y0.446
X0.4388 Y0.4416
X0.4482 Y0.4374
X0.4588 Y0.4338
X0.4703 Y0.4309
X0.4824 Y0.4288
X0.4949 Y0.4277
X0.5078 Y0.4276
X0.5208 Y0.4285
X0.5339 Y0.4306
X0.547 Y0.4337
X0.56 Y0.4379
X0.5728 Y0.4432
X0.584 Y0.4489
X0.5874 Y0.4511
X0.5902 Y0.4541
X0.5923 Y0.4575
X0.6086 Y0.4918
X0.616 Y0.5091
X0.621 Y0.5216
X0.6214 Y0.5228
G3 X0.6124 Y0.5333 I-0.0075 J0.0027
G1 X0.6043 Y0.5317
X0.4133 Y0.4935
X0.4025 Y0.4914
G3 X0.3967 Y0.4805 I0.0016 J-0.0078
G1 X0.4004 Y0.4724
X0.4155 Y0.4408
X0.4184 Y0.4355
X0.422 Y0.4307
X0.4262 Y0.4264
X0.4307 Y0.4225
X0.4361 Y0.4185
X0.4424 Y0.4147
X0.4496 Y0.4109
X0.4584 Y0.4073
X0.4677 Y0.4043
X0.4785 Y0.4018
X0.4905 Y0.4
X0.5036 Y0.3991
X0.5171 Y0.3993
X0.531 Y0.4006
X0.5455 Y0.4031
X0.5602 Y0.4069
X0.5632 Y0.4079
X0.5677 Y0.4102
X0.5715 Y0.4137
X0.5742 Y0.418
X0.5845 Y0.4408
X0.5898 Y0.4521
X0.5923 Y0.4575
G3 X0.5842 Y0.4686 I-0.0073 J0.0032
G1 X0.5757 Y0.4678
X0.4321 Y0.453
X0.422 Y0.4519
G3 X0.4155 Y0.4408 I0.0008 J-0.008
G1 X0.4182 Y0.4351
X0.4208 Y0.4294
X0.4256 Y0.4181
X0.4279 Y0.4124
X0.4305 Y0.407
X0.4337 Y0.4019
X0.4376 Y0.3974
X0.442 Y0.3933
X0.4468 Y0.3897
X0.4523 Y0.3861
X0.4587 Y0.3827
X0.4665 Y0.3794
X0.4749 Y0.3765
X0.485 Y0.374
X0.4964 Y0.3721
X0.5083 Y0.371
X0.5219
X0.5366 Y0.3721
X0.5467 Y0.3736
X0.5481 Y0.374
X0.5537 Y0.3763
X0.5582 Y0.3804
X0.5612 Y0.3857
X0.5669 Y0.4011
X0.5717 Y0.4124
X0.5742 Y0.418
G3 X0.5664 Y0.429 I-0.0074 J0.0029
G1 X0.5572 Y0.4286
X0.4452 Y0.4236
X0.4351 Y0.4232
G3 X0.4279 Y0.4124 I0.0004 J-0.008
G1 X0.4401 Y0.3824
X0.4426 Y0.377
X0.446 Y0.372
X0.45 Y0.3675
X0.4545 Y0.3635
X0.4593 Y0.36
X0.4648 Y0.3567
X0.4714 Y0.3534
X0.4786 Y0.3504
X0.4877 Y0.3476
X0.4972 Y0.3454
X0.5086 Y0.3437
X0.5201 Y0.343
X0.5281 Y0.3431
X0.5356 Y0.3438
X0.5367 Y0.344
X0.5433 Y0.3466
X0.5485 Y0.3514
X0.5515 Y0.3578
X0.5524 Y0.3614
X0.5612 Y0.3857
G3 X0.5534 Y0.3962 I-0.0076 J0.0025
G1 X0.5436 Y0.3959
X0.4576 Y0.3934
X0.4475 Y0.3931
G3 X0.4401 Y0.3824 I0.0002 J-0.008
G1 X0.4417 Y0.3784
X0.4469 Y0.3614
X0.4477 Y0.3583
X0.4494 Y0.3525
X0.4523 Y0.3473
X0.4559 Y0.3425
X0.4601 Y0.3382
X0.4648 Y0.3344
X0.4697 Y0.331
X0.4756 Y0.3276
X0.4824 Y0.3244
X0.4901 Y0.3215
X0.4983 Y0.3192
X0.5069 Y0.3174
X0.5135 Y0.3167
X0.5202 Y0.3164
X0.5262 Y0.3167
X0.5296 Y0.3171
X0.5351 Y0.3187
X0.5399 Y0.3219
X0.5434 Y0.3263
X0.5455 Y0.3316
G3 X0.5401 Y0.3407 I-0.0079 J0.0014
G1 X0.5271 Y0.3449
X0.466 Y0.3649
X0.458 Y0.3675
G3 X0.4477 Y0.3583 I-0.0025 J-0.0076
G1 X0.4538 Y0.3331
X0.4555 Y0.3273
X0.458 Y0.3219
X0.4614 Y0.3169
X0.4654 Y0.3125
X0.4699 Y0.3084
X0.4747 Y0.3049
X0.4799 Y0.3016
X0.4856 Y0.2988
X0.4917 Y0.2962
X0.4983 Y0.2941
X0.5042 Y0.2927
X0.5103 Y0.2918
X0.5163 Y0.2914
X0.5223 Y0.2916
X0.5247 Y0.2919
X0.5304 Y0.2936
X0.5353 Y0.297
X0.5388 Y0.3017
X0.5407 Y0.3074
G3 X0.5355 Y0.3159 I-0.0079 J0.001
G1 X0.5221 Y0.3209
X0.472 Y0.3393
X0.4644 Y0.3422
G3 X0.4538 Y0.3331 I-0.0028 J-0.0075
G1 X0.4572 Y0.3189
X0.4577 Y0.3161
X0.4588 Y0.3104
X0.4593 Y0.3073
X0.4605 Y0.3014
X0.463 Y0.2959
X0.4663 Y0.2909
X0.4702 Y0.2864
X0.4746 Y0.2823
X0.4795 Y0.2788
X0.4846 Y0.2757
X0.49 Y0.2731
X0.4956 Y0.2709
X0.5014 Y0.2693
X0.5073 Y0.2682
X0.5133 Y0.2676
X0.5193 Y0.2677
X0.5252 Y0.2685
X0.5259 Y0.2687
X0.5316 Y0.2712
X0.5361 Y0.2753
X0.539 Y0.2807
X0.54 Y0.2868
G3 X0.5346 Y0.2941 I-0.008 J-0.0003
G1 X0.5199 Y0.299
X0.4783 Y0.313
X0.4698 Y0.3158
G3 X0.4593 Y0.3073 I-0.0025 J-0.0076
G1 X0.4597 Y0.3047
X0.46 Y0.2877
X0.4603 Y0.2817
X0.4619 Y0.2759
X0.4646 Y0.2706
X0.4664 Y0.268
X0.4706 Y0.2637
X0.4759 Y0.2609
X0.4817 Y0.26
G3 X0.488 Y0.2725 I-0.0003 J0.008
G1 X0.4835 Y0.2791
X0.4775 Y0.2878
X0.4746 Y0.292
G3 X0.46 Y0.2877 I-0.0066 J-0.0046
G1 Y0.2679
X0.4601 Y0.2672
X0.4602 Y0.2664
X0.4605 Y0.2657
X0.4608 Y0.265
X0.4611 Y0.2644
X0.4616 Y0.2637
X0.4621 Y0.263
X0.4628 Y0.2623
X0.4642 Y0.2612
X0.465 Y0.2608
X0.4657 Y0.2605
X0.4664 Y0.2603
X0.4671 Y0.2601
X0.4678 Y0.26
X0.4685
X0.5309
X0.5323 Y0.2601
X0.533 Y0.2602
X0.5337 Y0.2604
X0.5344 Y0.2606
X0.5351 Y0.2609
X0.5366 Y0.2618
X0.5374 Y0.2625
X0.5383 Y0.2634
X0.5388 Y0.2642
X0.5392 Y0.265
X0.5395 Y0.2657
X0.5398 Y0.2664
X0.5399 Y0.2672
X0.54 Y0.2679
Y0.2877
X0.5403 Y0.3047
X0.5412 Y0.3104
X0.5434 Y0.3217
X0.5446 Y0.3274
X0.5483 Y0.3444
X0.5513 Y0.3569
X0.5515 Y0.3578
G3 X0.5409 Y0.367 I-0.0078 J0.0017
G1 X0.5395 Y0.3659 Z-0.0297
X0.5382 Y0.3649 Z-0.0292
X0.5371 Y0.364 Z-0.0282
X0.5365 Y0.3628 Z-0.0269
X0.536 Y0.3619 Z-0.0253
X0.5359 Y0.3614 Z-0.0237
Y0.3612 Z-0.022
G0 Z0.2
X0.5382 Y0.5993
Z0.078
G1 Z0.07 F40
G3 X0.4622 Y0.5975 Z0.0659 I-0.038 J-0.0009 F13.33
X0.5382 Y0.5993 Z0.0617 I0.038 J0.0009
X0.4622 Y0.5975 Z0.0575 I-0.038 J-0.0009
X0.5382 Y0.5993 Z0.0534 I0.038 J0.0009
X0.4622 Y0.5975 Z0.0492 I-0.038 J-0.0009
X0.5382 Y0.5993 Z0.045 I0.038 J0.0009
X0.4622 Y0.5975 Z0.0409 I-0.038 J-0.0009
X0.5382 Y0.5993 Z0.0367 I0.038 J0.0009
X0.4622 Y0.5975 Z0.0325 I-0.038 J-0.0009
X0.5382 Y0.5993 Z0.0284 I0.038 J0.0009
X0.4622 Y0.5975 Z0.0242 I-0.038 J-0.0009
X0.5382 Y0.5993 Z0.02 I0.038 J0.0009
X0.4622 Y0.5975 Z0.0159 I-0.038 J-0.0009
X0.5382 Y0.5993 Z0.0117 I0.038 J0.0009
X0.4622 Y0.5975 Z0.0075 I-0.038 J-0.0009
X0.5382 Y0.5993 Z0.0033 I0.038 J0.0009
X0.4622 Y0.5975 Z-0.0008 I-0.038 J-0.0009
X0.5382 Y0.5993 Z-0.005 I0.038 J0.0009
X0.4622 Y0.5975 Z-0.0092 I-0.038 J-0.0009
X0.5382 Y0.5993 Z-0.0133 I0.038 J0.0009
X0.4622 Y0.5975 Z-0.0175 I-0.038 J-0.0009
X0.5382 Y0.5993 Z-0.0217 I0.038 J0.0009
X0.4622 Y0.5975 Z-0.0258 I-0.038 J-0.0009
X0.5382 Y0.5993 Z-0.03 I0.038 J0.0009
X0.4622 Y0.5975 Z-0.0342 I-0.038 J-0.0009
X0.5382 Y0.5993 Z-0.0383 I0.038 J0.0009
X0.4622 Y0.5975 Z-0.0425 I-0.038 J-0.0009
X0.5382 Y0.5993 Z-0.0467 I0.038 J0.0009
X0.4622 Y0.5975 Z-0.0508 I-0.038 J-0.0009
X0.5382 Y0.5993 Z-0.055 I0.038 J0.0009
X0.4622 Y0.5975 Z-0.0592 I-0.038 J-0.0009
X0.5382 Y0.5993 Z-0.0634 I0.038 J0.0009
X0.4622 Y0.5975 Z-0.0675 I-0.038 J-0.0009
X0.5382 Y0.5993 Z-0.0717 I0.038 J0.0009
X0.4622 Y0.5975 Z-0.0759 I-0.038 J-0.0009
X0.5382 Y0.5984 Z-0.08 I0.038 J0.0009
X0.4622 I-0.038
X0.5382 I0.038
G1 X0.5394 Y0.6219 F40
X0.5393 Y0.6279
X0.5376 Y0.6337
X0.5347 Y0.639
X0.531 Y0.6437
X0.5266 Y0.6477
X0.5216 Y0.6511
X0.5163 Y0.6538
X0.5106 Y0.6558
X0.5047 Y0.6571
X0.4988 Y0.6576
X0.4928 Y0.6575
X0.4868 Y0.6568
X0.481 Y0.6553
X0.4753 Y0.6533
X0.4699 Y0.6507
X0.4648 Y0.6476
X0.4601 Y0.6439
X0.4557 Y0.6398
X0.4518 Y0.6352
X0.4483 Y0.6303
X0.4454 Y0.6251
X0.443 Y0.6196
X0.4412 Y0.6139
X0.4399 Y0.608
X0.4393 Y0.6021
X0.4392 Y0.5961
X0.4397 Y0.5901
X0.4408 Y0.5842
X0.4425 Y0.5784
X0.4447 Y0.5729
X0.4475 Y0.5675
X0.4507 Y0.5625
X0.4545 Y0.5578
X0.4587 Y0.5535
X0.4633 Y0.5497
X0.4682 Y0.5463
X0.4735 Y0.5434
X0.479 Y0.5411
X0.4848 Y0.5393
X0.4906 Y0.538
X0.4966 Y0.5374
X0.5026 Y0.5373
X0.5086 Y0.5379
X0.5145 Y0.539
X0.5202 Y0.5406
X0.5258 Y0.5429
X0.5311 Y0.5457
X0.5361 Y0.5489
X0.5408 Y0.5527
X0.5451 Y0.5569
X0.5489 Y0.5615
X0.5523 Y0.5664
X0.5552 Y0.5717
X0.5584 Y0.5788
X0.5616 Y0.5878
X0.5639 Y0.5967
X0.5651 Y0.6032
X0.5658 Y0.6099
X0.5659 Y0.6159
X0.5655 Y0.6219
X0.5646 Y0.6278
X0.5632 Y0.6336
X0.5612 Y0.6393
X0.5587 Y0.6448
X0.5558 Y0.65
X0.5523 Y0.6549
X0.5485 Y0.6595
X0.5442 Y0.6637
X0.5396 Y0.6675
X0.5346 Y0.6709
X0.5294 Y0.6739
X0.524 Y0.6764
X0.5183 Y0.6785
X0.5126 Y0.6801
X0.5065 Y0.6812
X0.5004 Y0.6819
X0.4944 Y0.682
X0.4881 Y0.6817
X0.4817 Y0.6808
X0.4755 Y0.6794
X0.4695 Y0.6776
X0.4634 Y0.6752
X0.4574 Y0.6722
X0.4518 Y0.6689
X0.4465 Y0.6651
X0.4414 Y0.6608
X0.4365 Y0.6561
X0.4321 Y0.6509
X0.4282 Y0.6455
X0.4247 Y0.6398
X0.4216 Y0.6338
X0.4189 Y0.6274
X0.4168 Y0.6208
X0.4153 Y0.6142
X0.4143 Y0.6075
X0.4138 Y0.6006
X0.4139 Y0.5937
X0.4145 Y0.5867
X0.4157 Y0.5799
X0.4174 Y0.5733
X0.4196 Y0.5668
X0.4224 Y0.5604
X0.4257 Y0.5542
X0.4295 Y0.5484
X0.4337 Y0.543
X0.4383 Y0.5379
X0.4433 Y0.5331
X0.4488 Y0.5287
X0.4546 Y0.5247
X0.4606 Y0.5213
X0.4668 Y0.5185
X0.4733 Y0.516
X0.4801 Y0.5141
X0.487 Y0.5128
X0.4939 Y0.512
X0.5008 Y0.5118
X0.5077 Y0.5121
X0.5146 Y0.513
X0.5215 Y0.5144
X0.5282 Y0.5164
X0.5347 Y0.5189
X0.5409 Y0.5219
X0.5469 Y0.5254
X0.5526 Y0.5294
X0.5581 Y0.5339
X0.5634 Y0.5391
X0.5684 Y0.5448
X0.5735 Y0.5516
X0.5783 Y0.5593
X0.5824 Y0.5673
X0.5859 Y0.5756
X0.5887 Y0.5839
X0.5907 Y0.5922
X0.592 Y0.6005
X0.5927 Y0.6087
Y0.6167
X0.592 Y0.6246
X0.5907 Y0.6322
X0.5889 Y0.6397
X0.5865 Y0.6468
X0.5835 Y0.6537
X0.58 Y0.6604
X0.576 Y0.6668
X0.5714 Y0.6728
X0.5664 Y0.6785
X0.5608 Y0.6838
X0.5548 Y0.6887
X0.5484 Y0.6931
X0.5416 Y0.6971
X0.5344 Y0.7005
X0.527 Y0.7033
X0.5192 Y0.7056
X0.5112 Y0.7072
X0.5031 Y0.7082
X0.4948 Y0.7085
X0.4865 Y0.7082
X0.4781 Y0.7072
X0.4698 Y0.7055
X0.4616 Y0.7032
X0.4536 Y0.7002
X0.4458 Y0.6965
X0.4383 Y0.6922
X0.431 Y0.6872
X0.4242 Y0.6817
X0.4179 Y0.6756
X0.412 Y0.669
X0.4066 Y0.6619
X0.4018 Y0.6544
X0.3976 Y0.6465
X0.3941 Y0.6383
X0.3912 Y0.6298
X0.389 Y0.621
X0.3875 Y0.6121
X0.3867 Y0.6031
X0.3866 Y0.594
X0.3873 Y0.585
X0.3887 Y0.576
X0.3908 Y0.5672
X0.3937 Y0.5585
X0.3972 Y0.5501
X0.4014 Y0.5421
X0.4062 Y0.5343
X0.4116 Y0.527
X0.4176 Y0.5201
X0.4242 Y0.5137
X0.4312 Y0.5079
X0.4386 Y0.5027
X0.4465 Y0.498
X0.4547 Y0.494
X0.4633 Y0.4907
X0.472 Y0.4881
X0.4809 Y0.4862
X0.49 Y0.485
X0.4991 Y0.4846
X0.5083 Y0.4848
X0.5174 Y0.4859
X0.5263 Y0.4876
X0.5351 Y0.49
X0.5437 Y0.4932
X0.552 Y0.497
X0.5601 Y0.5016
X0.5679 Y0.5068
X0.5755 Y0.5129
X0.5829 Y0.5198
X0.5898 Y0.5275
X0.5963 Y0.5359
X0.6021 Y0.5448
X0.6072 Y0.5543
X0.6116 Y0.564
X0.615 Y0.5741
X0.6177 Y0.5843
X0.6195 Y0.5946
X0.6205 Y0.6049
X0.6206 Y0.6151
X0.62 Y0.6252
X0.6185 Y0.6352
X0.6162 Y0.6449
X0.6132 Y0.6543
X0.6095 Y0.6635
X0.605 Y0.6723
X0.5999 Y0.6807
X0.5941 Y0.6887
X0.5876 Y0.6962
X0.5805 Y0.7033
X0.5729 Y0.7097
X0.5647 Y0.7156
X0.556 Y0.7208
X0.5469 Y0.7253
X0.5374 Y0.7291
X0.5275 Y0.7321
X0.5174 Y0.7344
X0.5071 Y0.7358
X0.4966 Y0.7364
X0.486 Y0.7362
X0.4754 Y0.7351
X0.4649 Y0.7331
X0.4545 Y0.7303
X0.4498 Y0.7286
X0.4495 Y0.7285
X0.4401 Y0.7245
X0.4288 Y0.7196
X0.4279 Y0.7192
X0.4269 Y0.7186
X0.398 Y0.6947
X0.3972 Y0.694
X0.3966 Y0.6933
X0.377 Y0.6645
X0.3752 Y0.6619
X0.3749 Y0.6612
X0.3746 Y0.6605
X0.363 Y0.625
X0.3627 Y0.6236
X0.3626 Y0.6222
X0.3615 Y0.5882
X0.3616 Y0.5825
X0.3638 Y0.5712
X0.365 Y0.5655
X0.3663 Y0.5598
X0.3696 Y0.5479
X0.3729 Y0.5389
X0.3771 Y0.5299
X0.3821 Y0.521
X0.3879 Y0.5124
X0.3945 Y0.5041
X0.4019 Y0.4962
X0.41 Y0.4888
X0.4188 Y0.4821
X0.4282 Y0.476
X0.4381 Y0.4706
X0.4484 Y0.4661
X0.4591 Y0.4623
X0.4701 Y0.4595
X0.4813 Y0.4575
X0.4927 Y0.4564
X0.5041 Y0.4563
X0.5154 Y0.457
X0.5267 Y0.4587
X0.5378 Y0.4613
X0.5488 Y0.4647
X0.5594 Y0.4691
X0.5698 Y0.4744
X0.5799 Y0.4805
X0.5897 Y0.4877
X0.599 Y0.4957
X0.6079 Y0.5046
X0.616 Y0.5142
X0.6193 Y0.5188
X0.6201 Y0.5201
X0.6208 Y0.5214
X0.6214 Y0.5228
X0.6227 Y0.5258
X0.6248 Y0.5315
X0.6306 Y0.5485
X0.6319 Y0.5542
X0.6383 Y0.5825
X0.6386 Y0.5844
X0.6387 Y0.5882
X0.6383 Y0.6165
X0.6382 Y0.6179
X0.638 Y0.6194
X0.6323 Y0.6392
X0.6274 Y0.6562
X0.6273 Y0.6565
X0.6241 Y0.6619
X0.6072 Y0.6888
X0.6067 Y0.6895
X0.6061 Y0.6902
X0.6046 Y0.6917
X0.5774 Y0.7158
X0.5763 Y0.7165
X0.5479 Y0.73
X0.5422 Y0.7327
X0.5408 Y0.7332
X0.5366 Y0.7339
X0.5082 Y0.7385
X0.5025 Y0.7393
X0.4969 Y0.7387
X0.4642 Y0.7346
X0.4628 Y0.7342
X0.4515 Y0.7294
X0.4495 Y0.7285
G3 X0.4457 Y0.7248 I0.0034 J-0.0072
G1 X0.437 Y0.7071
X0.3758 Y0.5828
X0.367 Y0.5648
G3 X0.3663 Y0.5598 I0.0072 J-0.0035
G1 X0.3676 Y0.5542
X0.3689 Y0.5485
X0.375 Y0.5315
X0.3778 Y0.524
X0.3814 Y0.5145
X0.3834 Y0.5097
X0.3915 Y0.4918
X0.3967 Y0.4805
X0.3995 Y0.4751
X0.4028 Y0.4701
X0.4065 Y0.4654
X0.4112 Y0.4605
X0.4164 Y0.4558
X0.4229 Y0.4509
X0.4305 Y0.446
X0.4388 Y0.4416
X0.4482 Y0.4374
X0.4588 Y0.4338
X0.4703 Y0.4309
X0.4824 Y0.4288
X0.4949 Y0.4277
X0.5078 Y0.4276
X0.5208 Y0.4285
X0.5339 Y0.4306
X0.547 Y0.4337
X0.56 Y0.4379
X0.5728 Y0.4432
X0.584 Y0.4489
X0.5874 Y0.4511
X0.5902 Y0.4541
X0.5923 Y0.4575
X0.6086 Y0.4918
X0.616 Y0.5091
X0.621 Y0.5216
X0.6214 Y0.5228
G3 X0.6124 Y0.5333 I-0.0075 J0.0027
G1 X0.6043 Y0.5317
X0.4133 Y0.4935
X0.4025 Y0.4914
G3 X0.3967 Y0.4805 I0.0016 J-0.0078
G1 X0.4004 Y0.4724
X0.4155 Y0.4408
X0.4184 Y0.4355
X0.422 Y0.4307
X0.4262 Y0.4264
X0.4307 Y0.4225
X0.4361 Y0.4185
X0.4424 Y0.4147
X0.4496 Y0.4109
X0.4584 Y0.4073
X0.4677 Y0.4043
X0.4785 Y0.4018
X0.4905 Y0.4
X0.5036 Y0.3991
X0.5171 Y0.3993
X0.531 Y0.4006
X0.5455 Y0.4031
X0.5602 Y0.4069
X0.5632 Y0.4079
X0.5677 Y0.4102
X0.5715 Y0.4137
X0.5742 Y0.418
X0.5845 Y0.4408
X0.5898 Y0.4521
X0.5923 Y0.4575
G3 X0.5842 Y0.4686 I-0.0073 J0.0032
G1 X0.5757 Y0.4678
X0.4321 Y0.453
X0.422 Y0.4519
G3 X0.4155 Y0.4408 I0.0008 J-0.008
G1 X0.4182 Y0.4351
X0.4208 Y0.4294
X0.4256 Y0.4181
X0.4279 Y0.4124
X0.4305 Y0.407
X0.4337 Y0.4019
X0.4376 Y0.3974
X0.442 Y0.3933
X0.4468 Y0.3897
X0.4523 Y0.3861
X0.4587 Y0.3827
X0.4665 Y0.3794
X0.4749 Y0.3765
X0.485 Y0.374
X0.4964 Y0.3721
X0.5083 Y0.371
X0.5219
X0.5366 Y0.3721
X0.5467 Y0.3736
X0.5481 Y0.374
X0.5537 Y0.3763
X0.5582 Y0.3804
X0.5612 Y0.3857
X0.5669 Y0.4011
X0.5717 Y0.4124
X0.5742 Y0.418
G3 X0.5664 Y0.429 I-0.0074 J0.0029
G1 X0.5572 Y0.4286
X0.4452 Y0.4236
X0.4351 Y0.4232
G3 X0.4279 Y0.4124 I0.0004 J-0.008
G1 X0.4401 Y0.3824
X0.4426 Y0.377
X0.446 Y0.372
X0.45 Y0.3675
X0.4545 Y0.3635
X0.4593 Y0.36
X0.4648 Y0.3567
X0.4714 Y0.3534
X0.4786 Y0.3504
X0.4877 Y0.3476
X0.4972 Y0.3454
X0.5086 Y0.3437
X0.5201 Y0.343
X0.5281 Y0.3431
X0.5356 Y0.3438
X0.5367 Y0.344
X0.5433 Y0.3466
X0.5485 Y0.3514
X0.5515 Y0.3578
X0.5524 Y0.3614
X0.5612 Y0.3857
G3 X0.5534 Y0.3962 I-0.0076 J0.0025
G1 X0.5436 Y0.3959
X0.4576 Y0.3934
X0.4475 Y0.3931
G3 X0.4401 Y0.3824 I0.0002 J-0.008
G1 X0.4417 Y0.3784
X0.4469 Y0.3614
X0.4477 Y0.3583
X0.4494 Y0.3525
X0.4523 Y0.3473
X0.4559 Y0.3425
X0.4601 Y0.3382
X0.4648 Y0.3344
X0.4697 Y0.331
X0.4756 Y0.3276
X0.4824 Y0.3244
X0.4901 Y0.3215
X0.4983 Y0.3192
X0.5069 Y0.3174
X0.5135 Y0.3167
X0.5202 Y0.3164
X0.5262 Y0.3167
X0.5296 Y0.3171
X0.5351 Y0.3187
X0.5399 Y0.3219
X0.5434 Y0.3263
X0.5455 Y0.3316
G3 X0.5401 Y0.3407 I-0.0079 J0.0014
G1 X0.5271 Y0.3449
X0.466 Y0.3649
X0.458 Y0.3675
G3 X0.4477 Y0.3583 I-0.0025 J-0.0076
G1 X0.4538 Y0.3331
X0.4555 Y0.3273
X0.458 Y0.3219
X0.4614 Y0.3169
X0.4654 Y0.3125
X0.4699 Y0.3084
X0.4747 Y0.3049
X0.4799 Y0.3016
X0.4856 Y0.2988
X0.4917 Y0.2962
X0.4983 Y0.2941
X0.5042 Y0.2927
X0.5103 Y0.2918
X0.5163 Y0.2914
X0.5223 Y0.2916
X0.5247 Y0.2919
X0.5304 Y0.2936
X0.5353 Y0.297
X0.5388 Y0.3017
X0.5407 Y0.3074
G3 X0.5355 Y0.3159 I-0.0079 J0.001
G1 X0.5221 Y0.3209
X0.472 Y0.3393
X0.4644 Y0.3422
G3 X0.4538 Y0.3331 I-0.0028 J-0.0075
G1 X0.4572 Y0.3189
X0.4577 Y0.3161
X0.4588 Y0.3104
X0.4593 Y0.3073
X0.4605 Y0.3014
X0.463 Y0.2959
X0.4663 Y0.2909
X0.4702 Y0.2864
X0.4746 Y0.2823
X0.4795 Y0.2788
X0.4846 Y0.2757
X0.49 Y0.2731
X0.4956 Y0.2709
X0.5014 Y0.2693
X0.5073 Y0.2682
X0.5133 Y0.2676
X0.5193 Y0.2677
X0.5252 Y0.2685
X0.5259 Y0.2687
X0.5316 Y0.2712
X0.5361 Y0.2753
X0.539 Y0.2807
X0.54 Y0.2868
G3 X0.5346 Y0.2941 I-0.008 J-0.0003
G1 X0.5199 Y0.299
X0.4783 Y0.313
X0.4698 Y0.3158
G3 X0.4593 Y0.3073 I-0.0025 J-0.0076
G1 X0.4597 Y0.3047
X0.46 Y0.2877
X0.4603 Y0.2817
X0.4619 Y0.2759
X0.4646 Y0.2706
X0.4664 Y0.268
X0.4706 Y0.2637
X0.4759 Y0.2609
X0.4817 Y0.26
G3 X0.488 Y0.2725 I-0.0003 J0.008
G1 X0.4835 Y0.2791
X0.4775 Y0.2878
X0.4746 Y0.292
G3 X0.46 Y0.2877 I-0.0066 J-0.0046
G1 Y0.2679
X0.4601 Y0.2672
X0.4602 Y0.2664
X0.4605 Y0.2657
X0.4608 Y0.265
X0.4611 Y0.2644
X0.4616 Y0.2637
X0.4621 Y0.263
X0.4628 Y0.2623
X0.4642 Y0.2612
X0.465 Y0.2608
X0.4657 Y0.2605
X0.4664 Y0.2603
X0.4671 Y0.2601
X0.4678 Y0.26
X0.4685
X0.5309
X0.5323 Y0.2601
X0.533 Y0.2602
X0.5337 Y0.2604
X0.5344 Y0.2606
X0.5351 Y0.2609
X0.5366 Y0.2618
X0.5374 Y0.2625
X0.5383 Y0.2634
X0.5388 Y0.2642
X0.5392 Y0.265
X0.5395 Y0.2657
X0.5398 Y0.2664
X0.5399 Y0.2672
X0.54 Y0.2679
Y0.2877
X0.5403 Y0.3047
X0.5412 Y0.3104
X0.5434 Y0.3217
X0.5446 Y0.3274
X0.5483 Y0.3444
X0.5513 Y0.3569
X0.5515 Y0.3578
G3 X0.5409 Y0.367 I-0.0078 J0.0017
G1 X0.5395 Y0.3659 Z-0.0798
X0.5382 Y0.3649 Z-0.0792
X0.5371 Y0.364 Z-0.0783
X0.5365 Y0.3628 Z-0.0769
X0.536 Y0.3619 Z-0.0753
X0.5359 Y0.3614 Z-0.0737
Y0.3612 Z-0.072
G0 Z0.2
X1.638 Y0.602
Z0.128
G1 Z0.12 F40
G3 X1.5624 Y0.5948 Z0.1158 I-0.0378 J-0.0036 F13.33
X1.638 Y0.602 Z0.1117 I0.0378 J0.0036
X1.5624 Y0.5948 Z0.1075 I-0.0378 J-0.0036
X1.638 Y0.602 Z0.1033 I0.0378 J0.0036
X1.5624 Y0.5948 Z0.0992 I-0.0378 J-0.0036
X1.638 Y0.602 Z0.095 I0.0378 J0.0036
X1.5624 Y0.5948 Z0.0908 I-0.0378 J-0.0036
X1.638 Y0.602 Z0.0866 I0.0378 J0.0036
X1.5624 Y0.5948 Z0.0825 I-0.0378 J-0.0036
X1.638 Y0.602 Z0.0783 I0.0378 J0.0036
X1.5624 Y0.5948 Z0.0741 I-0.0378 J-0.0036
X1.638 Y0.602 Z0.07 I0.0378 J0.0036
X1.5624 Y0.5948 Z0.0658 I-0.0378 J-0.0036
X1.638 Y0.602 Z0.0616 I0.0378 J0.0036
X1.5624 Y0.5948 Z0.0575 I-0.0378 J-0.0036
X1.638 Y0.602 Z0.0533 I0.0378 J0.0036
X1.5624 Y0.5948 Z0.0491 I-0.0378 J-0.0036
X1.638 Y0.602 Z0.045 I0.0378 J0.0036
X1.5624 Y0.5948 Z0.0408 I-0.0378 J-0.0036
X1.638 Y0.602 Z0.0366 I0.0378 J0.0036
X1.5624 Y0.5948 Z0.0325 I-0.0378 J-0.0036
X1.638 Y0.602 Z0.0283 I0.0378 J0.0036
X1.5624 Y0.5948 Z0.0241 I-0.0378 J-0.0036
X1.638 Y0.602 Z0.0199 I0.0378 J0.0036
X1.5624 Y0.5948 Z0.0158 I-0.0378 J-0.0036
X1.638 Y0.602 Z0.0116 I0.0378 J0.0036
X1.5624 Y0.5948 Z0.0074 I-0.0378 J-0.0036
X1.638 Y0.602 Z0.0033 I0.0378 J0.0036
X1.5624 Y0.5948 Z-0.0009 I-0.0378 J-0.0036
X1.638 Y0.602 Z-0.0051 I0.0378 J0.0036
X1.5624 Y0.5948 Z-0.0092 I-0.0378 J-0.0036
X1.638 Y0.602 Z-0.0134 I0.0378 J0.0036
X1.5624 Y0.5948 Z-0.0176 I-0.0378 J-0.0036
X1.638 Y0.602 Z-0.0217 I0.0378 J0.0036
X1.5624 Y0.5948 Z-0.0259 I-0.0378 J-0.0036
X1.6382 Y0.5984 Z-0.03 I0.0378 J0.0036
X1.5622 I-0.038
X1.6382 I0.038
G1 X1.6394 Y0.6219 F40
X1.6393 Y0.6279
X1.6376 Y0.6337
X1.6347 Y0.639
X1.631 Y0.6437
X1.6266 Y0.6477
X1.6216 Y0.6511
X1.6163 Y0.6538
X1.6106 Y0.6558
X1.6047 Y0.657
X1.5988 Y0.6576
X1.5928 Y0.6575
X1.5868 Y0.6567
X1.581 Y0.6553
X1.5753 Y0.6533
X1.5699 Y0.6507
X1.5648 Y0.6476
X1.5601 Y0.6439
X1.5557 Y0.6398
X1.5518 Y0.6352
X1.5483 Y0.6303
X1.5454 Y0.6251
X1.543 Y0.6196
X1.5412 Y0.6139
X1.5399 Y0.608
X1.5392 Y0.602
Y0.596
X1.5397 Y0.5901
X1.5408 Y0.5842
X1.5425 Y0.5784
X1.5447 Y0.5728
X1.5475 Y0.5675
X1.5507 Y0.5625
X1.5545 Y0.5578
X1.5587 Y0.5535
X1.5633 Y0.5497
X1.5682 Y0.5463
X1.5735 Y0.5434
X1.579 Y0.5411
X1.5847 Y0.5393
X1.5906 Y0.538
X1.5966 Y0.5374
X1.6026 Y0.5373
X1.6086 Y0.5378
X1.6145 Y0.539
X1.6202 Y0.5406
X1.6258 Y0.5429
X1.6311 Y0.5456
X1.6361 Y0.5489
X1.6408 Y0.5527
X1.6451 Y0.5569
X1.6489 Y0.5615
X1.6523 Y0.5664
X1.6552 Y0.5717
X1.6584 Y0.5788
X1.6616 Y0.5878
X1.6639 Y0.5967
X1.6651 Y0.6032
X1.6658 Y0.6099
X1.6659 Y0.6159
X1.6655 Y0.6219
X1.6646 Y0.6278
X1.6632 Y0.6336
X1.6612 Y0.6393
X1.6587 Y0.6448
X1.6558 Y0.65
X1.6523 Y0.6549
X1.6485 Y0.6595
X1.6442 Y0.6637
X1.6396 Y0.6675
X1.6346 Y0.6709
X1.6294 Y0.6739
X1.624 Y0.6764
X1.6183 Y0.6785
X1.6126 Y0.6801
X1.6065 Y0.6812
X1.6004 Y0.6818
X1.5944 Y0.682
X1.5881 Y0.6817
X1.5817 Y0.6808
X1.5755 Y0.6794
X1.5695 Y0.6776
X1.5634 Y0.6752
X1.5574 Y0.6722
X1.5518 Y0.6689
X1.5465 Y0.6651
X1.5414 Y0.6608
X1.5365 Y0.6561
X1.5321 Y0.6509
X1.5281 Y0.6455
X1.5246 Y0.6398
X1.5216 Y0.6338
X1.5189 Y0.6274
X1.5168 Y0.6208
X1.5153 Y0.6142
X1.5142 Y0.6075
X1.5138 Y0.6006
Y0.5937
X1.5145 Y0.5867
X1.5157 Y0.5799
X1.5174 Y0.5733
X1.5196 Y0.5668
X1.5224 Y0.5604
X1.5257 Y0.5542
X1.5295 Y0.5484
X1.5337 Y0.543
X1.5383 Y0.5379
X1.5433 Y0.5331
X1.5488 Y0.5287
X1.5546 Y0.5247
X1.5606 Y0.5213
X1.5668 Y0.5184
X1.5733 Y0.516
X1.5801 Y0.5141
X1.587 Y0.5128
X1.5939 Y0.512
X1.6008 Y0.5118
X1.6077 Y0.5121
X1.6146 Y0.513
X1.6215 Y0.5144
X1.6282 Y0.5164
X1.6347 Y0.5189
X1.6409 Y0.5219
X1.6468 Y0.5254
X1.6526 Y0.5294
X1.6581 Y0.5339
X1.6634 Y0.539
X1.6684 Y0.5448
X1.6734 Y0.5516
X1.6783 Y0.5593
X1.6824 Y0.5673
X1.6859 Y0.5756
X1.6887 Y0.5839
X1.6907 Y0.5922
X1.692 Y0.6005
X1.6927 Y0.6087
X1.6926 Y0.6167
X1.692 Y0.6246
X1.6907 Y0.6322
X1.6889 Y0.6396
X1.6865 Y0.6468
X1.6835 Y0.6537
X1.68 Y0.6604
X1.676 Y0.6667
X1.6714 Y0.6728
X1.6664 Y0.6785
X1.6608 Y0.6838
X1.6548 Y0.6887
X1.6484 Y0.6931
X1.6416 Y0.6971
X1.6344 Y0.7005
X1.627 Y0.7033
X1.6192 Y0.7055
X1.6112 Y0.7072
X1.6031 Y0.7082
X1.5948 Y0.7085
X1.5865 Y0.7082
X1.5781 Y0.7072
X1.5698 Y0.7055
X1.5616 Y0.7032
X1.5536 Y0.7002
X1.5458 Y0.6965
X1.5383 Y0.6921
X1.531 Y0.6872
X1.5242 Y0.6817
X1.5179 Y0.6756
X1.512 Y0.669
X1.5066 Y0.6619
X1.5018 Y0.6544
X1.4976 Y0.6465
X1.4941 Y0.6383
X1.4912 Y0.6298
X1.489 Y0.621
X1.4875 Y0.6121
X1.4867 Y0.6031
X1.4866 Y0.594
X1.4873 Y0.585
X1.4887 Y0.576
X1.4908 Y0.5672
X1.4937 Y0.5585
X1.4972 Y0.5501
X1.5014 Y0.542
X1.5062 Y0.5343
X1.5116 Y0.527
X1.5176 Y0.5201
X1.5241 Y0.5137
X1.5312 Y0.5079
X1.5386 Y0.5027
X1.5465 Y0.498
X1.5547 Y0.494
X1.5633 Y0.4907
X1.572 Y0.4881
X1.5809 Y0.4862
X1.59 Y0.485
X1.5991 Y0.4845
X1.6083 Y0.4848
X1.6174 Y0.4858
X1.6263 Y0.4876
X1.6351 Y0.49
X1.6437 Y0.4932
X1.652 Y0.497
X1.6601 Y0.5016
X1.6679 Y0.5068
X1.6755 Y0.5129
X1.6829 Y0.5198
X1.6898 Y0.5275
X1.6963 Y0.5358
X1.7021 Y0.5448
X1.7072 Y0.5542
X1.7115 Y0.564
X1.715 Y0.5741
X1.7177 Y0.5843
X1.7195 Y0.5946
X1.7205 Y0.6049
X1.7206 Y0.6151
X1.72 Y0.6252
X1.7185 Y0.6351
X1.7162 Y0.6448
X1.7132 Y0.6543
X1.7095 Y0.6635
X1.705 Y0.6723
X1.6999 Y0.6807
X1.6941 Y0.6887
X1.6876 Y0.6962
X1.6805 Y0.7032
X1.6729 Y0.7097
X1.6647 Y0.7155
X1.656 Y0.7207
X1.6469 Y0.7253
X1.6374 Y0.7291
X1.6275 Y0.7321
X1.6174 Y0.7343
X1.6071 Y0.7358
X1.5966 Y0.7364
X1.586 Y0.7362
X1.5754 Y0.7351
X1.5649 Y0.7331
X1.5545 Y0.7303
X1.5497 Y0.7286
X1.5493 Y0.7284
X1.5404 Y0.7246
X1.529 Y0.7197
X1.528 Y0.7192
X1.5269 Y0.7186
X1.52 Y0.7129
X1.498 Y0.6948
X1.4967 Y0.6934
X1.4906 Y0.6845
X1.4772 Y0.6648
X1.4752 Y0.6619
X1.4748 Y0.6612
X1.4746 Y0.6605
X1.463 Y0.625
X1.4627 Y0.6236
X1.4626 Y0.6222
X1.4615 Y0.5882
Y0.5825
X1.4638 Y0.5712
X1.465 Y0.5655
X1.4663 Y0.5598
X1.4696 Y0.5479
X1.4729 Y0.5389
X1.4771 Y0.5299
X1.4821 Y0.521
X1.4879 Y0.5123
X1.4945 Y0.5041
X1.5019 Y0.4962
X1.51 Y0.4888
X1.5188 Y0.482
X1.5282 Y0.476
X1.5381 Y0.4706
X1.5484 Y0.466
X1.5591 Y0.4623
X1.5701 Y0.4595
X1.5813 Y0.4575
X1.5927 Y0.4564
X1.6041 Y0.4563
X1.6154 Y0.457
X1.6267 Y0.4587
X1.6378 Y0.4613
X1.6487 Y0.4647
X1.6594 Y0.4691
X1.6698 Y0.4743
X1.6799 Y0.4805
X1.6897 Y0.4876
X1.699 Y0.4957
X1.7079 Y0.5045
X1.716 Y0.5142
X1.7193 Y0.5188
X1.7201 Y0.5201
X1.7208 Y0.5214
X1.7214 Y0.5228
X1.7227 Y0.5258
X1.7248 Y0.5315
X1.7306 Y0.5485
X1.7319 Y0.5542
X1.7386 Y0.5839
X1.7387 Y0.5853
X1.7382 Y0.6179
X1.738 Y0.6194
X1.7291 Y0.6505
X1.7274 Y0.6562
X1.7271 Y0.6569
X1.7268 Y0.6576
X1.7098 Y0.6845
X1.7061 Y0.6902
X1.7048 Y0.6915
X1.6807 Y0.7129
X1.6765 Y0.7164
X1.6708 Y0.7191
X1.6425 Y0.7326
X1.6417 Y0.7329
X1.641 Y0.7331
X1.6396 Y0.7334
X1.6084 Y0.7384
X1.6028 Y0.7392
X1.5971 Y0.7387
X1.5645 Y0.7346
X1.5631 Y0.7343
X1.5493 Y0.7284
G3 X1.5456 Y0.7247 I0.0034 J-0.0072
G1 X1.5369 Y0.707
X1.4758 Y0.5828
X1.467 Y0.5648
G3 X1.4663 Y0.5598 I0.0072 J-0.0035
G1 X1.4676 Y0.5542
X1.4689 Y0.5485
X1.475 Y0.5315
X1.477 Y0.5258
X1.4815 Y0.5145
X1.4838 Y0.5088
X1.495 Y0.484
X1.4966 Y0.4805
X1.4995 Y0.4752
X1.5028 Y0.4701
X1.5065 Y0.4655
X1.5112 Y0.4605
X1.5164 Y0.4558
X1.5228 Y0.4509
X1.5305 Y0.446
X1.5387 Y0.4416
X1.5482 Y0.4375
X1.5588 Y0.4338
X1.5702 Y0.4309
X1.5824 Y0.4288
X1.5949 Y0.4277
X1.6077 Y0.4276
X1.6207 Y0.4285
X1.6338 Y0.4305
X1.6469 Y0.4336
X1.6599 Y0.4378
X1.6727 Y0.4431
X1.684 Y0.4489
X1.6874 Y0.4511
X1.6902 Y0.454
X1.6923 Y0.4575
X1.7086 Y0.4918
X1.7162 Y0.5096
X1.7214 Y0.5228
G3 X1.7124 Y0.5333 I-0.0075 J0.0027
G1 X1.7043 Y0.5317
X1.5131 Y0.4936
X1.5024 Y0.4914
G3 X1.4966 Y0.4805 I0.0016 J-0.0078
G1 X1.502 Y0.4691
X1.5155 Y0.4408
X1.5184 Y0.4355
X1.522 Y0.4307
X1.5262 Y0.4264
X1.5307 Y0.4224
X1.5361 Y0.4185
X1.5423 Y0.4147
X1.5496 Y0.4109
X1.5584 Y0.4073
X1.5677 Y0.4043
X1.5784 Y0.4018
X1.5905 Y0.4
X1.6035 Y0.3991
X1.6171 Y0.3993
X1.631 Y0.4005
X1.6454 Y0.403
X1.6602 Y0.4068
X1.6632 Y0.4079
X1.6678 Y0.4102
X1.6715 Y0.4137
X1.6742 Y0.4181
X1.6822 Y0.4356
X1.6898 Y0.4521
X1.6923 Y0.4575
G3 X1.6842 Y0.4686 I-0.0073 J0.0032
G1 X1.6757 Y0.4678
X1.5321 Y0.453
X1.522 Y0.4519
G3 X1.5155 Y0.4408 I0.0008 J-0.008
G1 X1.5182 Y0.4351
X1.5256 Y0.4181
X1.5279 Y0.4124
X1.5305 Y0.407
X1.5337 Y0.4019
X1.5376 Y0.3974
X1.542 Y0.3933
X1.5468 Y0.3897
X1.5523 Y0.3861
X1.5587 Y0.3827
X1.5665 Y0.3794
X1.5748 Y0.3765
X1.585 Y0.374
X1.5964 Y0.3721
X1.6083 Y0.371
X1.6218 Y0.3709
X1.6366 Y0.372
X1.6467 Y0.3736
X1.6481 Y0.3739
X1.6537 Y0.3763
X1.6582 Y0.3804
X1.6612 Y0.3857
X1.6651 Y0.3964
X1.667 Y0.4011
X1.6718 Y0.4124
X1.6742 Y0.4181
G3 X1.6664 Y0.429 I-0.0075 J0.0029
G1 X1.6571 Y0.4286
X1.5452 Y0.4236
X1.5351 Y0.4232
G3 X1.5279 Y0.4124 I0.0004 J-0.008
G1 X1.5404 Y0.3819
X1.5428 Y0.3764
X1.5463 Y0.3715
X1.5503 Y0.3671
X1.5549 Y0.3631
X1.5598 Y0.3597
X1.5652 Y0.3564
X1.572 Y0.353
X1.5793 Y0.3501
X1.5885 Y0.3473
X1.5983 Y0.3452
X1.6097 Y0.3436
X1.621 Y0.343
X1.6289 Y0.3431
X1.6361 Y0.3439
X1.6368 Y0.344
X1.6434 Y0.3466
X1.6485 Y0.3514
X1.6515 Y0.3578
X1.6524 Y0.3614
X1.6612 Y0.3857
G3 X1.6534 Y0.3962 I-0.0076 J0.0025
G1 X1.6436 Y0.3958
X1.5578 Y0.3929
X1.5477 Y0.3925
G3 X1.5404 Y0.3819 I0.0003 J-0.008
G1 X1.5417 Y0.3784
X1.5469 Y0.3614
X1.5477 Y0.3583
X1.5494 Y0.3525
X1.5523 Y0.3473
X1.5559 Y0.3425
X1.5601 Y0.3382
X1.5647 Y0.3344
X1.5697 Y0.331
X1.5757 Y0.3275
X1.5824 Y0.3244
X1.5901 Y0.3215
X1.5984 Y0.3191
X1.607 Y0.3174
X1.6136 Y0.3166
X1.6202 Y0.3164
X1.6262 Y0.3166
X1.6296 Y0.3171
X1.6351 Y0.3187
X1.6399 Y0.3218
X1.6434 Y0.3263
X1.6455 Y0.3316
G3 X1.6401 Y0.3407 I-0.0079 J0.0014
G1 X1.6271 Y0.3449
X1.566 Y0.3649
X1.558 Y0.3675
G3 X1.5477 Y0.3583 I-0.0025 J-0.0076
G1 X1.5538 Y0.3331
X1.5555 Y0.3273
X1.558 Y0.3219
X1.5614 Y0.3169
X1.5654 Y0.3124
X1.5698 Y0.3084
X1.5747 Y0.3049
X1.5799 Y0.3016
X1.5856 Y0.2987
X1.5917 Y0.2962
X1.5982 Y0.2941
X1.6042 Y0.2927
X1.6103 Y0.2918
X1.6163 Y0.2914
X1.6223 Y0.2915
X1.6247 Y0.2918
X1.6304 Y0.2936
X1.6353 Y0.297
X1.6389 Y0.3019
X1.6407 Y0.3076
G3 X1.6355 Y0.316 I-0.0079 J0.0009
G1 X1.6219 Y0.321
X1.572 Y0.3394
X1.5644 Y0.3422
G3 X1.5538 Y0.3331 I-0.0028 J-0.0075
G1 X1.5551 Y0.3274
X1.5564 Y0.3217
X1.5596 Y0.3061
X1.5608 Y0.3003
X1.5634 Y0.2949
X1.5669 Y0.29
X1.5709 Y0.2855
X1.5754 Y0.2816
X1.5804 Y0.2781
X1.5856 Y0.2751
X1.591 Y0.2726
X1.5966 Y0.2706
X1.6024 Y0.269
X1.6083 Y0.268
X1.6143 Y0.2675
X1.6203 Y0.2678
X1.6264 Y0.2687
X1.6318 Y0.2713
X1.6362 Y0.2754
X1.639 Y0.2807
X1.64 Y0.2867
G3 X1.6344 Y0.294 I-0.008 J-0.0003
G1 X1.6199 Y0.2987
X1.5787 Y0.3119
X1.57 Y0.3147
G3 X1.5596 Y0.3061 I-0.0024 J-0.0076
G1 X1.5597 Y0.3054
X1.56 Y0.2877
X1.5603 Y0.2817
X1.5619 Y0.2759
X1.5646 Y0.2706
X1.5664 Y0.268
X1.5706 Y0.2637
X1.5758 Y0.2609
X1.5817 Y0.26
G3 X1.588 Y0.2725 I-0.0003 J0.008
G1 X1.5835 Y0.2791
X1.5775 Y0.2878
X1.5746 Y0.292
G3 X1.56 Y0.2877 I-0.0066 J-0.0045
G1 Y0.2679
X1.5601 Y0.2672
X1.5602 Y0.2664
X1.5605 Y0.2657
X1.5608 Y0.265
X1.5611 Y0.2643
X1.5616 Y0.2636
X1.5623 Y0.2629
X1.5631 Y0.2621
X1.5645 Y0.2612
X1.5652 Y0.2608
X1.5659 Y0.2605
X1.5666 Y0.2603
X1.5673 Y0.2601
X1.5687 Y0.26
X1.63
X1.6311
X1.6325 Y0.2601
X1.6332 Y0.2602
X1.634 Y0.2604
X1.6347 Y0.2607
X1.6354 Y0.261
X1.6361 Y0.2614
X1.6368 Y0.262
X1.6376 Y0.2627
X1.6383 Y0.2635
X1.6388 Y0.2643
X1.6392 Y0.265
X1.6395 Y0.2657
X1.6398 Y0.2664
X1.6399 Y0.2672
X1.64 Y0.2679
Y0.2877
X1.6403 Y0.3047
X1.6411 Y0.3104
X1.6425 Y0.3177
X1.6481 Y0.3436
X1.6513 Y0.3569
X1.6515 Y0.3578
G3 X1.6409 Y0.367 I-0.0078 J0.0017
G1 X1.6395 Y0.3659 Z-0.0297
X1.6382 Y0.3649 Z-0.0292
X1.637 Y0.364 Z-0.0282
X1.6365 Y0.3628 Z-0.0269
X1.6361 Y0.3619 Z-0.0253
X1.6359 Y0.3614 Z-0.0237
Y0.3612 Z-0.022
G0 Z0.2
X1.6382 Y0.5993
Z0.078
G1 Z0.07 F40
G3 X1.5622 Y0.5975 Z0.0659 I-0.038 J-0.0009 F13.33
X1.6382 Y0.5993 Z0.0617 I0.038 J0.0009
X1.5622 Y0.5975 Z0.0575 I-0.038 J-0.0009
X1.6382 Y0.5993 Z0.0534 I0.038 J0.0009
X1.5622 Y0.5975 Z0.0492 I-0.038 J-0.0009
X1.6382 Y0.5993 Z0.045 I0.038 J0.0009
X1.5622 Y0.5975 Z0.0409 I-0.038 J-0.0009
X1.6382 Y0.5993 Z0.0367 I0.038 J0.0009
X1.5622 Y0.5975 Z0.0325 I-0.038 J-0.0009
X1.6382 Y0.5993 Z0.0284 I0.038 J0.0009
X1.5622 Y0.5975 Z0.0242 I-0.038 J-0.0009
X1.6382 Y0.5993 Z0.02 I0.038 J0.0009
X1.5622 Y0.5975 Z0.0159 I-0.038 J-0.0009
X1.6382 Y0.5993 Z0.0117 I0.038 J0.0009
X1.5622 Y0.5975 Z0.0075 I-0.038 J-0.0009
X1.6382 Y0.5993 Z0.0033 I0.038 J0.0009
X1.5622 Y0.5975 Z-0.0008 I-0.038 J-0.0009
X1.6382 Y0.5993 Z-0.005 I0.038 J0.0009
X1.5622 Y0.5975 Z-0.0092 I-0.038 J-0.0009
X1.6382 Y0.5993 Z-0.0133 I0.038 J0.0009
X1.5622 Y0.5975 Z-0.0175 I-0.038 J-0.0009
X1.6382 Y0.5993 Z-0.0217 I0.038 J0.0009
X1.5622 Y0.5975 Z-0.0258 I-0.038 J-0.0009
X1.6382 Y0.5993 Z-0.03 I0.038 J0.0009
X1.5622 Y0.5975 Z-0.0342 I-0.038 J-0.0009
X1.6382 Y0.5993 Z-0.0383 I0.038 J0.0009
X1.5622 Y0.5975 Z-0.0425 I-0.038 J-0.0009
X1.6382 Y0.5993 Z-0.0467 I0.038 J0.0009
X1.5622 Y0.5975 Z-0.0508 I-0.038 J-0.0009
X1.6382 Y0.5993 Z-0.055 I0.038 J0.0009
X1.5622 Y0.5975 Z-0.0592 I-0.038 J-0.0009
X1.6382 Y0.5993 Z-0.0634 I0.038 J0.0009
X1.5622 Y0.5975 Z-0.0675 I-0.038 J-0.0009
X1.6382 Y0.5993 Z-0.0717 I0.038 J0.0009
X1.5622 Y0.5975 Z-0.0759 I-0.038 J-0.0009
X1.6382 Y0.5984 Z-0.08 I0.038 J0.0009
X1.5622 I-0.038
X1.6382 I0.038
G1 X1.6394 Y0.6219 F40
X1.6393 Y0.6279
X1.6376 Y0.6337
X1.6347 Y0.639
X1.631 Y0.6437
X1.6266 Y0.6477
X1.6216 Y0.6511
X1.6163 Y0.6538
X1.6106 Y0.6558
X1.6047 Y0.657
X1.5988 Y0.6576
X1.5928 Y0.6575
X1.5868 Y0.6567
X1.581 Y0.6553
X1.5753 Y0.6533
X1.5699 Y0.6507
X1.5648 Y0.6476
X1.5601 Y0.6439
X1.5557 Y0.6398
X1.5518 Y0.6352
X1.5483 Y0.6303
X1.5454 Y0.6251
X1.543 Y0.6196
X1.5412 Y0.6139
X1.5399 Y0.608
X1.5392 Y0.602
Y0.596
X1.5397 Y0.5901
X1.5408 Y0.5842
X1.5425 Y0.5784
X1.5447 Y0.5728
X1.5475 Y0.5675
X1.5507 Y0.5625
X1.5545 Y0.5578
X1.5587 Y0.5535
X1.5633 Y0.5497
X1.5682 Y0.5463
X1.5735 Y0.5434
X1.579 Y0.5411
X1.5847 Y0.5393
X1.5906 Y0.538
X1.5966 Y0.5374
X1.6026 Y0.5373
X1.6086 Y0.5378
X1.6145 Y0.539
X1.6202 Y0.5406
X1.6258 Y0.5429
X1.6311 Y0.5456
X1.6361 Y0.5489
X1.6408 Y0.5527
X1.6451 Y0.5569
X1.6489 Y0.5615
X1.6523 Y0.5664
X1.6552 Y0.5717
X1.6584 Y0.5788
X1.6616 Y0.5878
X1.6639 Y0.5967
X1.6651 Y0.6032
X1.6658 Y0.6099
X1.6659 Y0.6159
X1.6655 Y0.6219
X1.6646 Y0.6278
X1.6632 Y0.6336
X1.6612 Y0.6393
X1.6587 Y0.6448
X1.6558 Y0.65
X1.6523 Y0.6549
X1.6485 Y0.6595
X1.6442 Y0.6637
X1.6396 Y0.6675
X1.6346 Y0.6709
X1.6294 Y0.6739
X1.624 Y0.6764
X1.6183 Y0.6785
X1.6126 Y0.6801
X1.6065 Y0.6812
X1.6004 Y0.6818
X1.5944 Y0.682
X1.5881 Y0.6817
X1.5817 Y0.6808
X1.5755 Y0.6794
X1.5695 Y0.6776
X1.5634 Y0.6752
X1.5574 Y0.6722
X1.5518 Y0.6689
X1.5465 Y0.6651
X1.5414 Y0.6608
X1.5365 Y0.6561
X1.5321 Y0.6509
X1.5281 Y0.6455
X1.5246 Y0.6398
X1.5216 Y0.6338
X1.5189 Y0.6274
X1.5168 Y0.6208
X1.5153 Y0.6142
X1.5142 Y0.6075
X1.5138 Y0.6006
Y0.5937
X1.5145 Y0.5867
X1.5157 Y0.5799
X1.5174 Y0.5733
X1.5196 Y0.5668
X1.5224 Y0.5604
X1.5257 Y0.5542
X1.5295 Y0.5484
X1.5337 Y0.543
X1.5383 Y0.5379
X1.5433 Y0.5331
X1.5488 Y0.5287
X1.5546 Y0.5247
X1.5606 Y0.5213
X1.5668 Y0.5184
X1.5733 Y0.516
X1.5801 Y0.5141
X1.587 Y0.5128
X1.5939 Y0.512
X1.6008 Y0.5118
X1.6077 Y0.5121
X1.6146 Y0.513
X1.6215 Y0.5144
X1.6282 Y0.5164
X1.6347 Y0.5189
X1.6409 Y0.5219
X1.6468 Y0.5254
X1.6526 Y0.5294
X1.6581 Y0.5339
X1.6634 Y0.539
X1.6684 Y0.5448
X1.6734 Y0.5516
X1.6783 Y0.5593
X1.6824 Y0.5673
X1.6859 Y0.5756
X1.6887 Y0.5839
X1.6907 Y0.5922
X1.692 Y0.6005
X1.6927 Y0.6087
X1.6926 Y0.6167
X1.692 Y0.6246
X1.6907 Y0.6322
X1.6889 Y0.6396
X1.6865 Y0.6468
X1.6835 Y0.6537
X1.68 Y0.6604
X1.676 Y0.6667
X1.6714 Y0.6728
X1.6664 Y0.6785
X1.6608 Y0.6838
X1.6548 Y0.6887
X1.6484 Y0.6931
X1.6416 Y0.6971
X1.6344 Y0.7005
X1.627 Y0.7033
X1.6192 Y0.7055
X1.6112 Y0.7072
X1.6031 Y0.7082
X1.5948 Y0.7085
X1.5865 Y0.7082
X1.5781 Y0.7072
X1.5698 Y0.7055
X1.5616 Y0.7032
X1.5536 Y0.7002
X1.5458 Y0.6965
X1.5383 Y0.6921
X1.531 Y0.6872
X1.5242 Y0.6817
X1.5179 Y0.6756
X1.512 Y0.669
X1.5066 Y0.6619
X1.5018 Y0.6544
X1.4976 Y0.6465
X1.4941 Y0.6383
X1.4912 Y0.6298
X1.489 Y0.621
X1.4875 Y0.6121
X1.4867 Y0.6031
X1.4866 Y0.594
X1.4873 Y0.585
X1.4887 Y0.576
X1.4908 Y0.5672
X1.4937 Y0.5585
X1.4972 Y0.5501
X1.5014 Y0.542
X1.5062 Y0.5343
X1.5116 Y0.527
X1.5176 Y0.5201
X1.5241 Y0.5137
X1.5312 Y0.5079
X1.5386 Y0.5027
X1.5465 Y0.498
X1.5547 Y0.494
X1.5633 Y0.4907
X1.572 Y0.4881
X1.5809 Y0.4862
X1.59 Y0.485
X1.5991 Y0.4845
X1.6083 Y0.4848
X1.6174 Y0.4858
X1.6263 Y0.4876
X1.6351 Y0.49
X1.6437 Y0.4932
X1.652 Y0.497
X1.6601 Y0.5016
X1.6679 Y0.5068
X1.6755 Y0.5129
X1.6829 Y0.5198
X1.6898 Y0.5275
X1.6963 Y0.5358
X1.7021 Y0.5448
X1.7072 Y0.5542
X1.7115 Y0.564
X1.715 Y0.5741
X1.7177 Y0.5843
X1.7195 Y0.5946
X1.7205 Y0.6049
X1.7206 Y0.6151
X1.72 Y0.6252
X1.7185 Y0.6351
X1.7162 Y0.6448
X1.7132 Y0.6543
X1.7095 Y0.6635
X1.705 Y0.6723
X1.6999 Y0.6807
X1.6941 Y0.6887
X1.6876 Y0.6962
X1.6805 Y0.7032
X1.6729 Y0.7097
X1.6647 Y0.7155
X1.656 Y0.7207
X1.6469 Y0.7253
X1.6374 Y0.7291
X1.6275 Y0.7321
X1.6174 Y0.7343
X1.6071 Y0.7358
X1.5966 Y0.7364
X1.586 Y0.7362
X1.5754 Y0.7351
X1.5649 Y0.7331
X1.5545 Y0.7303
X1.5497 Y0.7286
X1.5493 Y0.7284
X1.5404 Y0.7246
X1.529 Y0.7197
X1.528 Y0.7192
X1.5269 Y0.7186
X1.52 Y0.7129
X1.498 Y0.6948
X1.4967 Y0.6934
X1.4906 Y0.6845
X1.4772 Y0.6648
X1.4752 Y0.6619
X1.4748 Y0.6612
X1.4746 Y0.6605
X1.463 Y0.625
X1.4627 Y0.6236
X1.4626 Y0.6222
X1.4615 Y0.5882
Y0.5825
X1.4638 Y0.5712
X1.465 Y0.5655
X1.4663 Y0.5598
X1.4696 Y0.5479
X1.4729 Y0.5389
X1.4771 Y0.5299
X1.4821 Y0.521
X1.4879 Y0.5123
X1.4945 Y0.5041
X1.5019 Y0.4962
X1.51 Y0.4888
X1.5188 Y0.482
X1.5282 Y0.476
X1.5381 Y0.4706
X1.5484 Y0.466
X1.5591 Y0.4623
X1.5701 Y0.4595
X1.5813 Y0.4575
X1.5927 Y0.4564
X1.6041 Y0.4563
X1.6154 Y0.457
X1.6267 Y0.4587
X1.6378 Y0.4613
X1.6487 Y0.4647
X1.6594 Y0.4691
X1.6698 Y0.4743
X1.6799 Y0.4805
X1.6897 Y0.4876
X1.699 Y0.4957
X1.7079 Y0.5045
X1.716 Y0.5142
X1.7193 Y0.5188
X1.7201 Y0.5201
X1.7208 Y0.5214
X1.7214 Y0.5228
X1.7227 Y0.5258
X1.7248 Y0.5315
X1.7306 Y0.5485
X1.7319 Y0.5542
X1.7386 Y0.5839
X1.7387 Y0.5853
X1.7382 Y0.6179
X1.738 Y0.6194
X1.7291 Y0.6505
X1.7274 Y0.6562
X1.7271 Y0.6569
X1.7268 Y0.6576
X1.7098 Y0.6845
X1.7061 Y0.6902
X1.7048 Y0.6915
X1.6807 Y0.7129
X1.6765 Y0.7164
X1.6708 Y0.7191
X1.6425 Y0.7326
X1.6417 Y0.7329
X1.641 Y0.7331
X1.6396 Y0.7334
X1.6084 Y0.7384
X1.6028 Y0.7392
X1.5971 Y0.7387
X1.5645 Y0.7346
X1.5631 Y0.7343
X1.5493 Y0.7284
G3 X1.5456 Y0.7247 I0.0034 J-0.0072
G1 X1.5369 Y0.707
X1.4758 Y0.5828
X1.467 Y0.5648
G3 X1.4663 Y0.5598 I0.0072 J-0.0035
G1 X1.4676 Y0.5542
X1.4689 Y0.5485
X1.475 Y0.5315
X1.477 Y0.5258
X1.4815 Y0.5145
X1.4838 Y0.5088
X1.495 Y0.484
X1.4966 Y0.4805
X1.4995 Y0.4752
X1.5028 Y0.4701
X1.5065 Y0.4655
X1.5112 Y0.4605
X1.5164 Y0.4558
X1.5228 Y0.4509
X1.5305 Y0.446
X1.5387 Y0.4416
X1.5482 Y0.4375
X1.5588 Y0.4338
X1.5702 Y0.4309
X1.5824 Y0.4288
X1.5949 Y0.4277
X1.6077 Y0.4276
X1.6207 Y0.4285
X1.6338 Y0.4305
X1.6469 Y0.4336
X1.6599 Y0.4378
X1.6727 Y0.4431
X1.684 Y0.4489
X1.6874 Y0.4511
X1.6902 Y0.454
X1.6923 Y0.4575
X1.7086 Y0.4918
X1.7162 Y0.5096
X1.7214 Y0.5228
G3 X1.7124 Y0.5333 I-0.0075 J0.0027
G1 X1.7043 Y0.5317
X1.5131 Y0.4936
X1.5024 Y0.4914
G3 X1.4966 Y0.4805 I0.0016 J-0.0078
G1 X1.502 Y0.4691
X1.5155 Y0.4408
X1.5184 Y0.4355
X1.522 Y0.4307
X1.5262 Y0.4264
X1.5307 Y0.4224
X1.5361 Y0.4185
X1.5423 Y0.4147
X1.5496 Y0.4109
X1.5584 Y0.4073
X1.5677 Y0.4043
X1.5784 Y0.4018
X1.5905 Y0.4
X1.6035 Y0.3991
X1.6171 Y0.3993
X1.631 Y0.4005
X1.6454 Y0.403
X1.6602 Y0.4068
X1.6632 Y0.4079
X1.6678 Y0.4102
X1.6715 Y0.4137
X1.6742 Y0.4181
X1.6822 Y0.4356
X1.6898 Y0.4521
X1.6923 Y0.4575
G3 X1.6842 Y0.4686 I-0.0073 J0.0032
G1 X1.6757 Y0.4678
X1.5321 Y0.453
X1.522 Y0.4519
G3 X1.5155 Y0.4408 I0.0008 J-0.008
G1 X1.5182 Y0.4351
X1.5256 Y0.4181
X1.5279 Y0.4124
X1.5305 Y0.407
X1.5337 Y0.4019
X1.5376 Y0.3974
X1.542 Y0.3933
X1.5468 Y0.3897
X1.5523 Y0.3861
X1.5587 Y0.3827
X1.5665 Y0.3794
X1.5748 Y0.3765
X1.585 Y0.374
X1.5964 Y0.3721
X1.6083 Y0.371
X1.6218 Y0.3709
X1.6366 Y0.372
X1.6467 Y0.3736
X1.6481 Y0.3739
X1.6537 Y0.3763
X1.6582 Y0.3804
X1.6612 Y0.3857
X1.6651 Y0.3964
X1.667 Y0.4011
X1.6718 Y0.4124
X1.6742 Y0.4181
G3 X1.6664 Y0.429 I-0.0075 J0.0029
G1 X1.6571 Y0.4286
X1.5452 Y0.4236
X1.5351 Y0.4232
G3 X1.5279 Y0.4124 I0.0004 J-0.008
G1 X1.5404 Y0.3819
X1.5428 Y0.3764
X1.5463 Y0.3715
X1.5503 Y0.3671
X1.5549 Y0.3631
X1.5598 Y0.3597
X1.5652 Y0.3564
X1.572 Y0.353
X1.5793 Y0.3501
X1.5885 Y0.3473
X1.5983 Y0.3452
X1.6097 Y0.3436
X1.621 Y0.343
X1.6289 Y0.3431
X1.6361 Y0.3439
X1.6368 Y0.344
X1.6434 Y0.3466
X1.6485 Y0.3514
X1.6515 Y0.3578
X1.6524 Y0.3614
X1.6612 Y0.3857
G3 X1.6534 Y0.3962 I-0.0076 J0.0025
G1 X1.6436 Y0.3958
X1.5578 Y0.3929
X1.5477 Y0.3925
G3 X1.5404 Y0.3819 I0.0003 J-0.008
G1 X1.5417 Y0.3784
X1.5469 Y0.3614
X1.5477 Y0.3583
X1.5494 Y0.3525
X1.5523 Y0.3473
X1.5559 Y0.3425
X1.5601 Y0.3382
X1.5647 Y0.3344
X1.5697 Y0.331
X1.5757 Y0.3275
X1.5824 Y0.3244
X1.5901 Y0.3215
X1.5984 Y0.3191
X1.607 Y0.3174
X1.6136 Y0.3166
X1.6202 Y0.3164
X1.6262 Y0.3166
X1.6296 Y0.3171
X1.6351 Y0.3187
X1.6399 Y0.3218
X1.6434 Y0.3263
X1.6455 Y0.3316
G3 X1.6401 Y0.3407 I-0.0079 J0.0014
G1 X1.6271 Y0.3449
X1.566 Y0.3649
X1.558 Y0.3675
G3 X1.5477 Y0.3583 I-0.0025 J-0.0076
G1 X1.5538 Y0.3331
X1.5555 Y0.3273
X1.558 Y0.3219
X1.5614 Y0.3169
X1.5654 Y0.3124
X1.5698 Y0.3084
X1.5747 Y0.3049
X1.5799 Y0.3016
X1.5856 Y0.2987
X1.5917 Y0.2962
X1.5982 Y0.2941
X1.6042 Y0.2927
X1.6103 Y0.2918
X1.6163 Y0.2914
X1.6223 Y0.2915
X1.6247 Y0.2918
X1.6304 Y0.2936
X1.6353 Y0.297
X1.6389 Y0.3019
X1.6407 Y0.3076
G3 X1.6355 Y0.316 I-0.0079 J0.0009
G1 X1.6219 Y0.321
X1.572 Y0.3394
X1.5644 Y0.3422
G3 X1.5538 Y0.3331 I-0.0028 J-0.0075
G1 X1.5551 Y0.3274
X1.5564 Y0.3217
X1.5596 Y0.3061
X1.5608 Y0.3003
X1.5634 Y0.2949
X1.5669 Y0.29
X1.5709 Y0.2855
X1.5754 Y0.2816
X1.5804 Y0.2781
X1.5856 Y0.2751
X1.591 Y0.2726
X1.5966 Y0.2706
X1.6024 Y0.269
X1.6083 Y0.268
X1.6143 Y0.2675
X1.6203 Y0.2678
X1.6264 Y0.2687
X1.6318 Y0.2713
X1.6362 Y0.2754
X1.639 Y0.2807
X1.64 Y0.2867
G3 X1.6344 Y0.294 I-0.008 J-0.0003
G1 X1.6199 Y0.2987
X1.5787 Y0.3119
X1.57 Y0.3147
G3 X1.5596 Y0.3061 I-0.0024 J-0.0076
G1 X1.5597 Y0.3054
X1.56 Y0.2877
X1.5603 Y0.2817
X1.5619 Y0.2759
X1.5646 Y0.2706
X1.5664 Y0.268
X1.5706 Y0.2637
X1.5758 Y0.2609
X1.5817 Y0.26
G3 X1.588 Y0.2725 I-0.0003 J0.008
G1 X1.5835 Y0.2791
X1.5775 Y0.2878
X1.5746 Y0.292
G3 X1.56 Y0.2877 I-0.0066 J-0.0045
G1 Y0.2679
X1.5601 Y0.2672
X1.5602 Y0.2664
X1.5605 Y0.2657
X1.5608 Y0.265
X1.5611 Y0.2643
X1.5616 Y0.2636
X1.5623 Y0.2629
X1.5631 Y0.2621
X1.5645 Y0.2612
X1.5652 Y0.2608
X1.5659 Y0.2605
X1.5666 Y0.2603
X1.5673 Y0.2601
X1.5687 Y0.26
X1.63
X1.6311
X1.6325 Y0.2601
X1.6332 Y0.2602
X1.634 Y0.2604
X1.6347 Y0.2607
X1.6354 Y0.261
X1.6361 Y0.2614
X1.6368 Y0.262
X1.6376 Y0.2627
X1.6383 Y0.2635
X1.6388 Y0.2643
X1.6392 Y0.265
X1.6395 Y0.2657
X1.6398 Y0.2664
X1.6399 Y0.2672
X1.64 Y0.2679
Y0.2877
X1.6403 Y0.3047
X1.6411 Y0.3104
X1.6425 Y0.3177
X1.6481 Y0.3436
X1.6513 Y0.3569
X1.6515 Y0.3578
G3 X1.6409 Y0.367 I-0.0078 J0.0017
G1 X1.6395 Y0.3659 Z-0.0798
X1.6382 Y0.3649 Z-0.0792
X1.637 Y0.364 Z-0.0783
X1.6365 Y0.3628 Z-0.0769
X1.6361 Y0.3619 Z-0.0753
X1.6359 Y0.3614 Z-0.0737
Y0.3612 Z-0.072
G0 Z0.2
X2.738 Y0.602
Z0.128
G1 Z0.12 F40
G3 X2.6624 Y0.5948 Z0.1158 I-0.0378 J-0.0036 F13.33
X2.738 Y0.602 Z0.1117 I0.0378 J0.0036
X2.6624 Y0.5948 Z0.1075 I-0.0378 J-0.0036
X2.738 Y0.602 Z0.1033 I0.0378 J0.0036
X2.6624 Y0.5948 Z0.0992 I-0.0378 J-0.0036
X2.738 Y0.602 Z0.095 I0.0378 J0.0036
X2.6624 Y0.5948 Z0.0908 I-0.0378 J-0.0036
X2.738 Y0.602 Z0.0866 I0.0378 J0.0036
X2.6624 Y0.5948 Z0.0825 I-0.0378 J-0.0036
X2.738 Y0.602 Z0.0783 I0.0378 J0.0036
X2.6624 Y0.5948 Z0.0741 I-0.0378 J-0.0036
X2.738 Y0.602 Z0.07 I0.0378 J0.0036
X2.6624 Y0.5948 Z0.0658 I-0.0378 J-0.0036
X2.738 Y0.602 Z0.0616 I0.0378 J0.0036
X2.6624 Y0.5948 Z0.0575 I-0.0378 J-0.0036
X2.738 Y0.602 Z0.0533 I0.0378 J0.0036
X2.6624 Y0.5948 Z0.0491 I-0.0378 J-0.0036
X2.738 Y0.602 Z0.045 I0.0378 J0.0036
X2.6624 Y0.5948 Z0.0408 I-0.0378 J-0.0036
X2.738 Y0.602 Z0.0366 I0.0378 J0.0036
X2.6624 Y0.5948 Z0.0325 I-0.0378 J-0.0036
X2.738 Y0.602 Z0.0283 I0.0378 J0.0036
X2.6624 Y0.5948 Z0.0241 I-0.0378 J-0.0036
X2.738 Y0.602 Z0.0199 I0.0378 J0.0036
X2.6624 Y0.5948 Z0.0158 I-0.0378 J-0.0036
X2.738 Y0.602 Z0.0116 I0.0378 J0.0036
X2.6624 Y0.5948 Z0.0074 I-0.0378 J-0.0036
X2.738 Y0.602 Z0.0033 I0.0378 J0.0036
X2.6624 Y0.5948 Z-0.0009 I-0.0378 J-0.0036
X2.738 Y0.602 Z-0.0051 I0.0378 J0.0036
X2.6624 Y0.5948 Z-0.0092 I-0.0378 J-0.0036
X2.738 Y0.602 Z-0.0134 I0.0378 J0.0036
X2.6624 Y0.5948 Z-0.0176 I-0.0378 J-0.0036
X2.738 Y0.602 Z-0.0217 I0.0378 J0.0036
X2.6624 Y0.5948 Z-0.0259 I-0.0378 J-0.0036
X2.7382 Y0.5984 Z-0.03 I0.0378 J0.0036
X2.6622 I-0.038
X2.7382 I0.038
G1 X2.7394 Y0.6219 F40
X2.7392 Y0.6279
X2.7376 Y0.6336
X2.7347 Y0.6389
X2.731 Y0.6436
X2.7266 Y0.6477
X2.7216 Y0.6511
X2.7163 Y0.6537
X2.7106 Y0.6557
X2.7047 Y0.657
X2.6987 Y0.6576
X2.6928 Y0.6575
X2.6868 Y0.6567
X2.681 Y0.6553
X2.6753 Y0.6533
X2.6699 Y0.6507
X2.6648 Y0.6475
X2.66 Y0.6439
X2.6557 Y0.6397
X2.6518 Y0.6352
X2.6483 Y0.6303
X2.6454 Y0.625
X2.643 Y0.6195
X2.6412 Y0.6138
X2.6399 Y0.608
X2.6392 Y0.602
Y0.596
X2.6397 Y0.59
X2.6408 Y0.5841
X2.6424 Y0.5784
X2.6447 Y0.5728
X2.6474 Y0.5675
X2.6507 Y0.5624
X2.6545 Y0.5578
X2.6587 Y0.5535
X2.6633 Y0.5496
X2.6682 Y0.5462
X2.6735 Y0.5434
X2.679 Y0.541
X2.6847 Y0.5392
X2.6906 Y0.538
X2.6966 Y0.5373
X2.7026
X2.7085 Y0.5378
X2.7144 Y0.5389
X2.7202 Y0.5406
X2.7258 Y0.5428
X2.7311 Y0.5456
X2.7361 Y0.5489
X2.7408 Y0.5526
X2.7451 Y0.5568
X2.7489 Y0.5614
X2.7523 Y0.5664
X2.7552 Y0.5717
X2.7584 Y0.5787
X2.7616 Y0.5877
X2.7639 Y0.5966
X2.7651 Y0.6031
X2.7658 Y0.6098
X2.7659 Y0.6158
X2.7655 Y0.6218
X2.7646 Y0.6277
X2.7632 Y0.6336
X2.7612 Y0.6392
X2.7587 Y0.6447
X2.7558 Y0.6499
X2.7523 Y0.6548
X2.7485 Y0.6594
X2.7442 Y0.6636
X2.7396 Y0.6675
X2.7346 Y0.6709
X2.7294 Y0.6738
X2.724 Y0.6764
X2.7183 Y0.6784
X2.7125 Y0.68
X2.7065 Y0.6812
X2.7004 Y0.6818
X2.6944 Y0.6819
X2.6881 Y0.6816
X2.6817 Y0.6807
X2.6755 Y0.6794
X2.6695 Y0.6775
X2.6634 Y0.6751
X2.6574 Y0.6722
X2.6518 Y0.6688
X2.6465 Y0.6651
X2.6414 Y0.6608
X2.6365 Y0.656
X2.6321 Y0.6509
X2.6281 Y0.6455
X2.6246 Y0.6398
X2.6215 Y0.6337
X2.6189 Y0.6273
X2.6168 Y0.6207
X2.6152 Y0.6141
X2.6142 Y0.6074
X2.6138 Y0.6006
Y0.5936
X2.6145 Y0.5866
X2.6156 Y0.5799
X2.6173 Y0.5733
X2.6196 Y0.5668
X2.6224 Y0.5604
X2.6257 Y0.5542
X2.6295 Y0.5483
X2.6336 Y0.5429
X2.6382 Y0.5378
X2.6433 Y0.533
X2.6488 Y0.5286
X2.6546 Y0.5247
X2.6606 Y0.5213
X2.6668 Y0.5184
X2.6733 Y0.516
X2.6801 Y0.5141
X2.687 Y0.5127
X2.6939 Y0.5119
X2.7008 Y0.5117
X2.7077 Y0.512
X2.7146 Y0.5129
X2.7215 Y0.5144
X2.7282 Y0.5164
X2.7347 Y0.5188
X2.7408 Y0.5218
X2.7468 Y0.5253
X2.7526 Y0.5293
X2.758 Y0.5338
X2.7634 Y0.539
X2.7684 Y0.5447
X2.7734 Y0.5515
X2.7783 Y0.5592
X2.7824 Y0.5672
X2.7859 Y0.5755
X2.7887 Y0.5839
X2.7907 Y0.5922
X2.792 Y0.6005
X2.7927 Y0.6086
X2.7926 Y0.6166
X2.792 Y0.6245
X2.7907 Y0.6321
X2.7889 Y0.6396
X2.7865 Y0.6468
X2.7835 Y0.6537
X2.78 Y0.6603
X2.776 Y0.6667
X2.7714 Y0.6727
X2.7663 Y0.6784
X2.7608 Y0.6838
X2.7548 Y0.6887
X2.7484 Y0.6931
X2.7416 Y0.697
X2.7344 Y0.7004
X2.727 Y0.7032
X2.7192 Y0.7055
X2.7112 Y0.7071
X2.7031 Y0.7081
X2.6948 Y0.7085
X2.6865 Y0.7082
X2.6781 Y0.7072
X2.6698 Y0.7055
X2.6616 Y0.7031
X2.6536 Y0.7001
X2.6458 Y0.6964
X2.6382 Y0.6921
X2.631 Y0.6871
X2.6242 Y0.6816
X2.6178 Y0.6755
X2.612 Y0.6689
X2.6066 Y0.6619
X2.6018 Y0.6543
X2.5976 Y0.6464
X2.594 Y0.6382
X2.5912 Y0.6297
X2.589 Y0.621
X2.5875 Y0.612
X2.5867 Y0.603
X2.5866 Y0.594
X2.5873 Y0.5849
X2.5887 Y0.576
X2.5908 Y0.5671
X2.5937 Y0.5585
X2.5972 Y0.5501
X2.6013 Y0.542
X2.6061 Y0.5343
X2.6116 Y0.5269
X2.6176 Y0.52
X2.6241 Y0.5137
X2.6311 Y0.5078
X2.6386 Y0.5026
X2.6465 Y0.498
X2.6547 Y0.494
X2.6632 Y0.4907
X2.672 Y0.488
X2.6809 Y0.4861
X2.69 Y0.4849
X2.6991 Y0.4845
X2.7083 Y0.4848
X2.7174 Y0.4858
X2.7263 Y0.4875
X2.7351 Y0.49
X2.7437 Y0.4931
X2.752 Y0.497
X2.7601 Y0.5015
X2.7679 Y0.5068
X2.7755 Y0.5128
X2.7829 Y0.5197
X2.7898 Y0.5274
X2.7963 Y0.5358
X2.8021 Y0.5448
X2.8072 Y0.5542
X2.8115 Y0.564
X2.815 Y0.574
X2.8177 Y0.5842
X2.8195 Y0.5945
X2.8205 Y0.6048
X2.8206 Y0.6151
X2.8199 Y0.6252
X2.8185 Y0.6351
X2.8162 Y0.6448
X2.8132 Y0.6542
X2.8095 Y0.6634
X2.805 Y0.6722
X2.7999 Y0.6806
X2.7941 Y0.6886
X2.7876 Y0.6962
X2.7805 Y0.7032
X2.7729 Y0.7096
X2.7647 Y0.7155
X2.756 Y0.7207
X2.7469 Y0.7252
X2.7374 Y0.729
X2.7275 Y0.732
X2.7174 Y0.7343
X2.7071 Y0.7357
X2.6966 Y0.7363
X2.686 Y0.7361
X2.6754 Y0.735
X2.6649 Y0.7331
X2.6545 Y0.7303
X2.649 Y0.7283
X2.6486 Y0.7281
X2.6406 Y0.7247
X2.6293 Y0.7198
X2.6281 Y0.7193
X2.6269 Y0.7186
X2.6236 Y0.7159
X2.5994 Y0.6959
X2.5969 Y0.6936
X2.5952 Y0.6913
X2.5773 Y0.665
X2.5752 Y0.6619
X2.5749 Y0.6612
X2.5746 Y0.6605
X2.563 Y0.625
X2.5627 Y0.6236
X2.5626 Y0.6222
X2.5615 Y0.5882
Y0.5825
X2.5638 Y0.5712
X2.565 Y0.5655
X2.5663 Y0.5598
X2.5697 Y0.5478
X2.573 Y0.5388
X2.5771 Y0.5298
X2.5821 Y0.5209
X2.5879 Y0.5123
X2.5945 Y0.504
X2.6019 Y0.4961
X2.61 Y0.4888
X2.6188 Y0.482
X2.6282 Y0.4759
X2.6381 Y0.4705
X2.6484 Y0.466
X2.6591 Y0.4623
X2.6701 Y0.4594
X2.6813 Y0.4574
X2.6927 Y0.4564
X2.704 Y0.4562
X2.7154 Y0.457
X2.7267 Y0.4586
X2.7378 Y0.4612
X2.7487 Y0.4647
X2.7594 Y0.469
X2.7698 Y0.4743
X2.7799 Y0.4805
X2.7897 Y0.4876
X2.799 Y0.4956
X2.8078 Y0.5045
X2.816 Y0.5142
X2.8193 Y0.5187
X2.8201 Y0.52
X2.8208 Y0.5213
X2.8214 Y0.5227
X2.8227 Y0.5258
X2.8248 Y0.5315
X2.8288 Y0.5428
X2.8307 Y0.5485
X2.8383 Y0.5825
X2.8386 Y0.5839
X2.8387 Y0.5853
X2.8383 Y0.6165
X2.8382 Y0.6179
X2.838 Y0.6194
X2.8323 Y0.6392
X2.8278 Y0.6552
X2.8274 Y0.6562
X2.8271 Y0.6569
X2.8268 Y0.6576
X2.8072 Y0.6888
X2.8067 Y0.6895
X2.8061 Y0.6902
X2.8051 Y0.6913
X2.7807 Y0.7129
X2.7767 Y0.7162
X2.771 Y0.719
X2.7427 Y0.7325
X2.7413 Y0.7331
X2.7398 Y0.7334
X2.7087 Y0.7384
X2.703 Y0.7393
X2.7016 Y0.7392
X2.669 Y0.7352
X2.6633 Y0.7343
X2.6576 Y0.732
X2.6486 Y0.7281
G3 X2.6449 Y0.7244 I0.0034 J-0.0072
G1 X2.6362 Y0.7067
X2.5758 Y0.5828
X2.567 Y0.5648
G3 X2.5663 Y0.5598 I0.0072 J-0.0035
G1 X2.5676 Y0.5542
X2.5689 Y0.5485
X2.575 Y0.5315
X2.5771 Y0.5258
X2.5815 Y0.5145
X2.5839 Y0.5087
X2.5915 Y0.4918
X2.5967 Y0.4805
X2.5995 Y0.4751
X2.6028 Y0.4701
X2.6065 Y0.4654
X2.6112 Y0.4605
X2.6164 Y0.4558
X2.6228 Y0.4509
X2.6304 Y0.446
X2.6386 Y0.4416
X2.6481 Y0.4374
X2.6587 Y0.4338
X2.6701 Y0.4309
X2.6822 Y0.4288
X2.6947 Y0.4277
X2.7075 Y0.4275
X2.7205 Y0.4285
X2.7336 Y0.4304
X2.7468 Y0.4335
X2.7598 Y0.4377
X2.7726 Y0.443
X2.7852 Y0.4495
X2.788 Y0.4516
X2.7904 Y0.4543
X2.7923 Y0.4574
X2.8113 Y0.4975
X2.8214 Y0.5227
G3 X2.8123 Y0.5332 I-0.0075 J0.0027
G1 X2.8042 Y0.5316
X2.6133 Y0.4935
X2.6025 Y0.4914
G3 X2.5967 Y0.4805 I0.0016 J-0.0078
G1 X2.6009 Y0.4714
X2.6155 Y0.4408
X2.6184 Y0.4355
X2.622 Y0.4307
X2.6261 Y0.4264
X2.6307 Y0.4224
X2.636 Y0.4185
X2.6423 Y0.4146
X2.6495 Y0.4109
X2.6583 Y0.4073
X2.6676 Y0.4043
X2.6783 Y0.4018
X2.6903 Y0.4
X2.7033 Y0.3991
X2.7169 Y0.3992
X2.7308 Y0.4005
X2.7452 Y0.403
X2.76 Y0.4067
X2.7631 Y0.4078
X2.7677 Y0.4102
X2.7715 Y0.4137
X2.7742 Y0.4181
X2.7824 Y0.4361
X2.7898 Y0.4521
X2.7923 Y0.4574
G3 X2.7841 Y0.4685 I-0.0073 J0.0032
G1 X2.7756 Y0.4676
X2.6321 Y0.453
X2.6221 Y0.4519
G3 X2.6155 Y0.4408 I0.0008 J-0.008
G1 X2.6182 Y0.4351
X2.6256 Y0.4181
X2.6279 Y0.4124
X2.6305 Y0.407
X2.6337 Y0.4019
X2.6376 Y0.3974
X2.642 Y0.3933
X2.6467 Y0.3896
X2.6523 Y0.3861
X2.6586 Y0.3827
X2.6664 Y0.3793
X2.6748 Y0.3765
X2.6849 Y0.3739
X2.6963 Y0.372
X2.7082 Y0.371
X2.7217 Y0.3709
X2.7365 Y0.372
X2.7466 Y0.3736
X2.748 Y0.3739
X2.7537 Y0.3763
X2.7582 Y0.3803
X2.7612 Y0.3856
X2.7654 Y0.397
X2.7694 Y0.4068
X2.7718 Y0.4124
X2.7742 Y0.4181
G3 X2.7664 Y0.429 I-0.0075 J0.0029
G1 X2.7571 Y0.4286
X2.6452 Y0.4236
X2.6351 Y0.4232
G3 X2.6279 Y0.4124 I0.0004 J-0.008
G1 X2.6406 Y0.3813
X2.6431 Y0.3759
X2.6466 Y0.371
X2.6507 Y0.3666
X2.6553 Y0.3627
X2.6603 Y0.3592
X2.6658 Y0.356
X2.6728 Y0.3526
X2.6802 Y0.3498
X2.6894 Y0.347
X2.6995 Y0.3449
X2.7109 Y0.3434
X2.7219 Y0.3429
X2.7298 Y0.3432
X2.737 Y0.344
X2.7435 Y0.3466
X2.7485 Y0.3514
X2.7515 Y0.3578
G3 X2.7457 Y0.3672 I-0.0078 J0.0017
G1 X2.7332 Y0.3704
X2.6577 Y0.3898
X2.6501 Y0.3918
G3 X2.6406 Y0.3813 I-0.002 J-0.0077
G1 X2.6418 Y0.3784
X2.6437 Y0.3727
X2.6456 Y0.3671
X2.6477 Y0.3583
X2.6494 Y0.3525
X2.6523 Y0.3473
X2.6559 Y0.3425
X2.6601 Y0.3382
X2.6647 Y0.3344
X2.6696 Y0.331
X2.6757 Y0.3275
X2.6823 Y0.3244
X2.69 Y0.3215
X2.6984 Y0.3191
X2.707 Y0.3174
X2.7136 Y0.3166
X2.7201 Y0.3163
X2.7261 Y0.3166
X2.7296 Y0.317
X2.7351 Y0.3186
X2.7398 Y0.3218
X2.7434 Y0.3262
X2.7455 Y0.3316
G3 X2.7401 Y0.3406 I-0.0079 J0.0014
G1 X2.7271 Y0.3448
X2.6661 Y0.3649
X2.658 Y0.3675
G3 X2.6477 Y0.3583 I-0.0025 J-0.0076
G1 X2.6538 Y0.3331
X2.6555 Y0.3273
X2.658 Y0.3219
X2.6614 Y0.3169
X2.6654 Y0.3124
X2.6698 Y0.3084
X2.6746 Y0.3048
X2.6799 Y0.3016
X2.6855 Y0.2987
X2.6916 Y0.2962
X2.6982 Y0.2941
X2.7042 Y0.2927
X2.7102 Y0.2918
X2.7162 Y0.2913
X2.7222 Y0.2915
X2.7247 Y0.2918
X2.7304 Y0.2935
X2.7353 Y0.2969
X2.7388 Y0.3017
X2.7407 Y0.3073
G3 X2.7355 Y0.3158 I-0.0079 J0.001
G1 X2.722 Y0.3208
X2.672 Y0.3393
X2.6644 Y0.3422
G3 X2.6538 Y0.3331 I-0.0028 J-0.0075
G1 X2.6551 Y0.3274
X2.6564 Y0.3217
X2.6596 Y0.3061
X2.6608 Y0.3003
X2.6634 Y0.2949
X2.6669 Y0.2899
X2.6709 Y0.2855
X2.6754 Y0.2816
X2.6803 Y0.2781
X2.6855 Y0.2751
X2.691 Y0.2726
X2.6966 Y0.2705
X2.7024 Y0.2689
X2.7083 Y0.2679
X2.7143 Y0.2675
X2.7203 Y0.2677
X2.7263 Y0.2687
X2.7318 Y0.2712
X2.7362 Y0.2753
X2.739 Y0.2807
X2.74 Y0.2866
G3 X2.7345 Y0.294 I-0.008 J-0.0003
G1 X2.7199 Y0.2987
X2.6787 Y0.3119
X2.67 Y0.3147
G3 X2.6596 Y0.3061 I-0.0024 J-0.0076
G1 X2.6597 Y0.3054
X2.66 Y0.2877
X2.6603 Y0.2817
X2.6619 Y0.2759
X2.6646 Y0.2706
X2.6664 Y0.268
X2.6705 Y0.2637
X2.6758 Y0.261
X2.6817 Y0.26
G3 X2.688 Y0.2725 I-0.0003 J0.008
G1 X2.6834 Y0.2791
X2.6775 Y0.2878
X2.6746 Y0.292
G3 X2.66 Y0.2877 I-0.0066 J-0.0045
G1 Y0.2679
X2.6601 Y0.2672
X2.6602 Y0.2664
X2.6605 Y0.2657
X2.6608 Y0.265
X2.6612 Y0.2643
X2.6617 Y0.2635
X2.6625 Y0.2626
X2.6633 Y0.2619
X2.664 Y0.2614
X2.6647 Y0.2609
X2.6654 Y0.2606
X2.6661 Y0.2604
X2.6668 Y0.2602
X2.6675 Y0.2601
X2.669 Y0.26
X2.7302
X2.7313
X2.7328 Y0.2601
X2.7335 Y0.2602
X2.7342 Y0.2604
X2.7349 Y0.2607
X2.7356 Y0.2611
X2.7363 Y0.2616
X2.737 Y0.2622
X2.7384 Y0.2636
X2.7389 Y0.2643
X2.7392 Y0.265
X2.7395 Y0.2657
X2.7398 Y0.2664
X2.7399 Y0.2672
X2.74 Y0.2679
Y0.2877
X2.7403 Y0.3047
X2.7412 Y0.3104
X2.7434 Y0.3217
X2.7446 Y0.3274
X2.747 Y0.3387
X2.7484 Y0.3446
X2.751 Y0.3557
X2.7524 Y0.3614
X2.7565 Y0.3727
X2.7612 Y0.3856
G3 X2.7516 Y0.3959 I-0.0076 J0.0025
G1 X2.7501 Y0.3949 Z-0.0297
X2.7487 Y0.3941 Z-0.0292
X2.7475 Y0.3933 Z-0.0282
X2.7468 Y0.3921 Z-0.0269
X2.7463 Y0.3913 Z-0.0253
X2.7461 Y0.3908 Z-0.0237
X2.746 Y0.3906 Z-0.022
G0 Z0.2
X2.7382 Y0.5993
Z0.078
G1 Z0.07 F40
G3 X2.6622 Y0.5975 Z0.0659 I-0.038 J-0.0009 F13.33
X2.7382 Y0.5993 Z0.0617 I0.038 J0.0009
X2.6622 Y0.5975 Z0.0575 I-0.038 J-0.0009
X2.7382 Y0.5993 Z0.0534 I0.038 J0.0009
X2.6622 Y0.5975 Z0.0492 I-0.038 J-0.0009
X2.7382 Y0.5993 Z0.045 I0.038 J0.0009
X2.6622 Y0.5975 Z0.0409 I-0.038 J-0.0009
X2.7382 Y0.5993 Z0.0367 I0.038 J0.0009
X2.6622 Y0.5975 Z0.0325 I-0.038 J-0.0009
X2.7382 Y0.5993 Z0.0284 I0.038 J0.0009
X2.6622 Y0.5975 Z0.0242 I-0.038 J-0.0009
X2.7382 Y0.5993 Z0.02 I0.038 J0.0009
X2.6622 Y0.5975 Z0.0159 I-0.038 J-0.0009
X2.7382 Y0.5993 Z0.0117 I0.038 J0.0009
X2.6622 Y0.5975 Z0.0075 I-0.038 J-0.0009
X2.7382 Y0.5993 Z0.0033 I0.038 J0.0009
X2.6622 Y0.5975 Z-0.0008 I-0.038 J-0.0009
X2.7382 Y0.5993 Z-0.005 I0.038 J0.0009
X2.6622 Y0.5975 Z-0.0092 I-0.038 J-0.0009
X2.7382 Y0.5993 Z-0.0133 I0.038 J0.0009
X2.6622 Y0.5975 Z-0.0175 I-0.038 J-0.0009
X2.7382 Y0.5993 Z-0.0217 I0.038 J0.0009
X2.6622 Y0.5975 Z-0.0258 I-0.038 J-0.0009
X2.7382 Y0.5993 Z-0.03 I0.038 J0.0009
X2.6622 Y0.5975 Z-0.0342 I-0.038 J-0.0009
X2.7382 Y0.5993 Z-0.0383 I0.038 J0.0009
X2.6622 Y0.5975 Z-0.0425 I-0.038 J-0.0009
X2.7382 Y0.5993 Z-0.0467 I0.038 J0.0009
X2.6622 Y0.5975 Z-0.0508 I-0.038 J-0.0009
X2.7382 Y0.5993 Z-0.055 I0.038 J0.0009
X2.6622 Y0.5975 Z-0.0592 I-0.038 J-0.0009
X2.7382 Y0.5993 Z-0.0634 I0.038 J0.0009
X2.6622 Y0.5975 Z-0.0675 I-0.038 J-0.0009
X2.7382 Y0.5993 Z-0.0717 I0.038 J0.0009
X2.6622 Y0.5975 Z-0.0759 I-0.038 J-0.0009
X2.7382 Y0.5984 Z-0.08 I0.038 J0.0009
X2.6622 I-0.038
X2.7382 I0.038
G1 X2.7394 Y0.6219 F40
X2.7392 Y0.6279
X2.7376 Y0.6336
X2.7347 Y0.6389
X2.731 Y0.6436
X2.7266 Y0.6477
X2.7216 Y0.6511
X2.7163 Y0.6537
X2.7106 Y0.6557
X2.7047 Y0.657
X2.6987 Y0.6576
X2.6928 Y0.6575
X2.6868 Y0.6567
X2.681 Y0.6553
X2.6753 Y0.6533
X2.6699 Y0.6507
X2.6648 Y0.6475
X2.66 Y0.6439
X2.6557 Y0.6397
X2.6518 Y0.6352
X2.6483 Y0.6303
X2.6454 Y0.625
X2.643 Y0.6195
X2.6412 Y0.6138
X2.6399 Y0.608
X2.6392 Y0.602
Y0.596
X2.6397 Y0.59
X2.6408 Y0.5841
X2.6424 Y0.5784
X2.6447 Y0.5728
X2.6474 Y0.5675
X2.6507 Y0.5624
X2.6545 Y0.5578
X2.6587 Y0.5535
X2.6633 Y0.5496
X2.6682 Y0.5462
X2.6735 Y0.5434
X2.679 Y0.541
X2.6847 Y0.5392
X2.6906 Y0.538
X2.6966 Y0.5373
X2.7026
X2.7085 Y0.5378
X2.7144 Y0.5389
X2.7202 Y0.5406
X2.7258 Y0.5428
X2.7311 Y0.5456
X2.7361 Y0.5489
X2.7408 Y0.5526
X2.7451 Y0.5568
X2.7489 Y0.5614
X2.7523 Y0.5664
X2.7552 Y0.5717
X2.7584 Y0.5787
X2.7616 Y0.5877
X2.7639 Y0.5966
X2.7651 Y0.6031
X2.7658 Y0.6098
X2.7659 Y0.6158
X2.7655 Y0.6218
X2.7646 Y0.6277
X2.7632 Y0.6336
X2.7612 Y0.6392
X2.7587 Y0.6447
X2.7558 Y0.6499
X2.7523 Y0.6548
X2.7485 Y0.6594
X2.7442 Y0.6636
X2.7396 Y0.6675
X2.7346 Y0.6709
X2.7294 Y0.6738
X2.724 Y0.6764
X2.7183 Y0.6784
X2.7125 Y0.68
X2.7065 Y0.6812
X2.7004 Y0.6818
X2.6944 Y0.6819
X2.6881 Y0.6816
X2.6817 Y0.6807
X2.6755 Y0.6794
X2.6695 Y0.6775
X2.6634 Y0.6751
X2.6574 Y0.6722
X2.6518 Y0.6688
X2.6465 Y0.6651
X2.6414 Y0.6608
X2.6365 Y0.656
X2.6321 Y0.6509
X2.6281 Y0.6455
X2.6246 Y0.6398
X2.6215 Y0.6337
X2.6189 Y0.6273
X2.6168 Y0.6207
X2.6152 Y0.6141
X2.6142 Y0.6074
X2.6138 Y0.6006
Y0.5936
X2.6145 Y0.5866
X2.6156 Y0.5799
X2.6173 Y0.5733
X2.6196 Y0.5668
X2.6224 Y0.5604
X2.6257 Y0.5542
X2.6295 Y0.5483
X2.6336 Y0.5429
X2.6382 Y0.5378
X2.6433 Y0.533
X2.6488 Y0.5286
X2.6546 Y0.5247
X2.6606 Y0.5213
X2.6668 Y0.5184
X2.6733 Y0.516
X2.6801 Y0.5141
X2.687 Y0.5127
X2.6939 Y0.5119
X2.7008 Y0.5117
X2.7077 Y0.512
X2.7146 Y0.5129
X2.7215 Y0.5144
X2.7282 Y0.5164
X2.7347 Y0.5188
X2.7408 Y0.5218
X2.7468 Y0.5253
X2.7526 Y0.5293
X2.758 Y0.5338
X2.7634 Y0.539
X2.7684 Y0.5447
X2.7734 Y0.5515
X2.7783 Y0.5592
X2.7824 Y0.5672
X2.7859 Y0.5755
X2.7887 Y0.5839
X2.7907 Y0.5922
X2.792 Y0.6005
X2.7927 Y0.6086
X2.7926 Y0.6166
X2.792 Y0.6245
X2.7907 Y0.6321
X2.7889 Y0.6396
X2.7865 Y0.6468
X2.7835 Y0.6537
X2.78 Y0.6603
X2.776 Y0.6667
X2.7714 Y0.6727
X2.7663 Y0.6784
X2.7608 Y0.6838
X2.7548 Y0.6887
X2.7484 Y0.6931
X2.7416 Y0.697
X2.7344 Y0.7004
X2.727 Y0.7032
X2.7192 Y0.7055
X2.7112 Y0.7071
X2.7031 Y0.7081
X2.6948 Y0.7085
X2.6865 Y0.7082
X2.6781 Y0.7072
X2.6698 Y0.7055
X2.6616 Y0.7031
X2.6536 Y0.7001
X2.6458 Y0.6964
X2.6382 Y0.6921
X2.631 Y0.6871
X2.6242 Y0.6816
X2.6178 Y0.6755
X2.612 Y0.6689
X2.6066 Y0.6619
X2.6018 Y0.6543
X2.5976 Y0.6464
X2.594 Y0.6382
X2.5912 Y0.6297
X2.589 Y0.621
X2.5875 Y0.612
X2.5867 Y0.603
X2.5866 Y0.594
X2.5873 Y0.5849
X2.5887 Y0.576
X2.5908 Y0.5671
X2.5937 Y0.5585
X2.5972 Y0.5501
X2.6013 Y0.542
X2.6061 Y0.5343
X2.6116 Y0.5269
X2.6176 Y0.52
X2.6241 Y0.5137
X2.6311 Y0.5078
X2.6386 Y0.5026
X2.6465 Y0.498
X2.6547 Y0.494
X2.6632 Y0.4907
X2.672 Y0.488
X2.6809 Y0.4861
X2.69 Y0.4849
X2.6991 Y0.4845
X2.7083 Y0.4848
X2.7174 Y0.4858
X2.7263 Y0.4875
X2.7351 Y0.49
X2.7437 Y0.4931
X2.752 Y0.497
X2.7601 Y0.5015
X2.7679 Y0.5068
X2.7755 Y0.5128
X2.7829 Y0.5197
X2.7898 Y0.5274
X2.7963 Y0.5358
X2.8021 Y0.5448
X2.8072 Y0.5542
X2.8115 Y0.564
X2.815 Y0.574
X2.8177 Y0.5842
X2.8195 Y0.5945
X2.8205 Y0.6048
X2.8206 Y0.6151
X2.8199 Y0.6252
X2.8185 Y0.6351
X2.8162 Y0.6448
X2.8132 Y0.6542
X2.8095 Y0.6634
X2.805 Y0.6722
X2.7999 Y0.6806
X2.7941 Y0.6886
X2.7876 Y0.6962
X2.7805 Y0.7032
X2.7729 Y0.7096
X2.7647 Y0.7155
X2.756 Y0.7207
X2.7469 Y0.7252
X2.7374 Y0.729
X2.7275 Y0.732
X2.7174 Y0.7343
X2.7071 Y0.7357
X2.6966 Y0.7363
X2.686 Y0.7361
X2.6754 Y0.735
X2.6649 Y0.7331
X2.6545 Y0.7303
X2.649 Y0.7283
X2.6486 Y0.7281
X2.6406 Y0.7247
X2.6293 Y0.7198
X2.6281 Y0.7193
X2.6269 Y0.7186
X2.6236 Y0.7159
X2.5994 Y0.6959
X2.5969 Y0.6936
X2.5952 Y0.6913
X2.5773 Y0.665
X2.5752 Y0.6619
X2.5749 Y0.6612
X2.5746 Y0.6605
X2.563 Y0.625
X2.5627 Y0.6236
X2.5626 Y0.6222
X2.5615 Y0.5882
Y0.5825
X2.5638 Y0.5712
X2.565 Y0.5655
X2.5663 Y0.5598
X2.5697 Y0.5478
X2.573 Y0.5388
X2.5771 Y0.5298
X2.5821 Y0.5209
X2.5879 Y0.5123
X2.5945 Y0.504
X2.6019 Y0.4961
X2.61 Y0.4888
X2.6188 Y0.482
X2.6282 Y0.4759
X2.6381 Y0.4705
X2.6484 Y0.466
X2.6591 Y0.4623
X2.6701 Y0.4594
X2.6813 Y0.4574
X2.6927 Y0.4564
X2.704 Y0.4562
X2.7154 Y0.457
X2.7267 Y0.4586
X2.7378 Y0.4612
X2.7487 Y0.4647
X2.7594 Y0.469
X2.7698 Y0.4743
X2.7799 Y0.4805
X2.7897 Y0.4876
X2.799 Y0.4956
X2.8078 Y0.5045
X2.816 Y0.5142
X2.8193 Y0.5187
X2.8201 Y0.52
X2.8208 Y0.5213
X2.8214 Y0.5227
X2.8227 Y0.5258
X2.8248 Y0.5315
X2.8288 Y0.5428
X2.8307 Y0.5485
X2.8383 Y0.5825
X2.8386 Y0.5839
X2.8387 Y0.5853
X2.8383 Y0.6165
X2.8382 Y0.6179
X2.838 Y0.6194
X2.8323 Y0.6392
X2.8278 Y0.6552
X2.8274 Y0.6562
X2.8271 Y0.6569
X2.8268 Y0.6576
X2.8072 Y0.6888
X2.8067 Y0.6895
X2.8061 Y0.6902
X2.8051 Y0.6913
X2.7807 Y0.7129
X2.7767 Y0.7162
X2.771 Y0.719
X2.7427 Y0.7325
X2.7413 Y0.7331
X2.7398 Y0.7334
X2.7087 Y0.7384
X2.703 Y0.7393
X2.7016 Y0.7392
X2.669 Y0.7352
X2.6633 Y0.7343
X2.6576 Y0.732
X2.6486 Y0.7281
G3 X2.6449 Y0.7244 I0.0034 J-0.0072
G1 X2.6362 Y0.7067
X2.5758 Y0.5828
X2.567 Y0.5648
G3 X2.5663 Y0.5598 I0.0072 J-0.0035
G1 X2.5676 Y0.5542
X2.5689 Y0.5485
X2.575 Y0.5315
X2.5771 Y0.5258
X2.5815 Y0.5145
X2.5839 Y0.5087
X2.5915 Y0.4918
X2.5967 Y0.4805
X2.5995 Y0.4751
X2.6028 Y0.4701
X2.6065 Y0.4654
X2.6112 Y0.4605
X2.6164 Y0.4558
X2.6228 Y0.4509
X2.6304 Y0.446
X2.6386 Y0.4416
X2.6481 Y0.4374
X2.6587 Y0.4338
X2.6701 Y0.4309
X2.6822 Y0.4288
X2.6947 Y0.4277
X2.7075 Y0.4275
X2.7205 Y0.4285
X2.7336 Y0.4304
X2.7468 Y0.4335
X2.7598 Y0.4377
X2.7726 Y0.443
X2.7852 Y0.4495
X2.788 Y0.4516
X2.7904 Y0.4543
X2.7923 Y0.4574
X2.8113 Y0.4975
X2.8214 Y0.5227
G3 X2.8123 Y0.5332 I-0.0075 J0.0027
G1 X2.8042 Y0.5316
X2.6133 Y0.4935
X2.6025 Y0.4914
G3 X2.5967 Y0.4805 I0.0016 J-0.0078
G1 X2.6009 Y0.4714
X2.6155 Y0.4408
X2.6184 Y0.4355
X2.622 Y0.4307
X2.6261 Y0.4264
X2.6307 Y0.4224
X2.636 Y0.4185
X2.6423 Y0.4146
X2.6495 Y0.4109
X2.6583 Y0.4073
X2.6676 Y0.4043
X2.6783 Y0.4018
X2.6903 Y0.4
X2.7033 Y0.3991
X2.7169 Y0.3992
X2.7308 Y0.4005
X2.7452 Y0.403
X2.76 Y0.4067
X2.7631 Y0.4078
X2.7677 Y0.4102
X2.7715 Y0.4137
X2.7742 Y0.4181
X2.7824 Y0.4361
X2.7898 Y0.4521
X2.7923 Y0.4574
G3 X2.7841 Y0.4685 I-0.0073 J0.0032
G1 X2.7756 Y0.4676
X2.6321 Y0.453
X2.6221 Y0.4519
G3 X2.6155 Y0.4408 I0.0008 J-0.008
G1 X2.6182 Y0.4351
X2.6256 Y0.4181
X2.6279 Y0.4124
X2.6305 Y0.407
X2.6337 Y0.4019
X2.6376 Y0.3974
X2.642 Y0.3933
X2.6467 Y0.3896
X2.6523 Y0.3861
X2.6586 Y0.3827
X2.6664 Y0.3793
X2.6748 Y0.3765
X2.6849 Y0.3739
X2.6963 Y0.372
X2.7082 Y0.371
X2.7217 Y0.3709
X2.7365 Y0.372
X2.7466 Y0.3736
X2.748 Y0.3739
X2.7537 Y0.3763
X2.7582 Y0.3803
X2.7612 Y0.3856
X2.7654 Y0.397
X2.7694 Y0.4068
X2.7718 Y0.4124
X2.7742 Y0.4181
G3 X2.7664 Y0.429 I-0.0075 J0.0029
G1 X2.7571 Y0.4286
X2.6452 Y0.4236
X2.6351 Y0.4232
G3 X2.6279 Y0.4124 I0.0004 J-0.008
G1 X2.6406 Y0.3813
X2.6431 Y0.3759
X2.6466 Y0.371
X2.6507 Y0.3666
X2.6553 Y0.3627
X2.6603 Y0.3592
X2.6658 Y0.356
X2.6728 Y0.3526
X2.6802 Y0.3498
X2.6894 Y0.347
X2.6995 Y0.3449
X2.7109 Y0.3434
X2.7219 Y0.3429
X2.7298 Y0.3432
X2.737 Y0.344
X2.7435 Y0.3466
X2.7485 Y0.3514
X2.7515 Y0.3578
G3 X2.7457 Y0.3672 I-0.0078 J0.0017
G1 X2.7332 Y0.3704
X2.6577 Y0.3898
X2.6501 Y0.3918
G3 X2.6406 Y0.3813 I-0.002 J-0.0077
G1 X2.6418 Y0.3784
X2.6437 Y0.3727
X2.6456 Y0.3671
X2.6477 Y0.3583
X2.6494 Y0.3525
X2.6523 Y0.3473
X2.6559 Y0.3425
X2.6601 Y0.3382
X2.6647 Y0.3344
X2.6696 Y0.331
X2.6757 Y0.3275
X2.6823 Y0.3244
X2.69 Y0.3215
X2.6984 Y0.3191
X2.707 Y0.3174
X2.7136 Y0.3166
X2.7201 Y0.3163
X2.7261 Y0.3166
X2.7296 Y0.317
X2.7351 Y0.3186
X2.7398 Y0.3218
X2.7434 Y0.3262
X2.7455 Y0.3316
G3 X2.7401 Y0.3406 I-0.0079 J0.0014
G1 X2.7271 Y0.3448
X2.6661 Y0.3649
X2.658 Y0.3675
G3 X2.6477 Y0.3583 I-0.0025 J-0.0076
G1 X2.6538 Y0.3331
X2.6555 Y0.3273
X2.658 Y0.3219
X2.6614 Y0.3169
X2.6654 Y0.3124
X2.6698 Y0.3084
X2.6746 Y0.3048
X2.6799 Y0.3016
X2.6855 Y0.2987
X2.6916 Y0.2962
X2.6982 Y0.2941
X2.7042 Y0.2927
X2.7102 Y0.2918
X2.7162 Y0.2913
X2.7222 Y0.2915
X2.7247 Y0.2918
X2.7304 Y0.2935
X2.7353 Y0.2969
X2.7388 Y0.3017
X2.7407 Y0.3073
G3 X2.7355 Y0.3158 I-0.0079 J0.001
G1 X2.722 Y0.3208
X2.672 Y0.3393
X2.6644 Y0.3422
G3 X2.6538 Y0.3331 I-0.0028 J-0.0075
G1 X2.6551 Y0.3274
X2.6564 Y0.3217
X2.6596 Y0.3061
X2.6608 Y0.3003
X2.6634 Y0.2949
X2.6669 Y0.2899
X2.6709 Y0.2855
X2.6754 Y0.2816
X2.6803 Y0.2781
X2.6855 Y0.2751
X2.691 Y0.2726
X2.6966 Y0.2705
X2.7024 Y0.2689
X2.7083 Y0.2679
X2.7143 Y0.2675
X2.7203 Y0.2677
X2.7263 Y0.2687
X2.7318 Y0.2712
X2.7362 Y0.2753
X2.739 Y0.2807
X2.74 Y0.2866
G3 X2.7345 Y0.294 I-0.008 J-0.0003
G1 X2.7199 Y0.2987
X2.6787 Y0.3119
X2.67 Y0.3147
G3 X2.6596 Y0.3061 I-0.0024 J-0.0076
G1 X2.6597 Y0.3054
X2.66 Y0.2877
X2.6603 Y0.2817
X2.6619 Y0.2759
X2.6646 Y0.2706
X2.6664 Y0.268
X2.6705 Y0.2637
X2.6758 Y0.261
X2.6817 Y0.26
G3 X2.688 Y0.2725 I-0.0003 J0.008
G1 X2.6834 Y0.2791
X2.6775 Y0.2878
X2.6746 Y0.292
G3 X2.66 Y0.2877 I-0.0066 J-0.0045
G1 Y0.2679
X2.6601 Y0.2672
X2.6602 Y0.2664
X2.6605 Y0.2657
X2.6608 Y0.265
X2.6612 Y0.2643
X2.6617 Y0.2635
X2.6625 Y0.2626
X2.6633 Y0.2619
X2.664 Y0.2614
X2.6647 Y0.2609
X2.6654 Y0.2606
X2.6661 Y0.2604
X2.6668 Y0.2602
X2.6675 Y0.2601
X2.669 Y0.26
X2.7302
X2.7313
X2.7328 Y0.2601
X2.7335 Y0.2602
X2.7342 Y0.2604
X2.7349 Y0.2607
X2.7356 Y0.2611
X2.7363 Y0.2616
X2.737 Y0.2622
X2.7384 Y0.2636
X2.7389 Y0.2643
X2.7392 Y0.265
X2.7395 Y0.2657
X2.7398 Y0.2664
X2.7399 Y0.2672
X2.74 Y0.2679
Y0.2877
X2.7403 Y0.3047
X2.7412 Y0.3104
X2.7434 Y0.3217
X2.7446 Y0.3274
X2.747 Y0.3387
X2.7484 Y0.3446
X2.751 Y0.3557
X2.7524 Y0.3614
X2.7565 Y0.3727
X2.7612 Y0.3856
G3 X2.7516 Y0.3959 I-0.0076 J0.0025
G1 X2.7501 Y0.3949 Z-0.0798
X2.7487 Y0.3941 Z-0.0792
X2.7475 Y0.3933 Z-0.0783
X2.7468 Y0.3921 Z-0.0769
X2.7463 Y0.3913 Z-0.0753
X2.7461 Y0.3908 Z-0.0737
X2.746 Y0.3906 Z-0.072
G0 Z0.2
X3.838 Y0.602
Z0.128
G1 Z0.12 F40
G3 X3.7624 Y0.5948 Z0.1158 I-0.0378 J-0.0036 F13.33
X3.838 Y0.602 Z0.1117 I0.0378 J0.0036
X3.7624 Y0.5948 Z0.1075 I-0.0378 J-0.0036
X3.838 Y0.602 Z0.1033 I0.0378 J0.0036
X3.7624 Y0.5948 Z0.0992 I-0.0378 J-0.0036
X3.838 Y0.602 Z0.095 I0.0378 J0.0036
X3.7624 Y0.5948 Z0.0908 I-0.0378 J-0.0036
X3.838 Y0.602 Z0.0866 I0.0378 J0.0036
X3.7624 Y0.5948 Z0.0825 I-0.0378 J-0.0036
X3.838 Y0.602 Z0.0783 I0.0378 J0.0036
X3.7624 Y0.5948 Z0.0741 I-0.0378 J-0.0036
X3.838 Y0.602 Z0.07 I0.0378 J0.0036
X3.7624 Y0.5948 Z0.0658 I-0.0378 J-0.0036
X3.838 Y0.602 Z0.0616 I0.0378 J0.0036
X3.7624 Y0.5948 Z0.0575 I-0.0378 J-0.0036
X3.838 Y0.602 Z0.0533 I0.0378 J0.0036
X3.7624 Y0.5948 Z0.0491 I-0.0378 J-0.0036
X3.838 Y0.602 Z0.045 I0.0378 J0.0036
X3.7624 Y0.5948 Z0.0408 I-0.0378 J-0.0036
X3.838 Y0.602 Z0.0366 I0.0378 J0.0036
X3.7624 Y0.5948 Z0.0325 I-0.0378 J-0.0036
X3.838 Y0.602 Z0.0283 I0.0378 J0.0036
X3.7624 Y0.5948 Z0.0241 I-0.0378 J-0.0036
X3.838 Y0.602 Z0.0199 I0.0378 J0.0036
X3.7624 Y0.5948 Z0.0158 I-0.0378 J-0.0036
X3.838 Y0.602 Z0.0116 I0.0378 J0.0036
X3.7624 Y0.5948 Z0.0074 I-0.0378 J-0.0036
X3.838 Y0.602 Z0.0033 I0.0378 J0.0036
X3.7624 Y0.5948 Z-0.0009 I-0.0378 J-0.0036
X3.838 Y0.602 Z-0.0051 I0.0378 J0.0036
X3.7624 Y0.5948 Z-0.0092 I-0.0378 J-0.0036
X3.838 Y0.602 Z-0.0134 I0.0378 J0.0036
X3.7624 Y0.5948 Z-0.0176 I-0.0378 J-0.0036
X3.838 Y0.602 Z-0.0217 I0.0378 J0.0036
X3.7624 Y0.5948 Z-0.0259 I-0.0378 J-0.0036
X3.8382 Y0.5984 Z-0.03 I0.0378 J0.0036
X3.7622 I-0.038
X3.8382 I0.038
G1 X3.8394 Y0.6219 F40
X3.8393 Y0.6279
X3.8376 Y0.6337
X3.8347 Y0.6389
X3.831 Y0.6436
X3.8266 Y0.6477
X3.8216 Y0.6511
X3.8163 Y0.6538
X3.8106 Y0.6557
X3.8047 Y0.657
X3.7988 Y0.6576
X3.7928 Y0.6575
X3.7868 Y0.6567
X3.781 Y0.6553
X3.7753 Y0.6533
X3.7699 Y0.6507
X3.7648 Y0.6475
X3.7601 Y0.6439
X3.7557 Y0.6398
X3.7518 Y0.6352
X3.7483 Y0.6303
X3.7454 Y0.6251
X3.743 Y0.6196
X3.7412 Y0.6138
X3.7399 Y0.608
X3.7392 Y0.602
Y0.596
X3.7397 Y0.59
X3.7408 Y0.5841
X3.7424 Y0.5784
X3.7447 Y0.5728
X3.7475 Y0.5675
X3.7507 Y0.5625
X3.7545 Y0.5578
X3.7587 Y0.5535
X3.7633 Y0.5496
X3.7682 Y0.5463
X3.7735 Y0.5434
X3.779 Y0.541
X3.7847 Y0.5392
X3.7906 Y0.538
X3.7966 Y0.5373
X3.8026
X3.8086 Y0.5378
X3.8145 Y0.5389
X3.8202 Y0.5406
X3.8258 Y0.5428
X3.8311 Y0.5456
X3.8361 Y0.5489
X3.8408 Y0.5527
X3.8451 Y0.5569
X3.8489 Y0.5615
X3.8523 Y0.5664
X3.8552 Y0.5717
X3.8584 Y0.5787
X3.8616 Y0.5877
X3.8639 Y0.5966
X3.8651 Y0.6032
X3.8658 Y0.6099
X3.8659 Y0.6158
X3.8655 Y0.6218
X3.8646 Y0.6278
X3.8632 Y0.6336
X3.8612 Y0.6393
X3.8587 Y0.6447
X3.8558 Y0.6499
X3.8523 Y0.6549
X3.8485 Y0.6595
X3.8442 Y0.6637
X3.8396 Y0.6675
X3.8346 Y0.6709
X3.8294 Y0.6739
X3.824 Y0.6764
X3.8183 Y0.6784
X3.8125 Y0.68
X3.8065 Y0.6812
X3.8004 Y0.6818
X3.7944 Y0.682
X3.7881 Y0.6816
X3.7817 Y0.6808
X3.7755 Y0.6794
X3.7695 Y0.6776
X3.7634 Y0.6751
X3.7574 Y0.6722
X3.7518 Y0.6689
X3.7465 Y0.6651
X3.7414 Y0.6608
X3.7365 Y0.656
X3.7321 Y0.6509
X3.7281 Y0.6455
X3.7246 Y0.6398
X3.7215 Y0.6337
X3.7189 Y0.6273
X3.7168 Y0.6208
X3.7153 Y0.6141
X3.7142 Y0.6075
X3.7138 Y0.6006
Y0.5936
X3.7145 Y0.5867
X3.7157 Y0.5799
X3.7173 Y0.5733
X3.7196 Y0.5668
X3.7224 Y0.5604
X3.7257 Y0.5542
X3.7295 Y0.5484
X3.7337 Y0.5429
X3.7383 Y0.5378
X3.7433 Y0.533
X3.7488 Y0.5286
X3.7546 Y0.5247
X3.7606 Y0.5213
X3.7668 Y0.5184
X3.7733 Y0.516
X3.7801 Y0.5141
X3.787 Y0.5127
X3.7939 Y0.512
X3.8008 Y0.5117
X3.8077 Y0.512
X3.8146 Y0.5129
X3.8215 Y0.5144
X3.8282 Y0.5164
X3.8347 Y0.5189
X3.8408 Y0.5218
X3.8468 Y0.5253
X3.8526 Y0.5294
X3.8581 Y0.5339
X3.8634 Y0.539
X3.8684 Y0.5447
X3.8734 Y0.5515
X3.8783 Y0.5592
X3.8824 Y0.5672
X3.8859 Y0.5755
X3.8887 Y0.5839
X3.8907 Y0.5922
X3.892 Y0.6005
X3.8927 Y0.6086
X3.8926 Y0.6167
X3.892 Y0.6245
X3.8907 Y0.6322
X3.8889 Y0.6396
X3.8865 Y0.6468
X3.8835 Y0.6537
X3.88 Y0.6603
X3.876 Y0.6667
X3.8714 Y0.6728
X3.8664 Y0.6785
X3.8608 Y0.6838
X3.8548 Y0.6887
X3.8484 Y0.6931
X3.8416 Y0.697
X3.8344 Y0.7004
X3.827 Y0.7033
X3.8192 Y0.7055
X3.8112 Y0.7072
X3.8031 Y0.7082
X3.7948 Y0.7085
X3.7865 Y0.7082
X3.7781 Y0.7072
X3.7698 Y0.7055
X3.7616 Y0.7031
X3.7536 Y0.7001
X3.7458 Y0.6964
X3.7382 Y0.6921
X3.731 Y0.6872
X3.7242 Y0.6816
X3.7179 Y0.6756
X3.712 Y0.669
X3.7066 Y0.6619
X3.7018 Y0.6543
X3.6976 Y0.6464
X3.694 Y0.6382
X3.6912 Y0.6297
X3.689 Y0.621
X3.6875 Y0.612
X3.6867 Y0.603
X3.6866 Y0.594
X3.6873 Y0.585
X3.6887 Y0.576
X3.6908 Y0.5671
X3.6937 Y0.5585
X3.6972 Y0.5501
X3.7013 Y0.542
X3.7062 Y0.5343
X3.7116 Y0.527
X3.7176 Y0.5201
X3.7241 Y0.5137
X3.7312 Y0.5079
X3.7386 Y0.5026
X3.7465 Y0.498
X3.7547 Y0.494
X3.7633 Y0.4907
X3.772 Y0.4881
X3.7809 Y0.4862
X3.79 Y0.485
X3.7991 Y0.4845
X3.8083 Y0.4848
X3.8174 Y0.4858
X3.8263 Y0.4875
X3.8351 Y0.49
X3.8437 Y0.4931
X3.852 Y0.497
X3.8601 Y0.5015
X3.8679 Y0.5068
X3.8755 Y0.5128
X3.8829 Y0.5197
X3.8898 Y0.5274
X3.8963 Y0.5358
X3.9021 Y0.5448
X3.9072 Y0.5542
X3.9115 Y0.564
X3.915 Y0.5741
X3.9177 Y0.5843
X3.9195 Y0.5946
X3.9205 Y0.6048
X3.9206 Y0.6151
X3.92 Y0.6252
X3.9185 Y0.6351
X3.9162 Y0.6448
X3.9132 Y0.6543
X3.9095 Y0.6634
X3.905 Y0.6722
X3.8999 Y0.6807
X3.8941 Y0.6887
X3.8876 Y0.6962
X3.8805 Y0.7032
X3.8729 Y0.7097
X3.8647 Y0.7155
X3.856 Y0.7207
X3.8469 Y0.7252
X3.8374 Y0.729
X3.8275 Y0.7321
X3.8174 Y0.7343
X3.8071 Y0.7358
X3.7966 Y0.7364
X3.786 Y0.7361
X3.7754 Y0.735
X3.7649 Y0.7331
X3.7545 Y0.7303
X3.7493 Y0.7284
X3.7489 Y0.7283
X3.7408 Y0.7248
X3.7282 Y0.7193
X3.7275 Y0.719
X3.7269 Y0.7186
X3.6994 Y0.6959
X3.697 Y0.6938
X3.6955 Y0.6916
X3.6775 Y0.6652
X3.6752 Y0.6619
X3.6749 Y0.6612
X3.6746 Y0.6605
X3.663 Y0.625
X3.6627 Y0.6236
X3.6626 Y0.6222
X3.6614 Y0.5847
Y0.5837
X3.6615 Y0.5825
X3.6638 Y0.5712
X3.665 Y0.5655
X3.6663 Y0.5598
X3.6696 Y0.5478
X3.6729 Y0.5389
X3.6771 Y0.5298
X3.6821 Y0.5209
X3.6879 Y0.5123
X3.6945 Y0.504
X3.7019 Y0.4962
X3.71 Y0.4888
X3.7188 Y0.482
X3.7282 Y0.4759
X3.7381 Y0.4706
X3.7484 Y0.466
X3.7591 Y0.4623
X3.7701 Y0.4594
X3.7813 Y0.4575
X3.7927 Y0.4564
X3.8041 Y0.4562
X3.8154 Y0.457
X3.8267 Y0.4587
X3.8378 Y0.4612
X3.8487 Y0.4647
X3.8594 Y0.4691
X3.8698 Y0.4743
X3.8799 Y0.4805
X3.8897 Y0.4876
X3.899 Y0.4956
X3.9078 Y0.5045
X3.916 Y0.5142
X3.9193 Y0.5188
X3.9201 Y0.52
X3.9208 Y0.5213
X3.9214 Y0.5227
X3.9227 Y0.5258
X3.9248 Y0.5315
X3.9306 Y0.5485
X3.9319 Y0.5542
X3.9383 Y0.5825
X3.9386 Y0.5839
X3.9387 Y0.5853
X3.9383 Y0.6165
X3.9382 Y0.6179
X3.938 Y0.6194
X3.9323 Y0.6392
X3.928 Y0.6544
X3.9274 Y0.6562
X3.9268 Y0.6576
X3.9098 Y0.6845
X3.9061 Y0.6902
X3.9053 Y0.6911
X3.8807 Y0.7129
X3.8769 Y0.7161
X3.8713 Y0.7189
X3.8429 Y0.7324
X3.8415 Y0.733
X3.8408 Y0.7332
X3.8401 Y0.7333
X3.8089 Y0.7384
X3.8032 Y0.7392
X3.8018 Y0.7393
X3.7692 Y0.7352
X3.7635 Y0.7344
X3.7578 Y0.7321
X3.7489 Y0.7283
G3 X3.7452 Y0.7245 I0.0034 J-0.0072
G1 X3.7365 Y0.7068
X3.6758 Y0.5828
X3.667 Y0.5648
G3 X3.6663 Y0.5598 I0.0072 J-0.0035
G1 X3.6676 Y0.5542
X3.6689 Y0.5485
X3.675 Y0.5315
X3.6771 Y0.5258
X3.6815 Y0.5145
X3.6838 Y0.5088
X3.6915 Y0.4918
X3.6967 Y0.4805
X3.6995 Y0.4751
X3.7028 Y0.4701
X3.7065 Y0.4654
X3.7112 Y0.4605
X3.7164 Y0.4558
X3.7228 Y0.4509
X3.7305 Y0.446
X3.7387 Y0.4416
X3.7481 Y0.4374
X3.7587 Y0.4338
X3.7702 Y0.4309
X3.7823 Y0.4288
X3.7948 Y0.4277
X3.8076 Y0.4276
X3.8206 Y0.4285
X3.8337 Y0.4305
X3.8469 Y0.4336
X3.8599 Y0.4378
X3.8726 Y0.4431
X3.8852 Y0.4495
X3.888 Y0.4516
X3.8904 Y0.4543
X3.8923 Y0.4574
X3.9086 Y0.4918
X3.9166 Y0.5107
X3.9214 Y0.5227
G3 X3.9123 Y0.5333 I-0.0075 J0.0027
G1 X3.9043 Y0.5316
X3.7133 Y0.4935
X3.7025 Y0.4914
G3 X3.6967 Y0.4805 I0.0016 J-0.0078
G1 X3.7011 Y0.4709
X3.7155 Y0.4408
X3.7184 Y0.4355
X3.722 Y0.4307
X3.7262 Y0.4264
X3.7307 Y0.4224
X3.736 Y0.4185
X3.7423 Y0.4146
X3.7496 Y0.4109
X3.7584 Y0.4073
X3.7676 Y0.4043
X3.7784 Y0.4018
X3.7904 Y0.4
X3.8034 Y0.3991
X3.817 Y0.3992
X3.8309 Y0.4005
X3.8453 Y0.403
X3.8601 Y0.4068
X3.8631 Y0.4078
X3.8677 Y0.4101
X3.8714 Y0.4136
X3.8741 Y0.4179
X3.8871 Y0.4464
X3.8923 Y0.4574
G3 X3.8841 Y0.4685 I-0.0073 J0.0032
G1 X3.8757 Y0.4676
X3.7321 Y0.453
X3.7221 Y0.4519
G3 X3.7155 Y0.4408 I0.0008 J-0.008
G1 X3.7209 Y0.4294
X3.7279 Y0.4124
X3.7305 Y0.407
X3.7337 Y0.4019
X3.7376 Y0.3974
X3.742 Y0.3933
X3.7467 Y0.3897
X3.7523 Y0.3861
X3.7587 Y0.3827
X3.7665 Y0.3794
X3.7748 Y0.3765
X3.785 Y0.374
X3.7963 Y0.372
X3.8082 Y0.371
X3.8218 Y0.3709
X3.8365 Y0.372
X3.8467 Y0.3736
X3.848 Y0.3739
X3.8537 Y0.3763
X3.8582 Y0.3803
X3.8612 Y0.3857
X3.8669 Y0.4011
X3.8692 Y0.4068
X3.8741 Y0.4179
G3 X3.8663 Y0.4289 I-0.0074 J0.003
G1 X3.8572 Y0.4285
X3.7452 Y0.4236
X3.7351 Y0.4232
G3 X3.7279 Y0.4124 I0.0003 J-0.008
G1 X3.7402 Y0.3823
X3.7428 Y0.3768
X3.7461 Y0.3719
X3.7502 Y0.3674
X3.7546 Y0.3634
X3.7595 Y0.3599
X3.7649 Y0.3566
X3.7716 Y0.3533
X3.7788 Y0.3503
X3.7879 Y0.3475
X3.7974 Y0.3453
X3.8088 Y0.3437
X3.8203 Y0.343
X3.8282 Y0.3431
X3.8356 Y0.3438
X3.8367 Y0.344
X3.8433 Y0.3465
X3.8484 Y0.3513
X3.8515 Y0.3577
G3 X3.8457 Y0.3672 I-0.0078 J0.0017
G1 X3.8332 Y0.3705
X3.7572 Y0.3908
X3.7498 Y0.3927
G3 X3.7402 Y0.3823 I-0.0021 J-0.0077
G1 X3.7408 Y0.3808
X3.7417 Y0.3784
X3.7469 Y0.3614
X3.7477 Y0.3583
X3.7494 Y0.3525
X3.7523 Y0.3473
X3.7559 Y0.3425
X3.7601 Y0.3382
X3.7648 Y0.3344
X3.7697 Y0.331
X3.7756 Y0.3276
X3.7824 Y0.3244
X3.7901 Y0.3215
X3.7983 Y0.3192
X3.8069 Y0.3174
X3.8135 Y0.3166
X3.8202 Y0.3164
X3.8262 Y0.3166
X3.8296 Y0.3171
X3.8351 Y0.3187
X3.8399 Y0.3218
X3.8434 Y0.3263
X3.8455 Y0.3316
X3.8486 Y0.3458
X3.8496 Y0.3501
X3.851 Y0.3557
X3.8524 Y0.3614
X3.8612 Y0.3857
G3 X3.8514 Y0.3958 I-0.0076 J0.0025
G1 X3.8439 Y0.3937
X3.766 Y0.3713
X3.7533 Y0.3676
G3 X3.7477 Y0.3583 I0.0022 J-0.0077
G1 X3.7538 Y0.3331
X3.7555 Y0.3273
X3.758 Y0.3219
X3.7614 Y0.3169
X3.7654 Y0.3124
X3.7698 Y0.3084
X3.7747 Y0.3049
X3.7799 Y0.3016
X3.7856 Y0.2987
X3.7917 Y0.2962
X3.7982 Y0.2941
X3.8042 Y0.2927
X3.8103 Y0.2918
X3.8163 Y0.2914
X3.8223 Y0.2915
X3.8247 Y0.2918
X3.8304 Y0.2935
X3.8353 Y0.2969
X3.8388 Y0.3017
X3.8407 Y0.3074
G3 X3.8355 Y0.3159 I-0.0079 J0.001
G1 X3.8221 Y0.3209
X3.772 Y0.3393
X3.7644 Y0.3422
G3 X3.7538 Y0.3331 I-0.0028 J-0.0075
G1 X3.7579 Y0.3161
X3.7589 Y0.3104
X3.7593 Y0.3073
X3.7605 Y0.3014
X3.7629 Y0.2959
X3.7662 Y0.2909
X3.7702 Y0.2864
X3.7746 Y0.2823
X3.7795 Y0.2788
X3.7846 Y0.2757
X3.79 Y0.2731
X3.7956 Y0.2709
X3.8014 Y0.2693
X3.8073 Y0.2682
X3.8132 Y0.2676
X3.8192 Y0.2677
X3.8252 Y0.2685
X3.8259 Y0.2687
X3.8315 Y0.2711
X3.8361 Y0.2753
X3.839 Y0.2807
X3.84 Y0.2867
G3 X3.8345 Y0.2941 I-0.008 J-0.0003
G1 X3.8199 Y0.299
X3.7784 Y0.3129
X3.7698 Y0.3158
G3 X3.7593 Y0.3073 I-0.0025 J-0.0076
G1 X3.7597 Y0.3047
X3.76 Y0.2877
X3.7603 Y0.2817
X3.7619 Y0.2759
X3.7646 Y0.2706
X3.7664 Y0.268
X3.7706 Y0.2637
X3.7758 Y0.2609
X3.7817 Y0.26
G3 X3.788 Y0.2725 I-0.0003 J0.008
G1 X3.7835 Y0.2791
X3.7775 Y0.2878
X3.7746 Y0.292
G3 X3.76 Y0.2877 I-0.0066 J-0.0046
G1 Y0.2679
X3.7601 Y0.2672
X3.7602 Y0.2664
X3.7605 Y0.2657
X3.7608 Y0.265
X3.7612 Y0.2642
X3.7618 Y0.2634
X3.7626 Y0.2625
X3.7635 Y0.2618
X3.7642 Y0.2613
X3.7649 Y0.2608
X3.7656 Y0.2605
X3.7664 Y0.2603
X3.7671 Y0.2601
X3.7678 Y0.26
X3.7692
X3.8304
X3.8316
X3.8323
X3.833 Y0.2602
X3.8337 Y0.2603
X3.8344 Y0.2606
X3.8351 Y0.2609
X3.8358 Y0.2613
X3.8372 Y0.2624
X3.8379 Y0.263
X3.8385 Y0.2637
X3.8389 Y0.2644
X3.8392 Y0.265
X3.8395 Y0.2657
X3.8398 Y0.2664
X3.8399 Y0.2672
X3.84 Y0.2679
Y0.2877
X3.8403 Y0.3047
X3.8412 Y0.3104
X3.8434 Y0.3217
X3.8451 Y0.3297
X3.8455 Y0.3316
G3 X3.8346 Y0.3404 I-0.0079 J0.0014
G1 X3.8332 Y0.3393 Z-0.0297
X3.832 Y0.3383 Z-0.0292
X3.8308 Y0.3373 Z-0.0282
X3.8303 Y0.3361 Z-0.0269
X3.8299 Y0.3352 Z-0.0253
X3.8298 Y0.3347 Z-0.0237
Y0.3345 Z-0.022
G0 Z0.2
X3.8382 Y0.5993
Z0.078
G1 Z0.07 F40
G3 X3.7622 Y0.5975 Z0.0659 I-0.038 J-0.0009 F13.33
X3.8382 Y0.5993 Z0.0617 I0.038 J0.0009
X3.7622 Y0.5975 Z0.0575 I-0.038 J-0.0009
X3.8382 Y0.5993 Z0.0534 I0.038 J0.0009
X3.7622 Y0.5975 Z0.0492 I-0.038 J-0.0009
X3.8382 Y0.5993 Z0.045 I0.038 J0.0009
X3.7622 Y0.5975 Z0.0409 I-0.038 J-0.0009
X3.8382 Y0.5993 Z0.0367 I0.038 J0.0009
X3.7622 Y0.5975 Z0.0325 I-0.038 J-0.0009
X3.8382 Y0.5993 Z0.0284 I0.038 J0.0009
X3.7622 Y0.5975 Z0.0242 I-0.038 J-0.0009
X3.8382 Y0.5993 Z0.02 I0.038 J0.0009
X3.7622 Y0.5975 Z0.0159 I-0.038 J-0.0009
X3.8382 Y0.5993 Z0.0117 I0.038 J0.0009
X3.7622 Y0.5975 Z0.0075 I-0.038 J-0.0009
X3.8382 Y0.5993 Z0.0033 I0.038 J0.0009
X3.7622 Y0.5975 Z-0.0008 I-0.038 J-0.0009
X3.8382 Y0.5993 Z-0.005 I0.038 J0.0009
X3.7622 Y0.5975 Z-0.0092 I-0.038 J-0.0009
X3.8382 Y0.5993 Z-0.0133 I0.038 J0.0009
X3.7622 Y0.5975 Z-0.0175 I-0.038 J-0.0009
X3.8382 Y0.5993 Z-0.0217 I0.038 J0.0009
X3.7622 Y0.5975 Z-0.0258 I-0.038 J-0.0009
X3.8382 Y0.5993 Z-0.03 I0.038 J0.0009
X3.7622 Y0.5975 Z-0.0342 I-0.038 J-0.0009
X3.8382 Y0.5993 Z-0.0383 I0.038 J0.0009
X3.7622 Y0.5975 Z-0.0425 I-0.038 J-0.0009
X3.8382 Y0.5993 Z-0.0467 I0.038 J0.0009
X3.7622 Y0.5975 Z-0.0508 I-0.038 J-0.0009
X3.8382 Y0.5993 Z-0.055 I0.038 J0.0009
X3.7622 Y0.5975 Z-0.0592 I-0.038 J-0.0009
X3.8382 Y0.5993 Z-0.0634 I0.038 J0.0009
X3.7622 Y0.5975 Z-0.0675 I-0.038 J-0.0009
X3.8382 Y0.5993 Z-0.0717 I0.038 J0.0009
X3.7622 Y0.5975 Z-0.0759 I-0.038 J-0.0009
X3.8382 Y0.5984 Z-0.08 I0.038 J0.0009
X3.7622 I-0.038
X3.8382 I0.038
G1 X3.8394 Y0.6219 F40
X3.8393 Y0.6279
X3.8376 Y0.6337
X3.8347 Y0.6389
X3.831 Y0.6436
X3.8266 Y0.6477
X3.8216 Y0.6511
X3.8163 Y0.6538
X3.8106 Y0.6557
X3.8047 Y0.657
X3.7988 Y0.6576
X3.7928 Y0.6575
X3.7868 Y0.6567
X3.781 Y0.6553
X3.7753 Y0.6533
X3.7699 Y0.6507
X3.7648 Y0.6475
X3.7601 Y0.6439
X3.7557 Y0.6398
X3.7518 Y0.6352
X3.7483 Y0.6303
X3.7454 Y0.6251
X3.743 Y0.6196
X3.7412 Y0.6138
X3.7399 Y0.608
X3.7392 Y0.602
Y0.596
X3.7397 Y0.59
X3.7408 Y0.5841
X3.7424 Y0.5784
X3.7447 Y0.5728
X3.7475 Y0.5675
X3.7507 Y0.5625
X3.7545 Y0.5578
X3.7587 Y0.5535
X3.7633 Y0.5496
X3.7682 Y0.5463
X3.7735 Y0.5434
X3.779 Y0.541
X3.7847 Y0.5392
X3.7906 Y0.538
X3.7966 Y0.5373
X3.8026
X3.8086 Y0.5378
X3.8145 Y0.5389
X3.8202 Y0.5406
X3.8258 Y0.5428
X3.8311 Y0.5456
X3.8361 Y0.5489
X3.8408 Y0.5527
X3.8451 Y0.5569
X3.8489 Y0.5615
X3.8523 Y0.5664
X3.8552 Y0.5717
X3.8584 Y0.5787
X3.8616 Y0.5877
X3.8639 Y0.5966
X3.8651 Y0.6032
X3.8658 Y0.6099
X3.8659 Y0.6158
X3.8655 Y0.6218
X3.8646 Y0.6278
X3.8632 Y0.6336
X3.8612 Y0.6393
X3.8587 Y0.6447
X3.8558 Y0.6499
X3.8523 Y0.6549
X3.8485 Y0.6595
X3.8442 Y0.6637
X3.8396 Y0.6675
X3.8346 Y0.6709
X3.8294 Y0.6739
X3.824 Y0.6764
X3.8183 Y0.6784
X3.8125 Y0.68
X3.8065 Y0.6812
X3.8004 Y0.6818
X3.7944 Y0.682
X3.7881 Y0.6816
X3.7817 Y0.6808
X3.7755 Y0.6794
X3.7695 Y0.6776
X3.7634 Y0.6751
X3.7574 Y0.6722
X3.7518 Y0.6689
X3.7465 Y0.6651
X3.7414 Y0.6608
X3.7365 Y0.656
X3.7321 Y0.6509
X3.7281 Y0.6455
X3.7246 Y0.6398
X3.7215 Y0.6337
X3.7189 Y0.6273
X3.7168 Y0.6208
X3.7153 Y0.6141
X3.7142 Y0.6075
X3.7138 Y0.6006
Y0.5936
X3.7145 Y0.5867
X3.7157 Y0.5799
X3.7173 Y0.5733
X3.7196 Y0.5668
X3.7224 Y0.5604
X3.7257 Y0.5542
X3.7295 Y0.5484
X3.7337 Y0.5429
X3.7383 Y0.5378
X3.7433 Y0.533
X3.7488 Y0.5286
X3.7546 Y0.5247
X3.7606 Y0.5213
X3.7668 Y0.5184
X3.7733 Y0.516
X3.7801 Y0.5141
X3.787 Y0.5127
X3.7939 Y0.512
X3.8008 Y0.5117
X3.8077 Y0.512
X3.8146 Y0.5129
X3.8215 Y0.5144
X3.8282 Y0.5164
X3.8347 Y0.5189
X3.8408 Y0.5218
X3.8468 Y0.5253
X3.8526 Y0.5294
X3.8581 Y0.5339
X3.8634 Y0.539
X3.8684 Y0.5447
X3.8734 Y0.5515
X3.8783 Y0.5592
X3.8824 Y0.5672
X3.8859 Y0.5755
X3.8887 Y0.5839
X3.8907 Y0.5922
X3.892 Y0.6005
X3.8927 Y0.6086
X3.8926 Y0.6167
X3.892 Y0.6245
X3.8907 Y0.6322
X3.8889 Y0.6396
X3.8865 Y0.6468
X3.8835 Y0.6537
X3.88 Y0.6603
X3.876 Y0.6667
X3.8714 Y0.6728
X3.8664 Y0.6785
X3.8608 Y0.6838
X3.8548 Y0.6887
X3.8484 Y0.6931
X3.8416 Y0.697
X3.8344 Y0.7004
X3.827 Y0.7033
X3.8192 Y0.7055
X3.8112 Y0.7072
X3.8031 Y0.7082
X3.7948 Y0.7085
X3.7865 Y0.7082
X3.7781 Y0.7072
X3.7698 Y0.7055
X3.7616 Y0.7031
X3.7536 Y0.7001
X3.7458 Y0.6964
X3.7382 Y0.6921
X3.731 Y0.6872
X3.7242 Y0.6816
X3.7179 Y0.6756
X3.712 Y0.669
X3.7066 Y0.6619
X3.7018 Y0.6543
X3.6976 Y0.6464
X3.694 Y0.6382
X3.6912 Y0.6297
X3.689 Y0.621
X3.6875 Y0.612
X3.6867 Y0.603
X3.6866 Y0.594
X3.6873 Y0.585
X3.6887 Y0.576
X3.6908 Y0.5671
X3.6937 Y0.5585
X3.6972 Y0.5501
X3.7013 Y0.542
X3.7062 Y0.5343
X3.7116 Y0.527
X3.7176 Y0.5201
X3.7241 Y0.5137
X3.7312 Y0.5079
X3.7386 Y0.5026
X3.7465 Y0.498
X3.7547 Y0.494
X3.7633 Y0.4907
X3.772 Y0.4881
X3.7809 Y0.4862
X3.79 Y0.485
X3.7991 Y0.4845
X3.8083 Y0.4848
X3.8174 Y0.4858
X3.8263 Y0.4875
X3.8351 Y0.49
X3.8437 Y0.4931
X3.852 Y0.497
X3.8601 Y0.5015
X3.8679 Y0.5068
X3.8755 Y0.5128
X3.8829 Y0.5197
X3.8898 Y0.5274
X3.8963 Y0.5358
X3.9021 Y0.5448
X3.9072 Y0.5542
X3.9115 Y0.564
X3.915 Y0.5741
X3.9177 Y0.5843
X3.9195 Y0.5946
X3.9205 Y0.6048
X3.9206 Y0.6151
X3.92 Y0.6252
X3.9185 Y0.6351
X3.9162 Y0.6448
X3.9132 Y0.6543
X3.9095 Y0.6634
X3.905 Y0.6722
X3.8999 Y0.6807
X3.8941 Y0.6887
X3.8876 Y0.6962
X3.8805 Y0.7032
X3.8729 Y0.7097
X3.8647 Y0.7155
X3.856 Y0.7207
X3.8469 Y0.7252
X3.8374 Y0.729
X3.8275 Y0.7321
X3.8174 Y0.7343
X3.8071 Y0.7358
X3.7966 Y0.7364
X3.786 Y0.7361
X3.7754 Y0.735
X3.7649 Y0.7331
X3.7545 Y0.7303
X3.7493 Y0.7284
X3.7489 Y0.7283
X3.7408 Y0.7248
X3.7282 Y0.7193
X3.7275 Y0.719
X3.7269 Y0.7186
X3.6994 Y0.6959
X3.697 Y0.6938
X3.6955 Y0.6916
X3.6775 Y0.6652
X3.6752 Y0.6619
X3.6749 Y0.6612
X3.6746 Y0.6605
X3.663 Y0.625
X3.6627 Y0.6236
X3.6626 Y0.6222
X3.6614 Y0.5847
Y0.5837
X3.6615 Y0.5825
X3.6638 Y0.5712
X3.665 Y0.5655
X3.6663 Y0.5598
X3.6696 Y0.5478
X3.6729 Y0.5389
X3.6771 Y0.5298
X3.6821 Y0.5209
X3.6879 Y0.5123
X3.6945 Y0.504
X3.7019 Y0.4962
X3.71 Y0.4888
X3.7188 Y0.482
X3.7282 Y0.4759
X3.7381 Y0.4706
X3.7484 Y0.466
X3.7591 Y0.4623
X3.7701 Y0.4594
X3.7813 Y0.4575
X3.7927 Y0.4564
X3.8041 Y0.4562
X3.8154 Y0.457
X3.8267 Y0.4587
X3.8378 Y0.4612
X3.8487 Y0.4647
X3.8594 Y0.4691
X3.8698 Y0.4743
X3.8799 Y0.4805
X3.8897 Y0.4876
X3.899 Y0.4956
X3.9078 Y0.5045
X3.916 Y0.5142
X3.9193 Y0.5188
X3.9201 Y0.52
X3.9208 Y0.5213
X3.9214 Y0.5227
X3.9227 Y0.5258
X3.9248 Y0.5315
X3.9306 Y0.5485
X3.9319 Y0.5542
X3.9383 Y0.5825
X3.9386 Y0.5839
X3.9387 Y0.5853
X3.9383 Y0.6165
X3.9382 Y0.6179
X3.938 Y0.6194
X3.9323 Y0.6392
X3.928 Y0.6544
X3.9274 Y0.6562
X3.9268 Y0.6576
X3.9098 Y0.6845
X3.9061 Y0.6902
X3.9053 Y0.6911
X3.8807 Y0.7129
X3.8769 Y0.7161
X3.8713 Y0.7189
X3.8429 Y0.7324
X3.8415 Y0.733
X3.8408 Y0.7332
X3.8401 Y0.7333
X3.8089 Y0.7384
X3.8032 Y0.7392
X3.8018 Y0.7393
X3.7692 Y0.7352
X3.7635 Y0.7344
X3.7578 Y0.7321
X3.7489 Y0.7283
G3 X3.7452 Y0.7245 I0.0034 J-0.0072
G1 X3.7365 Y0.7068
X3.6758 Y0.5828
X3.667 Y0.5648
G3 X3.6663 Y0.5598 I0.0072 J-0.0035
G1 X3.6676 Y0.5542
X3.6689 Y0.5485
X3.675 Y0.5315
X3.6771 Y0.5258
X3.6815 Y0.5145
X3.6838 Y0.5088
X3.6915 Y0.4918
X3.6967 Y0.4805
X3.6995 Y0.4751
X3.7028 Y0.4701
X3.7065 Y0.4654
X3.7112 Y0.4605
X3.7164 Y0.4558
X3.7228 Y0.4509
X3.7305 Y0.446
X3.7387 Y0.4416
X3.7481 Y0.4374
X3.7587 Y0.4338
X3.7702 Y0.4309
X3.7823 Y0.4288
X3.7948 Y0.4277
X3.8076 Y0.4276
X3.8206 Y0.4285
X3.8337 Y0.4305
X3.8469 Y0.4336
X3.8599 Y0.4378
X3.8726 Y0.4431
X3.8852 Y0.4495
X3.888 Y0.4516
X3.8904 Y0.4543
X3.8923 Y0.4574
X3.9086 Y0.4918
X3.9166 Y0.5107
X3.9214 Y0.5227
G3 X3.9123 Y0.5333 I-0.0075 J0.0027
G1 X3.9043 Y0.5316
X3.7133 Y0.4935
X3.7025 Y0.4914
G3 X3.6967 Y0.4805 I0.0016 J-0.0078
G1 X3.7011 Y0.4709
X3.7155 Y0.4408
X3.7184 Y0.4355
X3.722 Y0.4307
X3.7262 Y0.4264
X3.7307 Y0.4224
X3.736 Y0.4185
X3.7423 Y0.4146
X3.7496 Y0.4109
X3.7584 Y0.4073
X3.7676 Y0.4043
X3.7784 Y0.4018
X3.7904 Y0.4
X3.8034 Y0.3991
X3.817 Y0.3992
X3.8309 Y0.4005
X3.8453 Y0.403
X3.8601 Y0.4068
X3.8631 Y0.4078
X3.8677 Y0.4101
X3.8714 Y0.4136
X3.8741 Y0.4179
X3.8871 Y0.4464
X3.8923 Y0.4574
G3 X3.8841 Y0.4685 I-0.0073 J0.0032
G1 X3.8757 Y0.4676
X3.7321 Y0.453
X3.7221 Y0.4519
G3 X3.7155 Y0.4408 I0.0008 J-0.008
G1 X3.7209 Y0.4294
X3.7279 Y0.4124
X3.7305 Y0.407
X3.7337 Y0.4019
X3.7376 Y0.3974
X3.742 Y0.3933
X3.7467 Y0.3897
X3.7523 Y0.3861
X3.7587 Y0.3827
X3.7665 Y0.3794
X3.7748 Y0.3765
X3.785 Y0.374
X3.7963 Y0.372
X3.8082 Y0.371
X3.8218 Y0.3709
X3.8365 Y0.372
X3.8467 Y0.3736
X3.848 Y0.3739
X3.8537 Y0.3763
X3.8582 Y0.3803
X3.8612 Y0.3857
X3.8669 Y0.4011
X3.8692 Y0.4068
X3.8741 Y0.4179
G3 X3.8663 Y0.4289 I-0.0074 J0.003
G1 X3.8572 Y0.4285
X3.7452 Y0.4236
X3.7351 Y0.4232
G3 X3.7279 Y0.4124 I0.0003 J-0.008
G1 X3.7402 Y0.3823
X3.7428 Y0.3768
X3.7461 Y0.3719
X3.7502 Y0.3674
X3.7546 Y0.3634
X3.7595 Y0.3599
X3.7649 Y0.3566
X3.7716 Y0.3533
X3.7788 Y0.3503
X3.7879 Y0.3475
X3.7974 Y0.3453
X3.8088 Y0.3437
X3.8203 Y0.343
X3.8282 Y0.3431
X3.8356 Y0.3438
X3.8367 Y0.344
X3.8433 Y0.3465
X3.8484 Y0.3513
X3.8515 Y0.3577
G3 X3.8457 Y0.3672 I-0.0078 J0.0017
G1 X3.8332 Y0.3705
X3.7572 Y0.3908
X3.7498 Y0.3927
G3 X3.7402 Y0.3823 I-0.0021 J-0.0077
G1 X3.7408 Y0.3808
X3.7417 Y0.3784
X3.7469 Y0.3614
X3.7477 Y0.3583
X3.7494 Y0.3525
X3.7523 Y0.3473
X3.7559 Y0.3425
X3.7601 Y0.3382
X3.7648 Y0.3344
X3.7697 Y0.331
X3.7756 Y0.3276
X3.7824 Y0.3244
X3.7901 Y0.3215
X3.7983 Y0.3192
X3.8069 Y0.3174
X3.8135 Y0.3166
X3.8202 Y0.3164
X3.8262 Y0.3166
X3.8296 Y0.3171
X3.8351 Y0.3187
X3.8399 Y0.3218
X3.8434 Y0.3263
X3.8455 Y0.3316
X3.8486 Y0.3458
X3.8496 Y0.3501
X3.851 Y0.3557
X3.8524 Y0.3614
X3.8612 Y0.3857
G3 X3.8514 Y0.3958 I-0.0076 J0.0025
G1 X3.8439 Y0.3937
X3.766 Y0.3713
X3.7533 Y0.3676
G3 X3.7477 Y0.3583 I0.0022 J-0.0077
G1 X3.7538 Y0.3331
X3.7555 Y0.3273
X3.758 Y0.3219
X3.7614 Y0.3169
X3.7654 Y0.3124
X3.7698 Y0.3084
X3.7747 Y0.3049
X3.7799 Y0.3016
X3.7856 Y0.2987
X3.7917 Y0.2962
X3.7982 Y0.2941
X3.8042 Y0.2927
X3.8103 Y0.2918
X3.8163 Y0.2914
X3.8223 Y0.2915
X3.8247 Y0.2918
X3.8304 Y0.2935
X3.8353 Y0.2969
X3.8388 Y0.3017
X3.8407 Y0.3074
G3 X3.8355 Y0.3159 I-0.0079 J0.001
G1 X3.8221 Y0.3209
X3.772 Y0.3393
X3.7644 Y0.3422
G3 X3.7538 Y0.3331 I-0.0028 J-0.0075
G1 X3.7579 Y0.3161
X3.7589 Y0.3104
X3.7593 Y0.3073
X3.7605 Y0.3014
X3.7629 Y0.2959
X3.7662 Y0.2909
X3.7702 Y0.2864
X3.7746 Y0.2823
X3.7795 Y0.2788
X3.7846 Y0.2757
X3.79 Y0.2731
X3.7956 Y0.2709
X3.8014 Y0.2693
X3.8073 Y0.2682
X3.8132 Y0.2676
X3.8192 Y0.2677
X3.8252 Y0.2685
X3.8259 Y0.2687
X3.8315 Y0.2711
X3.8361 Y0.2753
X3.839 Y0.2807
X3.84 Y0.2867
G3 X3.8345 Y0.2941 I-0.008 J-0.0003
G1 X3.8199 Y0.299
X3.7784 Y0.3129
X3.7698 Y0.3158
G3 X3.7593 Y0.3073 I-0.0025 J-0.0076
G1 X3.7597 Y0.3047
X3.76 Y0.2877
X3.7603 Y0.2817
X3.7619 Y0.2759
X3.7646 Y0.2706
X3.7664 Y0.268
X3.7706 Y0.2637
X3.7758 Y0.2609
X3.7817 Y0.26
G3 X3.788 Y0.2725 I-0.0003 J0.008
G1 X3.7835 Y0.2791
X3.7775 Y0.2878
X3.7746 Y0.292
G3 X3.76 Y0.2877 I-0.0066 J-0.0046
G1 Y0.2679
X3.7601 Y0.2672
X3.7602 Y0.2664
X3.7605 Y0.2657
X3.7608 Y0.265
X3.7612 Y0.2642
X3.7618 Y0.2634
X3.7626 Y0.2625
X3.7635 Y0.2618
X3.7642 Y0.2613
X3.7649 Y0.2608
X3.7656 Y0.2605
X3.7664 Y0.2603
X3.7671 Y0.2601
X3.7678 Y0.26
X3.7692
X3.8304
X3.8316
X3.8323
X3.833 Y0.2602
X3.8337 Y0.2603
X3.8344 Y0.2606
X3.8351 Y0.2609
X3.8358 Y0.2613
X3.8372 Y0.2624
X3.8379 Y0.263
X3.8385 Y0.2637
X3.8389 Y0.2644
X3.8392 Y0.265
X3.8395 Y0.2657
X3.8398 Y0.2664
X3.8399 Y0.2672
X3.84 Y0.2679
Y0.2877
X3.8403 Y0.3047
X3.8412 Y0.3104
X3.8434 Y0.3217
X3.8451 Y0.3297
X3.8455 Y0.3316
G3 X3.8346 Y0.3404 I-0.0079 J0.0014
G1 X3.8332 Y0.3393 Z-0.0798
X3.832 Y0.3383 Z-0.0792
X3.8308 Y0.3373 Z-0.0783
X3.8303 Y0.3361 Z-0.0769
X3.8299 Y0.3352 Z-0.0753
X3.8298 Y0.3347 Z-0.0737
Y0.3345 Z-0.072
G0 Z0.2
X4.938 Y0.6019
Z0.128
G1 Z0.12 F40
G3 X4.8623 Y0.5947 Z0.1158 I-0.0378 J-0.0036 F13.33
X4.938 Y0.6019 Z0.1117 I0.0378 J0.0036
X4.8623 Y0.5947 Z0.1075 I-0.0378 J-0.0036
X4.938 Y0.6019 Z0.1033 I0.0378 J0.0036
X4.8623 Y0.5947 Z0.0992 I-0.0378 J-0.0036
X4.938 Y0.6019 Z0.095 I0.0378 J0.0036
X4.8623 Y0.5947 Z0.0908 I-0.0378 J-0.0036
X4.938 Y0.6019 Z0.0866 I0.0378 J0.0036
X4.8623 Y0.5947 Z0.0825 I-0.0378 J-0.0036
X4.938 Y0.6019 Z0.0783 I0.0378 J0.0036
X4.8623 Y0.5947 Z0.0741 I-0.0378 J-0.0036
X4.938 Y0.6019 Z0.07 I0.0378 J0.0036
X4.8623 Y0.5947 Z0.0658 I-0.0378 J-0.0036
X4.938 Y0.6019 Z0.0616 I0.0378 J0.0036
X4.8623 Y0.5947 Z0.0575 I-0.0378 J-0.0036
X4.938 Y0.6019 Z0.0533 I0.0378 J0.0036
X4.8623 Y0.5947 Z0.0491 I-0.0378 J-0.0036
X4.938 Y0.6019 Z0.045 I0.0378 J0.0036
X4.8623 Y0.5947 Z0.0408 I-0.0378 J-0.0036
X4.938 Y0.6019 Z0.0366 I0.0378 J0.0036
X4.8623 Y0.5947 Z0.0325 I-0.0378 J-0.0036
X4.938 Y0.6019 Z0.0283 I0.0378 J0.0036
X4.8623 Y0.5947 Z0.0241 I-0.0378 J-0.0036
X4.938 Y0.6019 Z0.0199 I0.0378 J0.0036
X4.8623 Y0.5947 Z0.0158 I-0.0378 J-0.0036
X4.938 Y0.6019 Z0.0116 I0.0378 J0.0036
X4.8623 Y0.5947 Z0.0074 I-0.0378 J-0.0036
X4.938 Y0.6019 Z0.0033 I0.0378 J0.0036
X4.8623 Y0.5947 Z-0.0009 I-0.0378 J-0.0036
X4.938 Y0.6019 Z-0.0051 I0.0378 J0.0036
X4.8623 Y0.5947 Z-0.0092 I-0.0378 J-0.0036
X4.938 Y0.6019 Z-0.0134 I0.0378 J0.0036
X4.8623 Y0.5947 Z-0.0176 I-0.0378 J-0.0036
X4.938 Y0.6019 Z-0.0217 I0.0378 J0.0036
X4.8623 Y0.5947 Z-0.0259 I-0.0378 J-0.0036
X4.9382 Y0.5983 Z-0.03 I0.0378 J0.0036
X4.8622 I-0.038
X4.9382 I0.038
G1 X4.9394 Y0.6218 F40
X4.9392 Y0.6278
X4.9375 Y0.6336
X4.9347 Y0.6389
X4.931 Y0.6436
X4.9266 Y0.6476
X4.9216 Y0.651
X4.9162 Y0.6537
X4.9106 Y0.6557
X4.9047 Y0.6569
X4.8987 Y0.6575
X4.8927 Y0.6574
X4.8868 Y0.6566
X4.881 Y0.6552
X4.8753 Y0.6532
X4.8699 Y0.6506
X4.8648 Y0.6475
X4.86 Y0.6438
X4.8557 Y0.6397
X4.8518 Y0.6351
X4.8483 Y0.6302
X4.8454 Y0.625
X4.843 Y0.6195
X4.8412 Y0.6138
X4.8399 Y0.6079
X4.8392 Y0.6019
X4.8391 Y0.5959
X4.8397 Y0.59
X4.8408 Y0.5841
X4.8424 Y0.5783
X4.8447 Y0.5727
X4.8474 Y0.5674
X4.8507 Y0.5624
X4.8545 Y0.5577
X4.8587 Y0.5534
X4.8633 Y0.5496
X4.8682 Y0.5462
X4.8735 Y0.5433
X4.879 Y0.5409
X4.8847 Y0.5391
X4.8906 Y0.5379
X4.8966 Y0.5373
X4.9026 Y0.5372
X4.9085 Y0.5377
X4.9144 Y0.5388
X4.9202 Y0.5405
X4.9258 Y0.5428
X4.9311 Y0.5455
X4.9361 Y0.5488
X4.9408 Y0.5526
X4.9451 Y0.5568
X4.9489 Y0.5614
X4.9523 Y0.5663
X4.9552 Y0.5716
X4.9584 Y0.5787
X4.9616 Y0.5877
X4.9639 Y0.5965
X4.9651 Y0.6031
X4.9658 Y0.6098
X4.9659 Y0.6158
X4.9655 Y0.6218
X4.9646 Y0.6277
X4.9632 Y0.6335
X4.9612 Y0.6392
X4.9587 Y0.6447
X4.9557 Y0.6499
X4.9523 Y0.6548
X4.9484 Y0.6594
X4.9442 Y0.6636
X4.9396 Y0.6674
X4.9346 Y0.6708
X4.9294 Y0.6738
X4.924 Y0.6763
X4.9183 Y0.6784
X4.9125 Y0.68
X4.9065 Y0.6811
X4.9004 Y0.6817
X4.8944 Y0.6819
X4.888 Y0.6815
X4.8817 Y0.6807
X4.8755 Y0.6793
X4.8695 Y0.6775
X4.8634 Y0.6751
X4.8574 Y0.6721
X4.8518 Y0.6688
X4.8465 Y0.665
X4.8414 Y0.6607
X4.8365 Y0.656
X4.8321 Y0.6508
X4.8281 Y0.6454
X4.8246 Y0.6397
X4.8215 Y0.6337
X4.8189 Y0.6273
X4.8168 Y0.6207
X4.8152 Y0.6141
X4.8142 Y0.6074
X4.8138 Y0.6005
Y0.5936
X4.8145 Y0.5866
X4.8156 Y0.5798
X4.8173 Y0.5732
X4.8196 Y0.5667
X4.8224 Y0.5603
X4.8257 Y0.5541
X4.8295 Y0.5483
X4.8336 Y0.5429
X4.8382 Y0.5378
X4.8433 Y0.533
X4.8488 Y0.5286
X4.8546 Y0.5246
X4.8606 Y0.5212
X4.8668 Y0.5183
X4.8733 Y0.5159
X4.8801 Y0.514
X4.887 Y0.5127
X4.8939 Y0.5119
X4.9008 Y0.5117
X4.9077 Y0.512
X4.9146 Y0.5129
X4.9215 Y0.5143
X4.9282 Y0.5163
X4.9347 Y0.5188
X4.9408 Y0.5218
X4.9468 Y0.5253
X4.9526 Y0.5293
X4.958 Y0.5338
X4.9634 Y0.5389
X4.9684 Y0.5447
X4.9734 Y0.5515
X4.9783 Y0.5592
X4.9824 Y0.5672
X4.9859 Y0.5755
X4.9887 Y0.5838
X4.9907 Y0.5921
X4.992 Y0.6004
X4.9926 Y0.6086
Y0.6166
X4.992 Y0.6245
X4.9907 Y0.6321
X4.9889 Y0.6395
X4.9864 Y0.6467
X4.9835 Y0.6536
X4.98 Y0.6603
X4.976 Y0.6666
X4.9714 Y0.6727
X4.9663 Y0.6784
X4.9608 Y0.6837
X4.9548 Y0.6886
X4.9484 Y0.693
X4.9416 Y0.697
X4.9344 Y0.7004
X4.927 Y0.7032
X4.9192 Y0.7054
X4.9112 Y0.7071
X4.9031 Y0.7081
X4.8948 Y0.7084
X4.8865 Y0.7081
X4.8781 Y0.7071
X4.8698 Y0.7054
X4.8616 Y0.7031
X4.8536 Y0.7
X4.8458 Y0.6964
X4.8382 Y0.692
X4.831 Y0.6871
X4.8242 Y0.6816
X4.8178 Y0.6755
X4.812 Y0.6689
X4.8066 Y0.6618
X4.8018 Y0.6543
X4.7976 Y0.6464
X4.794 Y0.6381
X4.7911 Y0.6296
X4.7889 Y0.6209
X4.7874 Y0.612
X4.7867 Y0.603
X4.7866 Y0.5939
X4.7873 Y0.5849
X4.7887 Y0.5759
X4.7908 Y0.5671
X4.7937 Y0.5584
X4.7972 Y0.55
X4.8013 Y0.5419
X4.8061 Y0.5342
X4.8116 Y0.5269
X4.8176 Y0.52
X4.8241 Y0.5136
X4.8311 Y0.5078
X4.8386 Y0.5026
X4.8465 Y0.4979
X4.8547 Y0.4939
X4.8632 Y0.4906
X4.872 Y0.488
X4.8809 Y0.4861
X4.89 Y0.4849
X4.8991 Y0.4844
X4.9083 Y0.4847
X4.9174 Y0.4857
X4.9263 Y0.4875
X4.9351 Y0.4899
X4.9437 Y0.4931
X4.952 Y0.4969
X4.9601 Y0.5015
X4.9679 Y0.5067
X4.9755 Y0.5128
X4.9828 Y0.5197
X4.9898 Y0.5274
X4.9963 Y0.5357
X5.0021 Y0.5447
X5.0072 Y0.5541
X5.0115 Y0.5639
X5.015 Y0.574
X5.0177 Y0.5842
X5.0195 Y0.5945
X5.0205 Y0.6048
X5.0206 Y0.615
X5.0199 Y0.6251
X5.0185 Y0.635
X5.0162 Y0.6447
X5.0132 Y0.6542
X5.0095 Y0.6633
X5.005 Y0.6722
X4.9999 Y0.6806
X4.994 Y0.6886
X4.9876 Y0.6961
X4.9805 Y0.7031
X4.9729 Y0.7096
X4.9647 Y0.7154
X4.956 Y0.7206
X4.9469 Y0.7252
X4.9374 Y0.729
X4.9275 Y0.732
X4.9174 Y0.7342
X4.907 Y0.7357
X4.8966 Y0.7363
X4.886 Y0.7361
X4.8754 Y0.735
X4.8649 Y0.733
X4.8545 Y0.7302
X4.8484 Y0.728
X4.848 Y0.7279
X4.8411 Y0.7249
X4.8283 Y0.7194
X4.8269 Y0.7186
X4.824 Y0.7162
X4.7994 Y0.6959
X4.7971 Y0.6939
X4.7957 Y0.692
X4.7769 Y0.6644
X4.7752 Y0.6619
X4.7746 Y0.6605
X4.763 Y0.625
X4.7627 Y0.6236
X4.7626 Y0.6222
X4.7615 Y0.5882
Y0.5825
X4.7638 Y0.5712
X4.765 Y0.5655
X4.7663 Y0.5598
X4.7697 Y0.5477
X4.773 Y0.5387
X4.7771 Y0.5297
X4.7821 Y0.5208
X4.7879 Y0.5122
X4.7945 Y0.5039
X4.8019 Y0.4961
X4.81 Y0.4887
X4.8188 Y0.4819
X4.8282 Y0.4758
X4.8381 Y0.4705
X4.8484 Y0.4659
X4.8591 Y0.4622
X4.8701 Y0.4594
X4.8813 Y0.4574
X4.8926 Y0.4563
X4.904 Y0.4562
X4.9154 Y0.4569
X4.9267 Y0.4586
X4.9378 Y0.4612
X4.9487 Y0.4646
X4.9594 Y0.469
X4.9698 Y0.4742
X4.9799 Y0.4804
X4.9897 Y0.4875
X4.999 Y0.4956
X5.0078 Y0.5044
X5.016 Y0.5141
X5.0192 Y0.5186
X5.02 Y0.5199
X5.0208 Y0.5212
X5.0214 Y0.5226
X5.0227 Y0.5258
X5.0248 Y0.5315
X5.0306 Y0.5485
X5.0319 Y0.5542
X5.0383 Y0.5825
X5.0386 Y0.5839
X5.0387 Y0.5846
Y0.5853
X5.0383 Y0.6165
X5.0382 Y0.6179
X5.038 Y0.6194
X5.0356 Y0.6279
X5.0282 Y0.6536
X5.0274 Y0.6562
X5.0271 Y0.6569
X5.0268 Y0.6576
X5.0098 Y0.6845
X5.0061 Y0.6902
X5.0055 Y0.6908
X4.9807 Y0.7129
X4.9772 Y0.7159
X4.9759 Y0.7167
X4.9431 Y0.7323
X4.9417 Y0.7329
X4.941 Y0.7331
X4.9403 Y0.7333
X4.9034 Y0.7392
X4.902
X4.9006 Y0.7391
X4.8694 Y0.7353
X4.8637 Y0.7345
X4.863 Y0.7343
X4.8623 Y0.734
X4.848 Y0.7279
G3 X4.8442 Y0.7241 I0.0034 J-0.0072
G1 X4.8356 Y0.7064
X4.7757 Y0.5828
X4.767 Y0.5648
G3 X4.7663 Y0.5598 I0.0072 J-0.0035
G1 X4.7676 Y0.5542
X4.7689 Y0.5485
X4.775 Y0.5315
X4.777 Y0.5258
X4.7815 Y0.5145
X4.7838 Y0.5088
X4.7957 Y0.4824
X4.7994 Y0.4755
X4.8026 Y0.4704
X4.8063 Y0.4657
X4.8109 Y0.4608
X4.816 Y0.4561
X4.8224 Y0.4512
X4.8298 Y0.4463
X4.8379 Y0.4419
X4.8473 Y0.4377
X4.8579 Y0.434
X4.8692 Y0.431
X4.8812 Y0.4289
X4.8935 Y0.4277
X4.9063 Y0.4275
X4.9193 Y0.4283
X4.9325 Y0.4302
X4.9456 Y0.4332
X4.9587 Y0.4373
X4.9715 Y0.4425
X4.984 Y0.4488
X4.9851 Y0.4494
X4.988 Y0.4516
X4.9904 Y0.4543
X4.9923 Y0.4574
X5.0086 Y0.4918
X5.0169 Y0.5113
X5.0214 Y0.5226
G3 X5.0124 Y0.5331 I-0.0075 J0.0027
G1 X5.0042 Y0.5316
X4.8124 Y0.4954
X4.8016 Y0.4933
G3 X4.7957 Y0.4824 I0.0015 J-0.0079
G1 X4.8047 Y0.4635
X4.8155 Y0.4408
X4.8184 Y0.4355
X4.822 Y0.4307
X4.8261 Y0.4264
X4.8307 Y0.4224
X4.8359 Y0.4186
X4.8423 Y0.4146
X4.8494 Y0.411
X4.8581 Y0.4074
X4.8675 Y0.4043
X4.878 Y0.4018
X4.8899 Y0.4
X4.9029 Y0.3991
X4.9166 Y0.3992
X4.9306 Y0.4004
X4.945 Y0.4029
X4.9597 Y0.4066
X4.9631 Y0.4078
X4.9677 Y0.4101
X4.9715 Y0.4136
X4.9742 Y0.4181
X4.9828 Y0.4371
X4.9898 Y0.4521
X4.9923 Y0.4574
G3 X4.9841 Y0.4685 I-0.0073 J0.0032
G1 X4.9757 Y0.4677
X4.8321 Y0.453
X4.8221 Y0.4519
G3 X4.8155 Y0.4408 I0.0008 J-0.008
G1 X4.8184 Y0.4348
X4.8256 Y0.4181
X4.8279 Y0.4124
X4.8305 Y0.407
X4.8337 Y0.4019
X4.8376 Y0.3974
X4.842 Y0.3933
X4.8467 Y0.3896
X4.8523 Y0.386
X4.8586 Y0.3827
X4.8664 Y0.3793
X4.8747 Y0.3765
X4.8848 Y0.3739
X4.8962 Y0.372
X4.9081 Y0.371
X4.9217 Y0.3709
X4.9364 Y0.3719
X4.9465 Y0.3735
X4.948 Y0.3739
X4.9536 Y0.3762
X4.9582 Y0.3803
X4.9612 Y0.3856
X4.9658 Y0.3982
X4.9718 Y0.4124
X4.9742 Y0.4181
G3 X4.9664 Y0.429 I-0.0075 J0.0029
G1 X4.9571 Y0.4285
X4.8452 Y0.4236
X4.8351 Y0.4232
G3 X4.8279 Y0.4124 I0.0004 J-0.008
G1 X4.8403 Y0.3819
X4.8429 Y0.3765
X4.8463 Y0.3716
X4.8503 Y0.3671
X4.8549 Y0.3632
X4.8597 Y0.3597
X4.8652 Y0.3564
X4.8719 Y0.3531
X4.8791 Y0.3502
X4.8882 Y0.3474
X4.8979 Y0.3452
X4.9093 Y0.3436
X4.9206 Y0.3429
X4.9286 Y0.3431
X4.9359 Y0.3438
X4.9368 Y0.344
X4.9433 Y0.3465
X4.9485 Y0.3514
X4.9515 Y0.3578
X4.9524 Y0.3614
X4.9612 Y0.3856
G3 X4.9533 Y0.3961 I-0.0076 J0.0025
G1 X4.9436 Y0.3958
X4.8576 Y0.393
X4.8476 Y0.3927
G3 X4.8403 Y0.3819 I0.0003 J-0.008
G1 X4.8411 Y0.3802
X4.8417 Y0.3784
X4.8469 Y0.3614
X4.8477 Y0.3583
X4.8494 Y0.3525
X4.8523 Y0.3473
X4.8559 Y0.3425
X4.8601 Y0.3382
X4.8647 Y0.3344
X4.8697 Y0.331
X4.8756 Y0.3275
X4.8823 Y0.3244
X4.89 Y0.3215
X4.8983 Y0.3191
X4.9069 Y0.3174
X4.9135 Y0.3166
X4.9201 Y0.3163
X4.9261 Y0.3166
X4.9296 Y0.317
