%
(IDEALAB TOKEN ENGRAVE)
(T4  D=0.01 CR=0 - ZMIN=0 - flat end mill)
G90 G94
G17
G20
G28 G91 Z0
G90

(2D Contour1)
M9
T4 M6
S5000 M3
G54
M8
G0 X-0.008 Y-0.1852
Z0.6
Z0.2
G1 Z0.0394 F13.33
Z0.001
G18 G2 X-0.007 Z0 I0.001
G1 X-0.006 F40
G17 G3 X-0.005 Y-0.1842 J0.001
G1 Y-0.1442
G3 X-0.006 Y-0.1432 I-0.001
G1 X-0.007
G18 G3 X-0.008 Z0.001 K0.001
G0 Z0.2
X-0.0272 Y-0.233
G1 Z0.0394 F13.33
Z0.001
X-0.0273 Y-0.2327 Z0.0003
X-0.0276 Y-0.2321 Z0
X-0.028 Y-0.2312 F40
G17 G3 X-0.0294 Y-0.2307 I-0.0009 J-0.0004
X-0.068 Y-0.311 I0.0294 J-0.0635
G1 X-0.0679 Y-0.3112
X-0.0663 Y-0.3191
X-0.064 Y-0.3259
X-0.061 Y-0.3322
X-0.0575 Y-0.3382
X-0.0536 Y-0.344
X-0.0494 Y-0.3498
X-0.0461 Y-0.3544
X-0.046 Y-0.3545
X-0.0429 Y-0.3591
X-0.0427 Y-0.3594
X-0.0399 Y-0.3643
G2 X-0.0396 Y-0.3648 I-0.0043 J-0.0025
G1 X-0.0373 Y-0.3701
G2 X-0.0371 Y-0.3708 I-0.0046 J-0.002
G1 X-0.0355 Y-0.3766
G2 X-0.0354 Y-0.3775 I-0.0048 J-0.0013
G1 X-0.0348 Y-0.3841
G2 Y-0.3845 I-0.005 J-0.0004
G1 Y-0.4412
G3 X-0.0068 Y-0.4692 I0.028
G1 X0.0068
G3 X0.0348 Y-0.4412 J0.028
G1 Y-0.3845
G2 Y-0.3841 I0.005
G1 X0.0353 Y-0.3778
G2 X0.0355 Y-0.377 I0.005 J-0.0004
G1 X0.0369 Y-0.3713
G2 X0.0371 Y-0.3706 I0.0048 J-0.0012
G1 X0.0392 Y-0.3656
G2 X0.0395 Y-0.365 I0.0046 J-0.0019
G1 X0.0421 Y-0.3604
X0.0423 Y-0.36
X0.0453 Y-0.3556
X0.0454 Y-0.3554
X0.0485 Y-0.3511
Y-0.351
X0.0517 Y-0.3467
X0.0547 Y-0.3424
X0.0584 Y-0.3369
X0.0616 Y-0.3312
X0.0643 Y-0.3251
X0.0665 Y-0.3187
X0.0679 Y-0.3113
X0.068 Y-0.311
G3 X-0.0294 Y-0.2307 I-0.068 J0.0168
X-0.0299 Y-0.232 I0.0004 J-0.0009
G1 X-0.0294 Y-0.2329
X-0.0291 Y-0.2336 Z0.0003
X-0.029 Y-0.2338 Z0.001
G0 Z0.2
X0.0293 Y-0.2499
G1 Z0.0394 F13.33
Z0.001
X0.0292 Y-0.2497 Z0.0003
X0.0291 Y-0.249 Z0
X0.0288 Y-0.248 F40
G3 X0.0276 Y-0.2473 I-0.001 J-0.0003
G1 X0.017 Y-0.2501
X0.0076 Y-0.2528
X-0.0005 Y-0.2554
X-0.0075 Y-0.2579
X-0.0134 Y-0.2603
X-0.0183 Y-0.2625
X-0.0221 Y-0.2646
X-0.0249 Y-0.2666
X-0.0267 Y-0.2682
X-0.0277 Y-0.2695
X-0.028 Y-0.2703
X-0.0281 Y-0.2707
X-0.0278 Y-0.2716
X-0.0269 Y-0.273
X-0.0251 Y-0.2749
X-0.0224 Y-0.2769
X-0.0177 Y-0.2799
X-0.012 Y-0.2829
X-0.0057 Y-0.286
X0.0011 Y-0.2892
X0.008 Y-0.2925
X0.0081
X0.0148 Y-0.2959
X0.015 Y-0.296
X0.0212 Y-0.2994
X0.0215 Y-0.2996
X0.0271 Y-0.3032
G2 X0.0275 Y-0.3035 I-0.0027 J-0.0042
G1 X0.0322 Y-0.3072
G2 X0.0327 Y-0.3077 I-0.0031 J-0.0039
G1 X0.0352 Y-0.3103
G2 X0.0357 Y-0.3109 I-0.0036 J-0.0034
G1 X0.0375 Y-0.3136
G2 X0.038 Y-0.3144 I-0.0041 J-0.0029
G1 X0.0392 Y-0.3172
G2 X0.0396 Y-0.3184 I-0.0046 J-0.002
G1 X0.04 Y-0.3213
G2 Y-0.3227 I-0.0049 J-0.0008
G1 X0.0397 Y-0.3257
G2 X0.0393 Y-0.327 I-0.005 J0.0006
G1 X0.0381 Y-0.3301
G2 X0.0376 Y-0.331 I-0.0046 J0.0019
G1 X0.0356 Y-0.3339
G2 X0.0352 Y-0.3345 I-0.0041 J0.0028
G1 X0.0324 Y-0.3375
G2 X0.0319 Y-0.3379 I-0.0037 J0.0034
G1 X0.0283 Y-0.341
G2 X0.0279 Y-0.3413 I-0.0032 J0.0038
G1 X0.0233 Y-0.3445
X0.023 Y-0.3447
X0.0174 Y-0.3481
X0.0172 Y-0.3482
X0.0107 Y-0.3516
X0.0104 Y-0.3517
X0.0029 Y-0.3552
X0.0027 Y-0.3553
X-0.006 Y-0.359
X-0.0061
X-0.016 Y-0.3628
G3 X-0.0165 Y-0.3641 I0.0004 J-0.0009
G1 X-0.0162 Y-0.3651
X-0.0159 Y-0.3657 Z0.0003
X-0.0158 Y-0.366 Z0.001
G0 Z0.2
X-0.1104 Y-0.307
G1 Z0.0394 F13.33
Z0.001
X-0.1103 Y-0.3068 Z0.0003
X-0.1102 Y-0.3061 Z0
X-0.11 Y-0.3051 F40
G3 X-0.1108 Y-0.3039 I-0.001 J0.0002
G1 X-0.1501 Y-0.2965
G3 X-0.1513 Y-0.2973 I-0.0002 J-0.001
G1 X-0.1515 Y-0.2983
X-0.1516 Y-0.299 Z0.0003
X-0.1517 Y-0.2993 Z0.001
G0 Z0.2
X-0.095 Y-0.2372
G1 Z0.0394 F13.33
Z0.001
X-0.0948 Y-0.237 Z0.0003
X-0.0943 Y-0.2365 Z0
X-0.0936 Y-0.2358 F40
G3 Y-0.2344 I-0.0007 J0.0007
G1 X-0.1214 Y-0.2057
G3 X-0.1228 I-0.0007 J-0.0007
G1 X-0.1235 Y-0.2063
X-0.124 Y-0.2068 Z0.0003
X-0.1242 Y-0.207 Z0.001
G0 Z0.2
X-0.3585 Y-0.1454
G1 Z0.0394 F13.33
Z0.001
X-0.3584 Y-0.1456 Z0.0003
X-0.3582 Y-0.1463 Z0
X-0.3578 Y-0.1473 F40
G3 X-0.3566 Y-0.1479 I0.0009 J0.0003
G1 X-0.2008 Y-0.0952
X-0.2174 Y-0.0461
X-0.3977 Y-0.1071
X-0.3811 Y-0.1562
X-0.3566 Y-0.1479
G3 X-0.3559 Y-0.1466 I-0.0003 J0.0009
G1 X-0.3563 Y-0.1457
X-0.3565 Y-0.145 Z0.0003
X-0.3566 Y-0.1447 Z0.001
G0 Z0.2
X-0.3775 Y0.0357
G1 Z0.0394 F13.33
Z0.001
X-0.3776 Y0.0354 Z0.0003
X-0.3778 Y0.0347 Z0
X-0.3781 Y0.0337 F40
G3 X-0.3773 Y0.0325 I0.001 J-0.0003
G1 X-0.2185 Y-0.0101
X-0.2039 Y0.0446
X-0.1997 Y0.0601
X-0.1977 Y0.0682
X-0.1958 Y0.0762
X-0.1942 Y0.0842
X-0.1933 Y0.0922
X-0.1931 Y0.097
X-0.1935 Y0.1018
X-0.1943 Y0.1063
X-0.1957 Y0.1106
X-0.1978 Y0.1144
X-0.2006 Y0.1177
X-0.204 Y0.1204
X-0.208 Y0.1226
X-0.2125 Y0.1246
X-0.2173 Y0.1263
X-0.227 Y0.1294
X-0.2369 Y0.1322
X-0.3046 Y0.1503
X-0.3134 Y0.1526
X-0.3222 Y0.1547
X-0.3309 Y0.1566
X-0.3394 Y0.1579
X-0.3447 Y0.158
X-0.3497 Y0.157
X-0.3546 Y0.1551
X-0.3592 Y0.1525
X-0.3633 Y0.1491
X-0.3669 Y0.1451
X-0.3711 Y0.1389
X-0.3747 Y0.1321
X-0.3777 Y0.1248
X-0.3804 Y0.1173
X-0.3829 Y0.1096
X-0.3875 Y0.0943
X-0.3917 Y0.0789
X-0.4023 Y0.0392
X-0.3773 Y0.0325
G3 X-0.3761 Y0.0332 I0.0003 J0.001
G1 X-0.3759 Y0.0342
X-0.3757 Y0.0349 Z0.0003
X-0.3756 Y0.0351 Z0.001
X-0.3614 Y0.0785
X-0.3613 Y0.0787 Z0.0003 F13.33
X-0.3611 Y0.0794 Z0
X-0.3607 Y0.0803 F40
G3 X-0.3613 Y0.0816 I-0.0009 J0.0004
G2 X-0.3642 Y0.0877 I0.0018 J0.0047
G1 X-0.3628 Y0.0924
X-0.3627 Y0.0927
X-0.361 Y0.0973
G2 X-0.3607 Y0.0979 I0.0047 J-0.0018
G1 X-0.3591 Y0.1008
G2 X-0.3583 Y0.1019 I0.0044 J-0.0024
G1 X-0.356 Y0.1042
G2 X-0.3544 Y0.1052 I0.0036 J-0.0035
G1 X-0.3515 Y0.1065
G2 X-0.3496 Y0.1069 I0.002 J-0.0046
G1 X-0.346 Y0.107
G2 X-0.3451 I0.0002 J-0.005
G1 X-0.3415 Y0.1064
X-0.3412
X-0.3377 Y0.1056
X-0.3375
X-0.3291 Y0.1034
X-0.2539 Y0.0833
X-0.2488 Y0.0819
X-0.2486 Y0.0818
X-0.2435 Y0.0802
X-0.2433
X-0.2383 Y0.0784
G2 X-0.2379 Y0.0782 I-0.0017 J-0.0047
G1 X-0.2331 Y0.0759
G2 X-0.2324 Y0.0755 I-0.0021 J-0.0045
G1 X-0.2302 Y0.074
G2 X-0.2291 Y0.073 I-0.0028 J-0.0041
G1 X-0.2275 Y0.0709
G2 X-0.2266 Y0.0693 I-0.0039 J-0.0031
G1 X-0.2259 Y0.0667
G2 X-0.2257 Y0.0656 I-0.0048 J-0.0015
G1 X-0.2255 Y0.063
G2 Y0.0621 I-0.005 J-0.0003
G1 X-0.226 Y0.0568
G2 X-0.2261 Y0.0562 I-0.005 J0.0005
G1 X-0.2273 Y0.0511
G2 X-0.2335 Y0.0473 I-0.0049 J0.0011
G1 X-0.3607 Y0.0815
G2 X-0.3613 Y0.0816 I0.0013 J0.0048
G3 X-0.3626 Y0.0811 I-0.0004 J-0.0009
G1 X-0.3629 Y0.0801
X-0.3632 Y0.0795 Z0.0003
X-0.3633 Y0.0792 Z0.001
G0 Z0.2
X-0.1812 Y0.2385
G1 Z0.0394 F13.33
Z0.001
X-0.1809 Z0.0003
X-0.1802 Z0
X-0.1792 Y0.2386 F40
G3 X-0.1782 Y0.2397 I-0.0001 J0.001
G2 X-0.1763 Y0.2439 I0.005 J0.0003
G1 X-0.15 Y0.2646
X-0.1675 Y0.2868
X-0.1938 Y0.2661
G2 X-0.2008 Y0.267 I-0.0031 J0.0039
G1 X-0.2245 Y0.297
G2 X-0.2236 Y0.304 I0.0039 J0.0031
G1 X-0.1953 Y0.3263
X-0.214 Y0.3501
X-0.2867 Y0.2928
X-0.1685 Y0.1426
X-0.0925 Y0.2024
X-0.1112 Y0.2262
X-0.1428 Y0.2013
G2 X-0.1498 Y0.2021 I-0.0031 J0.0039
G1 X-0.1772 Y0.2369
G2 X-0.1782 Y0.2397 I0.0039 J0.0031
G3 X-0.1793 Y0.2406 I-0.001 J-0.0001
G1 X-0.1803 Y0.2405
X-0.181 Z0.0003
X-0.1813 Z0.001
G0 Z0.2
X-0.0254 Y0.2457
G1 Z0.0394 F13.33
Z0.001
X-0.0251 Y0.2455 Z0.0003
X-0.0245 Y0.2452 Z0
X-0.0236 Y0.2446 F40
G3 X-0.0223 Y0.245 I0.0005 J0.0009
G2 X-0.0181 Y0.2474 I0.0043 J-0.0026
G1 X0.0039 Y0.2482
G2 X0.009 Y0.2438 I0.0002 J-0.005
G1 X0.0128 Y0.2124
X0.0651 Y0.2142
X0.0251 Y0.4039
X-0.0553 Y0.4011
X-0.0783 Y0.2092
X-0.0251 Y0.2111
X-0.023 Y0.2428
G2 X-0.0223 Y0.245 I0.005 J-0.0003
G3 X-0.0226 Y0.2464 I-0.0009 J0.0005
G1 X-0.0235 Y0.2469
X-0.0241 Y0.2472 Z0.0003
X-0.0243 Y0.2474 Z0.001
X-0.0257 Y0.2724
X-0.0255 Y0.2726 Z0.0003 F13.33
X-0.0249 Y0.273 Z0
X-0.0241 Y0.2736 F40
G3 X-0.0239 Y0.275 I-0.0006 J0.0008
G2 X-0.0249 Y0.2784 I0.004 J0.003
G1 X-0.0231 Y0.3022
Y0.3023
X-0.0207 Y0.326
Y0.3261
X-0.0162 Y0.3633
G2 X-0.0063 Y0.3634 I0.005 J-0.0006
G1 X-0.0031 Y0.3398
X0.0002 Y0.3164
X0.006 Y0.2795
G2 X0.0012 Y0.2738 I-0.0049 J-0.0008
G1 X-0.0198 Y0.273
G2 X-0.0239 Y0.275 I-0.0002 J0.005
G3 X-0.0253 Y0.2752 I-0.0008 J-0.0006
G1 X-0.0261 Y0.2746
X-0.0267 Y0.2742 Z0.0003
X-0.0269 Y0.274 Z0.001
G0 Z0.2
X0.1432 Y0.2048
G1 Z0.0394 F13.33
Z0.001
X0.1435 Z0.0003
X0.1442 Y0.2046 Z0
X0.1452 Y0.2043 F40
G3 X0.1464 Y0.205 I0.0003 J0.001
G2 X0.147 Y0.2063 I0.0048 J-0.0014
G1 X0.2308 Y0.3374
X0.1875 Y0.3651
X0.0847 Y0.2043
X0.1595 Y0.1565
X0.1758 Y0.1819
X0.1485 Y0.1993
G2 X0.1464 Y0.205 I0.0027 J0.0042
G3 X0.1457 Y0.2062 I-0.001 J0.0003
G1 X0.1448 Y0.2065
X0.1441 Y0.2067 Z0.0003
X0.1438 Y0.2068 Z0.001
G0 Z0.2
X0.2208 Y0.111
G1 Z0.0394 F13.33
Z0.001
X0.2207 Y0.1107 Z0.0003
X0.2206 Y0.11 Z0
X0.2204 Y0.1091 F40
G3 X0.2213 Y0.1079 I0.001 J-0.0002
G2 X0.225 Y0.1049 I-0.0009 J-0.0049
G1 X0.2335 Y0.0846
G2 X0.2312 Y0.0783 I-0.0046 J-0.0019
G1 X0.203 Y0.0635
X0.2233 Y0.0153
X0.3871 Y0.1204
X0.3561 Y0.1944
X0.1678 Y0.1475
X0.1884 Y0.0984
X0.2189 Y0.1078
G2 X0.2213 Y0.1079 I0.0015 J-0.0048
G3 X0.2224 Y0.1087 I0.0002 J0.001
G1 X0.2226 Y0.1097
X0.2227 Y0.1104 Z0.0003
X0.2228 Y0.1107 Z0.001
X0.2457 Y0.1209
X0.246 Y0.1207 Z0.0003 F13.33
X0.2466 Y0.1204 Z0
X0.2474 Y0.1198 F40
G3 X0.2488 Y0.1202 I0.0005 J0.0008
G2 X0.2516 Y0.1223 I0.0042 J-0.0026
G1 X0.2746 Y0.1291
X0.2747
X0.2978 Y0.1353
X0.2979
X0.3344 Y0.1444
G2 X0.338 Y0.1352 I0.0012 J-0.0049
G1 X0.317 Y0.1239
X0.2962 Y0.1124
X0.2799 Y0.1032
X0.2637 Y0.0938
G2 X0.2566 Y0.0962 I-0.0025 J0.0043
G1 X0.2484 Y0.1156
G2 X0.2488 Y0.1202 I0.0046 J0.0019
G3 X0.2485 Y0.1215 I-0.0008 J0.0005
G1 X0.2476 Y0.1221
X0.247 Y0.1224 Z0.0003
X0.2468 Y0.1226 Z0.001
G0 Z0.2
X0.2435 Y-0.0185
G1 Z0.0394 F13.33
Z0.001
X0.2436 Y-0.0182 Z0.0003
X0.2438 Y-0.0176 Z0
X0.2442 Y-0.0166 F40
G3 X0.2435 Y-0.0154 I-0.0009 J0.0003
G1 X0.2189 Y-0.0071
X0.1977 Y-0.07
X0.1955 Y-0.077
X0.1932 Y-0.0839
X0.1911 Y-0.0909
X0.1892 Y-0.0978
X0.1875 Y-0.1048
X0.1862 Y-0.1116
X0.1857 Y-0.1182
X0.1861 Y-0.1225
X0.1871 Y-0.1266
X0.189 Y-0.1304
X0.1914 Y-0.1338
X0.1946 Y-0.1367
X0.1994 Y-0.1399
X0.2046 Y-0.1427
X0.2103 Y-0.1451
X0.2161 Y-0.1472
X0.2336 Y-0.1531
X0.239 Y-0.1547
X0.2443 Y-0.1559
X0.2496 Y-0.1565
X0.2547 Y-0.1564
X0.2594 Y-0.1555
X0.2637 Y-0.1534
X0.2674 Y-0.1506
X0.2709 Y-0.1471
X0.2741 Y-0.1431
X0.277 Y-0.1388
X0.2798 Y-0.1341
G2 X0.289 Y-0.1373 I0.0043 J-0.0026
G1 X0.2885 Y-0.1414
X0.2882 Y-0.1455
X0.2881 Y-0.1496
X0.2883 Y-0.1535
X0.2888 Y-0.1572
X0.2897 Y-0.1605
X0.2911 Y-0.1633
X0.2936 Y-0.166
X0.2968 Y-0.1684
X0.3005 Y-0.1704
X0.3045 Y-0.1722
X0.3086 Y-0.1737
X0.3151 Y-0.1757
X0.3216 Y-0.1773
X0.3282 Y-0.1783
X0.3346 Y-0.1786
X0.3407 Y-0.1779
X0.3465 Y-0.176
X0.352 Y-0.173
X0.3569 Y-0.1693
X0.3618 Y-0.1639
X0.3659 Y-0.1577
X0.3695 Y-0.1509
X0.3727 Y-0.1437
X0.3757 Y-0.1364
X0.3785 Y-0.1289
X0.3811 Y-0.1214
X0.3992 Y-0.0678
X0.2435 Y-0.0154
G3 X0.2423 Y-0.016 I-0.0003 J-0.0009
G1 X0.242 Y-0.0169
X0.2417 Y-0.0176 Z0.0003
X0.2416 Y-0.0179 Z0.001
X0.2868 Y-0.0819
X0.2866 Y-0.0821 Z0.0003 F13.33
X0.2861 Y-0.0826 Z0
X0.2853 Y-0.0832 F40
G3 Y-0.0846 I0.0007 J-0.0007
G2 X0.2863 Y-0.0899 I-0.0037 J-0.0034
G1 X0.2844 Y-0.0948
X0.2842 Y-0.0951
X0.282 Y-0.0999
G2 X0.2818 Y-0.1003 I-0.0045 J0.0021
G1 X0.2808 Y-0.1021
X0.2806 Y-0.1024
X0.2794 Y-0.1041
G2 X0.2789 Y-0.1048 I-0.0041 J0.0028
G1 X0.2775 Y-0.1063
G2 X0.2761 Y-0.1073 I-0.0036 J0.0035
G1 X0.2742 Y-0.1082
G2 X0.2724 Y-0.1087 I-0.0022 J0.0045
G1 X0.2696 Y-0.1089
G2 X0.2687 I-0.0004 J0.005
G1 X0.266 Y-0.1086
G2 X0.2655 I0.0005 J0.005
G1 X0.2628 Y-0.108
G2 X0.2624 Y-0.1079 I0.001 J0.0049
G1 X0.2561 Y-0.1061
X0.2559 Y-0.106
X0.2382 Y-0.1
X0.2381
X0.2352 Y-0.099
X0.2349 Y-0.0989
X0.2321 Y-0.0977
G2 X0.2317 Y-0.0975 I0.0019 J0.0046
G1 X0.2289 Y-0.096
G2 X0.2284 Y-0.0957 I0.0023 J0.0044
G1 X0.2259 Y-0.094
G2 X0.2249 Y-0.0931 I0.0028 J0.0041
G1 X0.2229 Y-0.0908
G2 X0.2219 Y-0.0887 I0.0038 J0.0032
G1 X0.2211 Y-0.0857
G2 X0.221 Y-0.0842 I0.0049 J0.0012
G1 X0.2213 Y-0.0794
G2 X0.2214 Y-0.0787 I0.005 J-0.0003
G1 X0.2224 Y-0.0739
Y-0.0736
X0.2237 Y-0.0689
G2 X0.2301 Y-0.0655 I0.0048 J-0.0013
G1 X0.2832 Y-0.0833
G2 X0.2853 Y-0.0846 I-0.0016 J-0.0047
G3 X0.2867 Y-0.0847 I0.0007 J0.0007
G1 X0.2874 Y-0.084
X0.2879 Y-0.0835 Z0.0003
X0.2882 Y-0.0833 Z0.001
X0.3088 Y-0.0903
X0.3089 Y-0.0906 Z0.0003 F13.33
X0.309 Y-0.0913 Z0
X0.3092 Y-0.0922 F40
G3 X0.3103 Y-0.0931 I0.001 J0.0002
G2 X0.3128 Y-0.0933 I0.0008 J-0.0049
G1 X0.355 Y-0.1074
G2 X0.3581 Y-0.1139 I-0.0016 J-0.0047
G1 X0.357 Y-0.1168
Y-0.1169
X0.3558 Y-0.1199
X0.3557 Y-0.1201
X0.3544 Y-0.123
X0.3543 Y-0.1233
X0.3528 Y-0.1261
G2 X0.352 Y-0.1272 I-0.0044 J0.0024
G1 X0.3498 Y-0.1294
G2 X0.3483 Y-0.1305 I-0.0036 J0.0035
G1 X0.3454 Y-0.1318
G2 X0.344 Y-0.1322 I-0.0021 J0.0045
G1 X0.3403 Y-0.1327
G2 X0.339 I-0.0006 J0.005
G1 X0.3354 Y-0.1322
G2 X0.3349 Y-0.1321 I0.0006 J0.005
G1 X0.3313 Y-0.1313
X0.3309 Y-0.1312
X0.3274 Y-0.13
X0.3272
X0.3218 Y-0.1281
X0.3216 Y-0.128
X0.3163 Y-0.1259
X0.3159 Y-0.1258
X0.3107 Y-0.1233
G2 X0.3103 Y-0.1231 I0.0022 J0.0045
G1 X0.3084 Y-0.1219
G2 X0.3078 Y-0.1215 I0.0026 J0.0042
G1 X0.3062 Y-0.1201
G2 X0.3051 Y-0.1188 I0.0032 J0.0038
G1 X0.304 Y-0.1169
G2 X0.3034 Y-0.1154 I0.0043 J0.0025
G1 X0.303 Y-0.1133
G2 X0.3029 Y-0.112 I0.0049 J0.001
G1 X0.3032 Y-0.1077
G2 X0.3034 Y-0.1067 I0.005 J-0.0003
G1 X0.3045 Y-0.1025
X0.3046 Y-0.1023
X0.3056 Y-0.0991
X0.3064 Y-0.0965
G2 X0.3103 Y-0.0931 I0.0048 J-0.0015
G3 X0.3111 Y-0.0919 I-0.0002 J0.001
G1 X0.311 Y-0.0909
X0.3108 Y-0.0902 Z0.0003
Y-0.0899 Z0.001
G0 Z0.2
X0.0835 Y-0.2261
G1 Z0.0394 F13.33
Z0.001
X0.0837 Y-0.2263 Z0.0003
X0.0842 Y-0.2268 Z0
X0.085 Y-0.2275 F40
G3 X0.0864 Y-0.2274 I0.0007 J0.0007
G1 X0.1142 Y-0.1987
G3 Y-0.1973 I-0.0007 J0.0007
G1 X0.1135 Y-0.1966
X0.113 Y-0.1961 Z0.0003
X0.1127 Y-0.1959 Z0.001
G0 Z0.2
X0.1074 Y-0.2913
G1 Z0.0394 F13.33
Z0.001
X0.1075 Y-0.2916 Z0.0003
X0.1076 Y-0.2923 Z0
X0.1078 Y-0.2933 F40
G3 X0.109 Y-0.2941 I0.001 J0.0002
G1 X0.1483 Y-0.2867
G3 X0.1491 Y-0.2855 I-0.0002 J0.001
G1 X0.1489 Y-0.2846
X0.1488 Y-0.2839 Z0.0003
X0.1487 Y-0.2836 Z0.001
G0 Z0.6
M9
G28 G91 Z0
G28 X0 Y0
M30
%
