%
(Idealab token x10 in y direction)
(T4  D=0.01 CR=0 - ZMIN=0 - flat end mill)
G90 G94
G17
G20
G28 G91 Z0
G90

(2D Contour1)
M9
T4 M6
S5000 M3
G54
M8
G0 X0.3145 Y2.1576
Z0.6
Z0.2
G1 Z0.0394 F13.33
Z0.001
X0.3146 Y2.1579 Z0.0003
X0.3148 Y2.1585 Z0
X0.3151 Y2.1595 F40
G3 X0.3145 Y2.1608 I-0.0009 J0.0003
G1 X0.2189 Y2.1929
X0.1977 Y2.13
X0.1955 Y2.123
X0.1932 Y2.1161
X0.1911 Y2.1091
X0.1892 Y2.1022
X0.1875 Y2.0952
X0.1862 Y2.0884
X0.1857 Y2.0818
X0.1861 Y2.0775
X0.1871 Y2.0734
X0.189 Y2.0696
X0.1914 Y2.0662
X0.1946 Y2.0633
X0.1994 Y2.0601
X0.2046 Y2.0573
X0.2103 Y2.0549
X0.2161 Y2.0528
X0.2336 Y2.0469
X0.239 Y2.0453
X0.2443 Y2.0441
X0.2496 Y2.0435
X0.2547 Y2.0436
X0.2594 Y2.0445
X0.2637 Y2.0466
X0.2674 Y2.0494
X0.2709 Y2.0529
X0.2741 Y2.0569
X0.277 Y2.0612
X0.2798 Y2.0659
G2 X0.289 Y2.0627 I0.0043 J-0.0026
G1 X0.2885 Y2.0586
X0.2882 Y2.0545
X0.2881 Y2.0504
X0.2883 Y2.0465
X0.2888 Y2.0428
X0.2897 Y2.0395
X0.2911 Y2.0367
X0.2936 Y2.034
X0.2968 Y2.0316
X0.3005 Y2.0296
X0.3045 Y2.0278
X0.3086 Y2.0263
X0.3151 Y2.0243
X0.3216 Y2.0227
X0.3282 Y2.0217
X0.3346 Y2.0214
X0.3407 Y2.0221
X0.3465 Y2.024
X0.352 Y2.027
X0.3569 Y2.0308
X0.3618 Y2.0361
X0.3659 Y2.0423
X0.3695 Y2.0491
X0.3727 Y2.0563
X0.3757 Y2.0636
X0.3785 Y2.0711
X0.3811 Y2.0786
X0.3992 Y2.1322
X0.3145 Y2.1608
G3 X0.3132 Y2.1601 I-0.0003 J-0.0009
G1 X0.3129 Y2.1592
X0.3127 Y2.1585 Z0.0003
X0.3126 Y2.1582 Z0.001
X0.2868 Y2.1181
X0.2866 Y2.1179 Z0.0003 F13.33
X0.2861 Y2.1174 Z0
X0.2853 Y2.1168 F40
G3 Y2.1153 I0.0007 J-0.0007
G2 X0.2863 Y2.1101 I-0.0037 J-0.0034
G1 X0.2844 Y2.1052
X0.2842 Y2.1049
X0.282 Y2.1001
G2 X0.2818 Y2.0997 I-0.0045 J0.0021
G1 X0.2808 Y2.0979
X0.2806 Y2.0976
X0.2794 Y2.0959
G2 X0.2789 Y2.0952 I-0.0041 J0.0028
G1 X0.2775 Y2.0937
G2 X0.2761 Y2.0927 I-0.0036 J0.0035
G1 X0.2742 Y2.0918
G2 X0.2724 Y2.0913 I-0.0022 J0.0045
G1 X0.2696 Y2.0911
G2 X0.2687 I-0.0004 J0.005
G1 X0.266 Y2.0914
G2 X0.2655 I0.0005 J0.005
G1 X0.2628 Y2.092
G2 X0.2624 Y2.0921 I0.001 J0.0049
G1 X0.2561 Y2.0939
X0.2559 Y2.094
X0.2382 Y2.1
X0.2381
X0.2352 Y2.101
X0.2349 Y2.1011
X0.2321 Y2.1023
G2 X0.2317 Y2.1025 I0.0019 J0.0046
G1 X0.2289 Y2.104
G2 X0.2284 Y2.1043 I0.0023 J0.0044
G1 X0.2259 Y2.106
G2 X0.2249 Y2.1069 I0.0028 J0.0041
G1 X0.2229 Y2.1092
G2 X0.2219 Y2.1113 I0.0038 J0.0032
G1 X0.2211 Y2.1143
G2 X0.221 Y2.1158 I0.0049 J0.0012
G1 X0.2213 Y2.1206
G2 X0.2214 Y2.1213 I0.005 J-0.0003
G1 X0.2224 Y2.1261
Y2.1264
X0.2237 Y2.1311
G2 X0.2301 Y2.1345 I0.0048 J-0.0013
G1 X0.2832 Y2.1167
G2 X0.2853 Y2.1153 I-0.0016 J-0.0047
G3 X0.2867 I0.0007 J0.0007
G1 X0.2874 Y2.116
X0.2879 Y2.1165 Z0.0003
X0.2882 Y2.1167 Z0.001
X0.3088 Y2.1097
X0.3089 Y2.1094 Z0.0003 F13.33
X0.309 Y2.1087 Z0
X0.3092 Y2.1078 F40
G3 X0.3103 Y2.1069 I0.001 J0.0002
G2 X0.3128 Y2.1067 I0.0008 J-0.0049
G1 X0.355 Y2.0926
G2 X0.3581 Y2.0861 I-0.0016 J-0.0047
G1 X0.357 Y2.0832
Y2.0831
X0.3558 Y2.0801
X0.3557 Y2.0799
X0.3544 Y2.077
X0.3543 Y2.0767
X0.3528 Y2.0739
G2 X0.352 Y2.0728 I-0.0044 J0.0024
G1 X0.3498 Y2.0706
G2 X0.3483 Y2.0695 I-0.0036 J0.0035
G1 X0.3454 Y2.0682
G2 X0.344 Y2.0678 I-0.0021 J0.0045
G1 X0.3403 Y2.0673
G2 X0.339 I-0.0006 J0.005
G1 X0.3354 Y2.0678
G2 X0.3349 Y2.0679 I0.0006 J0.005
G1 X0.3313 Y2.0687
G2 X0.3309 Y2.0688 I0.0011 J0.0049
G1 X0.3274 Y2.07
X0.3272
X0.3218 Y2.0719
X0.3216 Y2.072
X0.3163 Y2.0741
X0.3159 Y2.0742
X0.3107 Y2.0767
G2 X0.3103 Y2.0769 I0.0022 J0.0045
G1 X0.3084 Y2.0781
G2 X0.3079 Y2.0785 I0.0026 J0.0042
G1 X0.3062 Y2.0799
G2 X0.3051 Y2.0812 I0.0032 J0.0038
G1 X0.304 Y2.0831
G2 X0.3034 Y2.0846 I0.0043 J0.0025
G1 X0.303 Y2.0867
G2 X0.3029 Y2.088 I0.0049 J0.001
G1 X0.3032 Y2.0923
G2 X0.3034 Y2.0933 I0.005 J-0.0003
G1 X0.3045 Y2.0975
X0.3046 Y2.0977
X0.3056 Y2.1009
X0.3064 Y2.1035
G2 X0.3103 Y2.1069 I0.0048 J-0.0015
G3 X0.3111 Y2.1081 I-0.0002 J0.001
G1 X0.311 Y2.1091
X0.3108 Y2.1098 Z0.0003
Y2.1101 Z0.001
G0 Z0.2
X0.2677 Y2.2474
G1 Z0.0394 F13.33
Z0.001
X0.2679 Y2.2471 Z0.0003
X0.2683 Y2.2465 Z0
X0.2688 Y2.2457 F40
G3 X0.2702 Y2.2454 I0.0008 J0.0005
G1 X0.3871 Y2.3204
X0.3561 Y2.3944
X0.1678 Y2.3475
X0.1884 Y2.2984
X0.2189 Y2.3078
G2 X0.225 Y2.3049 I0.0015 J-0.0048
G1 X0.2335 Y2.2846
G2 X0.2312 Y2.2783 I-0.0046 J-0.0019
G1 X0.203 Y2.2635
X0.2233 Y2.2153
X0.2702 Y2.2454
G3 X0.2705 Y2.2468 I-0.0005 J0.0008
G1 X0.27 Y2.2476
X0.2696 Y2.2482 Z0.0003
X0.2694 Y2.2485 Z0.001
X0.2609 Y2.2901
Y2.2904 Z0.0003 F13.33
X0.261 Y2.2911 Z0
X0.2612 Y2.2921 F40
G3 X0.2604 Y2.2932 I-0.001 J0.0002
G2 X0.2566 Y2.2962 I0.0008 J0.0049
G1 X0.2484 Y2.3156
G2 X0.2516 Y2.3223 I0.0046 J0.0019
G1 X0.2746 Y2.3291
X0.2747
X0.2978 Y2.3353
X0.2979
X0.3344 Y2.3444
G2 X0.338 Y2.3352 I0.0012 J-0.0049
G1 X0.317 Y2.3239
X0.2962 Y2.3124
X0.2799 Y2.3032
X0.2637 Y2.2938
G2 X0.2604 Y2.2932 I-0.0025 J0.0043
G3 X0.2592 Y2.2924 I-0.0002 J-0.001
G1 X0.2591 Y2.2914
X0.259 Y2.2907 Z0.0003
X0.2589 Y2.2904 Z0.001
G0 Z0.2
X0.1432 Y2.4048
G1 Z0.0394 F13.33
Z0.001
X0.1435 Z0.0003
X0.1442 Y2.4046 Z0
X0.1452 Y2.4043 F40
G3 X0.1464 Y2.405 I0.0003 J0.001
G2 X0.147 Y2.4063 I0.0048 J-0.0014
G1 X0.2308 Y2.5374
X0.1875 Y2.5651
X0.0847 Y2.4043
X0.1595 Y2.3565
X0.1758 Y2.3819
X0.1485 Y2.3993
G2 X0.1464 Y2.405 I0.0027 J0.0042
G3 X0.1457 Y2.4062 I-0.001 J0.0003
G1 X0.1448 Y2.4065
X0.1441 Y2.4067 Z0.0003
X0.1438 Y2.4068 Z0.001
G0 Z0.2
X0.0509 Y2.4669
G1 Z0.0394 F13.33
Z0.001
X0.0512 Y2.467 Z0.0003
X0.0519 Y2.4671 Z0
X0.0529 Y2.4673 F40
G3 X0.0537 Y2.4685 I-0.0002 J0.001
G1 X0.0251 Y2.6039
X-0.0553 Y2.6011
X-0.0783 Y2.4092
X-0.0251 Y2.4111
X-0.023 Y2.4428
G2 X-0.0181 Y2.4474 I0.005 J-0.0003
G1 X0.0039 Y2.4482
G2 X0.009 Y2.4438 I0.0002 J-0.005
G1 X0.0128 Y2.4124
X0.0651 Y2.4142
X0.0537 Y2.4685
G3 X0.0525 Y2.4693 I-0.001 J-0.0002
G1 X0.0515 Y2.4691
X0.0508 Y2.4689 Z0.0003
X0.0505 Z0.001
X0.0085 Y2.4756
X0.0082 Y2.4758 Z0.0003 F13.33
X0.0076 Y2.4761 Z0
X0.0068 Y2.4766 F40
G3 X0.0054 Y2.4762 I-0.0005 J-0.0009
G2 X0.0012 Y2.4738 I-0.0043 J0.0025
G1 X-0.0198 Y2.473
G2 X-0.0249 Y2.4784 I-0.0002 J0.005
G1 X-0.0231 Y2.5022
Y2.5023
X-0.0207 Y2.526
Y2.5261
X-0.0162 Y2.5633
G2 X-0.0063 Y2.5634 I0.005 J-0.0006
G1 X-0.0031 Y2.5398
X0.0002 Y2.5164
X0.006 Y2.4795
G2 X0.0054 Y2.4762 I-0.0049 J-0.0008
G3 X0.0058 Y2.4749 I0.0009 J-0.0005
G1 X0.0066 Y2.4744
X0.0072 Y2.474 Z0.0003
X0.0075 Y2.4739 Z0.001
G0 Z0.2
X-0.1812 Y2.4385
G1 Z0.0394 F13.33
Z0.001
X-0.1809 Z0.0003
X-0.1802 Z0
X-0.1792 Y2.4386 F40
G3 X-0.1782 Y2.4397 I-0.0001 J0.001
G2 X-0.1763 Y2.4439 I0.005 J0.0003
G1 X-0.15 Y2.4646
X-0.1675 Y2.4868
X-0.1938 Y2.4661
G2 X-0.2008 Y2.467 I-0.0031 J0.0039
G1 X-0.2245 Y2.497
G2 X-0.2236 Y2.504 I0.0039 J0.0031
G1 X-0.1953 Y2.5263
X-0.214 Y2.5501
X-0.2867 Y2.4928
X-0.1685 Y2.3426
X-0.0925 Y2.4024
X-0.1112 Y2.4262
X-0.1428 Y2.4013
G2 X-0.1498 Y2.4022 I-0.0031 J0.0039
G1 X-0.1772 Y2.4369
G2 X-0.1782 Y2.4397 I0.0039 J0.0031
G3 X-0.1793 Y2.4406 I-0.001 J-0.0001
G1 X-0.1803 Y2.4405
X-0.181 Z0.0003
X-0.1813 Z0.001
G0 Z0.2
X-0.1985 Y2.3031
G1 Z0.0394 F13.33
Z0.001
X-0.1982 Y2.3032 Z0.0003
X-0.1976 Y2.3033 Z0
X-0.1966 Y2.3035 F40
G3 X-0.1958 Y2.3047 I-0.0002 J0.001
G1 X-0.1963 Y2.3072
X-0.1978 Y2.3115
X-0.2 Y2.3153
X-0.2028 Y2.3185
X-0.2063 Y2.3212
X-0.2104 Y2.3234
X-0.215 Y2.3253
X-0.2198 Y2.327
X-0.2296 Y2.3299
X-0.2396 Y2.3325
X-0.3079 Y2.3497
X-0.3168 Y2.3519
X-0.3257 Y2.3539
X-0.3345 Y2.3556
X-0.3431 Y2.3568
X-0.3483
X-0.3534 Y2.3557
X-0.3583 Y2.3538
X-0.3629 Y2.3511
X-0.3669 Y2.3476
X-0.3705 Y2.3436
X-0.3751 Y2.3364
X-0.3788 Y2.3286
X-0.3819 Y2.3203
X-0.3847 Y2.3118
X-0.3873 Y2.3031
X-0.3898 Y2.2943
X-0.3921 Y2.2855
X-0.3944 Y2.2766
X-0.4044 Y2.2366
X-0.2188 Y2.19
X-0.201 Y2.2608
X-0.1991 Y2.2689
X-0.1973 Y2.277
X-0.1959 Y2.2851
X-0.195 Y2.2931
Y2.2979
X-0.1954 Y2.3027
X-0.1958 Y2.3047
G3 X-0.197 Y2.3055 I-0.001 J-0.0002
G1 X-0.198 Y2.3053
X-0.1986 Y2.3051 Z0.0003
X-0.1989 Z0.001
X-0.234 Y2.279
X-0.2342 Y2.2788 Z0.0003 F13.33
X-0.2345 Y2.2782 Z0
X-0.235 Y2.2773 F40
G3 X-0.2346 Y2.2759 I0.0009 J-0.0005
G2 X-0.2342 Y2.2757 I-0.0024 J-0.0044
G1 X-0.232 Y2.2742
G2 X-0.2308 Y2.2732 I-0.0027 J-0.0042
G1 X-0.2292 Y2.2712
G2 X-0.2283 Y2.2695 I-0.0039 J-0.0032
G1 X-0.2275 Y2.267
G2 X-0.2273 Y2.2659 I-0.0048 J-0.0015
G1 X-0.227 Y2.2632
G2 Y2.2624 I-0.005 J-0.0004
G1 X-0.2275 Y2.2571
G2 X-0.2276 Y2.2565 I-0.005 J0.0004
G1 X-0.2286 Y2.2513
G2 X-0.2348 Y2.2474 I-0.0049 J0.001
G1 X-0.3632 Y2.2797
G2 X-0.3668 Y2.2859 I0.0012 J0.0048
G1 X-0.3655 Y2.2906
X-0.3654 Y2.291
X-0.3637 Y2.2956
G2 X-0.3634 Y2.2962 I0.0047 J-0.0017
G1 X-0.3619 Y2.2991
G2 X-0.3611 Y2.3002 I0.0044 J-0.0024
G1 X-0.3588 Y2.3026
G2 X-0.3573 Y2.3036 I0.0036 J-0.0035
G1 X-0.3543 Y2.305
G2 X-0.3526 Y2.3054 I0.0021 J-0.0046
G1 X-0.3499 Y2.3056
G2 X-0.349 I0.0004 J-0.005
G1 X-0.3462 Y2.3053
X-0.346
X-0.3433 Y2.3048
X-0.3431
X-0.3404 Y2.3042
X-0.3403
X-0.3319 Y2.3022
X-0.3318
X-0.2559 Y2.2832
X-0.2507 Y2.2818
X-0.2506
X-0.2454 Y2.2802
X-0.2452
X-0.2402 Y2.2785
G2 X-0.2397 Y2.2783 I-0.0016 J-0.0047
G1 X-0.2349 Y2.2761
X-0.2346 Y2.2759
G3 X-0.2332 Y2.2763 I0.0005 J0.0009
G1 X-0.2327 Y2.2772
X-0.2324 Y2.2778 Z0.0003
X-0.2323 Y2.2781 Z0.001
G0 Z0.2
X-0.3585 Y2.0546
G1 Z0.0394 F13.33
Z0.001
X-0.3584 Y2.0544 Z0.0003
X-0.3582 Y2.0537 Z0
X-0.3578 Y2.0527 F40
G3 X-0.3566 Y2.0521 I0.0009 J0.0003
G1 X-0.2008 Y2.1048
X-0.2174 Y2.1539
X-0.3977 Y2.0929
X-0.3811 Y2.0438
X-0.3566 Y2.0521
G3 X-0.3559 Y2.0534 I-0.0003 J0.0009
G1 X-0.3563 Y2.0543
X-0.3565 Y2.055 Z0.0003
X-0.3566 Y2.0553 Z0.001
G0 Z0.2
X-0.095 Y1.9628
G1 Z0.0394 F13.33
Z0.001
X-0.0948 Y1.963 Z0.0003
X-0.0943 Y1.9635 Z0
X-0.0936 Y1.9642 F40
G3 Y1.9656 I-0.0007 J0.0007
G1 X-0.1214 Y1.9943
G3 X-0.1228 Y1.9944 I-0.0007 J-0.0007
G1 X-0.1235 Y1.9937
X-0.124 Y1.9932 Z0.0003
X-0.1242 Y1.993 Z0.001
G0 Z0.2
X-0.0275 Y1.9669
G1 Z0.0394 F13.33
Z0.001
X-0.0276 Y1.9672 Z0.0003
X-0.0279 Y1.9678 Z0
X-0.0283 Y1.9687 F40
G3 X-0.0296 Y1.9692 I-0.0009 J-0.0004
X-0.068 Y1.889 I0.0296 J-0.0634
G1 X-0.0679 Y1.8888
X-0.0663 Y1.8809
X-0.064 Y1.8741
X-0.061 Y1.8678
X-0.0575 Y1.8618
X-0.0536 Y1.856
X-0.0494 Y1.8502
X-0.0461 Y1.8456
X-0.046 Y1.8455
X-0.0429 Y1.8409
X-0.0427 Y1.8406
X-0.0399 Y1.8357
G2 X-0.0396 Y1.8352 I-0.0043 J-0.0025
G1 X-0.0373 Y1.8299
G2 X-0.0371 Y1.8292 I-0.0046 J-0.002
G1 X-0.0355 Y1.8234
G2 X-0.0354 Y1.8225 I-0.0048 J-0.0013
G1 X-0.0348 Y1.8159
G2 Y1.8155 I-0.005 J-0.0004
G1 Y1.8002
G3 X0.0348 Y1.7866 I0.048 J0.0607
G1 Y1.8155
G2 Y1.8159 I0.005
G1 X0.0353 Y1.8222
G2 X0.0355 Y1.823 I0.005 J-0.0004
G1 X0.0369 Y1.8287
G2 X0.0371 Y1.8294 I0.0048 J-0.0012
G1 X0.0392 Y1.8344
G2 X0.0395 Y1.835 I0.0046 J-0.0019
G1 X0.0421 Y1.8396
X0.0423 Y1.84
X0.0453 Y1.8444
X0.0454 Y1.8446
X0.0485 Y1.8489
Y1.849
X0.0517 Y1.8533
X0.0547 Y1.8576
X0.0584 Y1.8631
X0.0616 Y1.8688
X0.0643 Y1.8748
X0.0665 Y1.8813
X0.0679 Y1.8887
X0.068 Y1.889
G3 X-0.0296 Y1.9692 I-0.068 J0.0168
X-0.0301 Y1.9679 I0.0004 J-0.0009
G1 X-0.0297 Y1.967
X-0.0294 Y1.9663 Z0.0003
X-0.0293 Y1.9661 Z0.001
G0 Z0.2
X-0.008 Y2.0148
G1 Z0.0394 F13.33
Z0.001
G18 G2 X-0.007 Z0 I0.001
G1 X-0.006 F40
G17 G3 X-0.005 Y2.0158 J0.001
G1 Y2.0558
G3 X-0.006 Y2.0568 I-0.001
G1 X-0.007
G18 G3 X-0.008 Z0.001 K0.001
G0 Z0.2
X0.0293 Y1.9501
G1 Z0.0394 F13.33
Z0.001
X0.0292 Y1.9503 Z0.0003
X0.0291 Y1.951 Z0
X0.0288 Y1.952 F40
G17 G3 X0.0276 Y1.9527 I-0.001 J-0.0003
G1 X0.017 Y1.9499
X0.0076 Y1.9472
X-0.0005 Y1.9446
X-0.0075 Y1.9421
X-0.0134 Y1.9397
X-0.0183 Y1.9375
X-0.0221 Y1.9354
X-0.0249 Y1.9334
X-0.0267 Y1.9318
X-0.0277 Y1.9305
X-0.028 Y1.9297
X-0.0281 Y1.9293
X-0.0278 Y1.9284
X-0.0269 Y1.927
X-0.0251 Y1.9251
X-0.0224 Y1.9231
X-0.0177 Y1.9201
X-0.012 Y1.9171
X-0.0057 Y1.914
X0.0011 Y1.9108
X0.008 Y1.9075
X0.0081
X0.0148 Y1.9041
X0.015 Y1.904
X0.0212 Y1.9006
X0.0215 Y1.9004
X0.0271 Y1.8968
G2 X0.0275 Y1.8965 I-0.0027 J-0.0042
G1 X0.0322 Y1.8928
G2 X0.0327 Y1.8923 I-0.0031 J-0.0039
G1 X0.0352 Y1.8897
G2 X0.0357 Y1.8891 I-0.0036 J-0.0034
G1 X0.0375 Y1.8864
G2 X0.038 Y1.8856 I-0.0041 J-0.0029
G1 X0.0392 Y1.8828
G2 X0.0396 Y1.8816 I-0.0046 J-0.002
G1 X0.04 Y1.8787
G2 Y1.8773 I-0.0049 J-0.0008
G1 X0.0397 Y1.8743
G2 X0.0393 Y1.873 I-0.005 J0.0006
G1 X0.0381 Y1.8699
G2 X0.0376 Y1.869 I-0.0046 J0.0019
G1 X0.0356 Y1.8661
G2 X0.0352 Y1.8655 I-0.0041 J0.0028
G1 X0.0324 Y1.8625
G2 X0.0319 Y1.8621 I-0.0037 J0.0034
G1 X0.0283 Y1.859
G2 X0.0279 Y1.8587 I-0.0032 J0.0038
G1 X0.0233 Y1.8555
X0.023 Y1.8553
X0.0174 Y1.8519
X0.0172 Y1.8518
X0.0107 Y1.8484
X0.0104 Y1.8483
X0.0029 Y1.8448
X0.0027 Y1.8447
X-0.006 Y1.841
X-0.0061
X-0.016 Y1.8372
G3 X-0.0165 Y1.8359 I0.0004 J-0.0009
G1 X-0.0162 Y1.8349
X-0.0159 Y1.8343 Z0.0003
X-0.0158 Y1.834 Z0.001
G0 Z0.2
X-0.0144 Y1.735
G1 Z0.0394 F13.33
Z0.001
X-0.0145 Y1.7347 Z0.0003
X-0.0147 Y1.734 Z0
X-0.015 Y1.733 F40
G3 X-0.0143 Y1.7318 I0.001 J-0.0003
X-0.0068 Y1.7308 I0.0075 J0.027
G1 X0.0068
G3 X0.0314 Y1.7455 J0.028
G2 X-0.0348 Y1.7579 I-0.0183 J0.0854
G3 X-0.0143 Y1.7318 I0.028 J0.0009
X-0.013 Y1.7325 I0.0003 J0.001
G1 X-0.0128 Y1.7335
X-0.0126 Y1.7341 Z0.0003
X-0.0125 Y1.7344 Z0.001
G0 Z0.2
X-0.1104 Y1.893
G1 Z0.0394 F13.33
Z0.001
X-0.1103 Y1.8932 Z0.0003
X-0.1102 Y1.8939 Z0
X-0.11 Y1.8949 F40
G3 X-0.1108 Y1.8961 I-0.001 J0.0002
G1 X-0.1501 Y1.9035
G3 X-0.1513 Y1.9027 I-0.0002 J-0.001
G1 X-0.1515 Y1.9017
X-0.1516 Y1.901 Z0.0003
X-0.1517 Y1.9007 Z0.001
G0 Z0.2
X0.0835 Y1.9739
G1 Z0.0394 F13.33
Z0.001
X0.0837 Y1.9737 Z0.0003
X0.0842 Y1.9732 Z0
X0.085 Y1.9725 F40
G3 X0.0864 Y1.9726 I0.0007 J0.0007
G1 X0.1142 Y2.0013
G3 Y2.0027 I-0.0007 J0.0007
G1 X0.1135 Y2.0034
X0.113 Y2.0039 Z0.0003
X0.1127 Y2.0041 Z0.001
G0 Z0.2
X0.1074 Y1.9087
G1 Z0.0394 F13.33
Z0.001
X0.1075 Y1.9084 Z0.0003
X0.1076 Y1.9077 Z0
X0.1078 Y1.9067 F40
G3 X0.109 Y1.9059 I0.001 J0.0002
G1 X0.1483 Y1.9133
G3 X0.1491 Y1.9145 I-0.0002 J0.001
G1 X0.1489 Y1.9154
X0.1488 Y1.9161 Z0.0003
X0.1487 Y1.9164 Z0.001
G0 Z0.2
X-0.0343 Y1.4988
G1 Z0.0394 F13.33
Z0.001
Y1.4991 Z0.0003
Y1.4998 Z0
X-0.0344 Y1.5008 F40
G3 X-0.0354 Y1.5018 I-0.001
G1 X-0.0553 Y1.5011
X-0.0783 Y1.3092
X-0.0251 Y1.3111
X-0.023 Y1.3428
G2 X-0.0181 Y1.3474 I0.005 J-0.0003
G1 X0.0039 Y1.3482
G2 X0.009 Y1.3438 I0.0002 J-0.005
G1 X0.0128 Y1.3124
X0.0651 Y1.3142
X0.0251 Y1.5039
X-0.0354 Y1.5018
G3 X-0.0364 Y1.5008 J-0.001
G1 X-0.0363 Y1.4998
Y1.4991 Z0.0003
Y1.4988 Z0.001
X-0.0184 Y1.4664
X-0.0182 Y1.4662 Z0.0003 F13.33
X-0.0176 Y1.4658 Z0
X-0.0168 Y1.4652 F40
G3 X-0.0154 Y1.4655 I0.0006 J0.0008
G2 X-0.0063 Y1.4634 I0.0041 J-0.0028
G1 X-0.0031 Y1.4398
X0.0002 Y1.4164
X0.006 Y1.3795
G2 X0.0012 Y1.3738 I-0.0049 J-0.0008
G1 X-0.0198 Y1.373
G2 X-0.0249 Y1.3784 I-0.0002 J0.005
G1 X-0.0231 Y1.4022
Y1.4023
X-0.0207 Y1.426
Y1.4261
X-0.0162 Y1.4633
G2 X-0.0154 Y1.4655 I0.005 J-0.0006
G3 X-0.0156 Y1.4669 I-0.0008 J0.0006
G1 X-0.0165 Y1.4675
X-0.0171 Y1.4679 Z0.0003
X-0.0173 Y1.468 Z0.001
G0 Z0.2
X-0.1812 Y1.3385
G1 Z0.0394 F13.33
Z0.001
X-0.1809 Z0.0003
X-0.1802 Z0
X-0.1792 Y1.3386 F40
G3 X-0.1782 Y1.3397 I-0.0001 J0.001
G2 X-0.1763 Y1.3439 I0.005 J0.0003
G1 X-0.15 Y1.3646
X-0.1675 Y1.3868
X-0.1938 Y1.3661
G2 X-0.2008 Y1.367 I-0.0031 J0.0039
G1 X-0.2245 Y1.397
G2 X-0.2236 Y1.404 I0.0039 J0.0031
G1 X-0.1953 Y1.4263
X-0.214 Y1.4501
X-0.2867 Y1.3928
X-0.1685 Y1.2426
X-0.0925 Y1.3024
X-0.1112 Y1.3262
X-0.1428 Y1.3013
G2 X-0.1498 Y1.3022 I-0.0031 J0.0039
G1 X-0.1772 Y1.3369
G2 X-0.1782 Y1.3397 I0.0039 J0.0031
G3 X-0.1793 Y1.3406 I-0.001 J-0.0001
G1 X-0.1803 Y1.3405
X-0.181 Z0.0003
X-0.1813 Z0.001
G0 Z0.2
X-0.1985 Y1.2031
G1 Z0.0394 F13.33
Z0.001
X-0.1982 Y1.2032 Z0.0003
X-0.1976 Y1.2033 Z0
X-0.1966 Y1.2035 F40
G3 X-0.1958 Y1.2047 I-0.0002 J0.001
G1 X-0.1963 Y1.2072
X-0.1978 Y1.2115
X-0.2 Y1.2153
X-0.2028 Y1.2185
X-0.2063 Y1.2212
X-0.2104 Y1.2234
X-0.215 Y1.2253
X-0.2198 Y1.227
X-0.2296 Y1.2299
X-0.2396 Y1.2325
X-0.3079 Y1.2497
X-0.3168 Y1.2519
X-0.3257 Y1.2539
X-0.3345 Y1.2556
X-0.3431 Y1.2568
X-0.3483
X-0.3534 Y1.2557
X-0.3583 Y1.2538
X-0.3629 Y1.2511
X-0.3669 Y1.2476
X-0.3705 Y1.2436
X-0.3751 Y1.2364
X-0.3788 Y1.2286
X-0.3819 Y1.2203
X-0.3847 Y1.2118
X-0.3873 Y1.2031
X-0.3898 Y1.1943
X-0.3921 Y1.1855
X-0.3944 Y1.1766
X-0.4044 Y1.1366
X-0.2188 Y1.09
X-0.201 Y1.1608
X-0.1991 Y1.1689
X-0.1973 Y1.177
X-0.1959 Y1.1851
X-0.195 Y1.1931
Y1.1979
X-0.1954 Y1.2027
X-0.1958 Y1.2047
G3 X-0.197 Y1.2055 I-0.001 J-0.0002
G1 X-0.198 Y1.2053
X-0.1986 Y1.2051 Z0.0003
X-0.1989 Z0.001
X-0.234 Y1.179
X-0.2342 Y1.1788 Z0.0003 F13.33
X-0.2345 Y1.1782 Z0
X-0.235 Y1.1773 F40
G3 X-0.2346 Y1.1759 I0.0009 J-0.0005
G2 X-0.2342 Y1.1757 I-0.0024 J-0.0044
G1 X-0.232 Y1.1742
G2 X-0.2308 Y1.1732 I-0.0027 J-0.0042
G1 X-0.2292 Y1.1712
G2 X-0.2283 Y1.1695 I-0.0039 J-0.0032
G1 X-0.2275 Y1.167
G2 X-0.2273 Y1.1659 I-0.0048 J-0.0015
G1 X-0.227 Y1.1632
G2 Y1.1624 I-0.005 J-0.0004
G1 X-0.2275 Y1.1571
G2 X-0.2276 Y1.1565 I-0.005 J0.0004
G1 X-0.2286 Y1.1513
G2 X-0.2348 Y1.1474 I-0.0049 J0.001
G1 X-0.3632 Y1.1797
G2 X-0.3668 Y1.1859 I0.0012 J0.0048
G1 X-0.3655 Y1.1906
X-0.3654 Y1.191
X-0.3637 Y1.1956
G2 X-0.3634 Y1.1962 I0.0047 J-0.0017
G1 X-0.3619 Y1.1991
G2 X-0.3611 Y1.2002 I0.0044 J-0.0024
G1 X-0.3588 Y1.2026
G2 X-0.3573 Y1.2036 I0.0036 J-0.0035
G1 X-0.3543 Y1.205
G2 X-0.3526 Y1.2054 I0.0021 J-0.0046
G1 X-0.3499 Y1.2056
G2 X-0.349 I0.0004 J-0.005
G1 X-0.3462 Y1.2053
X-0.346
X-0.3433 Y1.2048
X-0.3431
X-0.3404 Y1.2042
X-0.3403
X-0.3319 Y1.2022
X-0.3318
X-0.2559 Y1.1832
X-0.2507 Y1.1818
X-0.2506
X-0.2454 Y1.1802
X-0.2452
X-0.2402 Y1.1785
G2 X-0.2397 Y1.1783 I-0.0016 J-0.0047
G1 X-0.2349 Y1.1761
X-0.2346 Y1.1759
G3 X-0.2332 Y1.1763 I0.0005 J0.0009
G1 X-0.2327 Y1.1772
X-0.2324 Y1.1778 Z0.0003
X-0.2323 Y1.1781 Z0.001
G0 Z0.2
X-0.3585 Y0.9546
G1 Z0.0394 F13.33
Z0.001
X-0.3584 Y0.9544 Z0.0003
X-0.3582 Y0.9537 Z0
X-0.3578 Y0.9527 F40
G3 X-0.3566 Y0.9521 I0.0009 J0.0003
G1 X-0.2008 Y1.0048
X-0.2174 Y1.0539
X-0.3977 Y0.9929
X-0.3811 Y0.9438
X-0.3566 Y0.9521
G3 X-0.3559 Y0.9534 I-0.0003 J0.0009
G1 X-0.3563 Y0.9543
X-0.3565 Y0.955 Z0.0003
X-0.3566 Y0.9553 Z0.001
G0 Z0.2
X-0.095 Y0.8628
G1 Z0.0394 F13.33
Z0.001
X-0.0948 Y0.863 Z0.0003
X-0.0943 Y0.8635 Z0
X-0.0936 Y0.8642 F40
G3 Y0.8656 I-0.0007 J0.0007
G1 X-0.1214 Y0.8943
G3 X-0.1228 Y0.8944 I-0.0007 J-0.0007
G1 X-0.1235 Y0.8937
X-0.124 Y0.8932 Z0.0003
X-0.1242 Y0.893 Z0.001
G0 Z0.2
X-0.0275 Y0.8669
G1 Z0.0394 F13.33
Z0.001
X-0.0276 Y0.8672 Z0.0003
X-0.0279 Y0.8678 Z0
X-0.0283 Y0.8687 F40
G3 X-0.0296 Y0.8692 I-0.0009 J-0.0004
X-0.068 Y0.789 I0.0296 J-0.0634
G1 X-0.0679 Y0.7888
X-0.0663 Y0.7809
X-0.064 Y0.7741
X-0.061 Y0.7678
X-0.0575 Y0.7618
X-0.0536 Y0.756
X-0.0494 Y0.7502
X-0.0461 Y0.7456
X-0.046 Y0.7455
X-0.0429 Y0.7409
X-0.0427 Y0.7406
X-0.0399 Y0.7357
G2 X-0.0396 Y0.7352 I-0.0043 J-0.0025
G1 X-0.0373 Y0.7299
G2 X-0.0371 Y0.7292 I-0.0046 J-0.002
G1 X-0.0355 Y0.7234
G2 X-0.0354 Y0.7225 I-0.0048 J-0.0013
G1 X-0.0348 Y0.7159
G2 Y0.7155 I-0.005 J-0.0004
G1 Y0.7002
G3 X0.0348 Y0.6866 I0.048 J0.0607
G1 Y0.7155
G2 Y0.7159 I0.005
G1 X0.0353 Y0.7222
G2 X0.0355 Y0.723 I0.005 J-0.0004
G1 X0.0369 Y0.7287
G2 X0.0371 Y0.7294 I0.0048 J-0.0012
G1 X0.0392 Y0.7344
G2 X0.0395 Y0.735 I0.0046 J-0.0019
G1 X0.0421 Y0.7396
X0.0423 Y0.74
X0.0453 Y0.7444
X0.0454 Y0.7446
X0.0485 Y0.7489
Y0.749
X0.0517 Y0.7533
X0.0547 Y0.7576
X0.0584 Y0.7631
X0.0616 Y0.7688
X0.0643 Y0.7748
X0.0665 Y0.7813
X0.0679 Y0.7887
X0.068 Y0.789
G3 X-0.0296 Y0.8692 I-0.068 J0.0168
X-0.0301 Y0.8679 I0.0004 J-0.0009
G1 X-0.0297 Y0.867
X-0.0294 Y0.8663 Z0.0003
X-0.0293 Y0.8661 Z0.001
G0 Z0.2
X-0.008 Y0.9148
G1 Z0.0394 F13.33
Z0.001
G18 G2 X-0.007 Z0 I0.001
G1 X-0.006 F40
G17 G3 X-0.005 Y0.9158 J0.001
G1 Y0.9558
G3 X-0.006 Y0.9568 I-0.001
G1 X-0.007
G18 G3 X-0.008 Z0.001 K0.001
G0 Z0.2
X0.0293 Y0.8501
G1 Z0.0394 F13.33
Z0.001
X0.0292 Y0.8503 Z0.0003
X0.0291 Y0.851 Z0
X0.0288 Y0.852 F40
G17 G3 X0.0276 Y0.8527 I-0.001 J-0.0003
G1 X0.017 Y0.8499
X0.0076 Y0.8472
X-0.0005 Y0.8446
X-0.0075 Y0.8421
X-0.0134 Y0.8397
X-0.0183 Y0.8375
X-0.0221 Y0.8354
X-0.0249 Y0.8334
X-0.0267 Y0.8318
X-0.0277 Y0.8305
X-0.028 Y0.8297
X-0.0281 Y0.8293
X-0.0278 Y0.8284
X-0.0269 Y0.827
X-0.0251 Y0.8251
X-0.0224 Y0.8231
X-0.0177 Y0.8201
X-0.012 Y0.8171
X-0.0057 Y0.814
X0.0011 Y0.8108
X0.008 Y0.8075
X0.0081
X0.0148 Y0.8041
X0.015 Y0.804
X0.0212 Y0.8006
X0.0215 Y0.8004
X0.0271 Y0.7968
G2 X0.0275 Y0.7965 I-0.0027 J-0.0042
G1 X0.0322 Y0.7928
G2 X0.0327 Y0.7923 I-0.0031 J-0.0039
G1 X0.0352 Y0.7897
G2 X0.0357 Y0.7891 I-0.0036 J-0.0034
G1 X0.0375 Y0.7864
G2 X0.038 Y0.7856 I-0.0041 J-0.0029
G1 X0.0392 Y0.7828
G2 X0.0396 Y0.7816 I-0.0046 J-0.002
G1 X0.04 Y0.7787
G2 Y0.7773 I-0.0049 J-0.0008
G1 X0.0397 Y0.7743
G2 X0.0393 Y0.773 I-0.005 J0.0006
G1 X0.0381 Y0.7699
G2 X0.0376 Y0.769 I-0.0046 J0.0019
G1 X0.0356 Y0.7661
G2 X0.0352 Y0.7655 I-0.0041 J0.0028
G1 X0.0324 Y0.7625
G2 X0.0319 Y0.7621 I-0.0037 J0.0034
G1 X0.0283 Y0.759
G2 X0.0279 Y0.7587 I-0.0032 J0.0038
G1 X0.0233 Y0.7555
X0.023 Y0.7553
X0.0174 Y0.7519
X0.0172 Y0.7518
X0.0107 Y0.7484
X0.0104 Y0.7483
X0.0029 Y0.7448
X0.0027 Y0.7447
X-0.006 Y0.741
X-0.0061
X-0.016 Y0.7372
G3 X-0.0165 Y0.7359 I0.0004 J-0.0009
G1 X-0.0162 Y0.7349
X-0.0159 Y0.7343 Z0.0003
X-0.0158 Y0.734 Z0.001
G0 Z0.2
X-0.0144 Y0.635
G1 Z0.0394 F13.33
Z0.001
X-0.0145 Y0.6347 Z0.0003
X-0.0147 Y0.634 Z0
X-0.015 Y0.633 F40
G3 X-0.0143 Y0.6318 I0.001 J-0.0003
X-0.0068 Y0.6308 I0.0075 J0.027
G1 X0.0068
G3 X0.0314 Y0.6455 J0.028
G2 X-0.0348 Y0.6579 I-0.0183 J0.0854
G3 X-0.0143 Y0.6318 I0.028 J0.0009
X-0.013 Y0.6325 I0.0003 J0.001
G1 X-0.0128 Y0.6335
X-0.0126 Y0.6341 Z0.0003
X-0.0125 Y0.6344 Z0.001
G0 Z0.2
X-0.1104 Y0.793
G1 Z0.0394 F13.33
Z0.001
X-0.1103 Y0.7932 Z0.0003
X-0.1102 Y0.7939 Z0
X-0.11 Y0.7949 F40
G3 X-0.1108 Y0.7961 I-0.001 J0.0002
G1 X-0.1501 Y0.8035
G3 X-0.1513 Y0.8027 I-0.0002 J-0.001
G1 X-0.1515 Y0.8017
X-0.1516 Y0.801 Z0.0003
X-0.1517 Y0.8007 Z0.001
G0 Z0.2
X0.0835 Y0.8739
G1 Z0.0394 F13.33
Z0.001
X0.0837 Y0.8737 Z0.0003
X0.0842 Y0.8732 Z0
X0.085 Y0.8725 F40
G3 X0.0864 Y0.8726 I0.0007 J0.0007
G1 X0.1142 Y0.9013
G3 Y0.9027 I-0.0007 J0.0007
G1 X0.1135 Y0.9034
X0.113 Y0.9039 Z0.0003
X0.1127 Y0.9041 Z0.001
G0 Z0.2
X0.1074 Y0.8087
G1 Z0.0394 F13.33
Z0.001
X0.1075 Y0.8084 Z0.0003
X0.1076 Y0.8077 Z0
X0.1078 Y0.8067 F40
G3 X0.109 Y0.8059 I0.001 J0.0002
G1 X0.1483 Y0.8133
G3 X0.1491 Y0.8145 I-0.0002 J0.001
G1 X0.1489 Y0.8154
X0.1488 Y0.8161 Z0.0003
X0.1487 Y0.8164 Z0.001
G0 Z0.2
X0.1984 Y0.9643
G1 Z0.0394 F13.33
Z0.001
X0.1983 Y0.9641 Z0.0003
X0.1979 Y0.9635 Z0
X0.1973 Y0.9627 F40
G3 X0.1976 Y0.9613 I0.0008 J-0.0006
G1 X0.1994 Y0.9601
X0.2046 Y0.9573
X0.2103 Y0.9549
X0.2161 Y0.9528
X0.2336 Y0.9469
X0.239 Y0.9453
X0.2443 Y0.9441
X0.2496 Y0.9435
X0.2547 Y0.9436
X0.2594 Y0.9445
X0.2637 Y0.9466
X0.2674 Y0.9494
X0.2709 Y0.9529
X0.2741 Y0.9569
X0.277 Y0.9612
X0.2798 Y0.9659
G2 X0.289 Y0.9627 I0.0043 J-0.0026
G1 X0.2885 Y0.9586
X0.2882 Y0.9545
X0.2881 Y0.9504
X0.2883 Y0.9465
X0.2888 Y0.9428
X0.2897 Y0.9395
X0.2911 Y0.9367
X0.2936 Y0.934
X0.2968 Y0.9316
X0.3005 Y0.9296
X0.3045 Y0.9278
X0.3086 Y0.9263
X0.3151 Y0.9243
X0.3216 Y0.9227
X0.3282 Y0.9217
X0.3346 Y0.9214
X0.3407 Y0.9221
X0.3465 Y0.924
X0.352 Y0.927
X0.3569 Y0.9308
X0.3618 Y0.9361
X0.3659 Y0.9423
X0.3695 Y0.9491
X0.3727 Y0.9563
X0.3757 Y0.9636
X0.3785 Y0.9711
X0.3811 Y0.9786
X0.3992 Y1.0322
X0.2189 Y1.0929
X0.1977 Y1.03
X0.1955 Y1.023
X0.1932 Y1.0161
X0.1911 Y1.0091
X0.1892 Y1.0022
X0.1875 Y0.9952
X0.1862 Y0.9884
X0.1857 Y0.9818
X0.1861 Y0.9775
X0.1871 Y0.9734
X0.189 Y0.9696
X0.1914 Y0.9662
X0.1946 Y0.9633
X0.1976 Y0.9613
G3 X0.199 Y0.9616 I0.0006 J0.0008
G1 X0.1995 Y0.9624
X0.1999 Y0.963 Z0.0003
X0.2001 Y0.9632 Z0.001
X0.2264 Y1.002
X0.2266 Y1.0022 Z0.0003 F13.33
X0.227 Y1.0028 Z0
X0.2276 Y1.0036 F40
G3 X0.2273 Y1.005 I-0.0008 J0.0006
G1 X0.2259 Y1.006
G2 X0.2249 Y1.0069 I0.0028 J0.0041
G1 X0.2229 Y1.0092
G2 X0.2219 Y1.0113 I0.0038 J0.0032
G1 X0.2211 Y1.0143
G2 X0.221 Y1.0158 I0.0049 J0.0012
G1 X0.2213 Y1.0206
G2 X0.2214 Y1.0213 I0.005 J-0.0003
G1 X0.2224 Y1.0261
Y1.0264
X0.2237 Y1.0311
G2 X0.2301 Y1.0345 I0.0048 J-0.0013
G1 X0.2832 Y1.0167
G2 X0.2863 Y1.0101 I-0.0016 J-0.0047
G1 X0.2844 Y1.0052
X0.2842 Y1.0049
X0.282 Y1.0001
G2 X0.2818 Y0.9997 I-0.0045 J0.0021
G1 X0.2808 Y0.9979
X0.2806 Y0.9976
X0.2794 Y0.9959
G2 X0.2789 Y0.9952 I-0.0041 J0.0028
G1 X0.2775 Y0.9937
G2 X0.2761 Y0.9927 I-0.0036 J0.0035
G1 X0.2742 Y0.9918
G2 X0.2724 Y0.9913 I-0.0022 J0.0045
G1 X0.2696 Y0.9911
G2 X0.2687 I-0.0004 J0.005
G1 X0.266 Y0.9914
G2 X0.2655 I0.0005 J0.005
G1 X0.2628 Y0.992
G2 X0.2624 Y0.9921 I0.001 J0.0049
G1 X0.2561 Y0.9939
X0.2559 Y0.994
X0.2382 Y1
X0.2381
X0.2352 Y1.001
X0.2349 Y1.0011
X0.2321 Y1.0023
G2 X0.2317 Y1.0025 I0.0019 J0.0046
G1 X0.2289 Y1.004
G2 X0.2284 Y1.0043 I0.0023 J0.0044
G1 X0.2273 Y1.005
G3 X0.2259 Y1.0048 I-0.0006 J-0.0008
G1 X0.2254 Y1.004
X0.225 Y1.0034 Z0.0003
X0.2248 Y1.0031 Z0.001
G0 Z0.2
X0.3088 Y1.0097
G1 Z0.0394 F13.33
Z0.001
X0.3089 Y1.0094 Z0.0003
X0.309 Y1.0087 Z0
X0.3092 Y1.0078 F40
G3 X0.3103 Y1.0069 I0.001 J0.0002
G2 X0.3128 Y1.0067 I0.0008 J-0.0049
G1 X0.355 Y0.9926
G2 X0.3581 Y0.9861 I-0.0016 J-0.0047
G1 X0.357 Y0.9832
Y0.9831
X0.3558 Y0.9801
X0.3557 Y0.9799
X0.3544 Y0.977
X0.3543 Y0.9767
X0.3528 Y0.9739
G2 X0.352 Y0.9728 I-0.0044 J0.0024
G1 X0.3498 Y0.9706
G2 X0.3483 Y0.9695 I-0.0036 J0.0035
G1 X0.3454 Y0.9682
G2 X0.344 Y0.9678 I-0.0021 J0.0045
G1 X0.3403 Y0.9673
G2 X0.339 I-0.0006 J0.005
G1 X0.3354 Y0.9678
G2 X0.3349 Y0.9679 I0.0006 J0.005
G1 X0.3313 Y0.9687
G2 X0.3309 Y0.9688 I0.0011 J0.0049
G1 X0.3274 Y0.97
X0.3272
X0.3218 Y0.9719
X0.3216 Y0.972
X0.3163 Y0.9741
X0.3159 Y0.9742
X0.3107 Y0.9767
G2 X0.3103 Y0.9769 I0.0022 J0.0045
G1 X0.3084 Y0.9781
G2 X0.3079 Y0.9785 I0.0026 J0.0042
G1 X0.3062 Y0.9799
G2 X0.3051 Y0.9812 I0.0032 J0.0038
G1 X0.304 Y0.9831
G2 X0.3034 Y0.9846 I0.0043 J0.0025
G1 X0.303 Y0.9867
G2 X0.3029 Y0.988 I0.0049 J0.001
G1 X0.3032 Y0.9923
G2 X0.3034 Y0.9933 I0.005 J-0.0003
G1 X0.3045 Y0.9975
X0.3046 Y0.9977
X0.3056 Y1.0009
X0.3064 Y1.0035
G2 X0.3103 Y1.0069 I0.0048 J-0.0015
G3 X0.3111 Y1.0081 I-0.0002 J0.001
G1 X0.311 Y1.0091
X0.3108 Y1.0098 Z0.0003
Y1.0101 Z0.001
G0 Z0.2
X0.2677 Y1.1474
G1 Z0.0394 F13.33
Z0.001
X0.2679 Y1.1471 Z0.0003
X0.2683 Y1.1465 Z0
X0.2688 Y1.1457 F40
G3 X0.2702 Y1.1454 I0.0008 J0.0005
G1 X0.3871 Y1.2204
X0.3561 Y1.2944
X0.1678 Y1.2475
X0.1884 Y1.1984
X0.2189 Y1.2078
G2 X0.225 Y1.2049 I0.0015 J-0.0048
G1 X0.2335 Y1.1846
G2 X0.2312 Y1.1783 I-0.0046 J-0.0019
G1 X0.203 Y1.1635
X0.2233 Y1.1153
X0.2702 Y1.1454
G3 X0.2705 Y1.1468 I-0.0005 J0.0008
G1 X0.27 Y1.1476
X0.2696 Y1.1482 Z0.0003
X0.2694 Y1.1485 Z0.001
X0.2609 Y1.1901
Y1.1904 Z0.0003 F13.33
X0.261 Y1.1911 Z0
X0.2612 Y1.1921 F40
G3 X0.2604 Y1.1932 I-0.001 J0.0002
G2 X0.2566 Y1.1962 I0.0008 J0.0049
G1 X0.2484 Y1.2156
G2 X0.2516 Y1.2223 I0.0046 J0.0019
G1 X0.2746 Y1.2291
X0.2747
X0.2978 Y1.2353
X0.2979
X0.3344 Y1.2444
G2 X0.338 Y1.2352 I0.0012 J-0.0049
G1 X0.317 Y1.2239
X0.2962 Y1.2124
X0.2799 Y1.2032
X0.2637 Y1.1938
G2 X0.2604 Y1.1932 I-0.0025 J0.0043
G3 X0.2592 Y1.1924 I-0.0002 J-0.001
G1 X0.2591 Y1.1914
X0.259 Y1.1907 Z0.0003
X0.2589 Y1.1904 Z0.001
G0 Z0.2
X0.1432 Y1.3048
G1 Z0.0394 F13.33
Z0.001
X0.1435 Z0.0003
X0.1442 Y1.3046 Z0
X0.1452 Y1.3043 F40
G3 X0.1464 Y1.305 I0.0003 J0.001
G2 X0.147 Y1.3063 I0.0048 J-0.0014
G1 X0.2308 Y1.4374
X0.1875 Y1.4651
X0.0847 Y1.3043
X0.1595 Y1.2565
X0.1758 Y1.2819
X0.1485 Y1.2993
G2 X0.1464 Y1.305 I0.0027 J0.0042
G3 X0.1457 Y1.3062 I-0.001 J0.0003
G1 X0.1448 Y1.3065
X0.1441 Y1.3067 Z0.0003
X0.1438 Y1.3068 Z0.001
G0 Z0.2
X0.7111 Y1.1857
G1 Z0.0394 F13.33
Z0.001
X0.7108 Y1.1858 Z0.0003
X0.7101 Y1.186 Z0
X0.7091 Y1.1862 F40
G3 X0.7079 Y1.1855 I-0.0003 J-0.001
G1 X0.7056 Y1.1766
X0.6956 Y1.1366
X0.8812 Y1.09
X0.899 Y1.1608
X0.9009 Y1.1689
X0.9027 Y1.177
X0.9041 Y1.1851
X0.905 Y1.1931
Y1.1979
X0.9046 Y1.2027
X0.9037 Y1.2072
X0.9022 Y1.2115
X0.9 Y1.2153
X0.8972 Y1.2185
X0.8937 Y1.2212
X0.8896 Y1.2234
X0.885 Y1.2253
X0.8802 Y1.227
X0.8704 Y1.2299
X0.8604 Y1.2325
X0.7921 Y1.2497
X0.7832 Y1.2519
X0.7744 Y1.2539
X0.7655 Y1.2556
X0.7569 Y1.2568
X0.7517
X0.7466 Y1.2557
X0.7417 Y1.2538
X0.7371 Y1.2511
X0.7331 Y1.2476
X0.7295 Y1.2436
X0.7249 Y1.2364
X0.7212 Y1.2286
X0.7181 Y1.2203
X0.7153 Y1.2118
X0.7127 Y1.2031
X0.7102 Y1.1943
X0.7079 Y1.1855
G3 X0.7086 Y1.1843 I0.001 J-0.0003
G1 X0.7096 Y1.184
X0.7103 Y1.1838 Z0.0003
X0.7106 Z0.001
X0.7315 Y1.191
X0.7317 Y1.1909 Z0.0003 F13.33
X0.7324 Y1.1907 Z0
X0.7333 Y1.1904 F40
G3 X0.7346 Y1.191 I0.0003 J0.0009
G1 X0.7363 Y1.1956
G2 X0.7366 Y1.1962 I0.0047 J-0.0017
G1 X0.7381 Y1.1991
G2 X0.7389 Y1.2002 I0.0044 J-0.0024
G1 X0.7412 Y1.2026
G2 X0.7427 Y1.2036 I0.0036 J-0.0035
G1 X0.7457 Y1.205
G2 X0.7474 Y1.2054 I0.0021 J-0.0046
G1 X0.7501 Y1.2056
G2 X0.751 I0.0004 J-0.005
G1 X0.7538 Y1.2053
X0.754
X0.7567 Y1.2048
X0.7569
X0.7596 Y1.2042
X0.7597
X0.7681 Y1.2022
X0.7682
X0.8441 Y1.1832
X0.8493 Y1.1818
X0.8494
X0.8546 Y1.1802
X0.8547
X0.8598 Y1.1785
G2 X0.8603 Y1.1783 I-0.0016 J-0.0047
G1 X0.8651 Y1.1761
G2 X0.8658 Y1.1757 I-0.0021 J-0.0046
G1 X0.868 Y1.1742
G2 X0.8692 Y1.1732 I-0.0027 J-0.0042
G1 X0.8708 Y1.1712
G2 X0.8717 Y1.1695 I-0.0039 J-0.0032
G1 X0.8725 Y1.167
G2 X0.8727 Y1.1659 I-0.0048 J-0.0015
G1 X0.873 Y1.1632
G2 Y1.1624 I-0.005 J-0.0004
G1 X0.8725 Y1.1571
G2 X0.8724 Y1.1565 I-0.005 J0.0004
G1 X0.8714 Y1.1513
G2 X0.8652 Y1.1474 I-0.0049 J0.001
G1 X0.7368 Y1.1797
G2 X0.7332 Y1.1859 I0.0012 J0.0048
G1 X0.7345 Y1.1906
X0.7346 Y1.191
G3 X0.734 Y1.1922 I-0.0009 J0.0003
G1 X0.7331 Y1.1926
X0.7324 Y1.1928 Z0.0003
X0.7321 Y1.1929 Z0.001
G0 Z0.2
X0.7415 Y0.9546
G1 Z0.0394 F13.33
Z0.001
X0.7416 Y0.9544 Z0.0003
X0.7418 Y0.9537 Z0
X0.7422 Y0.9527 F40
G3 X0.7434 Y0.9521 I0.0009 J0.0003
G1 X0.8992 Y1.0048
X0.8826 Y1.0539
X0.7023 Y0.9929
X0.7189 Y0.9438
X0.7434 Y0.9521
G3 X0.7441 Y0.9534 I-0.0003 J0.0009
G1 X0.7437 Y0.9543
X0.7435 Y0.955 Z0.0003
X0.7434 Y0.9553 Z0.001
G0 Z0.2
X1.005 Y0.8628
G1 Z0.0394 F13.33
Z0.001
X1.0052 Y0.863 Z0.0003
X1.0057 Y0.8635 Z0
X1.0064 Y0.8642 F40
G3 Y0.8656 I-0.0007 J0.0007
G1 X0.9786 Y0.8943
G3 X0.9772 Y0.8944 I-0.0007 J-0.0007
G1 X0.9765 Y0.8937
X0.976 Y0.8932 Z0.0003
X0.9758 Y0.893 Z0.001
G0 Z0.2
X1.0725 Y0.8669
G1 Z0.0394 F13.33
Z0.001
X1.0724 Y0.8672 Z0.0003
X1.0721 Y0.8678 Z0
X1.0717 Y0.8687 F40
G3 X1.0704 Y0.8692 I-0.0009 J-0.0004
X1.032 Y0.789 I0.0296 J-0.0634
G1 X1.0321 Y0.7888
X1.0337 Y0.7809
X1.036 Y0.7741
X1.039 Y0.7678
X1.0425 Y0.7618
X1.0464 Y0.756
X1.0506 Y0.7502
X1.0539 Y0.7456
X1.054 Y0.7455
X1.0571 Y0.7409
X1.0573 Y0.7406
X1.0601 Y0.7357
G2 X1.0604 Y0.7352 I-0.0043 J-0.0025
G1 X1.0627 Y0.7299
G2 X1.0629 Y0.7292 I-0.0046 J-0.002
G1 X1.0645 Y0.7234
G2 X1.0646 Y0.7225 I-0.0048 J-0.0013
G1 X1.0652 Y0.7159
G2 Y0.7155 I-0.005 J-0.0004
G1 Y0.7002
G3 X1.1348 Y0.6866 I0.048 J0.0607
G1 Y0.7155
G2 Y0.7159 I0.005
G1 X1.1353 Y0.7222
G2 X1.1355 Y0.723 I0.005 J-0.0004
G1 X1.1369 Y0.7287
G2 X1.1371 Y0.7294 I0.0048 J-0.0012
G1 X1.1392 Y0.7344
G2 X1.1395 Y0.735 I0.0046 J-0.0019
G1 X1.1421 Y0.7396
X1.1423 Y0.74
X1.1453 Y0.7444
X1.1454 Y0.7446
X1.1485 Y0.7489
X1.1517 Y0.7533
X1.1547 Y0.7576
X1.1584 Y0.7631
X1.1616 Y0.7688
X1.1643 Y0.7748
X1.1665 Y0.7813
X1.1679 Y0.7887
X1.168 Y0.789
G3 X1.0704 Y0.8692 I-0.068 J0.0168
X1.0699 Y0.8679 I0.0004 J-0.0009
G1 X1.0703 Y0.867
X1.0706 Y0.8663 Z0.0003
X1.0707 Y0.8661 Z0.001
G0 Z0.2
X1.092 Y0.9148
G1 Z0.0394 F13.33
Z0.001
G18 G2 X1.093 Z0 I0.001
G1 X1.094 F40
G17 G3 X1.095 Y0.9158 J0.001
G1 Y0.9558
G3 X1.094 Y0.9568 I-0.001
G1 X1.093
G18 G3 X1.092 Z0.001 K0.001
G0 Z0.2
X1.1293 Y0.8501
G1 Z0.0394 F13.33
Z0.001
X1.1292 Y0.8503 Z0.0003
X1.1291 Y0.851 Z0
X1.1288 Y0.852 F40
G17 G3 X1.1276 Y0.8527 I-0.001 J-0.0003
G1 X1.117 Y0.8499
X1.1076 Y0.8472
X1.0995 Y0.8446
X1.0925 Y0.8421
X1.0866 Y0.8397
X1.0817 Y0.8375
X1.0779 Y0.8354
X1.0751 Y0.8334
X1.0733 Y0.8318
X1.0723 Y0.8305
X1.072 Y0.8297
X1.0719 Y0.8293
X1.0722 Y0.8284
X1.0731 Y0.827
X1.0749 Y0.8251
X1.0776 Y0.8231
X1.0823 Y0.8201
X1.088 Y0.8171
X1.0943 Y0.814
X1.1011 Y0.8108
X1.108 Y0.8075
X1.1081
X1.1148 Y0.8041
X1.115 Y0.804
X1.1212 Y0.8006
X1.1215 Y0.8004
X1.1271 Y0.7968
G2 X1.1275 Y0.7965 I-0.0027 J-0.0042
G1 X1.1322 Y0.7928
G2 X1.1327 Y0.7923 I-0.0031 J-0.0039
G1 X1.1352 Y0.7897
G2 X1.1357 Y0.7891 I-0.0036 J-0.0034
G1 X1.1375 Y0.7864
G2 X1.138 Y0.7855 I-0.0041 J-0.0029
G1 X1.1392 Y0.7828
G2 X1.1396 Y0.7816 I-0.0046 J-0.002
G1 X1.14 Y0.7787
G2 Y0.7773 I-0.0049 J-0.0008
G1 X1.1397 Y0.7743
G2 X1.1393 Y0.773 I-0.005 J0.0006
G1 X1.1381 Y0.7699
G2 X1.1376 Y0.769 I-0.0046 J0.0019
G1 X1.1356 Y0.7661
G2 X1.1352 Y0.7655 I-0.0041 J0.0028
G1 X1.1324 Y0.7625
G2 X1.1319 Y0.7621 I-0.0037 J0.0034
G1 X1.1283 Y0.759
G2 X1.1279 Y0.7587 I-0.0032 J0.0038
G1 X1.1233 Y0.7555
X1.123 Y0.7553
X1.1174 Y0.7519
X1.1172 Y0.7518
X1.1107 Y0.7484
X1.1104 Y0.7483
X1.1029 Y0.7448
X1.1027 Y0.7447
X1.094 Y0.741
X1.0939
X1.0841 Y0.7372
G3 X1.0835 Y0.7359 I0.0004 J-0.0009
G1 X1.0838 Y0.7349
X1.0841 Y0.7343 Z0.0003
X1.0842 Y0.734 Z0.001
G0 Z0.2
X1.0856 Y0.635
G1 Z0.0394 F13.33
Z0.001
X1.0855 Y0.6347 Z0.0003
X1.0853 Y0.634 Z0
X1.085 Y0.633 F40
G3 X1.0857 Y0.6318 I0.001 J-0.0003
X1.0932 Y0.6308 I0.0075 J0.027
G1 X1.1068
G3 X1.1314 Y0.6455 J0.028
G2 X1.0652 Y0.6579 I-0.0183 J0.0854
G3 X1.0857 Y0.6318 I0.028 J0.0009
X1.087 Y0.6325 I0.0003 J0.001
G1 X1.0872 Y0.6335
X1.0874 Y0.6341 Z0.0003
X1.0875 Y0.6344 Z0.001
G0 Z0.2
X0.9896 Y0.793
G1 Z0.0394 F13.33
Z0.001
X0.9897 Y0.7932 Z0.0003
X0.9898 Y0.7939 Z0
X0.99 Y0.7949 F40
G3 X0.9892 Y0.7961 I-0.001 J0.0002
G1 X0.9499 Y0.8035
G3 X0.9487 Y0.8027 I-0.0002 J-0.001
G1 X0.9485 Y0.8017
X0.9484 Y0.801 Z0.0003
X0.9483 Y0.8007 Z0.001
G0 Z0.2
X1.1835 Y0.8739
G1 Z0.0394 F13.33
Z0.001
X1.1837 Y0.8737 Z0.0003
X1.1842 Y0.8732 Z0
X1.185 Y0.8725 F40
G3 X1.1864 Y0.8726 I0.0007 J0.0007
G1 X1.2142 Y0.9013
G3 Y0.9027 I-0.0007 J0.0007
G1 X1.2135 Y0.9034
X1.213 Y0.9039 Z0.0003
X1.2127 Y0.9041 Z0.001
G0 Z0.2
X1.2074 Y0.8087
G1 Z0.0394 F13.33
Z0.001
X1.2075 Y0.8084 Z0.0003
X1.2076 Y0.8077 Z0
X1.2078 Y0.8067 F40
G3 X1.209 Y0.8059 I0.001 J0.0002
G1 X1.2483 Y0.8133
G3 X1.2491 Y0.8145 I-0.0002 J0.001
G1 X1.2489 Y0.8154
X1.2488 Y0.8161 Z0.0003
X1.2487 Y0.8164 Z0.001
G0 Z0.2
X1.2984 Y0.9643
G1 Z0.0394 F13.33
Z0.001
X1.2983 Y0.9641 Z0.0003
X1.2979 Y0.9635 Z0
X1.2973 Y0.9627 F40
G3 X1.2976 Y0.9613 I0.0008 J-0.0006
G1 X1.2994 Y0.9601
X1.3046 Y0.9573
X1.3102 Y0.9549
X1.3161 Y0.9528
X1.3336 Y0.9469
X1.339 Y0.9453
X1.3443 Y0.9441
X1.3496 Y0.9435
X1.3547 Y0.9436
X1.3594 Y0.9445
X1.3637 Y0.9466
X1.3674 Y0.9494
X1.3709 Y0.9529
X1.3741 Y0.9569
X1.377 Y0.9612
X1.3798 Y0.9659
G2 X1.389 Y0.9627 I0.0043 J-0.0026
G1 X1.3885 Y0.9586
X1.3882 Y0.9545
X1.3881 Y0.9504
X1.3883 Y0.9465
X1.3888 Y0.9428
X1.3897 Y0.9395
X1.3911 Y0.9367
X1.3936 Y0.934
X1.3968 Y0.9316
X1.4005 Y0.9296
X1.4045 Y0.9278
X1.4086 Y0.9263
X1.4151 Y0.9243
X1.4216 Y0.9227
X1.4282 Y0.9217
X1.4346 Y0.9214
X1.4407 Y0.9221
X1.4465 Y0.924
X1.452 Y0.927
X1.4569 Y0.9308
X1.4618 Y0.9361
X1.4659 Y0.9423
X1.4695 Y0.9491
X1.4727 Y0.9563
X1.4757 Y0.9636
X1.4785 Y0.9711
X1.4811 Y0.9786
X1.4992 Y1.0322
X1.3189 Y1.0929
X1.2977 Y1.03
X1.2955 Y1.023
X1.2932 Y1.0161
X1.2911 Y1.0091
X1.2892 Y1.0022
X1.2875 Y0.9952
X1.2862 Y0.9884
X1.2857 Y0.9818
X1.2861 Y0.9775
X1.2871 Y0.9734
X1.289 Y0.9696
X1.2915 Y0.9662
X1.2946 Y0.9633
X1.2976 Y0.9613
G3 X1.299 Y0.9616 I0.0006 J0.0008
G1 X1.2995 Y0.9624
X1.2999 Y0.963 Z0.0003
X1.3001 Y0.9632 Z0.001
X1.3264 Y1.002
X1.3266 Y1.0023 Z0.0003 F13.33
X1.327 Y1.0028 Z0
X1.3276 Y1.0037 F40
G3 X1.3273 Y1.005 I-0.0008 J0.0006
G1 X1.3259 Y1.006
G2 X1.3249 Y1.0069 I0.0028 J0.0041
G1 X1.3229 Y1.0092
G2 X1.3219 Y1.0113 I0.0038 J0.0032
G1 X1.3211 Y1.0143
G2 X1.321 Y1.0158 I0.0049 J0.0012
G1 X1.3213 Y1.0206
G2 X1.3214 Y1.0213 I0.005 J-0.0003
G1 X1.3224 Y1.0261
Y1.0264
X1.3237 Y1.0311
G2 X1.3301 Y1.0345 I0.0048 J-0.0013
G1 X1.3832 Y1.0167
G2 X1.3863 Y1.0101 I-0.0016 J-0.0047
G1 X1.3844 Y1.0052
X1.3842 Y1.0049
X1.382 Y1.0001
G2 X1.3818 Y0.9997 I-0.0045 J0.0021
G1 X1.3808 Y0.9979
X1.3806 Y0.9976
X1.3794 Y0.9959
G2 X1.3789 Y0.9952 I-0.0041 J0.0028
G1 X1.3775 Y0.9937
G2 X1.3761 Y0.9927 I-0.0036 J0.0034
G1 X1.3742 Y0.9918
G2 X1.3724 Y0.9913 I-0.0022 J0.0045
G1 X1.3696 Y0.9911
G2 X1.3687 I-0.0004 J0.005
G1 X1.366 Y0.9914
G2 X1.3655 I0.0005 J0.005
G1 X1.3628 Y0.992
G2 X1.3624 Y0.9921 I0.001 J0.0049
G1 X1.3561 Y0.9939
X1.3559 Y0.994
X1.3382 Y1
X1.3381
X1.3352 Y1.001
X1.3349 Y1.0011
X1.3321 Y1.0023
G2 X1.3317 Y1.0025 I0.0019 J0.0046
G1 X1.3289 Y1.004
G2 X1.3285 Y1.0043 I0.0023 J0.0044
G1 X1.3273 Y1.005
G3 X1.3259 Y1.0048 I-0.0006 J-0.0008
G1 X1.3253 Y1.004
X1.3249 Y1.0034 Z0.0003
X1.3248 Y1.0031 Z0.001
G0 Z0.2
X1.4088 Y1.0097
G1 Z0.0394 F13.33
Z0.001
X1.4089 Y1.0094 Z0.0003
X1.409 Y1.0087 Z0
X1.4092 Y1.0078 F40
G3 X1.4103 Y1.0069 I0.001 J0.0002
G2 X1.4128 Y1.0067 I0.0008 J-0.0049
G1 X1.455 Y0.9926
G2 X1.4581 Y0.9861 I-0.0016 J-0.0047
G1 X1.457 Y0.9832
Y0.9831
X1.4558 Y0.9801
X1.4557 Y0.9799
X1.4544 Y0.977
X1.4543 Y0.9767
X1.4528 Y0.9739
G2 X1.452 Y0.9728 I-0.0044 J0.0024
G1 X1.4498 Y0.9706
G2 X1.4483 Y0.9695 I-0.0036 J0.0035
G1 X1.4454 Y0.9682
G2 X1.444 Y0.9678 I-0.0021 J0.0045
G1 X1.4403 Y0.9673
G2 X1.439 I-0.0006 J0.005
G1 X1.4354 Y0.9678
G2 X1.4349 Y0.9679 I0.0006 J0.005
G1 X1.4313 Y0.9687
G2 X1.4309 Y0.9688 I0.0011 J0.0049
G1 X1.4274 Y0.97
X1.4272
X1.4218 Y0.9719
X1.4216 Y0.972
X1.4163 Y0.9741
X1.4159 Y0.9742
X1.4107 Y0.9767
G2 X1.4103 Y0.9769 I0.0022 J0.0045
G1 X1.4084 Y0.9781
G2 X1.4079 Y0.9785 I0.0026 J0.0042
G1 X1.4062 Y0.9799
G2 X1.4051 Y0.9812 I0.0032 J0.0038
G1 X1.404 Y0.9831
G2 X1.4034 Y0.9846 I0.0043 J0.0025
G1 X1.403 Y0.9867
G2 X1.4029 Y0.988 I0.0049 J0.001
G1 X1.4032 Y0.9923
G2 X1.4034 Y0.9933 I0.005 J-0.0003
G1 X1.4045 Y0.9975
X1.4046 Y0.9977
X1.4056 Y1.0009
X1.4064 Y1.0035
G2 X1.4103 Y1.0069 I0.0048 J-0.0015
G3 X1.4111 Y1.0081 I-0.0002 J0.001
G1 X1.411 Y1.0091
X1.4108 Y1.0098 Z0.0003
Y1.0101 Z0.001
G0 Z0.2
X1.3677 Y1.1474
G1 Z0.0394 F13.33
Z0.001
X1.3679 Y1.1471 Z0.0003
X1.3683 Y1.1465 Z0
X1.3688 Y1.1457 F40
G3 X1.3702 Y1.1454 I0.0008 J0.0005
G1 X1.4871 Y1.2204
X1.4561 Y1.2944
X1.2678 Y1.2475
X1.2884 Y1.1984
X1.3189 Y1.2078
G2 X1.325 Y1.2049 I0.0015 J-0.0048
G1 X1.3335 Y1.1846
G2 X1.3312 Y1.1783 I-0.0046 J-0.0019
G1 X1.303 Y1.1635
X1.3233 Y1.1153
X1.3702 Y1.1454
G3 X1.3705 Y1.1468 I-0.0005 J0.0008
G1 X1.37 Y1.1476
X1.3696 Y1.1482 Z0.0003
X1.3694 Y1.1485 Z0.001
X1.3609 Y1.1901
Y1.1904 Z0.0003 F13.33
X1.361 Y1.1911 Z0
X1.3612 Y1.1921 F40
G3 X1.3604 Y1.1932 I-0.001 J0.0002
G2 X1.3566 Y1.1962 I0.0008 J0.0049
G1 X1.3484 Y1.2156
G2 X1.3516 Y1.2223 I0.0046 J0.0019
G1 X1.3746 Y1.2291
X1.3747
X1.3978 Y1.2353
X1.3979
X1.4344 Y1.2444
G2 X1.438 Y1.2352 I0.0012 J-0.0049
G1 X1.417 Y1.2239
X1.3962 Y1.2124
X1.3799 Y1.2032
X1.3637 Y1.1938
G2 X1.3604 Y1.1932 I-0.0025 J0.0043
G3 X1.3592 Y1.1924 I-0.0002 J-0.001
G1 X1.3591 Y1.1914
X1.359 Y1.1907 Z0.0003
X1.3589 Y1.1904 Z0.001
G0 Z0.2
X1.2432 Y1.3048
G1 Z0.0394 F13.33
Z0.001
X1.2435 Z0.0003
X1.2442 Y1.3046 Z0
X1.2452 Y1.3043 F40
G3 X1.2464 Y1.305 I0.0003 J0.001
G2 X1.247 Y1.3063 I0.0048 J-0.0014
G1 X1.3308 Y1.4374
X1.2875 Y1.4651
X1.1847 Y1.3043
X1.2595 Y1.2565
X1.2758 Y1.2819
X1.2485 Y1.2993
G2 X1.2464 Y1.305 I0.0027 J0.0042
G3 X1.2457 Y1.3062 I-0.001 J0.0003
G1 X1.2448 Y1.3065
X1.2441 Y1.3067 Z0.0003
X1.2438 Y1.3068 Z0.001
G0 Z0.2
X1.1509 Y1.3669
G1 Z0.0394 F13.33
Z0.001
X1.1512 Y1.367 Z0.0003
X1.1519 Y1.3671 Z0
X1.1529 Y1.3673 F40
G3 X1.1537 Y1.3685 I-0.0002 J0.001
G1 X1.1251 Y1.5039
X1.0447 Y1.5011
X1.0217 Y1.3092
X1.0749 Y1.3111
X1.077 Y1.3428
G2 X1.0819 Y1.3474 I0.005 J-0.0003
G1 X1.1039 Y1.3482
G2 X1.109 Y1.3438 I0.0002 J-0.005
G1 X1.1128 Y1.3124
X1.1651 Y1.3142
X1.1537 Y1.3685
G3 X1.1525 Y1.3693 I-0.001 J-0.0002
G1 X1.1515 Y1.3691
X1.1508 Y1.3689 Z0.0003
X1.1505 Z0.001
X1.1085 Y1.3756
X1.1082 Y1.3758 Z0.0003 F13.33
X1.1076 Y1.3761 Z0
X1.1068 Y1.3766 F40
G3 X1.1054 Y1.3762 I-0.0005 J-0.0009
G2 X1.1012 Y1.3738 I-0.0043 J0.0025
G1 X1.0802 Y1.373
G2 X1.0751 Y1.3784 I-0.0002 J0.005
G1 X1.0769 Y1.4022
Y1.4023
X1.0793 Y1.426
Y1.4261
X1.0838 Y1.4633
G2 X1.0937 Y1.4634 I0.005 J-0.0006
G1 X1.0969 Y1.4398
X1.1002 Y1.4164
X1.106 Y1.3795
G2 X1.1054 Y1.3762 I-0.0049 J-0.0008
G3 X1.1058 Y1.3749 I0.0009 J-0.0005
G1 X1.1066 Y1.3744
X1.1072 Y1.374 Z0.0003
X1.1075 Y1.3739 Z0.001
G0 Z0.2
X0.9188 Y1.3385
G1 Z0.0394 F13.33
Z0.001
X0.9191 Z0.0003
X0.9198 Z0
X0.9208 Y1.3386 F40
G3 X0.9218 Y1.3397 I-0.0001 J0.001
G2 X0.9237 Y1.3439 I0.005 J0.0003
G1 X0.95 Y1.3646
X0.9325 Y1.3868
X0.9062 Y1.3661
G2 X0.8992 Y1.367 I-0.0031 J0.0039
G1 X0.8755 Y1.397
G2 X0.8764 Y1.404 I0.0039 J0.0031
G1 X0.9047 Y1.4263
X0.886 Y1.4501
X0.8133 Y1.3928
X0.9315 Y1.2426
X1.0075 Y1.3024
X0.9888 Y1.3262
X0.9572 Y1.3013
G2 X0.9502 Y1.3022 I-0.0031 J0.0039
G1 X0.9228 Y1.3369
G2 X0.9218 Y1.3397 I0.0039 J0.0031
G3 X0.9207 Y1.3406 I-0.001 J-0.0001
G1 X0.9197 Y1.3405
X0.919 Z0.0003
X0.9187 Z0.001
G0 Z0.2
X1.0856 Y1.735
G1 Z0.0394 F13.33
Z0.001
X1.0855 Y1.7347 Z0.0003
X1.0853 Y1.734 Z0
X1.085 Y1.733 F40
G3 X1.0857 Y1.7318 I0.001 J-0.0003
X1.0932 Y1.7308 I0.0075 J0.027
G1 X1.1068
G3 X1.1314 Y1.7455 J0.028
G2 X1.0652 Y1.7579 I-0.0183 J0.0854
G3 X1.0857 Y1.7318 I0.028 J0.0009
X1.087 Y1.7325 I0.0003 J0.001
G1 X1.0872 Y1.7335
X1.0874 Y1.7341 Z0.0003
X1.0875 Y1.7344 Z0.001
G0 Z0.2
X1.1318 Y1.8127
G1 Z0.0394 F13.33
Z0.001
G18 G2 X1.1328 Z0 I0.001
G1 X1.1338 F40
G17 G3 X1.1348 Y1.8137 J0.001
G1 Y1.8155
G2 Y1.8159 I0.005
G1 X1.1353 Y1.8222
G2 X1.1355 Y1.823 I0.005 J-0.0004
G1 X1.1369 Y1.8287
G2 X1.1371 Y1.8294 I0.0048 J-0.0012
G1 X1.1392 Y1.8344
G2 X1.1395 Y1.835 I0.0046 J-0.0019
G1 X1.1421 Y1.8396
X1.1423 Y1.84
X1.1453 Y1.8444
X1.1454 Y1.8446
X1.1485 Y1.8489
X1.1517 Y1.8533
X1.1547 Y1.8576
X1.1584 Y1.8631
X1.1616 Y1.8688
X1.1643 Y1.8748
X1.1665 Y1.8813
X1.1679 Y1.8887
X1.168 Y1.889
G3 X1.032 Y1.9226 I-0.068 J0.0168
Y1.889 I0.068 J-0.0168
G1 X1.0321 Y1.8888
X1.0337 Y1.8809
X1.036 Y1.8741
X1.039 Y1.8678
X1.0425 Y1.8618
X1.0464 Y1.856
X1.0506 Y1.8502
X1.0539 Y1.8456
X1.054 Y1.8455
X1.0571 Y1.8409
X1.0573 Y1.8406
X1.0601 Y1.8357
G2 X1.0604 Y1.8352 I-0.0043 J-0.0025
G1 X1.0627 Y1.8299
G2 X1.0629 Y1.8292 I-0.0046 J-0.002
G1 X1.0645 Y1.8234
G2 X1.0646 Y1.8225 I-0.0048 J-0.0013
G1 X1.0652 Y1.8159
G2 Y1.8155 I-0.005 J-0.0004
G1 Y1.8002
G3 X1.1348 Y1.7866 I0.048 J0.0607
G1 Y1.8137
G3 X1.1338 Y1.8147 I-0.001
G1 X1.1328
G18 G3 X1.1318 Z0.001 K0.001
G0 Z0.2
X1.2074 Y1.9087
G1 Z0.0394 F13.33
Z0.001
X1.2075 Y1.9084 Z0.0003
X1.2076 Y1.9077 Z0
X1.2078 Y1.9067 F40
G17 G3 X1.209 Y1.9059 I0.001 J0.0002
G1 X1.2483 Y1.9133
G3 X1.2491 Y1.9145 I-0.0002 J0.001
G1 X1.2489 Y1.9154
X1.2488 Y1.9161 Z0.0003
X1.2487 Y1.9164 Z0.001
G0 Z0.2
X1.1835 Y1.9739
G1 Z0.0394 F13.33
Z0.001
X1.1837 Y1.9737 Z0.0003
X1.1842 Y1.9732 Z0
X1.185 Y1.9725 F40
G3 X1.1864 Y1.9726 I0.0007 J0.0007
G1 X1.2142 Y2.0013
G3 Y2.0027 I-0.0007 J0.0007
G1 X1.2135 Y2.0034
X1.213 Y2.0039 Z0.0003
X1.2127 Y2.0041 Z0.001
G0 Z0.2
X1.1293 Y1.9501
G1 Z0.0394 F13.33
Z0.001
X1.1292 Y1.9503 Z0.0003
X1.1291 Y1.951 Z0
X1.1288 Y1.952 F40
G3 X1.1276 Y1.9527 I-0.001 J-0.0003
G1 X1.117 Y1.9499
X1.1076 Y1.9472
X1.0995 Y1.9446
X1.0925 Y1.9421
X1.0866 Y1.9397
X1.0817 Y1.9375
X1.0779 Y1.9354
X1.0751 Y1.9334
X1.0733 Y1.9318
X1.0723 Y1.9305
X1.072 Y1.9297
X1.0719 Y1.9293
X1.0722 Y1.9284
X1.0731 Y1.927
X1.0749 Y1.9251
X1.0776 Y1.9231
X1.0823 Y1.9201
X1.088 Y1.9171
X1.0943 Y1.914
X1.1011 Y1.9108
X1.108 Y1.9075
X1.1081
X1.1148 Y1.9041
X1.115 Y1.904
X1.1212 Y1.9006
X1.1215 Y1.9004
X1.1271 Y1.8968
G2 X1.1275 Y1.8965 I-0.0027 J-0.0042
G1 X1.1322 Y1.8928
G2 X1.1327 Y1.8923 I-0.0031 J-0.0039
G1 X1.1352 Y1.8897
G2 X1.1357 Y1.8891 I-0.0036 J-0.0034
G1 X1.1375 Y1.8864
G2 X1.138 Y1.8855 I-0.0041 J-0.0029
G1 X1.1392 Y1.8828
G2 X1.1396 Y1.8816 I-0.0046 J-0.002
G1 X1.14 Y1.8787
G2 Y1.8773 I-0.0049 J-0.0008
G1 X1.1397 Y1.8743
G2 X1.1393 Y1.873 I-0.005 J0.0006
G1 X1.1381 Y1.8699
G2 X1.1376 Y1.869 I-0.0046 J0.0019
G1 X1.1356 Y1.8661
G2 X1.1352 Y1.8655 I-0.0041 J0.0028
G1 X1.1324 Y1.8625
G2 X1.1319 Y1.8621 I-0.0037 J0.0034
G1 X1.1283 Y1.859
G2 X1.1279 Y1.8587 I-0.0032 J0.0038
G1 X1.1233 Y1.8555
X1.123 Y1.8553
X1.1174 Y1.8519
X1.1172 Y1.8518
X1.1107 Y1.8484
X1.1104 Y1.8483
X1.1029 Y1.8448
X1.1027 Y1.8447
X1.094 Y1.841
X1.0939
X1.0841 Y1.8372
G3 X1.0835 Y1.8359 I0.0004 J-0.0009
G1 X1.0838 Y1.8349
X1.0841 Y1.8343 Z0.0003
X1.0842 Y1.834 Z0.001
G0 Z0.2
X0.9896 Y1.893
G1 Z0.0394 F13.33
Z0.001
X0.9897 Y1.8932 Z0.0003
X0.9898 Y1.8939 Z0
X0.99 Y1.8949 F40
G3 X0.9892 Y1.8961 I-0.001 J0.0002
G1 X0.9499 Y1.9035
G3 X0.9487 Y1.9027 I-0.0002 J-0.001
G1 X0.9485 Y1.9017
X0.9484 Y1.901 Z0.0003
X0.9483 Y1.9007 Z0.001
G0 Z0.2
X1.005 Y1.9628
G1 Z0.0394 F13.33
Z0.001
X1.0052 Y1.963 Z0.0003
X1.0057 Y1.9635 Z0
X1.0064 Y1.9642 F40
G3 Y1.9656 I-0.0007 J0.0007
G1 X0.9786 Y1.9943
G3 X0.9772 Y1.9944 I-0.0007 J-0.0007
G1 X0.9765 Y1.9937
X0.976 Y1.9932 Z0.0003
X0.9758 Y1.993 Z0.001
G0 Z0.2
X1.092 Y2.0148
G1 Z0.0394 F13.33
Z0.001
G18 G2 X1.093 Z0 I0.001
G1 X1.094 F40
G17 G3 X1.095 Y2.0158 J0.001
G1 Y2.0558
G3 X1.094 Y2.0568 I-0.001
G1 X1.093
G18 G3 X1.092 Z0.001 K0.001
G0 Z0.2
X1.2984 Y2.0643
G1 Z0.0394 F13.33
Z0.001
X1.2983 Y2.0641 Z0.0003
X1.2979 Y2.0635 Z0
X1.2973 Y2.0627 F40
G17 G3 X1.2976 Y2.0613 I0.0008 J-0.0006
G1 X1.2994 Y2.0601
X1.3046 Y2.0573
X1.3102 Y2.0549
X1.3161 Y2.0528
X1.3336 Y2.0469
X1.339 Y2.0453
X1.3443 Y2.0441
X1.3496 Y2.0435
X1.3547 Y2.0436
X1.3594 Y2.0445
X1.3637 Y2.0466
X1.3674 Y2.0494
X1.3709 Y2.0529
X1.3741 Y2.0569
X1.377 Y2.0612
X1.3798 Y2.0659
G2 X1.389 Y2.0627 I0.0043 J-0.0026
G1 X1.3885 Y2.0586
X1.3882 Y2.0545
X1.3881 Y2.0504
X1.3883 Y2.0465
X1.3888 Y2.0428
X1.3897 Y2.0395
X1.3911 Y2.0367
X1.3936 Y2.034
X1.3968 Y2.0316
X1.4005 Y2.0296
X1.4045 Y2.0278
X1.4086 Y2.0263
X1.4151 Y2.0243
X1.4204 Y2.023
X1.4216 Y2.0227
X1.4282 Y2.0217
X1.4346 Y2.0214
X1.4407 Y2.0221
X1.4465 Y2.024
X1.452 Y2.027
X1.4569 Y2.0308
X1.4618 Y2.0361
X1.4659 Y2.0423
X1.4695 Y2.0491
X1.4727 Y2.0563
X1.4757 Y2.0636
X1.4785 Y2.0711
X1.4811 Y2.0786
X1.4992 Y2.1322
X1.3189 Y2.1929
X1.2977 Y2.13
X1.2955 Y2.123
X1.2932 Y2.1161
X1.2911 Y2.1091
X1.2892 Y2.1022
X1.2875 Y2.0952
X1.2862 Y2.0884
X1.2857 Y2.0818
X1.2861 Y2.0775
X1.2871 Y2.0734
X1.289 Y2.0696
X1.2915 Y2.0662
X1.2946 Y2.0633
X1.2976 Y2.0613
G3 X1.299 Y2.0616 I0.0006 J0.0008
G1 X1.2995 Y2.0624
X1.2999 Y2.063 Z0.0003
X1.3001 Y2.0632 Z0.001
X1.3264 Y2.102
X1.3266 Y2.1023 Z0.0003 F13.33
X1.327 Y2.1028 Z0
X1.3276 Y2.1037 F40
G3 X1.3273 Y2.105 I-0.0008 J0.0006
G1 X1.3259 Y2.106
G2 X1.3249 Y2.1069 I0.0028 J0.0041
G1 X1.3229 Y2.1092
G2 X1.3219 Y2.1113 I0.0038 J0.0032
G1 X1.3211 Y2.1143
G2 X1.321 Y2.1158 I0.0049 J0.0012
G1 X1.3213 Y2.1206
G2 X1.3214 Y2.1213 I0.005 J-0.0003
G1 X1.3224 Y2.1261
Y2.1264
X1.3237 Y2.1311
G2 X1.3301 Y2.1345 I0.0048 J-0.0013
G1 X1.3832 Y2.1167
G2 X1.3863 Y2.1101 I-0.0016 J-0.0047
G1 X1.3844 Y2.1052
X1.3842 Y2.1049
X1.382 Y2.1001
G2 X1.3818 Y2.0997 I-0.0045 J0.0021
G1 X1.3808 Y2.0979
X1.3806 Y2.0976
X1.3794 Y2.0959
G2 X1.3789 Y2.0952 I-0.0041 J0.0028
G1 X1.3775 Y2.0937
G2 X1.3761 Y2.0927 I-0.0036 J0.0034
G1 X1.3742 Y2.0918
G2 X1.3724 Y2.0913 I-0.0022 J0.0045
G1 X1.3696 Y2.0911
G2 X1.3687 I-0.0004 J0.005
G1 X1.366 Y2.0914
G2 X1.3655 I0.0005 J0.005
G1 X1.3628 Y2.092
G2 X1.3624 Y2.0921 I0.001 J0.0049
G1 X1.3561 Y2.0939
X1.3559 Y2.094
X1.3382 Y2.1
X1.3381
X1.3352 Y2.101
X1.3349 Y2.1011
X1.3321 Y2.1023
G2 X1.3317 Y2.1025 I0.0019 J0.0046
G1 X1.3289 Y2.104
G2 X1.3285 Y2.1043 I0.0023 J0.0044
G1 X1.3273 Y2.105
G3 X1.3259 Y2.1048 I-0.0006 J-0.0008
G1 X1.3253 Y2.104
X1.3249 Y2.1034 Z0.0003
X1.3248 Y2.1031 Z0.001
G0 Z0.2
X1.4088 Y2.1097
G1 Z0.0394 F13.33
Z0.001
X1.4089 Y2.1094 Z0.0003
X1.409 Y2.1087 Z0
X1.4092 Y2.1078 F40
G3 X1.4103 Y2.1069 I0.001 J0.0002
G2 X1.4128 Y2.1067 I0.0008 J-0.0049
G1 X1.455 Y2.0926
G2 X1.4581 Y2.0861 I-0.0016 J-0.0047
G1 X1.457 Y2.0832
Y2.0831
X1.4558 Y2.0801
X1.4557 Y2.0799
X1.4544 Y2.077
X1.4543 Y2.0767
X1.4528 Y2.0739
G2 X1.452 Y2.0728 I-0.0044 J0.0024
G1 X1.4498 Y2.0706
G2 X1.4483 Y2.0695 I-0.0036 J0.0035
G1 X1.4454 Y2.0682
G2 X1.444 Y2.0678 I-0.0021 J0.0045
G1 X1.4403 Y2.0673
G2 X1.439 I-0.0006 J0.005
G1 X1.4354 Y2.0678
G2 X1.4349 Y2.0679 I0.0006 J0.005
G1 X1.4313 Y2.0687
G2 X1.4309 Y2.0688 I0.0011 J0.0049
G1 X1.4274 Y2.07
X1.4272
X1.4218 Y2.0719
X1.4216 Y2.072
X1.4163 Y2.0741
X1.4159 Y2.0742
X1.4107 Y2.0767
G2 X1.4103 Y2.0769 I0.0022 J0.0045
G1 X1.4084 Y2.0781
G2 X1.4079 Y2.0785 I0.0026 J0.0042
G1 X1.4062 Y2.0799
G2 X1.4051 Y2.0812 I0.0032 J0.0038
G1 X1.404 Y2.0831
G2 X1.4034 Y2.0846 I0.0043 J0.0025
G1 X1.403 Y2.0867
G2 X1.4029 Y2.088 I0.0049 J0.001
G1 X1.4032 Y2.0923
G2 X1.4034 Y2.0933 I0.005 J-0.0003
G1 X1.4045 Y2.0975
X1.4046 Y2.0977
X1.4056 Y2.1009
X1.4064 Y2.1035
G2 X1.4103 Y2.1069 I0.0048 J-0.0015
G3 X1.4111 Y2.1081 I-0.0002 J0.001
G1 X1.411 Y2.1091
X1.4108 Y2.1098 Z0.0003
Y2.1101 Z0.001
G0 Z0.2
X1.3677 Y2.2474
G1 Z0.0394 F13.33
Z0.001
X1.3679 Y2.2471 Z0.0003
X1.3683 Y2.2465 Z0
X1.3688 Y2.2457 F40
G3 X1.3702 Y2.2454 I0.0008 J0.0005
G1 X1.4871 Y2.3204
X1.4561 Y2.3944
X1.2678 Y2.3475
X1.2884 Y2.2984
X1.3189 Y2.3078
G2 X1.325 Y2.3049 I0.0015 J-0.0048
G1 X1.3335 Y2.2846
G2 X1.3312 Y2.2783 I-0.0046 J-0.0019
G1 X1.303 Y2.2635
X1.3233 Y2.2153
X1.3702 Y2.2454
G3 X1.3705 Y2.2468 I-0.0005 J0.0008
G1 X1.37 Y2.2476
X1.3696 Y2.2482 Z0.0003
X1.3694 Y2.2485 Z0.001
X1.3609 Y2.2901
Y2.2904 Z0.0003 F13.33
X1.361 Y2.2911 Z0
X1.3612 Y2.2921 F40
G3 X1.3604 Y2.2932 I-0.001 J0.0002
G2 X1.3566 Y2.2962 I0.0008 J0.0049
G1 X1.3484 Y2.3156
G2 X1.3516 Y2.3223 I0.0046 J0.0019
G1 X1.3746 Y2.3291
X1.3747
X1.3978 Y2.3353
X1.3979
X1.4344 Y2.3444
G2 X1.438 Y2.3352 I0.0012 J-0.0049
G1 X1.417 Y2.3239
X1.3962 Y2.3124
X1.3799 Y2.3032
X1.3637 Y2.2938
G2 X1.3604 Y2.2932 I-0.0025 J0.0043
G3 X1.3592 Y2.2924 I-0.0002 J-0.001
G1 X1.3591 Y2.2914
X1.359 Y2.2907 Z0.0003
X1.3589 Y2.2904 Z0.001
G0 Z0.2
X1.2432 Y2.4048
G1 Z0.0394 F13.33
Z0.001
X1.2435 Z0.0003
X1.2442 Y2.4046 Z0
X1.2452 Y2.4043 F40
G3 X1.2464 Y2.405 I0.0003 J0.001
G2 X1.247 Y2.4063 I0.0048 J-0.0014
G1 X1.3308 Y2.5374
X1.2875 Y2.5651
X1.1847 Y2.4043
X1.2323 Y2.3739
X1.2595 Y2.3565
X1.2758 Y2.3819
X1.2485 Y2.3993
G2 X1.2464 Y2.405 I0.0027 J0.0042
G3 X1.2457 Y2.4062 I-0.001 J0.0003
G1 X1.2448 Y2.4065
X1.2441 Y2.4067 Z0.0003
X1.2438 Y2.4068 Z0.001
G0 Z0.2
X1.1509 Y2.4669
G1 Z0.0394 F13.33
Z0.001
X1.1512 Y2.467 Z0.0003
X1.1519 Y2.4671 Z0
X1.1529 Y2.4673 F40
G3 X1.1537 Y2.4685 I-0.0002 J0.001
G1 X1.1251 Y2.6039
X1.0447 Y2.6011
X1.0217 Y2.4092
X1.0749 Y2.4111
X1.077 Y2.4428
G2 X1.0819 Y2.4474 I0.005 J-0.0003
G1 X1.1039 Y2.4482
G2 X1.109 Y2.4438 I0.0002 J-0.005
G1 X1.1128 Y2.4124
X1.1651 Y2.4142
X1.1537 Y2.4685
G3 X1.1525 Y2.4693 I-0.001 J-0.0002
G1 X1.1515 Y2.4691
X1.1508 Y2.4689 Z0.0003
X1.1505 Z0.001
X1.1085 Y2.4756
X1.1082 Y2.4758 Z0.0003 F13.33
X1.1076 Y2.4761 Z0
X1.1068 Y2.4766 F40
G3 X1.1054 Y2.4762 I-0.0005 J-0.0009
G2 X1.1012 Y2.4738 I-0.0043 J0.0025
G1 X1.0802 Y2.473
G2 X1.0751 Y2.4784 I-0.0002 J0.005
G1 X1.0769 Y2.5022
Y2.5023
X1.0793 Y2.526
Y2.5261
X1.0838 Y2.5633
G2 X1.0937 Y2.5634 I0.005 J-0.0006
G1 X1.0969 Y2.5398
X1.1002 Y2.5164
X1.106 Y2.4795
G2 X1.1054 Y2.4762 I-0.0049 J-0.0008
G3 X1.1058 Y2.4749 I0.0009 J-0.0005
G1 X1.1066 Y2.4744
X1.1072 Y2.474 Z0.0003
X1.1075 Y2.4739 Z0.001
G0 Z0.2
X0.9188 Y2.4385
G1 Z0.0394 F13.33
Z0.001
X0.9191 Z0.0003
X0.9198 Z0
X0.9208 Y2.4386 F40
G3 X0.9218 Y2.4397 I-0.0001 J0.001
G2 X0.9237 Y2.4439 I0.005 J0.0003
G1 X0.95 Y2.4646
X0.9325 Y2.4868
X0.9062 Y2.4661
G2 X0.8992 Y2.467 I-0.0031 J0.0039
G1 X0.8755 Y2.497
G2 X0.8764 Y2.504 I0.0039 J0.0031
G1 X0.9047 Y2.5263
X0.886 Y2.5501
X0.8133 Y2.4928
X0.9315 Y2.3426
X1.0075 Y2.4024
X0.9888 Y2.4262
X0.9572 Y2.4013
G2 X0.9502 Y2.4022 I-0.0031 J0.0039
G1 X0.9228 Y2.4369
G2 X0.9218 Y2.4397 I0.0039 J0.0031
G3 X0.9207 Y2.4406 I-0.001 J-0.0001
G1 X0.9197 Y2.4405
X0.919 Z0.0003
X0.9187 Z0.001
G0 Z0.2
X0.9015 Y2.3031
G1 Z0.0394 F13.33
Z0.001
X0.9018 Y2.3032 Z0.0003
X0.9024 Y2.3033 Z0
X0.9034 Y2.3035 F40
G3 X0.9042 Y2.3047 I-0.0002 J0.001
G1 X0.9037 Y2.3072
X0.9022 Y2.3115
X0.9 Y2.3153
X0.8972 Y2.3185
X0.8937 Y2.3212
X0.8896 Y2.3234
X0.885 Y2.3253
X0.8802 Y2.327
X0.8704 Y2.3299
X0.8604 Y2.3325
X0.7921 Y2.3497
X0.7832 Y2.3519
X0.7744 Y2.3539
X0.7655 Y2.3556
X0.7569 Y2.3568
X0.7517
X0.7466 Y2.3557
X0.7417 Y2.3538
X0.7371 Y2.3511
X0.7331 Y2.3476
X0.7295 Y2.3436
X0.7249 Y2.3364
X0.7212 Y2.3286
X0.7181 Y2.3203
X0.7153 Y2.3118
X0.7127 Y2.3031
X0.7102 Y2.2943
X0.7079 Y2.2855
X0.7056 Y2.2766
X0.6956 Y2.2366
X0.8812 Y2.19
X0.895 Y2.2451
X0.899 Y2.2608
X0.9009 Y2.2689
X0.9027 Y2.277
X0.9041 Y2.2851
X0.905 Y2.2931
Y2.2979
X0.9046 Y2.3027
X0.9042 Y2.3047
G3 X0.903 Y2.3055 I-0.001 J-0.0002
G1 X0.902 Y2.3053
X0.9014 Y2.3051 Z0.0003
X0.9011 Z0.001
X0.866 Y2.279
X0.8658 Y2.2788 Z0.0003 F13.33
X0.8655 Y2.2782 Z0
X0.865 Y2.2773 F40
G3 X0.8654 Y2.2759 I0.0009 J-0.0005
G2 X0.8658 Y2.2757 I-0.0024 J-0.0044
G1 X0.868 Y2.2742
G2 X0.8692 Y2.2732 I-0.0027 J-0.0042
G1 X0.8708 Y2.2712
G2 X0.8717 Y2.2695 I-0.0039 J-0.0032
G1 X0.8725 Y2.267
G2 X0.8727 Y2.2659 I-0.0048 J-0.0015
G1 X0.873 Y2.2632
G2 Y2.2624 I-0.005 J-0.0004
G1 X0.8725 Y2.2571
G2 X0.8724 Y2.2565 I-0.005 J0.0004
G1 X0.8714 Y2.2513
G2 X0.8652 Y2.2474 I-0.0049 J0.001
G1 X0.7368 Y2.2797
G2 X0.7332 Y2.2859 I0.0012 J0.0048
G1 X0.7345 Y2.2906
X0.7346 Y2.291
X0.7363 Y2.2956
G2 X0.7366 Y2.2962 I0.0047 J-0.0017
G1 X0.7381 Y2.2991
G2 X0.7389 Y2.3002 I0.0044 J-0.0024
G1 X0.7412 Y2.3026
G2 X0.7427 Y2.3036 I0.0036 J-0.0035
G1 X0.7457 Y2.305
G2 X0.7474 Y2.3054 I0.0021 J-0.0046
G1 X0.7501 Y2.3056
G2 X0.751 I0.0004 J-0.005
G1 X0.7538 Y2.3053
X0.754
X0.7567 Y2.3048
X0.7569
X0.7596 Y2.3042
X0.7597
X0.7681 Y2.3022
X0.7682
X0.8441 Y2.2832
X0.8493 Y2.2818
X0.8494
X0.8546 Y2.2802
X0.8547
X0.8598 Y2.2785
G2 X0.8603 Y2.2783 I-0.0016 J-0.0047
G1 X0.8651 Y2.2761
X0.8654 Y2.2759
G3 X0.8668 Y2.2763 I0.0005 J0.0009
G1 X0.8673 Y2.2772
X0.8676 Y2.2778 Z0.0003
X0.8677 Y2.2781 Z0.001
G0 Z0.2
X0.8884 Y2.1274
G1 Z0.0394 F13.33
Z0.001
X0.8886 Y2.1275 Z0.0003
X0.8893 Y2.1278 Z0
X0.8903 Y2.1281 F40
G3 X0.8909 Y2.1293 I-0.0003 J0.0009
G1 X0.8826 Y2.1539
X0.7023 Y2.0929
X0.7189 Y2.0438
X0.8992 Y2.1048
X0.8909 Y2.1293
G3 X0.8896 Y2.13 I-0.0009 J-0.0003
G1 X0.8887 Y2.1296
X0.888 Y2.1294 Z0.0003
X0.8877 Y2.1293 Z0.001
G0 Z0.2
X1.0856 Y2.835
G1 Z0.0394 F13.33
Z0.001
X1.0855 Y2.8347 Z0.0003
X1.0853 Y2.834 Z0
X1.085 Y2.833 F40
G3 X1.0857 Y2.8318 I0.001 J-0.0003
X1.0932 Y2.8308 I0.0075 J0.027
G1 X1.1068
G3 X1.1314 Y2.8455 J0.028
G2 X1.0652 Y2.8579 I-0.0183 J0.0854
G3 X1.0857 Y2.8318 I0.028 J0.0009
X1.087 Y2.8325 I0.0003 J0.001
G1 X1.0872 Y2.8335
X1.0874 Y2.8341 Z0.0003
X1.0875 Y2.8344 Z0.001
G0 Z0.2
X1.1318 Y2.9127
G1 Z0.0394 F13.33
Z0.001
G18 G2 X1.1328 Z0 I0.001
G1 X1.1338 F40
G17 G3 X1.1348 Y2.9137 J0.001
G1 Y2.9155
G2 Y2.9159 I0.005
G1 X1.1353 Y2.9222
G2 X1.1355 Y2.923 I0.005 J-0.0004
G1 X1.1369 Y2.9287
G2 X1.1371 Y2.9294 I0.0048 J-0.0012
G1 X1.1392 Y2.9344
G2 X1.1395 Y2.935 I0.0046 J-0.0019
G1 X1.1421 Y2.9396
X1.1423 Y2.94
X1.1453 Y2.9444
X1.1454 Y2.9446
X1.1485 Y2.9489
X1.1517 Y2.9533
X1.1547 Y2.9576
X1.1584 Y2.9631
X1.1616 Y2.9688
X1.1643 Y2.9748
X1.1665 Y2.9813
X1.1679 Y2.9887
X1.168 Y2.989
G3 X1.032 Y3.0226 I-0.068 J0.0168
Y2.989 I0.068 J-0.0168
G1 X1.0321 Y2.9888
X1.0337 Y2.9809
X1.036 Y2.9741
X1.039 Y2.9678
X1.0425 Y2.9618
X1.0464 Y2.956
X1.0506 Y2.9502
X1.0539 Y2.9456
X1.054 Y2.9455
X1.0571 Y2.9409
X1.0573 Y2.9406
X1.0601 Y2.9357
G2 X1.0604 Y2.9352 I-0.0043 J-0.0025
G1 X1.0627 Y2.9299
G2 X1.0629 Y2.9292 I-0.0046 J-0.002
G1 X1.0645 Y2.9234
G2 X1.0646 Y2.9225 I-0.0048 J-0.0013
G1 X1.0652 Y2.9159
G2 Y2.9155 I-0.005 J-0.0004
G1 Y2.9002
G3 X1.1348 Y2.8866 I0.048 J0.0607
G1 Y2.9137
G3 X1.1338 Y2.9147 I-0.001
G1 X1.1328
G18 G3 X1.1318 Z0.001 K0.001
G0 Z0.2
X1.2074 Y3.0087
G1 Z0.0394 F13.33
Z0.001
X1.2075 Y3.0084 Z0.0003
X1.2076 Y3.0077 Z0
X1.2078 Y3.0067 F40
G17 G3 X1.209 Y3.0059 I0.001 J0.0002
G1 X1.2483 Y3.0133
G3 X1.2491 Y3.0145 I-0.0002 J0.001
G1 X1.2489 Y3.0154
X1.2488 Y3.0161 Z0.0003
X1.2487 Y3.0164 Z0.001
G0 Z0.2
X1.1835 Y3.0739
G1 Z0.0394 F13.33
Z0.001
X1.1837 Y3.0737 Z0.0003
X1.1842 Y3.0732 Z0
X1.185 Y3.0725 F40
G3 X1.1864 Y3.0726 I0.0007 J0.0007
G1 X1.2142 Y3.1013
G3 Y3.1027 I-0.0007 J0.0007
G1 X1.2135 Y3.1034
X1.213 Y3.1039 Z0.0003
X1.2127 Y3.1041 Z0.001
G0 Z0.2
X1.1293 Y3.0501
G1 Z0.0394 F13.33
Z0.001
X1.1292 Y3.0503 Z0.0003
X1.1291 Y3.051 Z0
X1.1288 Y3.052 F40
G3 X1.1276 Y3.0527 I-0.001 J-0.0003
G1 X1.117 Y3.0499
X1.1076 Y3.0472
X1.0995 Y3.0446
X1.0925 Y3.0421
X1.0866 Y3.0397
X1.0817 Y3.0375
X1.0779 Y3.0354
X1.0751 Y3.0334
X1.0733 Y3.0318
X1.0723 Y3.0305
X1.072 Y3.0297
X1.0719 Y3.0293
X1.0722 Y3.0284
X1.0731 Y3.027
X1.0749 Y3.0251
X1.0776 Y3.0231
X1.0823 Y3.0201
X1.088 Y3.0171
X1.0943 Y3.014
X1.1011 Y3.0108
X1.108 Y3.0075
X1.1081
X1.1148 Y3.0041
X1.115 Y3.004
X1.1212 Y3.0006
X1.1215 Y3.0004
X1.1271 Y2.9968
G2 X1.1275 Y2.9965 I-0.0027 J-0.0042
G1 X1.1322 Y2.9928
G2 X1.1327 Y2.9923 I-0.0031 J-0.0039
G1 X1.1352 Y2.9897
G2 X1.1357 Y2.9891 I-0.0036 J-0.0034
G1 X1.1375 Y2.9864
G2 X1.138 Y2.9855 I-0.0041 J-0.0029
G1 X1.1392 Y2.9828
G2 X1.1396 Y2.9816 I-0.0046 J-0.002
G1 X1.14 Y2.9787
G2 Y2.9773 I-0.0049 J-0.0008
G1 X1.1397 Y2.9743
G2 X1.1393 Y2.973 I-0.005 J0.0006
G1 X1.1381 Y2.9699
G2 X1.1376 Y2.969 I-0.0046 J0.0019
G1 X1.1356 Y2.9661
G2 X1.1352 Y2.9655 I-0.0041 J0.0028
G1 X1.1324 Y2.9625
G2 X1.1319 Y2.9621 I-0.0037 J0.0034
G1 X1.1283 Y2.959
G2 X1.1279 Y2.9587 I-0.0032 J0.0038
G1 X1.1233 Y2.9555
X1.123 Y2.9553
X1.1174 Y2.9519
X1.1172 Y2.9518
X1.1107 Y2.9484
X1.1104 Y2.9483
X1.1029 Y2.9448
X1.1027 Y2.9447
X1.094 Y2.941
X1.0939
X1.0841 Y2.9372
G3 X1.0835 Y2.9359 I0.0004 J-0.0009
G1 X1.0838 Y2.9349
X1.0841 Y2.9343 Z0.0003
X1.0842 Y2.934 Z0.001
G0 Z0.2
X0.9896 Y2.993
G1 Z0.0394 F13.33
Z0.001
X0.9897 Y2.9932 Z0.0003
X0.9898 Y2.9939 Z0
X0.99 Y2.9949 F40
G3 X0.9892 Y2.9961 I-0.001 J0.0002
G1 X0.9499 Y3.0035
G3 X0.9487 Y3.0027 I-0.0002 J-0.001
G1 X0.9485 Y3.0017
X0.9484 Y3.001 Z0.0003
X0.9483 Y3.0007 Z0.001
G0 Z0.2
X1.005 Y3.0628
G1 Z0.0394 F13.33
Z0.001
X1.0052 Y3.063 Z0.0003
X1.0057 Y3.0635 Z0
X1.0064 Y3.0642 F40
G3 Y3.0656 I-0.0007 J0.0007
G1 X0.9786 Y3.0943
G3 X0.9772 Y3.0944 I-0.0007 J-0.0007
G1 X0.9765 Y3.0937
X0.976 Y3.0932 Z0.0003
X0.9758 Y3.093 Z0.001
G0 Z0.2
X1.092 Y3.1148
G1 Z0.0394 F13.33
Z0.001
G18 G2 X1.093 Z0 I0.001
G1 X1.094 F40
G17 G3 X1.095 Y3.1158 J0.001
G1 Y3.1558
G3 X1.094 Y3.1568 I-0.001
G1 X1.093
G18 G3 X1.092 Z0.001 K0.001
G0 Z0.2
X1.2984 Y3.1643
G1 Z0.0394 F13.33
Z0.001
X1.2983 Y3.1641 Z0.0003
X1.2979 Y3.1635 Z0
X1.2973 Y3.1627 F40
G17 G3 X1.2976 Y3.1613 I0.0008 J-0.0006
G1 X1.2994 Y3.1601
X1.3046 Y3.1573
X1.3102 Y3.1549
X1.3161 Y3.1528
X1.3336 Y3.1469
X1.339 Y3.1453
X1.3443 Y3.1441
X1.3496 Y3.1435
X1.3547 Y3.1436
X1.3594 Y3.1445
X1.3637 Y3.1466
X1.3674 Y3.1494
X1.3709 Y3.1529
X1.3741 Y3.1569
X1.377 Y3.1612
X1.3798 Y3.1659
G2 X1.389 Y3.1627 I0.0043 J-0.0026
G1 X1.3885 Y3.1586
X1.3882 Y3.1545
X1.3881 Y3.1504
X1.3883 Y3.1465
X1.3888 Y3.1428
X1.3897 Y3.1395
X1.3911 Y3.1367
X1.3936 Y3.134
X1.3968 Y3.1316
X1.4005 Y3.1296
X1.4045 Y3.1278
X1.4086 Y3.1263
X1.4151 Y3.1243
X1.4216 Y3.1227
X1.4282 Y3.1217
X1.4346 Y3.1214
X1.4407 Y3.1221
X1.4465 Y3.124
X1.452 Y3.127
X1.4569 Y3.1308
X1.4618 Y3.1361
X1.4659 Y3.1423
X1.4695 Y3.1491
X1.4727 Y3.1563
X1.4757 Y3.1636
X1.4785 Y3.1711
X1.4811 Y3.1786
X1.4992 Y3.2322
X1.3189 Y3.2929
X1.2977 Y3.23
X1.2955 Y3.223
X1.2932 Y3.2161
X1.2911 Y3.2091
X1.2892 Y3.2022
X1.2875 Y3.1952
X1.2862 Y3.1884
X1.2857 Y3.1818
X1.2861 Y3.1775
X1.2871 Y3.1734
X1.289 Y3.1696
X1.2915 Y3.1662
X1.2946 Y3.1633
X1.2976 Y3.1613
G3 X1.299 Y3.1616 I0.0006 J0.0008
G1 X1.2995 Y3.1624
X1.2999 Y3.163 Z0.0003
X1.3001 Y3.1632 Z0.001
X1.3264 Y3.202
X1.3266 Y3.2023 Z0.0003 F13.33
X1.327 Y3.2028 Z0
X1.3276 Y3.2037 F40
G3 X1.3273 Y3.205 I-0.0008 J0.0006
G1 X1.3259 Y3.206
G2 X1.3249 Y3.2069 I0.0028 J0.0041
G1 X1.3229 Y3.2092
G2 X1.3219 Y3.2113 I0.0038 J0.0032
G1 X1.3211 Y3.2143
G2 X1.321 Y3.2158 I0.0049 J0.0012
G1 X1.3213 Y3.2206
G2 X1.3214 Y3.2213 I0.005 J-0.0003
G1 X1.3224 Y3.2261
Y3.2264
X1.3237 Y3.2311
G2 X1.3301 Y3.2345 I0.0048 J-0.0013
G1 X1.3832 Y3.2167
G2 X1.3863 Y3.2101 I-0.0016 J-0.0047
G1 X1.3844 Y3.2052
X1.3842 Y3.2049
X1.382 Y3.2001
G2 X1.3818 Y3.1997 I-0.0045 J0.0021
G1 X1.3808 Y3.1979
X1.3806 Y3.1976
X1.3794 Y3.1959
G2 X1.3789 Y3.1952 I-0.0041 J0.0028
G1 X1.3775 Y3.1937
G2 X1.3761 Y3.1927 I-0.0036 J0.0034
G1 X1.3742 Y3.1918
G2 X1.3724 Y3.1913 I-0.0022 J0.0045
G1 X1.3696 Y3.1911
G2 X1.3687 I-0.0004 J0.005
G1 X1.366 Y3.1914
G2 X1.3655 I0.0005 J0.005
G1 X1.3628 Y3.192
G2 X1.3624 Y3.1921 I0.001 J0.0049
G1 X1.3561 Y3.1939
X1.3559 Y3.194
X1.3382 Y3.2
X1.3381
X1.3352 Y3.201
X1.3349 Y3.2011
X1.3321 Y3.2023
G2 X1.3317 Y3.2025 I0.0019 J0.0046
G1 X1.3289 Y3.204
G2 X1.3285 Y3.2043 I0.0023 J0.0044
G1 X1.3273 Y3.205
G3 X1.3259 Y3.2048 I-0.0006 J-0.0008
G1 X1.3253 Y3.204
X1.3249 Y3.2034 Z0.0003
X1.3248 Y3.2031 Z0.001
G0 Z0.2
X1.4088 Y3.2097
G1 Z0.0394 F13.33
Z0.001
X1.4089 Y3.2094 Z0.0003
X1.409 Y3.2087 Z0
X1.4092 Y3.2078 F40
G3 X1.4103 Y3.2069 I0.001 J0.0002
G2 X1.4128 Y3.2067 I0.0008 J-0.0049
G1 X1.455 Y3.1926
G2 X1.4581 Y3.1861 I-0.0016 J-0.0047
G1 X1.457 Y3.1832
Y3.1831
X1.4558 Y3.1801
X1.4557 Y3.1799
X1.4544 Y3.177
X1.4543 Y3.1767
X1.4528 Y3.1739
G2 X1.452 Y3.1728 I-0.0044 J0.0024
G1 X1.4498 Y3.1706
G2 X1.4483 Y3.1695 I-0.0036 J0.0035
G1 X1.4454 Y3.1682
G2 X1.444 Y3.1678 I-0.0021 J0.0045
G1 X1.4403 Y3.1673
G2 X1.439 I-0.0006 J0.005
G1 X1.4354 Y3.1678
G2 X1.4349 Y3.1679 I0.0006 J0.005
G1 X1.4313 Y3.1687
G2 X1.4309 Y3.1688 I0.0011 J0.0049
G1 X1.4274 Y3.17
X1.4272
X1.4218 Y3.1719
X1.4216 Y3.172
X1.4163 Y3.1741
X1.4159 Y3.1742
X1.4107 Y3.1767
G2 X1.4103 Y3.1769 I0.0022 J0.0045
G1 X1.4084 Y3.1781
G2 X1.4079 Y3.1785 I0.0026 J0.0042
G1 X1.4062 Y3.1799
G2 X1.4051 Y3.1812 I0.0032 J0.0038
G1 X1.404 Y3.1831
G2 X1.4034 Y3.1846 I0.0043 J0.0025
G1 X1.403 Y3.1867
G2 X1.4029 Y3.188 I0.0049 J0.001
G1 X1.4032 Y3.1923
G2 X1.4034 Y3.1933 I0.005 J-0.0003
G1 X1.4045 Y3.1975
X1.4046 Y3.1977
X1.4056 Y3.2009
X1.4064 Y3.2035
G2 X1.4103 Y3.2069 I0.0048 J-0.0015
G3 X1.4111 Y3.2081 I-0.0002 J0.001
G1 X1.411 Y3.2091
X1.4108 Y3.2098 Z0.0003
Y3.2101 Z0.001
G0 Z0.2
X1.3677 Y3.3474
G1 Z0.0394 F13.33
Z0.001
X1.3679 Y3.3471 Z0.0003
X1.3683 Y3.3465 Z0
X1.3688 Y3.3457 F40
G3 X1.3702 Y3.3454 I0.0008 J0.0005
G1 X1.4871 Y3.4204
X1.4561 Y3.4944
X1.2678 Y3.4475
X1.2884 Y3.3984
X1.3189 Y3.4078
G2 X1.325 Y3.4049 I0.0015 J-0.0048
G1 X1.3335 Y3.3846
G2 X1.3312 Y3.3783 I-0.0046 J-0.0019
G1 X1.303 Y3.3635
X1.3233 Y3.3153
X1.3579 Y3.3375
X1.3702 Y3.3454
G3 X1.3705 Y3.3468 I-0.0005 J0.0008
G1 X1.37 Y3.3476
X1.3696 Y3.3482 Z0.0003
X1.3694 Y3.3485 Z0.001
X1.3609 Y3.3901
Y3.3904 Z0.0003 F13.33
X1.361 Y3.3911 Z0
X1.3612 Y3.3921 F40
G3 X1.3604 Y3.3932 I-0.001 J0.0002
G2 X1.3566 Y3.3962 I0.0008 J0.0049
G1 X1.3484 Y3.4156
G2 X1.3516 Y3.4223 I0.0046 J0.0019
G1 X1.3746 Y3.4291
X1.3747
X1.3978 Y3.4353
X1.3979
X1.4344 Y3.4444
G2 X1.438 Y3.4352 I0.0012 J-0.0049
G1 X1.417 Y3.4239
X1.3962 Y3.4124
X1.3799 Y3.4032
X1.3637 Y3.3938
G2 X1.3604 Y3.3932 I-0.0025 J0.0043
G3 X1.3592 Y3.3924 I-0.0002 J-0.001
G1 X1.3591 Y3.3914
X1.359 Y3.3907 Z0.0003
X1.3589 Y3.3904 Z0.001
G0 Z0.2
X1.2432 Y3.5048
G1 Z0.0394 F13.33
Z0.001
X1.2435 Z0.0003
X1.2442 Y3.5046 Z0
X1.2452 Y3.5043 F40
G3 X1.2464 Y3.505 I0.0003 J0.001
G2 X1.247 Y3.5063 I0.0048 J-0.0014
G1 X1.3308 Y3.6374
X1.2875 Y3.6651
X1.1847 Y3.5043
X1.2595 Y3.4565
X1.2758 Y3.4819
X1.2485 Y3.4993
G2 X1.2464 Y3.505 I0.0027 J0.0042
G3 X1.2457 Y3.5062 I-0.001 J0.0003
G1 X1.2448 Y3.5065
X1.2441 Y3.5067 Z0.0003
X1.2438 Y3.5068 Z0.001
G0 Z0.2
X1.1509 Y3.5669
G1 Z0.0394 F13.33
Z0.001
X1.1512 Y3.567 Z0.0003
X1.1519 Y3.5671 Z0
X1.1529 Y3.5673 F40
G3 X1.1537 Y3.5685 I-0.0002 J0.001
G1 X1.1251 Y3.7039
X1.0447 Y3.7011
X1.0217 Y3.5092
X1.0749 Y3.5111
X1.077 Y3.5428
G2 X1.0819 Y3.5474 I0.005 J-0.0003
G1 X1.1039 Y3.5482
G2 X1.109 Y3.5438 I0.0002 J-0.005
G1 X1.1128 Y3.5124
X1.1651 Y3.5142
X1.1537 Y3.5685
G3 X1.1525 Y3.5693 I-0.001 J-0.0002
G1 X1.1515 Y3.5691
X1.1508 Y3.5689 Z0.0003
X1.1505 Z0.001
X1.1085 Y3.5756
X1.1082 Y3.5758 Z0.0003 F13.33
X1.1076 Y3.5761 Z0
X1.1068 Y3.5766 F40
G3 X1.1054 Y3.5762 I-0.0005 J-0.0009
G2 X1.1012 Y3.5738 I-0.0043 J0.0025
G1 X1.0802 Y3.573
G2 X1.0751 Y3.5784 I-0.0002 J0.005
G1 X1.0769 Y3.6022
Y3.6023
X1.0793 Y3.626
Y3.6261
X1.0838 Y3.6633
G2 X1.0937 Y3.6634 I0.005 J-0.0006
G1 X1.0969 Y3.6398
X1.1002 Y3.6164
X1.106 Y3.5795
G2 X1.1054 Y3.5762 I-0.0049 J-0.0008
G3 X1.1058 Y3.5749 I0.0009 J-0.0005
G1 X1.1066 Y3.5744
X1.1072 Y3.574 Z0.0003
X1.1075 Y3.5739 Z0.001
G0 Z0.2
X0.9188 Y3.5385
G1 Z0.0394 F13.33
Z0.001
X0.9191 Z0.0003
X0.9198 Z0
X0.9208 Y3.5386 F40
G3 X0.9218 Y3.5397 I-0.0001 J0.001
G2 X0.9237 Y3.5439 I0.005 J0.0003
G1 X0.95 Y3.5646
X0.9325 Y3.5868
X0.9062 Y3.5661
G2 X0.8992 Y3.567 I-0.0031 J0.0039
G1 X0.8755 Y3.597
G2 X0.8764 Y3.604 I0.0039 J0.0031
G1 X0.9047 Y3.6263
X0.886 Y3.6501
X0.8133 Y3.5928
X0.9315 Y3.4426
X1.0075 Y3.5024
X0.9888 Y3.5262
X0.9572 Y3.5013
G2 X0.9502 Y3.5022 I-0.0031 J0.0039
G1 X0.9228 Y3.5369
G2 X0.9218 Y3.5397 I0.0039 J0.0031
G3 X0.9207 Y3.5406 I-0.001 J-0.0001
G1 X0.9197 Y3.5405
X0.919 Z0.0003
X0.9187 Z0.001
G0 Z0.2
X0.9015 Y3.4031
G1 Z0.0394 F13.33
Z0.001
X0.9018 Y3.4032 Z0.0003
X0.9024 Y3.4033 Z0
X0.9034 Y3.4035 F40
G3 X0.9042 Y3.4047 I-0.0002 J0.001
G1 X0.9037 Y3.4072
X0.9022 Y3.4115
X0.9 Y3.4153
X0.8972 Y3.4185
X0.8937 Y3.4212
X0.8896 Y3.4234
X0.885 Y3.4253
X0.8802 Y3.427
X0.8704 Y3.4299
X0.8604 Y3.4325
X0.7921 Y3.4497
X0.7832 Y3.4519
X0.7744 Y3.4539
X0.7655 Y3.4556
X0.7569 Y3.4568
X0.7517
X0.7466 Y3.4557
X0.7417 Y3.4538
X0.7371 Y3.4511
X0.7331 Y3.4476
X0.7295 Y3.4436
X0.7249 Y3.4364
X0.7212 Y3.4286
X0.7181 Y3.4203
X0.7153 Y3.4118
X0.7127 Y3.4031
X0.7102 Y3.3943
X0.7079 Y3.3855
X0.7056 Y3.3766
X0.6956 Y3.3366
X0.8812 Y3.29
X0.899 Y3.3608
X0.9009 Y3.3689
X0.9027 Y3.377
X0.9041 Y3.3851
X0.905 Y3.3931
Y3.3979
X0.9046 Y3.4027
X0.9042 Y3.4047
G3 X0.903 Y3.4055 I-0.001 J-0.0002
G1 X0.902 Y3.4053
X0.9014 Y3.4051 Z0.0003
X0.9011 Z0.001
X0.866 Y3.379
X0.8658 Y3.3788 Z0.0003 F13.33
X0.8655 Y3.3782 Z0
X0.865 Y3.3773 F40
G3 X0.8654 Y3.3759 I0.0009 J-0.0005
G2 X0.8658 Y3.3757 I-0.0024 J-0.0044
G1 X0.868 Y3.3742
G2 X0.8692 Y3.3732 I-0.0027 J-0.0042
G1 X0.8708 Y3.3712
G2 X0.8717 Y3.3695 I-0.0039 J-0.0032
G1 X0.8725 Y3.367
G2 X0.8727 Y3.3659 I-0.0048 J-0.0015
G1 X0.873 Y3.3632
G2 Y3.3624 I-0.005 J-0.0004
G1 X0.8725 Y3.3571
G2 X0.8724 Y3.3565 I-0.005 J0.0004
G1 X0.8714 Y3.3513
G2 X0.8652 Y3.3474 I-0.0049 J0.001
G1 X0.7368 Y3.3797
G2 X0.7332 Y3.3859 I0.0012 J0.0048
G1 X0.7345 Y3.3906
X0.7346 Y3.391
X0.7363 Y3.3956
G2 X0.7366 Y3.3962 I0.0047 J-0.0017
G1 X0.7381 Y3.3991
G2 X0.7389 Y3.4002 I0.0044 J-0.0024
G1 X0.7412 Y3.4026
G2 X0.7427 Y3.4036 I0.0036 J-0.0035
G1 X0.7457 Y3.405
G2 X0.7474 Y3.4054 I0.0021 J-0.0046
G1 X0.7501 Y3.4056
G2 X0.751 I0.0004 J-0.005
G1 X0.7538 Y3.4053
X0.754
X0.7567 Y3.4048
X0.7569
X0.7596 Y3.4042
X0.7597
X0.7681 Y3.4022
X0.7682
X0.8441 Y3.3832
X0.8493 Y3.3818
X0.8494
X0.8546 Y3.3802
X0.8547
X0.8598 Y3.3785
G2 X0.8603 Y3.3783 I-0.0016 J-0.0047
G1 X0.8651 Y3.3761
X0.8654 Y3.3759
G3 X0.8668 Y3.3763 I0.0005 J0.0009
G1 X0.8673 Y3.3772
X0.8676 Y3.3778 Z0.0003
X0.8677 Y3.3781 Z0.001
G0 Z0.2
X0.7415 Y3.1546
G1 Z0.0394 F13.33
Z0.001
X0.7416 Y3.1544 Z0.0003
X0.7418 Y3.1537 Z0
X0.7422 Y3.1527 F40
G3 X0.7434 Y3.1521 I0.0009 J0.0003
G1 X0.8992 Y3.2048
X0.8826 Y3.2539
X0.7023 Y3.1929
X0.7189 Y3.1438
X0.7434 Y3.1521
G3 X0.7441 Y3.1534 I-0.0003 J0.0009
G1 X0.7437 Y3.1543
X0.7435 Y3.155 Z0.0003
X0.7434 Y3.1553 Z0.001
G0 Z0.2
X0.3221 Y3.1257
G1 Z0.0394 F13.33
Z0.001
X0.322 Y3.1254 Z0.0003
X0.3219 Y3.1247 Z0
X0.3218 Y3.1237 F40
G3 X0.3226 Y3.1226 I0.001 J-0.0002
G1 X0.3282 Y3.1217
X0.3346 Y3.1214
X0.3407 Y3.1221
X0.3465 Y3.124
X0.352 Y3.127
X0.3569 Y3.1308
X0.3618 Y3.1361
X0.3659 Y3.1423
X0.3695 Y3.1491
X0.3727 Y3.1563
X0.3757 Y3.1636
X0.3785 Y3.1711
X0.3811 Y3.1786
X0.3992 Y3.2322
X0.2189 Y3.2929
X0.1977 Y3.23
X0.1955 Y3.223
X0.1932 Y3.2161
X0.1911 Y3.2091
X0.1892 Y3.2022
X0.1875 Y3.1952
X0.1862 Y3.1884
X0.1857 Y3.1818
X0.1861 Y3.1775
X0.1871 Y3.1734
X0.189 Y3.1696
X0.1914 Y3.1662
X0.1946 Y3.1633
X0.1994 Y3.1601
X0.2046 Y3.1573
X0.2103 Y3.1549
X0.2161 Y3.1528
X0.2336 Y3.1469
X0.239 Y3.1453
X0.2443 Y3.1441
X0.2496 Y3.1435
X0.2547 Y3.1436
X0.2594 Y3.1445
X0.2637 Y3.1466
X0.2674 Y3.1494
X0.2709 Y3.1529
X0.2741 Y3.1569
X0.277 Y3.1612
X0.2798 Y3.1659
G2 X0.289 Y3.1627 I0.0043 J-0.0026
G1 X0.2885 Y3.1586
X0.2882 Y3.1545
X0.2881 Y3.1504
X0.2883 Y3.1465
X0.2888 Y3.1428
X0.2897 Y3.1395
X0.2911 Y3.1367
X0.2936 Y3.134
X0.2968 Y3.1316
X0.3005 Y3.1296
X0.3045 Y3.1278
X0.3086 Y3.1263
X0.3151 Y3.1243
X0.3203 Y3.123
X0.3216 Y3.1227
X0.3226 Y3.1226
G3 X0.3237 Y3.1234 I0.0002 J0.001
G1 X0.3239 Y3.1244
X0.324 Y3.1251 Z0.0003
X0.3241 Y3.1254 Z0.001
X0.331 Y3.1657
Y3.166 Z0.0003 F13.33
X0.3313 Y3.1666 Z0
X0.3316 Y3.1676 F40
G3 X0.3309 Y3.1688 I-0.001 J0.0003
G1 X0.3274 Y3.17
X0.3272
X0.3218 Y3.1719
X0.3216 Y3.172
X0.3163 Y3.1741
X0.3159 Y3.1742
X0.3107 Y3.1767
G2 X0.3103 Y3.1769 I0.0022 J0.0045
G1 X0.3084 Y3.1781
G2 X0.3079 Y3.1785 I0.0026 J0.0042
G1 X0.3062 Y3.1799
G2 X0.3051 Y3.1812 I0.0032 J0.0038
G1 X0.304 Y3.1831
G2 X0.3034 Y3.1846 I0.0043 J0.0025
G1 X0.303 Y3.1867
G2 X0.3029 Y3.188 I0.0049 J0.001
G1 X0.3032 Y3.1923
G2 X0.3034 Y3.1933 I0.005 J-0.0003
G1 X0.3045 Y3.1975
X0.3046 Y3.1977
X0.3056 Y3.2009
X0.3064 Y3.2035
G2 X0.3128 Y3.2067 I0.0048 J-0.0015
G1 X0.355 Y3.1926
G2 X0.3581 Y3.1861 I-0.0016 J-0.0047
G1 X0.357 Y3.1832
Y3.1831
X0.3558 Y3.1801
X0.3557 Y3.1799
X0.3544 Y3.177
X0.3543 Y3.1767
X0.3528 Y3.1739
G2 X0.352 Y3.1728 I-0.0044 J0.0024
G1 X0.3498 Y3.1706
G2 X0.3483 Y3.1695 I-0.0036 J0.0035
G1 X0.3454 Y3.1682
G2 X0.344 Y3.1678 I-0.0021 J0.0045
G1 X0.3403 Y3.1673
G2 X0.339 I-0.0006 J0.005
G1 X0.3354 Y3.1678
G2 X0.3349 Y3.1679 I0.0006 J0.005
G1 X0.3313 Y3.1687
G2 X0.3309 Y3.1688 I0.0011 J0.0049
G3 X0.3296 Y3.1682 I-0.0003 J-0.001
G1 X0.3293 Y3.1672
X0.3291 Y3.1666 Z0.0003
X0.329 Y3.1663 Z0.001
X0.2803 Y3.1923
X0.2801 Y3.1925 Z0.0003 F13.33
X0.2795 Y3.193 Z0
X0.2788 Y3.1937 F40
G3 X0.2774 I-0.0007 J-0.0007
G2 X0.2761 Y3.1927 I-0.0036 J0.0035
G1 X0.2742 Y3.1918
G2 X0.2724 Y3.1913 I-0.0022 J0.0045
G1 X0.2696 Y3.1911
G2 X0.2687 I-0.0004 J0.005
G1 X0.266 Y3.1914
G2 X0.2655 I0.0005 J0.005
G1 X0.2628 Y3.192
G2 X0.2624 Y3.1921 I0.001 J0.0049
G1 X0.2561 Y3.1939
X0.2559 Y3.194
X0.2382 Y3.2
X0.2381
X0.2352 Y3.201
X0.2349 Y3.2011
X0.2321 Y3.2023
G2 X0.2317 Y3.2025 I0.0019 J0.0046
G1 X0.2289 Y3.204
G2 X0.2284 Y3.2043 I0.0023 J0.0044
G1 X0.2259 Y3.206
G2 X0.2249 Y3.2069 I0.0028 J0.0041
G1 X0.2229 Y3.2092
G2 X0.2219 Y3.2113 I0.0038 J0.0032
G1 X0.2211 Y3.2143
G2 X0.221 Y3.2158 I0.0049 J0.0012
G1 X0.2213 Y3.2206
G2 X0.2214 Y3.2213 I0.005 J-0.0003
G1 X0.2224 Y3.2261
Y3.2264
X0.2237 Y3.2311
G2 X0.2301 Y3.2345 I0.0048 J-0.0013
G1 X0.2832 Y3.2167
G2 X0.2863 Y3.2101 I-0.0016 J-0.0047
G1 X0.2844 Y3.2052
X0.2842 Y3.2049
X0.282 Y3.2001
G2 X0.2818 Y3.1997 I-0.0045 J0.0021
G1 X0.2808 Y3.1979
X0.2806 Y3.1976
X0.2794 Y3.1959
G2 X0.2789 Y3.1952 I-0.0041 J0.0028
G1 X0.2775 Y3.1937
X0.2774
G3 Y3.1923 I0.0007 J-0.0007
G1 X0.2781 Y3.1916
X0.2787 Y3.1911 Z0.0003
X0.2789 Y3.1909 Z0.001
G0 Z0.2
X0.2677 Y3.3474
G1 Z0.0394 F13.33
Z0.001
X0.2679 Y3.3471 Z0.0003
X0.2683 Y3.3465 Z0
X0.2688 Y3.3457 F40
G3 X0.2702 Y3.3454 I0.0008 J0.0005
G1 X0.3871 Y3.4204
X0.3561 Y3.4944
X0.1678 Y3.4475
X0.1884 Y3.3984
X0.2189 Y3.4078
G2 X0.225 Y3.4049 I0.0015 J-0.0048
G1 X0.2335 Y3.3846
G2 X0.2312 Y3.3783 I-0.0046 J-0.0019
G1 X0.203 Y3.3635
X0.2233 Y3.3153
X0.2702 Y3.3454
G3 X0.2705 Y3.3468 I-0.0005 J0.0008
G1 X0.27 Y3.3476
X0.2696 Y3.3482 Z0.0003
X0.2694 Y3.3485 Z0.001
X0.2609 Y3.3901
Y3.3904 Z0.0003 F13.33
X0.261 Y3.3911 Z0
X0.2612 Y3.3921 F40
G3 X0.2604 Y3.3932 I-0.001 J0.0002
G2 X0.2566 Y3.3962 I0.0008 J0.0049
G1 X0.2484 Y3.4156
G2 X0.2516 Y3.4223 I0.0046 J0.0019
G1 X0.2746 Y3.4291
X0.2747
X0.2978 Y3.4353
X0.2979
X0.3344 Y3.4444
G2 X0.338 Y3.4352 I0.0012 J-0.0049
G1 X0.317 Y3.4239
X0.2962 Y3.4124
X0.2799 Y3.4032
X0.2637 Y3.3938
G2 X0.2604 Y3.3932 I-0.0025 J0.0043
G3 X0.2592 Y3.3924 I-0.0002 J-0.001
G1 X0.2591 Y3.3914
X0.259 Y3.3907 Z0.0003
X0.2589 Y3.3904 Z0.001
G0 Z0.2
X0.1432 Y3.5048
G1 Z0.0394 F13.33
Z0.001
X0.1435 Z0.0003
X0.1442 Y3.5046 Z0
X0.1452 Y3.5043 F40
G3 X0.1464 Y3.505 I0.0003 J0.001
G2 X0.147 Y3.5063 I0.0048 J-0.0014
G1 X0.2308 Y3.6374
X0.1875 Y3.6651
X0.0847 Y3.5043
X0.1323 Y3.4739
X0.1595 Y3.4565
X0.1758 Y3.4819
X0.1485 Y3.4993
G2 X0.1464 Y3.505 I0.0027 J0.0042
G3 X0.1457 Y3.5062 I-0.001 J0.0003
G1 X0.1448 Y3.5065
X0.1441 Y3.5067 Z0.0003
X0.1438 Y3.5068 Z0.001
G0 Z0.2
X0.0509 Y3.5669
G1 Z0.0394 F13.33
Z0.001
X0.0512 Y3.567 Z0.0003
X0.0519 Y3.5671 Z0
X0.0529 Y3.5673 F40
G3 X0.0537 Y3.5685 I-0.0002 J0.001
G1 X0.0251 Y3.7039
X-0.0553 Y3.7011
X-0.0783 Y3.5092
X-0.0251 Y3.5111
X-0.023 Y3.5428
G2 X-0.0181 Y3.5474 I0.005 J-0.0003
G1 X0.0021 Y3.5481
X0.0039 Y3.5482
G2 X0.009 Y3.5438 I0.0002 J-0.005
G1 X0.0128 Y3.5124
X0.0651 Y3.5142
X0.0537 Y3.5685
G3 X0.0525 Y3.5693 I-0.001 J-0.0002
G1 X0.0515 Y3.5691
X0.0508 Y3.5689 Z0.0003
X0.0505 Z0.001
X0.0085 Y3.5756
X0.0082 Y3.5758 Z0.0003 F13.33
X0.0076 Y3.5761 Z0
X0.0068 Y3.5766 F40
G3 X0.0054 Y3.5762 I-0.0005 J-0.0009
G2 X0.0012 Y3.5738 I-0.0043 J0.0025
G1 X-0.0198 Y3.573
G2 X-0.0249 Y3.5784 I-0.0002 J0.005
G1 X-0.0231 Y3.6022
Y3.6023
X-0.0207 Y3.626
Y3.6261
X-0.0162 Y3.6633
G2 X-0.0063 Y3.6634 I0.005 J-0.0006
G1 X-0.0031 Y3.6398
X0.0002 Y3.6164
X0.006 Y3.5795
G2 X0.0054 Y3.5762 I-0.0049 J-0.0008
G3 X0.0058 Y3.5749 I0.0009 J-0.0005
G1 X0.0066 Y3.5744
X0.0072 Y3.574 Z0.0003
X0.0075 Y3.5739 Z0.001
G0 Z0.2
X-0.1812 Y3.5385
G1 Z0.0394 F13.33
Z0.001
X-0.1809 Z0.0003
X-0.1802 Z0
X-0.1792 Y3.5386 F40
G3 X-0.1782 Y3.5397 I-0.0001 J0.001
G2 X-0.1763 Y3.5439 I0.005 J0.0003
G1 X-0.15 Y3.5646
X-0.1675 Y3.5868
X-0.1938 Y3.5661
G2 X-0.2008 Y3.567 I-0.0031 J0.0039
G1 X-0.2245 Y3.597
G2 X-0.2236 Y3.604 I0.0039 J0.0031
G1 X-0.1953 Y3.6263
X-0.214 Y3.6501
X-0.2867 Y3.5928
X-0.1685 Y3.4426
X-0.0925 Y3.5024
X-0.1112 Y3.5262
X-0.1428 Y3.5013
G2 X-0.1498 Y3.5022 I-0.0031 J0.0039
G1 X-0.1772 Y3.5369
G2 X-0.1782 Y3.5397 I0.0039 J0.0031
G3 X-0.1793 Y3.5406 I-0.001 J-0.0001
G1 X-0.1803 Y3.5405
X-0.181 Z0.0003
X-0.1813 Z0.001
G0 Z0.2
X-0.1985 Y3.4031
G1 Z0.0394 F13.33
Z0.001
X-0.1982 Y3.4032 Z0.0003
X-0.1976 Y3.4033 Z0
X-0.1966 Y3.4035 F40
G3 X-0.1958 Y3.4047 I-0.0002 J0.001
G1 X-0.1963 Y3.4072
X-0.1978 Y3.4115
X-0.2 Y3.4153
X-0.2028 Y3.4185
X-0.2063 Y3.4212
X-0.2104 Y3.4234
X-0.215 Y3.4253
X-0.2198 Y3.427
X-0.2296 Y3.4299
X-0.2396 Y3.4325
X-0.3079 Y3.4497
X-0.3168 Y3.4519
X-0.3257 Y3.4539
X-0.3345 Y3.4556
X-0.3431 Y3.4568
X-0.3483
X-0.3534 Y3.4557
X-0.3583 Y3.4538
X-0.3629 Y3.4511
X-0.3669 Y3.4476
X-0.3705 Y3.4436
X-0.3751 Y3.4364
X-0.3788 Y3.4286
X-0.3819 Y3.4203
X-0.3847 Y3.4118
X-0.3873 Y3.4031
X-0.3898 Y3.3943
X-0.3921 Y3.3855
X-0.3944 Y3.3766
X-0.4044 Y3.3366
X-0.2188 Y3.29
X-0.201 Y3.3608
X-0.1991 Y3.3689
X-0.1973 Y3.377
X-0.1959 Y3.3851
X-0.195 Y3.3931
Y3.3979
X-0.1954 Y3.4027
X-0.1958 Y3.4047
G3 X-0.197 Y3.4055 I-0.001 J-0.0002
G1 X-0.198 Y3.4053
X-0.1986 Y3.4051 Z0.0003
X-0.1989 Z0.001
X-0.234 Y3.379
X-0.2342 Y3.3788 Z0.0003 F13.33
X-0.2345 Y3.3782 Z0
X-0.235 Y3.3773 F40
G3 X-0.2346 Y3.3759 I0.0009 J-0.0005
G2 X-0.2342 Y3.3757 I-0.0024 J-0.0044
G1 X-0.232 Y3.3742
G2 X-0.2308 Y3.3732 I-0.0027 J-0.0042
G1 X-0.2292 Y3.3712
G2 X-0.2283 Y3.3695 I-0.0039 J-0.0032
G1 X-0.2275 Y3.367
G2 X-0.2273 Y3.3659 I-0.0048 J-0.0015
G1 X-0.227 Y3.3632
G2 Y3.3624 I-0.005 J-0.0004
G1 X-0.2275 Y3.3571
G2 X-0.2276 Y3.3565 I-0.005 J0.0004
G1 X-0.2286 Y3.3513
G2 X-0.2348 Y3.3474 I-0.0049 J0.001
G1 X-0.3632 Y3.3797
G2 X-0.3668 Y3.3859 I0.0012 J0.0048
G1 X-0.3655 Y3.3906
X-0.3654 Y3.391
X-0.3637 Y3.3956
G2 X-0.3634 Y3.3962 I0.0047 J-0.0017
G1 X-0.3619 Y3.3991
G2 X-0.3611 Y3.4002 I0.0044 J-0.0024
G1 X-0.3588 Y3.4026
G2 X-0.3573 Y3.4036 I0.0036 J-0.0035
G1 X-0.3543 Y3.405
G2 X-0.3526 Y3.4054 I0.0021 J-0.0046
G1 X-0.3499 Y3.4056
G2 X-0.349 I0.0004 J-0.005
G1 X-0.3462 Y3.4053
X-0.346
X-0.3433 Y3.4048
X-0.3431
X-0.3404 Y3.4042
X-0.3403
X-0.3319 Y3.4022
X-0.3318
X-0.2559 Y3.3832
X-0.2507 Y3.3818
X-0.2506
X-0.2454 Y3.3802
X-0.2452
X-0.2402 Y3.3785
G2 X-0.2397 Y3.3783 I-0.0016 J-0.0047
G1 X-0.2349 Y3.3761
X-0.2346 Y3.3759
G3 X-0.2332 Y3.3763 I0.0005 J0.0009
G1 X-0.2327 Y3.3772
X-0.2324 Y3.3778 Z0.0003
X-0.2323 Y3.3781 Z0.001
G0 Z0.2
X-0.3585 Y3.1546
G1 Z0.0394 F13.33
Z0.001
X-0.3584 Y3.1544 Z0.0003
X-0.3582 Y3.1537 Z0
X-0.3578 Y3.1527 F40
G3 X-0.3566 Y3.1521 I0.0009 J0.0003
G1 X-0.2008 Y3.2048
X-0.2174 Y3.2539
X-0.3977 Y3.1929
X-0.3811 Y3.1438
X-0.3566 Y3.1521
G3 X-0.3559 Y3.1534 I-0.0003 J0.0009
G1 X-0.3563 Y3.1543
X-0.3565 Y3.155 Z0.0003
X-0.3566 Y3.1553 Z0.001
G0 Z0.2
X-0.095 Y3.0628
G1 Z0.0394 F13.33
Z0.001
X-0.0948 Y3.063 Z0.0003
X-0.0943 Y3.0635 Z0
X-0.0936 Y3.0642 F40
G3 Y3.0656 I-0.0007 J0.0007
G1 X-0.1214 Y3.0943
G3 X-0.1228 Y3.0944 I-0.0007 J-0.0007
G1 X-0.1235 Y3.0937
X-0.124 Y3.0932 Z0.0003
X-0.1242 Y3.093 Z0.001
G0 Z0.2
X-0.0275 Y3.0669
G1 Z0.0394 F13.33
Z0.001
X-0.0276 Y3.0672 Z0.0003
X-0.0279 Y3.0678 Z0
X-0.0283 Y3.0687 F40
G3 X-0.0296 Y3.0692 I-0.0009 J-0.0004
X-0.068 Y2.989 I0.0296 J-0.0634
G1 X-0.0679 Y2.9888
X-0.0663 Y2.9809
X-0.064 Y2.9741
X-0.061 Y2.9678
X-0.0575 Y2.9618
X-0.0536 Y2.956
X-0.0494 Y2.9502
X-0.0461 Y2.9456
X-0.046 Y2.9455
X-0.0429 Y2.9409
X-0.0427 Y2.9406
X-0.0399 Y2.9357
G2 X-0.0396 Y2.9352 I-0.0043 J-0.0025
G1 X-0.0373 Y2.9299
G2 X-0.0371 Y2.9292 I-0.0046 J-0.002
G1 X-0.0355 Y2.9234
G2 X-0.0354 Y2.9225 I-0.0048 J-0.0013
G1 X-0.0348 Y2.9159
G2 Y2.9155 I-0.005 J-0.0004
G1 Y2.9002
G3 X0.0348 Y2.8866 I0.048 J0.0607
G1 Y2.9155
G2 Y2.9159 I0.005
G1 X0.0353 Y2.9222
G2 X0.0355 Y2.923 I0.005 J-0.0004
G1 X0.0369 Y2.9287
G2 X0.0371 Y2.9294 I0.0048 J-0.0012
G1 X0.0392 Y2.9344
G2 X0.0395 Y2.935 I0.0046 J-0.0019
G1 X0.0421 Y2.9396
X0.0423 Y2.94
X0.0453 Y2.9444
X0.0454 Y2.9446
X0.0485 Y2.9489
Y2.949
X0.0517 Y2.9533
X0.0547 Y2.9576
X0.0584 Y2.9631
X0.0616 Y2.9688
X0.0643 Y2.9748
X0.0665 Y2.9813
X0.0679 Y2.9887
X0.068 Y2.989
G3 X-0.0296 Y3.0692 I-0.068 J0.0168
X-0.0301 Y3.0679 I0.0004 J-0.0009
G1 X-0.0297 Y3.067
X-0.0294 Y3.0663 Z0.0003
X-0.0293 Y3.0661 Z0.001
G0 Z0.2
X-0.008 Y3.1148
G1 Z0.0394 F13.33
Z0.001
G18 G2 X-0.007 Z0 I0.001
G1 X-0.006 F40
G17 G3 X-0.005 Y3.1158 J0.001
G1 Y3.1558
G3 X-0.006 Y3.1568 I-0.001
G1 X-0.007
G18 G3 X-0.008 Z0.001 K0.001
G0 Z0.2
X0.0293 Y3.0501
G1 Z0.0394 F13.33
Z0.001
X0.0292 Y3.0503 Z0.0003
X0.0291 Y3.051 Z0
X0.0288 Y3.052 F40
G17 G3 X0.0276 Y3.0527 I-0.001 J-0.0003
G1 X0.017 Y3.0499
X0.0076 Y3.0472
X-0.0005 Y3.0446
X-0.0075 Y3.0421
X-0.0134 Y3.0397
X-0.0183 Y3.0375
X-0.0221 Y3.0354
X-0.0249 Y3.0334
X-0.0267 Y3.0318
X-0.0277 Y3.0305
X-0.028 Y3.0297
X-0.0281 Y3.0293
X-0.0278 Y3.0284
X-0.0269 Y3.027
X-0.0251 Y3.0251
X-0.0224 Y3.0231
X-0.0177 Y3.0201
X-0.012 Y3.0171
X-0.0057 Y3.014
X0.0011 Y3.0108
X0.008 Y3.0075
X0.0081
X0.0148 Y3.0041
X0.015 Y3.004
X0.0212 Y3.0006
X0.0215 Y3.0004
X0.0271 Y2.9968
G2 X0.0275 Y2.9965 I-0.0027 J-0.0042
G1 X0.0322 Y2.9928
G2 X0.0327 Y2.9923 I-0.0031 J-0.0039
G1 X0.0352 Y2.9897
G2 X0.0357 Y2.9891 I-0.0036 J-0.0034
G1 X0.0375 Y2.9864
G2 X0.038 Y2.9856 I-0.0041 J-0.0029
G1 X0.0392 Y2.9828
G2 X0.0396 Y2.9816 I-0.0046 J-0.002
G1 X0.04 Y2.9787
G2 Y2.9773 I-0.0049 J-0.0008
G1 X0.0397 Y2.9743
G2 X0.0393 Y2.973 I-0.005 J0.0006
G1 X0.0381 Y2.9699
G2 X0.0376 Y2.969 I-0.0046 J0.0019
G1 X0.0356 Y2.9661
G2 X0.0352 Y2.9655 I-0.0041 J0.0028
G1 X0.0324 Y2.9625
G2 X0.0319 Y2.9621 I-0.0037 J0.0034
G1 X0.0283 Y2.959
G2 X0.0279 Y2.9587 I-0.0032 J0.0038
G1 X0.0233 Y2.9555
X0.023 Y2.9553
X0.0174 Y2.9519
X0.0172 Y2.9518
X0.0107 Y2.9484
X0.0104 Y2.9483
X0.0029 Y2.9448
X0.0027 Y2.9447
X-0.006 Y2.941
X-0.0061
X-0.016 Y2.9372
G3 X-0.0165 Y2.9359 I0.0004 J-0.0009
G1 X-0.0162 Y2.9349
X-0.0159 Y2.9343 Z0.0003
X-0.0158 Y2.934 Z0.001
G0 Z0.2
X-0.0144 Y2.835
G1 Z0.0394 F13.33
Z0.001
X-0.0145 Y2.8347 Z0.0003
X-0.0147 Y2.834 Z0
X-0.015 Y2.833 F40
G3 X-0.0143 Y2.8318 I0.001 J-0.0003
X-0.0068 Y2.8308 I0.0075 J0.027
G1 X0.0068
G3 X0.0314 Y2.8455 J0.028
G2 X-0.0348 Y2.8579 I-0.0183 J0.0854
G3 X-0.0143 Y2.8318 I0.028 J0.0009
X-0.013 Y2.8325 I0.0003 J0.001
G1 X-0.0128 Y2.8335
X-0.0126 Y2.8341 Z0.0003
X-0.0125 Y2.8344 Z0.001
G0 Z0.2
X-0.1104 Y2.993
G1 Z0.0394 F13.33
Z0.001
X-0.1103 Y2.9932 Z0.0003
X-0.1102 Y2.9939 Z0
X-0.11 Y2.9949 F40
G3 X-0.1108 Y2.9961 I-0.001 J0.0002
G1 X-0.1501 Y3.0035
G3 X-0.1513 Y3.0027 I-0.0002 J-0.001
G1 X-0.1515 Y3.0017
X-0.1516 Y3.001 Z0.0003
X-0.1517 Y3.0007 Z0.001
G0 Z0.2
X0.0835 Y3.0739
G1 Z0.0394 F13.33
Z0.001
X0.0837 Y3.0737 Z0.0003
X0.0842 Y3.0732 Z0
X0.085 Y3.0725 F40
G3 X0.0864 Y3.0726 I0.0007 J0.0007
G1 X0.1142 Y3.1013
G3 Y3.1027 I-0.0007 J0.0007
G1 X0.1135 Y3.1034
X0.113 Y3.1039 Z0.0003
X0.1127 Y3.1041 Z0.001
G0 Z0.2
X0.1074 Y3.0087
G1 Z0.0394 F13.33
Z0.001
X0.1075 Y3.0084 Z0.0003
X0.1076 Y3.0077 Z0
X0.1078 Y3.0067 F40
G3 X0.109 Y3.0059 I0.001 J0.0002
G1 X0.1483 Y3.0133
G3 X0.1491 Y3.0145 I-0.0002 J0.001
G1 X0.1489 Y3.0154
X0.1488 Y3.0161 Z0.0003
X0.1487 Y3.0164 Z0.001
G0 Z0.2
X-0.0144 Y3.935
G1 Z0.0394 F13.33
Z0.001
X-0.0145 Y3.9347 Z0.0003
X-0.0147 Y3.934 Z0
X-0.015 Y3.933 F40
G3 X-0.0143 Y3.9318 I0.001 J-0.0003
X-0.0068 Y3.9308 I0.0075 J0.027
G1 X0.0068
G3 X0.0314 Y3.9455 J0.028
G2 X-0.0348 Y3.9579 I-0.0183 J0.0854
G3 X-0.0143 Y3.9318 I0.028 J0.0009
X-0.013 Y3.9325 I0.0003 J0.001
G1 X-0.0128 Y3.9335
X-0.0126 Y3.9341 Z0.0003
X-0.0125 Y3.9344 Z0.001
G0 Z0.2
X0.0318 Y4.0127
G1 Z0.0394 F13.33
Z0.001
G18 G2 X0.0328 Z0 I0.001
G1 X0.0338 F40
G17 G3 X0.0348 Y4.0137 J0.001
G1 Y4.0155
G2 Y4.0159 I0.005
G1 X0.0353 Y4.0222
G2 X0.0355 Y4.023 I0.005 J-0.0004
G1 X0.0369 Y4.0287
G2 X0.0371 Y4.0294 I0.0048 J-0.0012
G1 X0.0392 Y4.0344
G2 X0.0395 Y4.035 I0.0046 J-0.0019
G1 X0.0421 Y4.0397
X0.0423 Y4.04
X0.0453 Y4.0444
X0.0454 Y4.0446
X0.0485 Y4.0489
X0.0517 Y4.0533
X0.0547 Y4.0576
X0.0584 Y4.0631
X0.0616 Y4.0689
X0.0643 Y4.0749
X0.0665 Y4.0813
X0.0679 Y4.0888
X0.068 Y4.089
G3 X-0.068 Y4.1226 I-0.068 J0.0168
Y4.089 I0.068 J-0.0168
G1 X-0.0679 Y4.0888
X-0.0663 Y4.0809
X-0.064 Y4.0741
X-0.061 Y4.0678
X-0.0575 Y4.0618
X-0.0536 Y4.056
X-0.0494 Y4.0502
X-0.0461 Y4.0456
X-0.046 Y4.0455
X-0.0429 Y4.0409
X-0.0427 Y4.0406
X-0.0399 Y4.0357
G2 X-0.0396 Y4.0352 I-0.0043 J-0.0025
G1 X-0.0373 Y4.03
G2 X-0.0371 Y4.0292 I-0.0046 J-0.002
G1 X-0.0355 Y4.0234
G2 X-0.0354 Y4.0225 I-0.0048 J-0.0013
G1 X-0.0348 Y4.0159
G2 Y4.0155 I-0.005 J-0.0004
G1 Y4.0002
G3 X0.0348 Y3.9866 I0.048 J0.0607
G1 Y4.0137
G3 X0.0338 Y4.0147 I-0.001
G1 X0.0328
G18 G3 X0.0318 Z0.001 K0.001
G0 Z0.2
X0.1074 Y4.1087
G1 Z0.0394 F13.33
Z0.001
X0.1075 Y4.1084 Z0.0003
X0.1076 Y4.1077 Z0
X0.1078 Y4.1067 F40
G17 G3 X0.109 Y4.1059 I0.001 J0.0002
G1 X0.1483 Y4.1133
G3 X0.1491 Y4.1145 I-0.0002 J0.001
G1 X0.1489 Y4.1155
X0.1488 Y4.1161 Z0.0003
X0.1487 Y4.1164 Z0.001
G0 Z0.2
X0.0835 Y4.1739
G1 Z0.0394 F13.33
Z0.001
X0.0837 Y4.1737 Z0.0003
X0.0842 Y4.1732 Z0
X0.085 Y4.1726 F40
G3 X0.0864 I0.0007 J0.0007
G1 X0.1142 Y4.2013
G3 Y4.2027 I-0.0007 J0.0007
G1 X0.1135 Y4.2034
X0.113 Y4.2039 Z0.0003
X0.1127 Y4.2041 Z0.001
G0 Z0.2
X0.0293 Y4.1501
G1 Z0.0394 F13.33
Z0.001
X0.0292 Y4.1504 Z0.0003
X0.0291 Y4.1511 Z0
X0.0288 Y4.152 F40
G3 X0.0276 Y4.1527 I-0.001 J-0.0003
G1 X0.017 Y4.1499
X0.0076 Y4.1472
X-0.0005 Y4.1446
X-0.0075 Y4.1421
X-0.0134 Y4.1397
X-0.0183 Y4.1375
X-0.0221 Y4.1354
X-0.0249 Y4.1334
X-0.0267 Y4.1318
X-0.0277 Y4.1305
X-0.028 Y4.1297
X-0.0281 Y4.1293
X-0.0278 Y4.1283
X-0.0269 Y4.127
X-0.0251 Y4.1251
X-0.0224 Y4.1231
X-0.0177 Y4.1201
X-0.012 Y4.1171
X-0.0057 Y4.114
X0.0011 Y4.1108
X0.008 Y4.1075
X0.0081
X0.0148 Y4.1041
X0.015 Y4.104
X0.0212 Y4.1006
X0.0215 Y4.1004
X0.0271 Y4.0968
G2 X0.0275 Y4.0965 I-0.0027 J-0.0042
G1 X0.0322 Y4.0928
G2 X0.0327 Y4.0923 I-0.0031 J-0.0039
G1 X0.0352 Y4.0897
G2 X0.0356 Y4.0891 I-0.0036 J-0.0034
G1 X0.0375 Y4.0864
G2 X0.038 Y4.0856 I-0.0041 J-0.0029
G1 X0.0392 Y4.0828
G2 X0.0396 Y4.0816 I-0.0046 J-0.002
G1 X0.04 Y4.0787
G2 Y4.0773 I-0.0049 J-0.0008
G1 X0.0397 Y4.0743
G2 X0.0393 Y4.073 I-0.005 J0.0006
G1 X0.0381 Y4.0699
G2 X0.0376 Y4.069 I-0.0046 J0.0019
G1 X0.0357 Y4.0661
G2 X0.0352 Y4.0655 I-0.0042 J0.0028
G1 X0.0324 Y4.0625
G2 X0.0319 Y4.0621 I-0.0037 J0.0034
G1 X0.0283 Y4.059
G2 X0.0279 Y4.0587 I-0.0032 J0.0038
G1 X0.0233 Y4.0555
X0.023 Y4.0553
X0.0174 Y4.0519
X0.0172 Y4.0518
X0.0106 Y4.0484
X0.0105 Y4.0483
X0.0029 Y4.0448
X0.0027 Y4.0447
X-0.006 Y4.041
X-0.0061
X-0.0159 Y4.0371
G3 X-0.0165 Y4.0359 I0.0004 J-0.0009
G1 X-0.0162 Y4.0349
X-0.0159 Y4.0343 Z0.0003
X-0.0158 Y4.034 Z0.001
G0 Z0.2
X-0.1104 Y4.093
G1 Z0.0394 F13.33
Z0.001
X-0.1103 Y4.0933 Z0.0003
X-0.1102 Y4.094 Z0
X-0.11 Y4.0949 F40
G3 X-0.1108 Y4.0961 I-0.001 J0.0002
G1 X-0.1501 Y4.1035
G3 X-0.1513 Y4.1027 I-0.0002 J-0.001
G1 X-0.1515 Y4.1017
X-0.1516 Y4.101 Z0.0003
X-0.1517 Y4.1007 Z0.001
G0 Z0.2
X-0.095 Y4.1628
G1 Z0.0394 F13.33
Z0.001
X-0.0948 Y4.163 Z0.0003
X-0.0943 Y4.1635 Z0
X-0.0936 Y4.1642 F40
G3 Y4.1656 I-0.0007 J0.0007
G1 X-0.1214 Y4.1943
G3 X-0.1228 I-0.0007 J-0.0007
G1 X-0.1235 Y4.1936
X-0.124 Y4.1931 Z0.0003
X-0.1242 Y4.1929 Z0.001
G0 Z0.2
X-0.008 Y4.2148
G1 Z0.0394 F13.33
Z0.001
G18 G2 X-0.007 Z0 I0.001
G1 X-0.006 F40
G17 G3 X-0.005 Y4.2158 J0.001
G1 Y4.2558
G3 X-0.006 Y4.2568 I-0.001
G1 X-0.007
G18 G3 X-0.008 Z0.001 K0.001
G0 Z0.2
X0.1984 Y4.2643
G1 Z0.0394 F13.33
Z0.001
X0.1983 Y4.2641 Z0.0003
X0.1979 Y4.2635 Z0
X0.1973 Y4.2627 F40
G17 G3 X0.1976 Y4.2613 I0.0008 J-0.0006
G1 X0.1994 Y4.2601
X0.2046 Y4.2573
X0.2103 Y4.2549
X0.2161 Y4.2528
X0.2336 Y4.2469
X0.239 Y4.2453
X0.2443 Y4.2441
X0.2496 Y4.2435
X0.2546 Y4.2436
X0.2594 Y4.2445
X0.2637 Y4.2465
X0.2674 Y4.2494
X0.2709 Y4.2529
X0.2741 Y4.2569
X0.277 Y4.2612
X0.2798 Y4.2659
G2 X0.289 Y4.2628 I0.0043 J-0.0025
G1 X0.2885 Y4.2585
X0.2882 Y4.2545
X0.2881 Y4.2504
X0.2883 Y4.2465
X0.2888 Y4.2428
X0.2897 Y4.2395
X0.2911 Y4.2367
X0.2936 Y4.234
X0.2968 Y4.2316
X0.3005 Y4.2296
X0.3045 Y4.2278
X0.3086 Y4.2263
X0.3151 Y4.2243
X0.3217 Y4.2227
X0.3282 Y4.2217
X0.3346 Y4.2214
X0.3407 Y4.2221
X0.3465 Y4.224
X0.352 Y4.227
X0.3569 Y4.2307
X0.3618 Y4.2361
X0.3659 Y4.2423
X0.3695 Y4.2491
X0.3727 Y4.2563
X0.3757 Y4.2636
X0.3785 Y4.2711
X0.3811 Y4.2786
X0.3992 Y4.3323
X0.2189 Y4.3929
X0.1977 Y4.33
X0.1955 Y4.323
X0.1932 Y4.3161
X0.1911 Y4.3091
X0.1892 Y4.3022
X0.1875 Y4.2952
X0.1862 Y4.2884
X0.1857 Y4.2818
X0.1861 Y4.2775
X0.1871 Y4.2734
X0.189 Y4.2696
X0.1914 Y4.2662
X0.1946 Y4.2633
X0.1976 Y4.2613
G3 X0.199 Y4.2616 I0.0006 J0.0008
G1 X0.1995 Y4.2624
X0.1999 Y4.263 Z0.0003
X0.2001 Y4.2632 Z0.001
X0.2265 Y4.302
X0.2267 Y4.3022 Z0.0003 F13.33
X0.2271 Y4.3028 Z0
X0.2277 Y4.3036 F40
G3 X0.2274 Y4.305 I-0.0008 J0.0006
G1 X0.2259 Y4.3061
G2 X0.2249 Y4.3069 I0.0029 J0.0041
G1 X0.2229 Y4.3092
G2 X0.2219 Y4.3113 I0.0038 J0.0033
G1 X0.2211 Y4.3143
G2 X0.221 Y4.3158 I0.0049 J0.0012
G1 X0.2213 Y4.3206
G2 X0.2214 Y4.3213 I0.005 J-0.0003
G1 X0.2224 Y4.3261
Y4.3264
X0.2237 Y4.3311
G2 X0.2301 Y4.3345 I0.0048 J-0.0013
G1 X0.2832 Y4.3167
G2 X0.2863 Y4.3101 I-0.0016 J-0.0047
G1 X0.2844 Y4.3052
X0.2842 Y4.3049
X0.282 Y4.3001
G2 X0.2818 Y4.2997 I-0.0045 J0.0021
G1 X0.2808 Y4.2979
G2 X0.2806 Y4.2976 I-0.0043 J0.0025
G1 X0.2794 Y4.2959
G2 X0.2789 Y4.2952 I-0.0041 J0.0028
G1 X0.2775 Y4.2937
G2 X0.2761 Y4.2928 I-0.0036 J0.0035
G1 X0.2743 Y4.2918
G2 X0.2724 Y4.2913 I-0.0023 J0.0044
G1 X0.2696 Y4.2911
G2 X0.2688 I-0.0004 J0.005
G1 X0.266 Y4.2914
G2 X0.2655 I0.0005 J0.005
G1 X0.2628 Y4.292
G2 X0.2624 Y4.2921 I0.001 J0.0049
G1 X0.2561 Y4.2939
X0.2559 Y4.294
X0.2382 Y4.2999
X0.2381 Y4.3
X0.2352 Y4.301
X0.2349 Y4.3011
X0.2321 Y4.3023
G2 X0.2317 Y4.3025 I0.002 J0.0046
G1 X0.2289 Y4.304
G2 X0.2284 Y4.3043 I0.0023 J0.0044
G1 X0.2274 Y4.305
G3 X0.226 Y4.3047 I-0.0006 J-0.0008
G1 X0.2254 Y4.3039
X0.225 Y4.3033 Z0.0003
X0.2249 Y4.3031 Z0.001
G0 Z0.2
X0.3088 Y4.3097
G1 Z0.0394 F13.33
Z0.001
X0.3089 Y4.3094 Z0.0003
X0.309 Y4.3087 Z0
X0.3092 Y4.3078 F40
G3 X0.3103 Y4.3069 I0.001 J0.0002
G2 X0.3128 Y4.3067 I0.0008 J-0.0049
G1 X0.355 Y4.2926
G2 X0.3581 Y4.2861 I-0.0016 J-0.0047
G1 X0.357 Y4.2832
Y4.2831
X0.3558 Y4.2801
X0.3557 Y4.2799
X0.3544 Y4.277
X0.3543 Y4.2767
X0.3528 Y4.2739
G2 X0.352 Y4.2728 I-0.0044 J0.0024
G1 X0.3498 Y4.2706
G2 X0.3483 Y4.2695 I-0.0036 J0.0035
G1 X0.3454 Y4.2682
G2 X0.344 Y4.2678 I-0.0021 J0.0045
G1 X0.3403 Y4.2673
G2 X0.339 I-0.0006 J0.005
G1 X0.3353 Y4.2678
G2 X0.3349 Y4.2679 I0.0007 J0.005
G1 X0.3313 Y4.2687
X0.3309 Y4.2688
X0.3274 Y4.27
X0.3272
X0.3218 Y4.2719
X0.3216 Y4.272
X0.3163 Y4.274
X0.3159 Y4.2742
X0.3107 Y4.2767
G2 X0.3103 Y4.2769 I0.0022 J0.0045
G1 X0.3084 Y4.2781
G2 X0.3079 Y4.2785 I0.0026 J0.0042
G1 X0.3062 Y4.2799
G2 X0.3051 Y4.2812 I0.0032 J0.0038
G1 X0.304 Y4.2831
G2 X0.3034 Y4.2846 I0.0043 J0.0025
G1 X0.303 Y4.2867
G2 X0.3029 Y4.2881 I0.0049 J0.001
G1 X0.3032 Y4.2924
G2 X0.3034 Y4.2933 I0.005 J-0.0003
G1 X0.3045 Y4.2975
X0.3046 Y4.2977
X0.3056 Y4.3009
X0.3064 Y4.3035
G2 X0.3103 Y4.3069 I0.0048 J-0.0015
G3 X0.3111 Y4.3081 I-0.0002 J0.001
G1 X0.311 Y4.3091
X0.3108 Y4.3098 Z0.0003
Y4.3101 Z0.001
G0 Z0.2
X0.2677 Y4.4474
G1 Z0.0394 F13.33
Z0.001
X0.2679 Y4.4471 Z0.0003
X0.2683 Y4.4465 Z0
X0.2688 Y4.4457 F40
G3 X0.2702 Y4.4454 I0.0008 J0.0005
G1 X0.3871 Y4.5204
X0.3561 Y4.5944
X0.1678 Y4.5475
X0.1884 Y4.4984
X0.2189 Y4.5078
G2 X0.225 Y4.5049 I0.0015 J-0.0048
G1 X0.2335 Y4.4846
G2 X0.2312 Y4.4782 I-0.0046 J-0.0019
G1 X0.203 Y4.4635
X0.2233 Y4.4153
X0.2702 Y4.4454
G3 X0.2705 Y4.4468 I-0.0005 J0.0008
G1 X0.27 Y4.4476
X0.2696 Y4.4482 Z0.0003
X0.2694 Y4.4485 Z0.001
X0.2609 Y4.4901
Y4.4904 Z0.0003 F13.33
X0.261 Y4.4911 Z0
X0.2612 Y4.4921 F40
G3 X0.2604 Y4.4932 I-0.001 J0.0002
G2 X0.2566 Y4.4962 I0.0008 J0.0049
G1 X0.2484 Y4.5156
G2 X0.2516 Y4.5223 I0.0046 J0.0019
G1 X0.2746 Y4.5291
X0.2747
X0.2978 Y4.5353
X0.2979
X0.3344 Y4.5444
G2 X0.338 Y4.5352 I0.0012 J-0.0049
G1 X0.317 Y4.5239
X0.2962 Y4.5124
X0.2799 Y4.5032
X0.2637 Y4.4938
G2 X0.2604 Y4.4932 I-0.0025 J0.0043
G3 X0.2592 Y4.4924 I-0.0002 J-0.001
G1 X0.2591 Y4.4914
X0.259 Y4.4907 Z0.0003
X0.2589 Y4.4904 Z0.001
G0 Z0.2
X0.1432 Y4.6048
G1 Z0.0394 F13.33
Z0.001
X0.1435 Y4.6047 Z0.0003
X0.1442 Y4.6045 Z0
X0.1452 Y4.6043 F40
G3 X0.1464 Y4.6049 I0.0003 J0.001
G2 X0.147 Y4.6062 I0.0048 J-0.0014
G1 X0.2308 Y4.7375
X0.1875 Y4.7651
X0.0847 Y4.6043
X0.1595 Y4.5565
X0.1758 Y4.5819
X0.1485 Y4.5993
G2 X0.1464 Y4.6049 I0.0027 J0.0042
G3 X0.1457 Y4.6062 I-0.001 J0.0003
G1 X0.1448 Y4.6065
X0.1441 Y4.6067 Z0.0003
X0.1438 Z0.001
G0 Z0.2
X0.0509 Y4.6669
G1 Z0.0394 F13.33
Z0.001
X0.0512 Y4.667 Z0.0003
X0.0519 Y4.6671 Z0
X0.0529 Y4.6673 F40
G3 X0.0537 Y4.6685 I-0.0002 J0.001
G1 X0.0251 Y4.8039
X-0.0553 Y4.8011
X-0.0783 Y4.6092
X-0.0251 Y4.6111
X-0.023 Y4.6428
G2 X-0.0181 Y4.6474 I0.005 J-0.0003
G1 X0.0039 Y4.6482
G2 X0.009 Y4.6438 I0.0002 J-0.005
G1 X0.0128 Y4.6124
X0.0651 Y4.6142
X0.0567 Y4.6543
X0.0537 Y4.6685
G3 X0.0525 Y4.6693 I-0.001 J-0.0002
G1 X0.0515 Y4.6691
X0.0508 Y4.6689 Z0.0003
X0.0505 Z0.001
X0.0085 Y4.6756
X0.0082 Y4.6757 Z0.0003 F13.33
X0.0076 Y4.6761 Z0
X0.0068 Y4.6766 F40
G3 X0.0054 Y4.6762 I-0.0005 J-0.0009
G2 X0.0012 Y4.6737 I-0.0043 J0.0025
G1 X-0.0198 Y4.673
G2 X-0.0249 Y4.6784 I-0.0002 J0.005
G1 X-0.0231 Y4.7022
Y4.7023
X-0.0207 Y4.726
Y4.7261
X-0.0162 Y4.7633
G2 X-0.0063 I0.005 J-0.0006
G1 X-0.0031 Y4.7398
X0.0002 Y4.7164
X0.006 Y4.6795
G2 X0.0054 Y4.6762 I-0.0049 J-0.0008
G3 X0.0058 Y4.6749 I0.0009 J-0.0005
G1 X0.0066 Y4.6744
X0.0072 Y4.674 Z0.0003
X0.0075 Y4.6739 Z0.001
G0 Z0.2
X-0.1504 Y4.5606
G1 Z0.0394 F13.33
Z0.001
X-0.1502 Y4.5604 Z0.0003
X-0.1498 Y4.5598 Z0
X-0.1491 Y4.5591 F40
G3 X-0.1477 Y4.5589 I0.0008 J0.0006
G1 X-0.0925 Y4.6024
X-0.1112 Y4.6262
X-0.1428 Y4.6013
G2 X-0.1498 Y4.6021 I-0.0031 J0.0039
G1 X-0.1772 Y4.6369
G2 X-0.1763 Y4.6439 I0.0039 J0.0031
G1 X-0.15 Y4.6646
X-0.1675 Y4.6868
X-0.1938 Y4.6661
G2 X-0.2008 Y4.6669 I-0.0031 J0.0039
G1 X-0.2245 Y4.6969
G2 X-0.2236 Y4.704 I0.0039 J0.0031
G1 X-0.1953 Y4.7263
X-0.214 Y4.7501
X-0.2867 Y4.6928
X-0.1685 Y4.5426
X-0.1477 Y4.5589
G3 X-0.1476 Y4.5603 I-0.0006 J0.0008
G1 X-0.1482 Y4.5611
X-0.1486 Y4.5616 Z0.0003
X-0.1488 Y4.5619 Z0.001
G0 Z0.2
X-0.1985 Y4.5031
G1 Z0.0394 F13.33
Z0.001
X-0.1982 Y4.5032 Z0.0003
X-0.1976 Y4.5033 Z0
X-0.1966 Y4.5035 F40
G3 X-0.1958 Y4.5047 I-0.0002 J0.001
G1 X-0.1963 Y4.5072
X-0.1978 Y4.5115
X-0.2 Y4.5153
X-0.2028 Y4.5185
X-0.2063 Y4.5213
X-0.2104 Y4.5234
X-0.215 Y4.5253
X-0.2198 Y4.527
X-0.2296 Y4.5299
X-0.2396 Y4.5326
X-0.3079 Y4.5497
X-0.3168 Y4.5519
X-0.3257 Y4.5539
X-0.3334 Y4.5554
X-0.3344 Y4.5556
X-0.3431 Y4.5568
X-0.3483
X-0.3534 Y4.5557
X-0.3583 Y4.5538
X-0.3629 Y4.5511
X-0.3669 Y4.5477
X-0.3705 Y4.5436
X-0.3751 Y4.5364
X-0.3788 Y4.5286
X-0.3819 Y4.5203
X-0.3847 Y4.5117
X-0.3873 Y4.5031
X-0.3898 Y4.4943
X-0.3921 Y4.4855
X-0.3944 Y4.4766
X-0.4044 Y4.4366
X-0.2188 Y4.39
X-0.201 Y4.4608
X-0.1991 Y4.4689
X-0.1973 Y4.477
X-0.1959 Y4.4851
X-0.195 Y4.4931
Y4.4979
X-0.1954 Y4.5027
X-0.1958 Y4.5047
G3 X-0.197 Y4.5055 I-0.001 J-0.0002
G1 X-0.198 Y4.5053
X-0.1986 Y4.5052 Z0.0003
X-0.1989 Y4.5051 Z0.001
X-0.234 Y4.479
X-0.2342 Y4.4788 Z0.0003 F13.33
X-0.2345 Y4.4782 Z0
X-0.235 Y4.4773 F40
G3 X-0.2346 Y4.4759 I0.0009 J-0.0005
G2 X-0.2342 Y4.4757 I-0.0024 J-0.0044
G1 X-0.232 Y4.4743
G2 X-0.2308 Y4.4732 I-0.0027 J-0.0042
G1 X-0.2292 Y4.4711
G2 X-0.2283 Y4.4695 I-0.0039 J-0.0031
G1 X-0.2275 Y4.467
G2 X-0.2273 Y4.4659 I-0.0048 J-0.0015
G1 X-0.227 Y4.4632
G2 Y4.4624 I-0.005 J-0.0004
G1 X-0.2275 Y4.4571
G2 X-0.2276 Y4.4565 I-0.005 J0.0004
G1 X-0.2286 Y4.4513
G2 X-0.2348 Y4.4474 I-0.0049 J0.001
G1 X-0.3632 Y4.4797
G2 X-0.3668 Y4.4859 I0.0012 J0.0048
G1 X-0.3655 Y4.4906
X-0.3654 Y4.491
X-0.3637 Y4.4956
G2 X-0.3634 Y4.4962 I0.0047 J-0.0017
G1 X-0.3619 Y4.4991
G2 X-0.3611 Y4.5002 I0.0044 J-0.0024
G1 X-0.3588 Y4.5025
G2 X-0.3573 Y4.5036 I0.0036 J-0.0035
G1 X-0.3543 Y4.505
G2 X-0.3526 Y4.5054 I0.0021 J-0.0046
G1 X-0.3499 Y4.5056
G2 X-0.349 I0.0004 J-0.005
G1 X-0.3463 Y4.5053
X-0.346
X-0.3433 Y4.5049
X-0.3431 Y4.5048
X-0.3404 Y4.5043
X-0.3403 Y4.5042
X-0.3319 Y4.5023
X-0.3318
X-0.2559 Y4.4832
X-0.2558
X-0.2507 Y4.4818
X-0.2506
X-0.2455 Y4.4803
X-0.2452 Y4.4802
X-0.2402 Y4.4785
G2 X-0.2397 Y4.4783 I-0.0016 J-0.0047
G1 X-0.2349 Y4.4761
X-0.2346 Y4.4759
G3 X-0.2332 Y4.4763 I0.0005 J0.0009
G1 X-0.2327 Y4.4772
X-0.2324 Y4.4778 Z0.0003
X-0.2323 Y4.4781 Z0.001
G0 Z0.2
X-0.2116 Y4.3274
G1 Z0.0394 F13.33
Z0.001
X-0.2114 Y4.3275 Z0.0003
X-0.2107 Y4.3278 Z0
X-0.2097 Y4.3281 F40
G3 X-0.2091 Y4.3293 I-0.0003 J0.0009
G1 X-0.2174 Y4.3539
X-0.3977 Y4.2929
X-0.3811 Y4.2438
X-0.2008 Y4.3048
X-0.2091 Y4.3293
G3 X-0.2104 Y4.33 I-0.0009 J-0.0003
G1 X-0.2113 Y4.3297
X-0.212 Y4.3294 Z0.0003
X-0.2123 Y4.3293 Z0.001
G0 Z0.2
X0.7206 Y4.4334
G1 Z0.0394 F13.33
Z0.001
X0.7205 Y4.4331 Z0.0003
X0.7203 Y4.4324 Z0
X0.7201 Y4.4315 F40
G3 X0.7208 Y4.4303 I0.001 J-0.0002
G1 X0.8812 Y4.39
X0.899 Y4.4608
X0.9009 Y4.4689
X0.9027 Y4.477
X0.9041 Y4.4851
X0.905 Y4.493
Y4.4979
X0.9046 Y4.5027
X0.9037 Y4.5072
X0.9022 Y4.5115
X0.9 Y4.5153
X0.8972 Y4.5185
X0.8937 Y4.5213
X0.8896 Y4.5234
X0.885 Y4.5253
X0.8802 Y4.527
X0.8704 Y4.5299
X0.8604 Y4.5326
X0.7921 Y4.5497
X0.7832 Y4.5519
X0.7743 Y4.5539
X0.7656 Y4.5556
X0.7569 Y4.5568
X0.7517
X0.7466 Y4.5557
X0.7417 Y4.5538
X0.7371 Y4.5511
X0.7331 Y4.5477
X0.7295 Y4.5436
X0.7249 Y4.5364
X0.7212 Y4.5286
X0.7181 Y4.5203
X0.7153 Y4.5117
X0.7127 Y4.5031
X0.7102 Y4.4943
X0.7079 Y4.4855
X0.7056 Y4.4766
X0.6956 Y4.4366
X0.7208 Y4.4303
G3 X0.722 Y4.431 I0.0002 J0.001
G1 X0.7223 Y4.4319
X0.7224 Y4.4326 Z0.0003
X0.7225 Y4.4329 Z0.001
X0.7361 Y4.4767
X0.7362 Y4.477 Z0.0003 F13.33
X0.7365 Y4.4777 Z0
X0.7368 Y4.4786 F40
G3 X0.7363 Y4.4799 I-0.0009 J0.0003
G2 X0.7332 Y4.4859 I0.0017 J0.0047
G1 X0.7345 Y4.4906
X0.7346 Y4.4909
X0.7363 Y4.4956
G2 X0.7366 Y4.4962 I0.0047 J-0.0017
G1 X0.7381 Y4.4991
G2 X0.7389 Y4.5002 I0.0044 J-0.0024
G1 X0.7412 Y4.5026
G2 X0.7427 Y4.5036 I0.0036 J-0.0035
G1 X0.7457 Y4.505
G2 X0.7474 Y4.5054 I0.0021 J-0.0046
G1 X0.7501 Y4.5056
G2 X0.751 I0.0004 J-0.005
G1 X0.7537 Y4.5053
X0.754
X0.7567 Y4.5049
X0.7569 Y4.5048
X0.7596 Y4.5043
X0.7597 Y4.5042
X0.7681 Y4.5023
X0.7682
X0.8441 Y4.4832
X0.8442
X0.8493 Y4.4818
X0.8494
X0.8545 Y4.4803
X0.8548 Y4.4802
X0.8598 Y4.4785
G2 X0.8603 Y4.4783 I-0.0016 J-0.0047
G1 X0.8651 Y4.4761
G2 X0.8658 Y4.4757 I-0.0021 J-0.0046
G1 X0.868 Y4.4743
G2 X0.8692 Y4.4732 I-0.0027 J-0.0042
G1 X0.8708 Y4.4711
G2 X0.8717 Y4.4695 I-0.0039 J-0.0031
G1 X0.8725 Y4.467
G2 X0.8727 Y4.4659 I-0.0048 J-0.0015
G1 X0.873 Y4.4632
G2 Y4.4624 I-0.005 J-0.0004
G1 X0.8725 Y4.4571
G2 X0.8724 Y4.4565 I-0.005 J0.0004
G1 X0.8714 Y4.4513
G2 X0.8652 Y4.4474 I-0.0049 J0.001
G1 X0.7368 Y4.4797
G2 X0.7363 Y4.4799 I0.0012 J0.0048
G3 X0.735 Y4.4793 I-0.0003 J-0.0009
G1 X0.7346 Y4.4784
X0.7344 Y4.4777 Z0.0003
X0.7343 Y4.4774 Z0.001
G0 Z0.2
X0.8884 Y4.3274
G1 Z0.0394 F13.33
Z0.001
X0.8886 Y4.3275 Z0.0003
X0.8893 Y4.3278 Z0
X0.8903 Y4.3281 F40
G3 X0.8909 Y4.3293 I-0.0003 J0.0009
G1 X0.8826 Y4.3539
X0.7023 Y4.2929
X0.7189 Y4.2438
X0.8992 Y4.3048
X0.8909 Y4.3293
G3 X0.8896 Y4.33 I-0.0009 J-0.0003
G1 X0.8887 Y4.3297
X0.888 Y4.3294 Z0.0003
X0.8877 Y4.3293 Z0.001
G0 Z0.2
X1.005 Y4.1628
G1 Z0.0394 F13.33
Z0.001
X1.0052 Y4.163 Z0.0003
X1.0057 Y4.1635 Z0
X1.0064 Y4.1642 F40
G3 Y4.1656 I-0.0007 J0.0007
G1 X0.9786 Y4.1943
G3 X0.9772 I-0.0007 J-0.0007
G1 X0.9765 Y4.1936
X0.976 Y4.1931 Z0.0003
X0.9758 Y4.1929 Z0.001
G0 Z0.2
X1.0725 Y4.1669
G1 Z0.0394 F13.33
Z0.001
X1.0724 Y4.1672 Z0.0003
X1.0721 Y4.1678 Z0
X1.0717 Y4.1687 F40
G3 X1.0704 Y4.1692 I-0.0009 J-0.0004
X1.032 Y4.089 I0.0296 J-0.0634
G1 X1.0321 Y4.0888
X1.0337 Y4.0809
X1.036 Y4.0741
X1.039 Y4.0678
X1.0425 Y4.0618
X1.0464 Y4.056
X1.0506 Y4.0502
X1.0539 Y4.0456
X1.054 Y4.0455
X1.0571 Y4.0409
X1.0573 Y4.0406
X1.0601 Y4.0357
G2 X1.0604 Y4.0352 I-0.0043 J-0.0025
G1 X1.0627 Y4.03
G2 X1.0629 Y4.0292 I-0.0046 J-0.002
G1 X1.0645 Y4.0234
G2 X1.0646 Y4.0225 I-0.0048 J-0.0013
G1 X1.0652 Y4.0159
G2 Y4.0155 I-0.005 J-0.0004
G1 Y4.0002
G3 X1.1348 Y3.9866 I0.048 J0.0607
G1 Y4.0155
G2 Y4.0159 I0.005
G1 X1.1353 Y4.0222
G2 X1.1355 Y4.023 I0.005 J-0.0004
G1 X1.1369 Y4.0287
G2 X1.1371 Y4.0294 I0.0048 J-0.0012
G1 X1.1392 Y4.0344
G2 X1.1395 Y4.035 I0.0046 J-0.0019
G1 X1.1421 Y4.0397
X1.1423 Y4.04
X1.1453 Y4.0444
X1.1454 Y4.0446
X1.1485 Y4.0489
X1.1517 Y4.0533
X1.1547 Y4.0576
X1.1584 Y4.0631
X1.1616 Y4.0689
X1.1643 Y4.0749
X1.1665 Y4.0813
X1.1679 Y4.0888
X1.168 Y4.089
G3 X1.0704 Y4.1692 I-0.068 J0.0168
X1.0699 Y4.1679 I0.0004 J-0.0009
G1 X1.0703 Y4.167
X1.0706 Y4.1663 Z0.0003
X1.0707 Y4.1661 Z0.001
G0 Z0.2
X1.092 Y4.2148
G1 Z0.0394 F13.33
Z0.001
G18 G2 X1.093 Z0 I0.001
G1 X1.094 F40
G17 G3 X1.095 Y4.2158 J0.001
G1 Y4.2558
G3 X1.094 Y4.2568 I-0.001
G1 X1.093
G18 G3 X1.092 Z0.001 K0.001
G0 Z0.2
X1.1293 Y4.1501
G1 Z0.0394 F13.33
Z0.001
X1.1292 Y4.1504 Z0.0003
X1.1291 Y4.1511 Z0
X1.1288 Y4.152 F40
G17 G3 X1.1276 Y4.1527 I-0.001 J-0.0003
G1 X1.117 Y4.1499
X1.1076 Y4.1472
X1.0995 Y4.1446
X1.0925 Y4.1421
X1.0866 Y4.1397
X1.0817 Y4.1375
X1.0779 Y4.1354
X1.0751 Y4.1334
X1.0733 Y4.1318
X1.0723 Y4.1305
X1.072 Y4.1297
X1.0719 Y4.1293
X1.0722 Y4.1283
X1.0731 Y4.127
X1.0749 Y4.1251
X1.0776 Y4.1231
X1.0823 Y4.1201
X1.088 Y4.1171
X1.0943 Y4.114
X1.1011 Y4.1108
X1.108 Y4.1075
X1.1081
X1.1148 Y4.1041
X1.115 Y4.104
X1.1212 Y4.1006
X1.1215 Y4.1004
X1.1271 Y4.0968
G2 X1.1275 Y4.0965 I-0.0027 J-0.0042
G1 X1.1322 Y4.0928
G2 X1.1327 Y4.0923 I-0.0031 J-0.0039
G1 X1.1352 Y4.0897
G2 X1.1356 Y4.0891 I-0.0036 J-0.0034
G1 X1.1375 Y4.0864
G2 X1.138 Y4.0856 I-0.0041 J-0.0029
G1 X1.1392 Y4.0828
G2 X1.1396 Y4.0816 I-0.0046 J-0.002
G1 X1.14 Y4.0787
G2 Y4.0773 I-0.0049 J-0.0008
G1 X1.1397 Y4.0743
G2 X1.1393 Y4.073 I-0.005 J0.0006
G1 X1.1381 Y4.0699
G2 X1.1376 Y4.069 I-0.0046 J0.0019
G1 X1.1356 Y4.0661
G2 X1.1352 Y4.0655 I-0.0042 J0.0028
G1 X1.1324 Y4.0625
G2 X1.1319 Y4.0621 I-0.0037 J0.0034
G1 X1.1283 Y4.059
G2 X1.1279 Y4.0587 I-0.0032 J0.0038
G1 X1.1233 Y4.0555
X1.123 Y4.0553
X1.1174 Y4.0519
X1.1172 Y4.0518
X1.1106 Y4.0484
X1.1105 Y4.0483
X1.1029 Y4.0448
X1.1027 Y4.0447
X1.094 Y4.041
X1.0939
X1.0841 Y4.0371
G3 X1.0835 Y4.0359 I0.0004 J-0.0009
G1 X1.0838 Y4.0349
X1.0841 Y4.0343 Z0.0003
X1.0842 Y4.034 Z0.001
G0 Z0.2
X1.0856 Y3.935
G1 Z0.0394 F13.33
Z0.001
X1.0855 Y3.9347 Z0.0003
X1.0853 Y3.934 Z0
X1.085 Y3.933 F40
G3 X1.0857 Y3.9318 I0.001 J-0.0003
X1.0932 Y3.9308 I0.0075 J0.027
G1 X1.1068
G3 X1.1314 Y3.9455 J0.028
G2 X1.0652 Y3.9579 I-0.0183 J0.0854
G3 X1.0857 Y3.9318 I0.028 J0.0009
X1.087 Y3.9325 I0.0003 J0.001
G1 X1.0872 Y3.9335
X1.0874 Y3.9341 Z0.0003
X1.0875 Y3.9344 Z0.001
G0 Z0.2
X0.9896 Y4.093
G1 Z0.0394 F13.33
Z0.001
X0.9897 Y4.0933 Z0.0003
X0.9898 Y4.094 Z0
X0.99 Y4.0949 F40
G3 X0.9892 Y4.0961 I-0.001 J0.0002
G1 X0.9499 Y4.1035
G3 X0.9487 Y4.1027 I-0.0002 J-0.001
G1 X0.9485 Y4.1017
X0.9484 Y4.101 Z0.0003
X0.9483 Y4.1007 Z0.001
G0 Z0.2
X1.1835 Y4.1739
G1 Z0.0394 F13.33
Z0.001
X1.1837 Y4.1737 Z0.0003
X1.1842 Y4.1732 Z0
X1.185 Y4.1726 F40
G3 X1.1864 I0.0007 J0.0007
G1 X1.2142 Y4.2013
G3 Y4.2027 I-0.0007 J0.0007
G1 X1.2135 Y4.2034
X1.213 Y4.2039 Z0.0003
X1.2127 Y4.2041 Z0.001
G0 Z0.2
X1.2074 Y4.1087
G1 Z0.0394 F13.33
Z0.001
X1.2075 Y4.1084 Z0.0003
X1.2076 Y4.1077 Z0
X1.2078 Y4.1067 F40
G3 X1.209 Y4.1059 I0.001 J0.0002
G1 X1.2483 Y4.1133
G3 X1.2491 Y4.1145 I-0.0002 J0.001
G1 X1.2489 Y4.1155
X1.2488 Y4.1161 Z0.0003
X1.2487 Y4.1164 Z0.001
G0 Z0.2
X1.2984 Y4.2643
G1 Z0.0394 F13.33
Z0.001
X1.2983 Y4.2641 Z0.0003
X1.2979 Y4.2635 Z0
X1.2973 Y4.2627 F40
G3 X1.2976 Y4.2613 I0.0008 J-0.0006
G1 X1.2994 Y4.2601
X1.3046 Y4.2573
X1.3103 Y4.2549
X1.3161 Y4.2528
X1.3336 Y4.2469
X1.339 Y4.2453
X1.3443 Y4.2441
X1.3496 Y4.2435
X1.3546 Y4.2436
X1.3594 Y4.2445
X1.3637 Y4.2465
X1.3674 Y4.2494
X1.3709 Y4.2529
X1.3741 Y4.2569
X1.377 Y4.2612
X1.3798 Y4.2659
G2 X1.389 Y4.2628 I0.0043 J-0.0025
G1 X1.3885 Y4.2585
X1.3882 Y4.2545
X1.3881 Y4.2504
X1.3883 Y4.2465
X1.3888 Y4.2428
X1.3897 Y4.2395
X1.3911 Y4.2367
X1.3936 Y4.234
X1.3968 Y4.2316
X1.4005 Y4.2296
X1.4045 Y4.2278
X1.4086 Y4.2263
X1.4151 Y4.2243
X1.4217 Y4.2227
