%
(IDEALAB TOKEN ENGRAVE x5)
(T4  D=0.01 CR=0 - ZMIN=0 - flat end mill)
G90 G94
G17
G20
G28 G91 Z0
G90

(2D Contour1)
M9
T4 M6
S5000 M3
G54
M8
G0 X2.392 Y-0.1852
Z0.6
Z0.2
G1 Z0.0394 F13.33
Z0.001
G18 G2 X2.393 Z0 I0.001
G1 X2.394 F40
G17 G3 X2.395 Y-0.1842 J0.001
G1 Y-0.1442
G3 X2.394 Y-0.1432 I-0.001
G1 X2.393
G18 G3 X2.392 Z0.001 K0.001
G0 Z0.2
X2.401 Y-0.2272
G1 Z0.0394 F13.33
Z0.001
G19 G3 Y-0.2262 Z0 J0.001
G1 Y-0.2252 F40
G17 G3 X2.4 Y-0.2242 I-0.001
X2.332 Y-0.311 J-0.07
G1 X2.3321 Y-0.3112
X2.3337 Y-0.3191
X2.336 Y-0.3259
X2.339 Y-0.3322
X2.3425 Y-0.3382
X2.3464 Y-0.344
X2.3506 Y-0.3498
X2.3539 Y-0.3544
X2.354 Y-0.3545
X2.3571 Y-0.3591
X2.3573 Y-0.3594
X2.3601 Y-0.3643
G2 X2.3604 Y-0.3648 I-0.0043 J-0.0025
G1 X2.3627 Y-0.3701
G2 X2.3629 Y-0.3708 I-0.0046 J-0.002
G1 X2.3645 Y-0.3766
G2 X2.3646 Y-0.3775 I-0.0048 J-0.0013
G1 X2.3652 Y-0.3841
G2 Y-0.3845 I-0.005 J-0.0004
G1 Y-0.3998
G3 X2.4348 Y-0.4134 I0.048 J0.0607
G1 Y-0.3845
G2 Y-0.3841 I0.005
G1 X2.4353 Y-0.3778
G2 X2.4355 Y-0.377 I0.005 J-0.0004
G1 X2.4369 Y-0.3713
G2 X2.4371 Y-0.3706 I0.0048 J-0.0012
G1 X2.4392 Y-0.3656
G2 X2.4395 Y-0.365 I0.0046 J-0.0019
G1 X2.4421 Y-0.3604
X2.4423 Y-0.36
X2.4453 Y-0.3556
X2.4454 Y-0.3554
X2.4485 Y-0.3511
Y-0.351
X2.4517 Y-0.3467
X2.4547 Y-0.3424
X2.4584 Y-0.3369
X2.4616 Y-0.3312
X2.4643 Y-0.3252
X2.4665 Y-0.3187
X2.4679 Y-0.3113
X2.468 Y-0.311
G3 X2.4 Y-0.2242 I-0.068 J0.0168
X2.399 Y-0.2252 J-0.001
G1 Y-0.2262
G19 G2 Y-0.2272 Z0.001 K0.001
G0 Z0.2
X2.4293 Y-0.2499
G1 Z0.0394 F13.33
Z0.001
X2.4292 Y-0.2497 Z0.0003
X2.4291 Y-0.249 Z0
X2.4288 Y-0.248 F40
G17 G3 X2.4276 Y-0.2473 I-0.001 J-0.0003
G1 X2.417 Y-0.2501
X2.4076 Y-0.2528
X2.3995 Y-0.2554
X2.3925 Y-0.2579
X2.3866 Y-0.2603
X2.3817 Y-0.2625
X2.3779 Y-0.2646
X2.3751 Y-0.2666
X2.3733 Y-0.2682
X2.3723 Y-0.2695
X2.372 Y-0.2703
X2.3719 Y-0.2707
X2.3722 Y-0.2716
X2.3731 Y-0.273
X2.3749 Y-0.2749
X2.3776 Y-0.2769
X2.3823 Y-0.2799
X2.388 Y-0.2829
X2.3943 Y-0.286
X2.4011 Y-0.2892
X2.408 Y-0.2925
X2.4081
X2.4148 Y-0.2959
X2.415 Y-0.296
X2.4212 Y-0.2994
X2.4215 Y-0.2996
X2.4271 Y-0.3032
G2 X2.4275 Y-0.3035 I-0.0027 J-0.0042
G1 X2.4322 Y-0.3072
G2 X2.4327 Y-0.3077 I-0.0031 J-0.0039
G1 X2.4352 Y-0.3103
G2 X2.4357 Y-0.3109 I-0.0036 J-0.0034
G1 X2.4375 Y-0.3136
G2 X2.438 Y-0.3145 I-0.0041 J-0.0029
G1 X2.4392 Y-0.3172
G2 X2.4396 Y-0.3184 I-0.0046 J-0.002
G1 X2.44 Y-0.3213
G2 Y-0.3227 I-0.0049 J-0.0008
G1 X2.4397 Y-0.3257
G2 X2.4393 Y-0.327 I-0.005 J0.0006
G1 X2.4381 Y-0.3301
G2 X2.4376 Y-0.331 I-0.0046 J0.0019
G1 X2.4356 Y-0.3339
G2 X2.4352 Y-0.3345 I-0.0041 J0.0028
G1 X2.4324 Y-0.3375
G2 X2.4319 Y-0.3379 I-0.0037 J0.0034
G1 X2.4283 Y-0.341
G2 X2.4279 Y-0.3413 I-0.0032 J0.0038
G1 X2.4233 Y-0.3445
X2.423 Y-0.3447
X2.4174 Y-0.3481
X2.4172 Y-0.3482
X2.4107 Y-0.3516
X2.4104 Y-0.3517
X2.4029 Y-0.3552
X2.4027 Y-0.3553
X2.394 Y-0.359
X2.3939
X2.3841 Y-0.3628
G3 X2.3835 Y-0.3641 I0.0004 J-0.0009
G1 X2.3838 Y-0.3651
X2.3841 Y-0.3657 Z0.0003
X2.3842 Y-0.366 Z0.001
G0 Z0.2
X2.3856 Y-0.465
G1 Z0.0394 F13.33
Z0.001
X2.3855 Y-0.4653 Z0.0003
X2.3853 Y-0.466 Z0
X2.385 Y-0.467 F40
G3 X2.3857 Y-0.4682 I0.001 J-0.0003
X2.3932 Y-0.4692 I0.0075 J0.027
G1 X2.4068
G3 X2.4314 Y-0.4545 J0.028
G2 X2.3652 Y-0.4421 I-0.0183 J0.0854
G3 X2.3857 Y-0.4682 I0.028 J0.0009
X2.387 Y-0.4675 I0.0003 J0.001
G1 X2.3872 Y-0.4665
X2.3874 Y-0.4659 Z0.0003
X2.3875 Y-0.4656 Z0.001
G0 Z0.2
X2.2896 Y-0.307
G1 Z0.0394 F13.33
Z0.001
X2.2897 Y-0.3068 Z0.0003
X2.2898 Y-0.3061 Z0
X2.29 Y-0.3051 F40
G3 X2.2892 Y-0.3039 I-0.001 J0.0002
G1 X2.2499 Y-0.2965
G3 X2.2487 Y-0.2973 I-0.0002 J-0.001
G1 X2.2485 Y-0.2983
X2.2484 Y-0.299 Z0.0003
X2.2483 Y-0.2993 Z0.001
G0 Z0.2
X2.305 Y-0.2372
G1 Z0.0394 F13.33
Z0.001
X2.3052 Y-0.237 Z0.0003
X2.3057 Y-0.2365 Z0
X2.3064 Y-0.2358 F40
G3 Y-0.2344 I-0.0007 J0.0007
G1 X2.2786 Y-0.2057
G3 X2.2772 I-0.0007 J-0.0007
G1 X2.2765 Y-0.2063
X2.276 Y-0.2068 Z0.0003
X2.2758 Y-0.207 Z0.001
G0 Z0.2
X2.1884 Y-0.0726
G1 Z0.0394 F13.33
Z0.001
X2.1886 Y-0.0725 Z0.0003
X2.1893 Y-0.0722 Z0
X2.1903 Y-0.0719 F40
G3 X2.1909 Y-0.0707 I-0.0003 J0.0009
G1 X2.1826 Y-0.0461
X2.0023 Y-0.1071
X2.0189 Y-0.1562
X2.1992 Y-0.0952
X2.1909 Y-0.0707
G3 X2.1896 Y-0.07 I-0.0009 J-0.0003
G1 X2.1887 Y-0.0704
X2.188 Y-0.0706 Z0.0003
X2.1877 Y-0.0707 Z0.001
G0 Z0.2
X2.1844 Y0.015
G1 Z0.0394 F13.33
Z0.001
X2.1846 Y0.0149 Z0.0003
X2.1853 Y0.0147 Z0
X2.1863 Y0.0145 F40
G3 X2.1875 Y0.0152 I0.0002 J0.001
G1 X2.199 Y0.0608
X2.2009 Y0.0689
X2.2027 Y0.077
X2.2041 Y0.0851
X2.205 Y0.0931
Y0.0979
X2.2046 Y0.1027
X2.2037 Y0.1072
X2.2022 Y0.1115
X2.2 Y0.1153
X2.1972 Y0.1185
X2.1937 Y0.1212
X2.1896 Y0.1234
X2.185 Y0.1253
X2.1802 Y0.127
X2.1704 Y0.1299
X2.1604 Y0.1325
X2.0921 Y0.1497
X2.0832 Y0.1519
X2.0744 Y0.1539
X2.0655 Y0.1556
X2.0569 Y0.1568
X2.0517
X2.0466 Y0.1557
X2.0417 Y0.1538
X2.0371 Y0.1511
X2.0331 Y0.1476
X2.0295 Y0.1436
X2.0249 Y0.1364
X2.0212 Y0.1286
X2.0181 Y0.1203
X2.0153 Y0.1118
X2.0127 Y0.1031
X2.0102 Y0.0943
X2.0079 Y0.0855
X2.0056 Y0.0766
X1.9956 Y0.0366
X2.1812 Y-0.01
X2.1875 Y0.0152
G3 X2.1868 Y0.0164 I-0.001 J0.0002
G1 X2.1858 Y0.0167
X2.1851 Y0.0168 Z0.0003
X2.1849 Y0.0169 Z0.001
X2.1664 Y0.0442
Y0.0445 Z0.0003 F13.33
X2.1665 Y0.0452 Z0
X2.1666 Y0.0462 F40
G3 X2.1658 Y0.0473 I-0.001 J0.0001
G2 X2.1652 Y0.0474 I0.0007 J0.005
G1 X2.0368 Y0.0797
G2 X2.0332 Y0.0859 I0.0012 J0.0048
G1 X2.0345 Y0.0906
X2.0346 Y0.091
X2.0363 Y0.0956
G2 X2.0366 Y0.0962 I0.0047 J-0.0017
G1 X2.0381 Y0.0991
G2 X2.0389 Y0.1002 I0.0044 J-0.0024
G1 X2.0412 Y0.1026
G2 X2.0427 Y0.1036 I0.0036 J-0.0035
G1 X2.0457 Y0.105
G2 X2.0474 Y0.1054 I0.0021 J-0.0046
G1 X2.0501 Y0.1056
G2 X2.051 I0.0004 J-0.005
G1 X2.0538 Y0.1053
X2.054
X2.0567 Y0.1048
X2.0569
X2.0596 Y0.1042
X2.0597
X2.0681 Y0.1023
X2.0682 Y0.1022
X2.1441 Y0.0832
X2.1493 Y0.0818
X2.1494
X2.1546 Y0.0803
X2.1548 Y0.0802
X2.1598 Y0.0785
G2 X2.1603 Y0.0783 I-0.0016 J-0.0047
G1 X2.1651 Y0.0761
G2 X2.1658 Y0.0757 I-0.0021 J-0.0046
G1 X2.168 Y0.0742
G2 X2.1692 Y0.0732 I-0.0027 J-0.0042
G1 X2.1708 Y0.0712
G2 X2.1717 Y0.0695 I-0.0039 J-0.0032
G1 X2.1725 Y0.067
G2 X2.1727 Y0.0659 I-0.0048 J-0.0015
G1 X2.173 Y0.0632
G2 Y0.0624 I-0.005 J-0.0004
G1 X2.1725 Y0.0571
G2 X2.1724 Y0.0565 I-0.005 J0.0004
G1 X2.1714 Y0.0513
G2 X2.1658 Y0.0473 I-0.0049 J0.001
G3 X2.1647 Y0.0465 I-0.0001 J-0.001
G1 X2.1645 Y0.0455
X2.1644 Y0.0448 Z0.0003
Y0.0445 Z0.001
G0 Z0.2
X2.2188 Y0.2385
G1 Z0.0394 F13.33
Z0.001
X2.2191 Z0.0003
X2.2198 Z0
X2.2208 Y0.2386 F40
G3 X2.2218 Y0.2397 I-0.0001 J0.001
G2 X2.2237 Y0.2439 I0.005 J0.0003
G1 X2.25 Y0.2646
X2.2325 Y0.2868
X2.2062 Y0.2661
G2 X2.1992 Y0.267 I-0.0031 J0.0039
G1 X2.1755 Y0.297
G2 X2.1764 Y0.304 I0.0039 J0.0031
G1 X2.2047 Y0.3263
X2.186 Y0.3501
X2.1133 Y0.2928
X2.2315 Y0.1426
X2.3075 Y0.2024
X2.2888 Y0.2262
X2.2572 Y0.2013
G2 X2.2502 Y0.2021 I-0.0031 J0.0039
G1 X2.2228 Y0.2369
G2 X2.2218 Y0.2397 I0.0039 J0.0031
G3 X2.2207 Y0.2406 I-0.001 J-0.0001
G1 X2.2197 Y0.2405
X2.219 Z0.0003
X2.2187 Z0.001
G0 Z0.2
X2.3746 Y0.2457
G1 Z0.0394 F13.33
Z0.001
X2.3749 Y0.2455 Z0.0003
X2.3755 Y0.2452 Z0
X2.3764 Y0.2446 F40
G3 X2.3777 Y0.245 I0.0005 J0.0009
G2 X2.3819 Y0.2474 I0.0043 J-0.0026
G1 X2.4039 Y0.2482
G2 X2.409 Y0.2438 I0.0002 J-0.005
G1 X2.4128 Y0.2124
X2.4651 Y0.2142
X2.4251 Y0.4039
X2.3447 Y0.4011
X2.3217 Y0.2092
X2.3749 Y0.2111
X2.377 Y0.2428
G2 X2.3777 Y0.245 I0.005 J-0.0003
G3 X2.3774 Y0.2464 I-0.0009 J0.0005
G1 X2.3765 Y0.2469
X2.3759 Y0.2472 Z0.0003
X2.3757 Y0.2474 Z0.001
X2.3743 Y0.2724
X2.3745 Y0.2726 Z0.0003 F13.33
X2.3751 Y0.273 Z0
X2.3759 Y0.2736 F40
G3 X2.3761 Y0.275 I-0.0006 J0.0008
G2 X2.3751 Y0.2784 I0.004 J0.003
G1 X2.3769 Y0.3022
Y0.3023
X2.3793 Y0.326
Y0.3261
X2.3838 Y0.3633
G2 X2.3937 Y0.3634 I0.005 J-0.0006
G1 X2.3969 Y0.3398
X2.4002 Y0.3164
X2.406 Y0.2795
G2 X2.4012 Y0.2738 I-0.0049 J-0.0008
G1 X2.3802 Y0.273
G2 X2.3761 Y0.275 I-0.0002 J0.005
G3 X2.3747 Y0.2752 I-0.0008 J-0.0006
G1 X2.3739 Y0.2746
X2.3733 Y0.2742 Z0.0003
X2.3731 Y0.274 Z0.001
G0 Z0.2
X2.5432 Y0.2048
G1 Z0.0394 F13.33
Z0.001
X2.5435 Z0.0003
X2.5442 Y0.2046 Z0
X2.5452 Y0.2043 F40
G3 X2.5464 Y0.205 I0.0003 J0.001
G2 X2.547 Y0.2063 I0.0048 J-0.0014
G1 X2.6308 Y0.3374
X2.5875 Y0.3651
X2.4847 Y0.2043
X2.5595 Y0.1565
X2.5758 Y0.1819
X2.5485 Y0.1993
G2 X2.5464 Y0.205 I0.0027 J0.0042
G3 X2.5457 Y0.2062 I-0.001 J0.0003
G1 X2.5448 Y0.2065
X2.5441 Y0.2067 Z0.0003
X2.5438 Y0.2068 Z0.001
G0 Z0.2
X2.6208 Y0.111
G1 Z0.0394 F13.33
Z0.001
Y0.1107 Z0.0003
X2.6206 Y0.11 Z0
X2.6204 Y0.1091 F40
G3 X2.6213 Y0.1079 I0.001 J-0.0002
G2 X2.625 Y0.1049 I-0.0009 J-0.0049
G1 X2.6335 Y0.0846
G2 X2.6312 Y0.0783 I-0.0046 J-0.0019
G1 X2.603 Y0.0635
X2.6233 Y0.0153
X2.7871 Y0.1204
X2.7561 Y0.1944
X2.5678 Y0.1475
X2.5884 Y0.0984
X2.6189 Y0.1078
G2 X2.6213 Y0.1079 I0.0015 J-0.0048
G3 X2.6224 Y0.1087 I0.0002 J0.001
G1 X2.6226 Y0.1097
X2.6227 Y0.1104 Z0.0003
X2.6228 Y0.1107 Z0.001
X2.6457 Y0.1209
X2.646 Y0.1207 Z0.0003 F13.33
X2.6466 Y0.1204 Z0
X2.6474 Y0.1198 F40
G3 X2.6488 Y0.1202 I0.0005 J0.0008
G2 X2.6516 Y0.1223 I0.0042 J-0.0026
G1 X2.6746 Y0.1291
X2.6747
X2.6978 Y0.1353
X2.6979
X2.7344 Y0.1444
G2 X2.738 Y0.1352 I0.0012 J-0.0049
G1 X2.717 Y0.1239
X2.6962 Y0.1124
X2.6799 Y0.1032
X2.6637 Y0.0938
G2 X2.6566 Y0.0962 I-0.0025 J0.0043
G1 X2.6484 Y0.1156
G2 X2.6488 Y0.1202 I0.0046 J0.0019
G3 X2.6485 Y0.1215 I-0.0008 J0.0005
G1 X2.6476 Y0.1221
X2.647 Y0.1224 Z0.0003
X2.6468 Y0.1226 Z0.001
G0 Z0.2
X2.6435 Y-0.0185
G1 Z0.0394 F13.33
Z0.001
X2.6436 Y-0.0182 Z0.0003
X2.6439 Y-0.0176 Z0
X2.6442 Y-0.0166 F40
G3 X2.6435 Y-0.0154 I-0.0009 J0.0003
G1 X2.6189 Y-0.0071
X2.5977 Y-0.07
X2.5955 Y-0.077
X2.5932 Y-0.0839
X2.5911 Y-0.0909
X2.5892 Y-0.0978
X2.5875 Y-0.1048
X2.5862 Y-0.1116
X2.5857 Y-0.1182
X2.5861 Y-0.1225
X2.5871 Y-0.1266
X2.589 Y-0.1304
X2.5915 Y-0.1338
X2.5946 Y-0.1367
X2.5994 Y-0.1399
X2.6046 Y-0.1427
X2.6103 Y-0.1451
X2.6161 Y-0.1472
X2.6336 Y-0.1531
X2.639 Y-0.1547
X2.6443 Y-0.1559
X2.6496 Y-0.1565
X2.6547 Y-0.1564
X2.6594 Y-0.1555
X2.6637 Y-0.1534
X2.6674 Y-0.1506
X2.6709 Y-0.1471
X2.6741 Y-0.1431
X2.677 Y-0.1388
X2.6798 Y-0.1341
G2 X2.689 Y-0.1373 I0.0043 J-0.0026
G1 X2.6885 Y-0.1414
X2.6882 Y-0.1455
X2.6881 Y-0.1496
X2.6883 Y-0.1535
X2.6888 Y-0.1572
X2.6897 Y-0.1605
X2.6911 Y-0.1633
X2.6936 Y-0.166
X2.6968 Y-0.1684
X2.7005 Y-0.1704
X2.7045 Y-0.1722
X2.7086 Y-0.1737
X2.7151 Y-0.1757
X2.7216 Y-0.1773
X2.7282 Y-0.1783
X2.7346 Y-0.1786
X2.7407 Y-0.1779
X2.7465 Y-0.176
X2.752 Y-0.173
X2.7569 Y-0.1693
X2.7618 Y-0.1639
X2.7659 Y-0.1577
X2.7695 Y-0.1509
X2.7727 Y-0.1437
X2.7757 Y-0.1364
X2.7785 Y-0.1289
X2.7811 Y-0.1214
X2.7992 Y-0.0678
X2.6435 Y-0.0154
G3 X2.6423 Y-0.016 I-0.0003 J-0.0009
G1 X2.642 Y-0.0169
X2.6417 Y-0.0176 Z0.0003
X2.6416 Y-0.0179 Z0.001
X2.6293 Y-0.0622
X2.6292 Y-0.0625 Z0.0003 F13.33
X2.6291 Y-0.0631 Z0
X2.6289 Y-0.0641 F40
G3 X2.6296 Y-0.0653 I0.001 J-0.0002
G2 X2.6301 Y-0.0655 I-0.0011 J-0.0049
G1 X2.6832 Y-0.0833
G2 X2.6863 Y-0.0899 I-0.0016 J-0.0047
G1 X2.6844 Y-0.0948
X2.6842 Y-0.0951
X2.682 Y-0.0999
G2 X2.6818 Y-0.1003 I-0.0045 J0.0021
G1 X2.6808 Y-0.1021
X2.6806 Y-0.1024
X2.6794 Y-0.1041
G2 X2.6789 Y-0.1048 I-0.0041 J0.0028
G1 X2.6775 Y-0.1063
G2 X2.6761 Y-0.1073 I-0.0036 J0.0035
G1 X2.6742 Y-0.1082
G2 X2.6724 Y-0.1087 I-0.0022 J0.0045
G1 X2.6696 Y-0.1089
G2 X2.6687 I-0.0004 J0.005
G1 X2.666 Y-0.1086
G2 X2.6655 I0.0005 J0.005
G1 X2.6628 Y-0.108
G2 X2.6624 Y-0.1079 I0.001 J0.0049
G1 X2.6561 Y-0.1061
X2.6559 Y-0.106
X2.6382 Y-0.1
X2.6381
X2.6352 Y-0.099
X2.6349 Y-0.0989
X2.6321 Y-0.0977
G2 X2.6317 Y-0.0975 I0.0019 J0.0046
G1 X2.6289 Y-0.096
G2 X2.6284 Y-0.0957 I0.0023 J0.0044
G1 X2.6259 Y-0.094
G2 X2.6249 Y-0.0931 I0.0028 J0.0041
G1 X2.6229 Y-0.0908
G2 X2.6219 Y-0.0887 I0.0038 J0.0032
G1 X2.6211 Y-0.0857
G2 X2.621 Y-0.0842 I0.0049 J0.0012
G1 X2.6213 Y-0.0794
G2 X2.6214 Y-0.0787 I0.005 J-0.0003
G1 X2.6224 Y-0.0739
Y-0.0736
X2.6237 Y-0.0689
G2 X2.6296 Y-0.0653 I0.0048 J-0.0013
G3 X2.6308 Y-0.0646 I0.0002 J0.001
G1 X2.631 Y-0.0636
X2.6312 Y-0.0629 Z0.0003
X2.6313 Y-0.0626 Z0.001
X2.7088 Y-0.0903
X2.7089 Y-0.0906 Z0.0003 F13.33
X2.709 Y-0.0913 Z0
X2.7092 Y-0.0922 F40
G3 X2.7103 Y-0.0931 I0.001 J0.0002
G2 X2.7128 Y-0.0933 I0.0008 J-0.0049
G1 X2.755 Y-0.1074
G2 X2.7581 Y-0.1139 I-0.0016 J-0.0047
G1 X2.757 Y-0.1168
Y-0.1169
X2.7558 Y-0.1199
X2.7557 Y-0.1201
X2.7544 Y-0.123
X2.7543 Y-0.1233
X2.7528 Y-0.1261
G2 X2.752 Y-0.1272 I-0.0044 J0.0024
G1 X2.7498 Y-0.1294
G2 X2.7483 Y-0.1305 I-0.0036 J0.0035
G1 X2.7454 Y-0.1318
G2 X2.744 Y-0.1322 I-0.0021 J0.0045
G1 X2.7403 Y-0.1327
G2 X2.739 I-0.0006 J0.005
G1 X2.7354 Y-0.1322
G2 X2.7349 Y-0.1321 I0.0006 J0.005
G1 X2.7313 Y-0.1313
X2.7309 Y-0.1312
X2.7274 Y-0.13
X2.7272
X2.7218 Y-0.1281
X2.7216 Y-0.128
X2.7163 Y-0.1259
X2.7159 Y-0.1258
X2.7107 Y-0.1233
G2 X2.7103 Y-0.1231 I0.0022 J0.0045
G1 X2.7084 Y-0.1219
G2 X2.7079 Y-0.1215 I0.0026 J0.0042
G1 X2.7062 Y-0.1201
G2 X2.7051 Y-0.1188 I0.0032 J0.0038
G1 X2.704 Y-0.1169
G2 X2.7034 Y-0.1154 I0.0043 J0.0025
G1 X2.703 Y-0.1133
G2 X2.7029 Y-0.112 I0.0049 J0.001
G1 X2.7032 Y-0.1077
G2 X2.7034 Y-0.1067 I0.005 J-0.0003
G1 X2.7045 Y-0.1025
X2.7046 Y-0.1023
X2.7056 Y-0.0991
X2.7064 Y-0.0965
G2 X2.7103 Y-0.0931 I0.0048 J-0.0015
G3 X2.7111 Y-0.0919 I-0.0002 J0.001
G1 X2.711 Y-0.0909
X2.7108 Y-0.0902 Z0.0003
Y-0.0899 Z0.001
G0 Z0.2
X2.4835 Y-0.2261
G1 Z0.0394 F13.33
Z0.001
X2.4837 Y-0.2263 Z0.0003
X2.4842 Y-0.2268 Z0
X2.485 Y-0.2275 F40
G3 X2.4864 Y-0.2274 I0.0007 J0.0007
G1 X2.5142 Y-0.1987
G3 Y-0.1973 I-0.0007 J0.0007
G1 X2.5135 Y-0.1966
X2.513 Y-0.1961 Z0.0003
X2.5127 Y-0.1959 Z0.001
G0 Z0.2
X2.5074 Y-0.2913
G1 Z0.0394 F13.33
Z0.001
X2.5075 Y-0.2916 Z0.0003
X2.5076 Y-0.2923 Z0
X2.5078 Y-0.2933 F40
G3 X2.509 Y-0.2941 I0.001 J0.0002
G1 X2.5483 Y-0.2867
G3 X2.5491 Y-0.2855 I-0.0002 J0.001
G1 X2.5489 Y-0.2846
X2.5488 Y-0.2839 Z0.0003
X2.5487 Y-0.2836 Z0.001
G0 Z0.2
X3.3884 Y-0.0726
G1 Z0.0394 F13.33
Z0.001
X3.3886 Y-0.0725 Z0.0003
X3.3893 Y-0.0722 Z0
X3.3903 Y-0.0719 F40
G3 X3.3909 Y-0.0707 I-0.0003 J0.0009
G1 X3.3826 Y-0.0461
X3.2023 Y-0.1071
X3.2189 Y-0.1562
X3.3992 Y-0.0952
X3.3909 Y-0.0707
G3 X3.3896 Y-0.07 I-0.0009 J-0.0003
G1 X3.3887 Y-0.0704
X3.388 Y-0.0706 Z0.0003
X3.3877 Y-0.0707 Z0.001
G0 Z0.2
X3.3844 Y0.015
G1 Z0.0394 F13.33
Z0.001
X3.3846 Y0.0149 Z0.0003
X3.3853 Y0.0147 Z0
X3.3863 Y0.0145 F40
G3 X3.3875 Y0.0152 I0.0002 J0.001
G1 X3.399 Y0.0608
X3.4009 Y0.0689
X3.4027 Y0.077
X3.4041 Y0.0851
X3.405 Y0.0931
Y0.0979
X3.4046 Y0.1027
X3.4037 Y0.1072
X3.4022 Y0.1115
X3.4 Y0.1153
X3.3972 Y0.1185
X3.3937 Y0.1212
X3.3896 Y0.1234
X3.385 Y0.1253
X3.3802 Y0.127
X3.3704 Y0.1299
X3.3604 Y0.1325
X3.2921 Y0.1497
X3.2832 Y0.1519
X3.2744 Y0.1539
X3.2655 Y0.1556
X3.2569 Y0.1568
X3.2517
X3.2466 Y0.1557
X3.2417 Y0.1538
X3.2371 Y0.1511
X3.2331 Y0.1476
X3.2295 Y0.1436
X3.2249 Y0.1364
X3.2212 Y0.1286
X3.2181 Y0.1203
X3.2153 Y0.1118
X3.2127 Y0.1031
X3.2102 Y0.0943
X3.2079 Y0.0855
X3.2056 Y0.0766
X3.1956 Y0.0366
X3.3812 Y-0.01
X3.3875 Y0.0152
G3 X3.3868 Y0.0164 I-0.001 J0.0002
G1 X3.3858 Y0.0167
X3.3851 Y0.0168 Z0.0003
X3.3849 Y0.0169 Z0.001
X3.3664 Y0.0442
Y0.0445 Z0.0003 F13.33
X3.3665 Y0.0452 Z0
X3.3666 Y0.0462 F40
G3 X3.3658 Y0.0473 I-0.001 J0.0001
G2 X3.3652 Y0.0474 I0.0007 J0.005
G1 X3.2368 Y0.0797
G2 X3.2332 Y0.0859 I0.0012 J0.0048
G1 X3.2345 Y0.0906
X3.2346 Y0.091
X3.2363 Y0.0956
G2 X3.2366 Y0.0962 I0.0047 J-0.0017
G1 X3.2381 Y0.0991
G2 X3.2389 Y0.1002 I0.0044 J-0.0024
G1 X3.2412 Y0.1026
G2 X3.2427 Y0.1036 I0.0036 J-0.0035
G1 X3.2457 Y0.105
G2 X3.2474 Y0.1054 I0.0021 J-0.0046
G1 X3.2501 Y0.1056
G2 X3.251 I0.0004 J-0.005
G1 X3.2538 Y0.1053
X3.254
X3.2567 Y0.1048
X3.2569
X3.2596 Y0.1042
X3.2597
X3.2681 Y0.1023
X3.2682 Y0.1022
X3.3441 Y0.0832
X3.3493 Y0.0818
X3.3494
X3.3546 Y0.0803
X3.3548 Y0.0802
X3.3598 Y0.0785
G2 X3.3603 Y0.0783 I-0.0016 J-0.0047
G1 X3.3651 Y0.0761
G2 X3.3658 Y0.0757 I-0.0021 J-0.0046
G1 X3.368 Y0.0742
G2 X3.3692 Y0.0732 I-0.0027 J-0.0042
G1 X3.3708 Y0.0712
G2 X3.3717 Y0.0695 I-0.0039 J-0.0032
G1 X3.3725 Y0.067
G2 X3.3727 Y0.0659 I-0.0048 J-0.0015
G1 X3.373 Y0.0632
G2 Y0.0624 I-0.005 J-0.0004
G1 X3.3725 Y0.0571
G2 X3.3724 Y0.0565 I-0.005 J0.0004
G1 X3.3714 Y0.0513
G2 X3.3658 Y0.0473 I-0.0049 J0.001
G3 X3.3647 Y0.0465 I-0.0001 J-0.001
G1 X3.3645 Y0.0455
X3.3644 Y0.0448 Z0.0003
Y0.0445 Z0.001
G0 Z0.2
X3.4188 Y0.2385
G1 Z0.0394 F13.33
Z0.001
X3.4191 Z0.0003
X3.4198 Z0
X3.4208 Y0.2386 F40
G3 X3.4218 Y0.2397 I-0.0001 J0.001
G2 X3.4237 Y0.2439 I0.005 J0.0003
G1 X3.45 Y0.2646
X3.4325 Y0.2868
X3.4062 Y0.2661
G2 X3.3992 Y0.267 I-0.0031 J0.0039
G1 X3.3755 Y0.297
G2 X3.3764 Y0.304 I0.0039 J0.0031
G1 X3.4047 Y0.3263
X3.386 Y0.3501
X3.3133 Y0.2928
X3.4315 Y0.1426
X3.5075 Y0.2024
X3.4888 Y0.2262
X3.4572 Y0.2013
G2 X3.4502 Y0.2021 I-0.0031 J0.0039
G1 X3.4228 Y0.2369
G2 X3.4218 Y0.2397 I0.0039 J0.0031
G3 X3.4207 Y0.2406 I-0.001 J-0.0001
G1 X3.4197 Y0.2405
X3.419 Z0.0003
X3.4187 Z0.001
G0 Z0.2
X3.5746 Y0.2457
G1 Z0.0394 F13.33
Z0.001
X3.5749 Y0.2455 Z0.0003
X3.5755 Y0.2452 Z0
X3.5764 Y0.2446 F40
G3 X3.5777 Y0.245 I0.0005 J0.0009
G2 X3.5819 Y0.2474 I0.0043 J-0.0026
G1 X3.6039 Y0.2482
G2 X3.609 Y0.2438 I0.0002 J-0.005
G1 X3.6128 Y0.2124
X3.6651 Y0.2142
X3.6251 Y0.4039
X3.5447 Y0.4011
X3.5217 Y0.2092
X3.5749 Y0.2111
X3.577 Y0.2428
G2 X3.5777 Y0.245 I0.005 J-0.0003
G3 X3.5774 Y0.2464 I-0.0009 J0.0005
G1 X3.5765 Y0.2469
X3.5759 Y0.2472 Z0.0003
X3.5757 Y0.2474 Z0.001
X3.5743 Y0.2724
X3.5745 Y0.2726 Z0.0003 F13.33
X3.5751 Y0.273 Z0
X3.5759 Y0.2736 F40
G3 X3.5761 Y0.275 I-0.0006 J0.0008
G2 X3.5751 Y0.2784 I0.004 J0.003
G1 X3.5769 Y0.3022
Y0.3023
X3.5793 Y0.326
Y0.3261
X3.5838 Y0.3633
G2 X3.5937 Y0.3634 I0.005 J-0.0006
G1 X3.5969 Y0.3398
X3.6002 Y0.3164
X3.606 Y0.2795
G2 X3.6012 Y0.2738 I-0.0049 J-0.0008
G1 X3.5802 Y0.273
G2 X3.5761 Y0.275 I-0.0002 J0.005
G3 X3.5747 Y0.2752 I-0.0008 J-0.0006
G1 X3.5739 Y0.2746
X3.5733 Y0.2742 Z0.0003
X3.5731 Y0.274 Z0.001
G0 Z0.2
X3.7432 Y0.2048
G1 Z0.0394 F13.33
Z0.001
X3.7435 Z0.0003
X3.7442 Y0.2046 Z0
X3.7452 Y0.2043 F40
G3 X3.7464 Y0.205 I0.0003 J0.001
G2 X3.747 Y0.2063 I0.0048 J-0.0014
G1 X3.8308 Y0.3374
X3.7875 Y0.3651
X3.6847 Y0.2043
X3.7595 Y0.1565
X3.7758 Y0.1819
X3.7485 Y0.1993
G2 X3.7464 Y0.205 I0.0027 J0.0042
G3 X3.7457 Y0.2062 I-0.001 J0.0003
G1 X3.7448 Y0.2065
X3.7441 Y0.2067 Z0.0003
X3.7438 Y0.2068 Z0.001
G0 Z0.2
X3.8208 Y0.111
G1 Z0.0394 F13.33
Z0.001
Y0.1107 Z0.0003
X3.8206 Y0.11 Z0
X3.8204 Y0.1091 F40
G3 X3.8213 Y0.1079 I0.001 J-0.0002
G2 X3.825 Y0.1049 I-0.0009 J-0.0049
G1 X3.8335 Y0.0846
G2 X3.8312 Y0.0783 I-0.0046 J-0.0019
G1 X3.803 Y0.0635
X3.8233 Y0.0153
X3.9871 Y0.1204
X3.9561 Y0.1944
X3.7678 Y0.1475
X3.7884 Y0.0984
X3.8189 Y0.1078
G2 X3.8213 Y0.1079 I0.0015 J-0.0048
G3 X3.8224 Y0.1087 I0.0002 J0.001
G1 X3.8226 Y0.1097
X3.8227 Y0.1104 Z0.0003
X3.8228 Y0.1107 Z0.001
X3.8457 Y0.1209
X3.846 Y0.1207 Z0.0003 F13.33
X3.8466 Y0.1204 Z0
X3.8474 Y0.1198 F40
G3 X3.8488 Y0.1202 I0.0005 J0.0008
G2 X3.8516 Y0.1223 I0.0042 J-0.0026
G1 X3.8746 Y0.1291
X3.8747
X3.8978 Y0.1353
X3.8979
X3.9344 Y0.1444
G2 X3.938 Y0.1352 I0.0012 J-0.0049
G1 X3.917 Y0.1239
X3.8962 Y0.1124
X3.8799 Y0.1032
X3.8637 Y0.0938
G2 X3.8566 Y0.0962 I-0.0025 J0.0043
G1 X3.8484 Y0.1156
G2 X3.8488 Y0.1202 I0.0046 J0.0019
G3 X3.8485 Y0.1215 I-0.0008 J0.0005
G1 X3.8476 Y0.1221
X3.847 Y0.1224 Z0.0003
X3.8468 Y0.1226 Z0.001
G0 Z0.2
X3.8435 Y-0.0185
G1 Z0.0394 F13.33
Z0.001
X3.8436 Y-0.0182 Z0.0003
X3.8438 Y-0.0176 Z0
X3.8442 Y-0.0166 F40
G3 X3.8435 Y-0.0154 I-0.0009 J0.0003
G1 X3.8189 Y-0.0071
X3.7977 Y-0.07
X3.7955 Y-0.077
X3.7932 Y-0.0839
X3.7911 Y-0.0909
X3.7892 Y-0.0978
X3.7875 Y-0.1048
X3.7862 Y-0.1116
X3.7857 Y-0.1182
X3.7861 Y-0.1225
X3.7871 Y-0.1266
X3.789 Y-0.1304
X3.7915 Y-0.1338
X3.7946 Y-0.1367
X3.7994 Y-0.1399
X3.8046 Y-0.1427
X3.8103 Y-0.1451
X3.8161 Y-0.1472
X3.8336 Y-0.1531
X3.839 Y-0.1547
X3.8443 Y-0.1559
X3.8496 Y-0.1565
X3.8547 Y-0.1564
X3.8594 Y-0.1555
X3.8637 Y-0.1534
X3.8674 Y-0.1506
X3.8709 Y-0.1471
X3.8741 Y-0.1431
X3.877 Y-0.1388
X3.8798 Y-0.1341
G2 X3.889 Y-0.1373 I0.0043 J-0.0026
G1 X3.8885 Y-0.1414
X3.8882 Y-0.1455
X3.8881 Y-0.1496
X3.8883 Y-0.1535
X3.8888 Y-0.1572
X3.8897 Y-0.1605
X3.8911 Y-0.1633
X3.8936 Y-0.166
X3.8968 Y-0.1684
X3.9005 Y-0.1704
X3.9045 Y-0.1722
X3.9086 Y-0.1737
X3.9151 Y-0.1757
X3.9216 Y-0.1773
X3.9282 Y-0.1783
X3.9346 Y-0.1786
X3.9407 Y-0.1779
X3.9465 Y-0.176
X3.952 Y-0.173
X3.9569 Y-0.1693
X3.9618 Y-0.1639
X3.9659 Y-0.1577
X3.9695 Y-0.1509
X3.9727 Y-0.1437
X3.9757 Y-0.1364
X3.9785 Y-0.1289
X3.9811 Y-0.1214
X3.9992 Y-0.0678
X3.8435 Y-0.0154
G3 X3.8423 Y-0.016 I-0.0003 J-0.0009
G1 X3.842 Y-0.0169
X3.8417 Y-0.0176 Z0.0003
X3.8416 Y-0.0179 Z0.001
X3.8293 Y-0.0622
X3.8292 Y-0.0625 Z0.0003 F13.33
X3.8291 Y-0.0631 Z0
X3.8289 Y-0.0641 F40
G3 X3.8296 Y-0.0653 I0.001 J-0.0002
G2 X3.8301 Y-0.0655 I-0.0011 J-0.0049
G1 X3.8832 Y-0.0833
G2 X3.8863 Y-0.0899 I-0.0016 J-0.0047
G1 X3.8844 Y-0.0948
X3.8842 Y-0.0951
X3.882 Y-0.0999
G2 X3.8818 Y-0.1003 I-0.0045 J0.0021
G1 X3.8808 Y-0.1021
X3.8806 Y-0.1024
X3.8794 Y-0.1041
G2 X3.8789 Y-0.1048 I-0.0041 J0.0028
G1 X3.8775 Y-0.1063
G2 X3.8761 Y-0.1073 I-0.0036 J0.0035
G1 X3.8742 Y-0.1082
G2 X3.8724 Y-0.1087 I-0.0022 J0.0045
G1 X3.8696 Y-0.1089
G2 X3.8687 I-0.0004 J0.005
G1 X3.866 Y-0.1086
G2 X3.8655 I0.0005 J0.005
G1 X3.8628 Y-0.108
G2 X3.8624 Y-0.1079 I0.001 J0.0049
G1 X3.8561 Y-0.1061
X3.8559 Y-0.106
X3.8382 Y-0.1
X3.8381
X3.8352 Y-0.099
X3.8349 Y-0.0989
X3.8321 Y-0.0977
G2 X3.8317 Y-0.0975 I0.0019 J0.0046
G1 X3.8289 Y-0.096
G2 X3.8285 Y-0.0957 I0.0023 J0.0044
G1 X3.8259 Y-0.094
G2 X3.8249 Y-0.0931 I0.0028 J0.0041
G1 X3.8229 Y-0.0908
G2 X3.8219 Y-0.0887 I0.0038 J0.0032
G1 X3.8211 Y-0.0857
G2 X3.821 Y-0.0842 I0.0049 J0.0012
G1 X3.8213 Y-0.0794
G2 X3.8214 Y-0.0787 I0.005 J-0.0003
G1 X3.8224 Y-0.0739
Y-0.0736
X3.8237 Y-0.0689
G2 X3.8296 Y-0.0653 I0.0048 J-0.0013
G3 X3.8308 Y-0.0646 I0.0002 J0.001
G1 X3.831 Y-0.0636
X3.8312 Y-0.0629 Z0.0003
X3.8313 Y-0.0626 Z0.001
X3.9088 Y-0.0903
X3.9089 Y-0.0906 Z0.0003 F13.33
X3.909 Y-0.0913 Z0
X3.9092 Y-0.0922 F40
G3 X3.9103 Y-0.0931 I0.001 J0.0002
G2 X3.9128 Y-0.0933 I0.0008 J-0.0049
G1 X3.955 Y-0.1074
G2 X3.9581 Y-0.1139 I-0.0016 J-0.0047
G1 X3.957 Y-0.1169
X3.9559 Y-0.1198
X3.9557 Y-0.1201
X3.9544 Y-0.123
X3.9543 Y-0.1233
X3.9528 Y-0.1261
G2 X3.9519 Y-0.1272 I-0.0044 J0.0024
G1 X3.9497 Y-0.1294
G2 X3.9483 Y-0.1305 I-0.0036 J0.0035
G1 X3.9454 Y-0.1318
G2 X3.944 Y-0.1322 I-0.0021 J0.0045
G1 X3.9403 Y-0.1327
G2 X3.939 I-0.0006 J0.005
G1 X3.9354 Y-0.1322
G2 X3.9349 Y-0.1321 I0.0006 J0.005
G1 X3.9313 Y-0.1313
X3.9309 Y-0.1312
X3.9274 Y-0.13
X3.9272
X3.9218 Y-0.1281
X3.9216 Y-0.128
X3.9163 Y-0.1259
X3.9159 Y-0.1258
X3.9107 Y-0.1233
G2 X3.9103 Y-0.1231 I0.0022 J0.0045
G1 X3.9084 Y-0.1219
G2 X3.9079 Y-0.1215 I0.0026 J0.0042
G1 X3.9062 Y-0.1201
G2 X3.9051 Y-0.1188 I0.0032 J0.0038
G1 X3.904 Y-0.1169
G2 X3.9034 Y-0.1154 I0.0043 J0.0025
G1 X3.903 Y-0.1133
G2 X3.9029 Y-0.112 I0.0049 J0.001
G1 X3.9032 Y-0.1077
G2 X3.9034 Y-0.1067 I0.005 J-0.0003
G1 X3.9045 Y-0.1025
X3.9046 Y-0.1023
X3.9056 Y-0.0991
X3.9064 Y-0.0965
G2 X3.9103 Y-0.0931 I0.0048 J-0.0015
G3 X3.9111 Y-0.0919 I-0.0002 J0.001
G1 X3.911 Y-0.0909
X3.9108 Y-0.0902 Z0.0003
Y-0.0899 Z0.001
G0 Z0.2
X3.6835 Y-0.2261
G1 Z0.0394 F13.33
Z0.001
X3.6837 Y-0.2263 Z0.0003
X3.6842 Y-0.2268 Z0
X3.685 Y-0.2275 F40
G3 X3.6864 Y-0.2274 I0.0007 J0.0007
G1 X3.7142 Y-0.1987
G3 Y-0.1973 I-0.0007 J0.0007
G1 X3.7135 Y-0.1966
X3.713 Y-0.1961 Z0.0003
X3.7127 Y-0.1959 Z0.001
G0 Z0.2
X3.6595 Y-0.2635
G1 Z0.0394 F13.33
Z0.001
X3.6598 Y-0.2634 Z0.0003
X3.6604 Y-0.263 Z0
X3.6613 Y-0.2625 F40
G3 X3.6617 Y-0.2612 I-0.0005 J0.0009
X3.532 Y-0.311 I-0.0617 J-0.033
G1 X3.5321 Y-0.3112
X3.5337 Y-0.3191
X3.536 Y-0.3259
X3.539 Y-0.3322
X3.5425 Y-0.3382
X3.5464 Y-0.344
X3.5506 Y-0.3498
X3.5539 Y-0.3544
X3.554 Y-0.3545
X3.5571 Y-0.3591
X3.5573 Y-0.3594
X3.5601 Y-0.3643
G2 X3.5604 Y-0.3648 I-0.0043 J-0.0025
G1 X3.5627 Y-0.3701
G2 X3.5629 Y-0.3708 I-0.0046 J-0.002
G1 X3.5645 Y-0.3766
G2 X3.5646 Y-0.3775 I-0.0048 J-0.0013
G1 X3.5652 Y-0.3841
G2 Y-0.3845 I-0.005 J-0.0004
G1 Y-0.3998
G3 X3.6348 Y-0.4134 I0.048 J0.0607
G1 Y-0.3845
G2 Y-0.3841 I0.005
G1 X3.6353 Y-0.3778
G2 X3.6355 Y-0.377 I0.005 J-0.0004
G1 X3.6369 Y-0.3713
G2 X3.6371 Y-0.3706 I0.0048 J-0.0012
G1 X3.6392 Y-0.3656
G2 X3.6395 Y-0.365 I0.0046 J-0.0019
G1 X3.6421 Y-0.3604
X3.6423 Y-0.36
X3.6453 Y-0.3556
X3.6454 Y-0.3554
X3.6485 Y-0.3511
Y-0.351
X3.6517 Y-0.3467
X3.6547 Y-0.3424
X3.6584 Y-0.3369
X3.6616 Y-0.3312
X3.6643 Y-0.3252
X3.6665 Y-0.3187
X3.6679 Y-0.3113
X3.668 Y-0.311
G3 X3.6617 Y-0.2612 I-0.068 J0.0168
X3.6604 Y-0.2608 I-0.0009 J-0.0005
G1 X3.6595 Y-0.2613
X3.6589 Y-0.2616 Z0.0003
X3.6586 Y-0.2617 Z0.001
X3.6293 Y-0.2499
X3.6292 Y-0.2497 Z0.0003 F13.33
X3.6291 Y-0.249 Z0
X3.6288 Y-0.248 F40
G3 X3.6276 Y-0.2473 I-0.001 J-0.0003
G1 X3.617 Y-0.2501
X3.6076 Y-0.2528
X3.5995 Y-0.2554
X3.5925 Y-0.2579
X3.5866 Y-0.2603
X3.5817 Y-0.2625
X3.5779 Y-0.2646
X3.5751 Y-0.2666
X3.5733 Y-0.2682
X3.5723 Y-0.2695
X3.572 Y-0.2703
X3.5719 Y-0.2707
X3.5722 Y-0.2716
X3.5731 Y-0.273
X3.5749 Y-0.2749
X3.5776 Y-0.2769
X3.5823 Y-0.2799
X3.588 Y-0.2829
X3.5943 Y-0.286
X3.6011 Y-0.2892
X3.608 Y-0.2925
X3.6081
X3.6148 Y-0.2959
X3.615 Y-0.296
X3.6212 Y-0.2994
X3.6215 Y-0.2996
X3.6271 Y-0.3032
G2 X3.6275 Y-0.3035 I-0.0027 J-0.0042
G1 X3.6322 Y-0.3072
G2 X3.6327 Y-0.3077 I-0.0031 J-0.0039
G1 X3.6352 Y-0.3103
G2 X3.6357 Y-0.3109 I-0.0036 J-0.0034
G1 X3.6375 Y-0.3136
G2 X3.638 Y-0.3145 I-0.0041 J-0.0029
G1 X3.6392 Y-0.3172
G2 X3.6396 Y-0.3184 I-0.0046 J-0.002
G1 X3.64 Y-0.3213
G2 Y-0.3227 I-0.0049 J-0.0008
G1 X3.6397 Y-0.3257
G2 X3.6393 Y-0.327 I-0.005 J0.0006
G1 X3.6381 Y-0.3301
G2 X3.6376 Y-0.331 I-0.0046 J0.0019
G1 X3.6356 Y-0.3339
G2 X3.6352 Y-0.3345 I-0.0041 J0.0028
G1 X3.6324 Y-0.3375
G2 X3.6319 Y-0.3379 I-0.0037 J0.0034
G1 X3.6283 Y-0.341
G2 X3.6279 Y-0.3413 I-0.0032 J0.0038
G1 X3.6233 Y-0.3445
X3.623 Y-0.3447
X3.6174 Y-0.3481
X3.6172 Y-0.3482
X3.6107 Y-0.3516
X3.6104 Y-0.3517
X3.6029 Y-0.3552
X3.6027 Y-0.3553
X3.594 Y-0.359
X3.5939
X3.5841 Y-0.3628
G3 X3.5835 Y-0.3641 I0.0004 J-0.0009
G1 X3.5838 Y-0.3651
X3.5841 Y-0.3657 Z0.0003
X3.5842 Y-0.366 Z0.001
G0 Z0.2
X3.5856 Y-0.465
G1 Z0.0394 F13.33
Z0.001
X3.5855 Y-0.4653 Z0.0003
X3.5853 Y-0.466 Z0
X3.585 Y-0.467 F40
G3 X3.5857 Y-0.4682 I0.001 J-0.0003
X3.5932 Y-0.4692 I0.0075 J0.027
G1 X3.6068
G3 X3.6314 Y-0.4545 J0.028
G2 X3.5652 Y-0.4421 I-0.0183 J0.0854
G3 X3.5857 Y-0.4682 I0.028 J0.0009
X3.587 Y-0.4675 I0.0003 J0.001
G1 X3.5872 Y-0.4665
X3.5874 Y-0.4659 Z0.0003
X3.5875 Y-0.4656 Z0.001
G0 Z0.2
X3.4896 Y-0.307
G1 Z0.0394 F13.33
Z0.001
X3.4897 Y-0.3068 Z0.0003
X3.4898 Y-0.3061 Z0
X3.49 Y-0.3051 F40
G3 X3.4892 Y-0.3039 I-0.001 J0.0002
G1 X3.4499 Y-0.2965
G3 X3.4487 Y-0.2973 I-0.0002 J-0.001
G1 X3.4485 Y-0.2983
X3.4484 Y-0.299 Z0.0003
X3.4483 Y-0.2993 Z0.001
G0 Z0.2
X3.505 Y-0.2372
G1 Z0.0394 F13.33
Z0.001
X3.5052 Y-0.237 Z0.0003
X3.5057 Y-0.2365 Z0
X3.5064 Y-0.2358 F40
G3 Y-0.2344 I-0.0007 J0.0007
G1 X3.4786 Y-0.2057
G3 X3.4772 I-0.0007 J-0.0007
G1 X3.4765 Y-0.2063
X3.476 Y-0.2068 Z0.0003
X3.4758 Y-0.207 Z0.001
G0 Z0.2
X3.592 Y-0.1852
G1 Z0.0394 F13.33
Z0.001
G18 G2 X3.593 Z0 I0.001
G1 X3.594 F40
G17 G3 X3.595 Y-0.1842 J0.001
G1 Y-0.1442
G3 X3.594 Y-0.1432 I-0.001
G1 X3.593
G18 G3 X3.592 Z0.001 K0.001
G0 Z0.2
X3.7074 Y-0.2913
G1 Z0.0394 F13.33
Z0.001
X3.7075 Y-0.2916 Z0.0003
X3.7076 Y-0.2923 Z0
X3.7078 Y-0.2933 F40
G17 G3 X3.709 Y-0.2941 I0.001 J0.0002
G1 X3.7483 Y-0.2867
G3 X3.7491 Y-0.2855 I-0.0002 J0.001
G1 X3.7489 Y-0.2846
X3.7488 Y-0.2839 Z0.0003
X3.7487 Y-0.2836 Z0.001
G0 Z0.2
X4.5884 Y-0.0726
G1 Z0.0394 F13.33
Z0.001
X4.5886 Y-0.0725 Z0.0003
X4.5893 Y-0.0722 Z0
X4.5902 Y-0.0719 F40
G3 X4.5909 Y-0.0707 I-0.0003 J0.0009
G1 X4.5826 Y-0.0461
X4.4023 Y-0.1071
X4.4189 Y-0.1562
X4.5992 Y-0.0952
X4.5909 Y-0.0707
G3 X4.5896 Y-0.07 I-0.0009 J-0.0003
G1 X4.5887 Y-0.0703
X4.588 Y-0.0706 Z0.0003
X4.5877 Y-0.0707 Z0.001
G0 Z0.2
X4.5844 Y0.015
G1 Z0.0394 F13.33
Z0.001
X4.5846 Y0.0149 Z0.0003
X4.5853 Y0.0147 Z0
X4.5863 Y0.0145 F40
G3 X4.5875 Y0.0152 I0.0002 J0.001
G1 X4.599 Y0.0608
X4.6009 Y0.0689
X4.6027 Y0.077
X4.6041 Y0.0851
X4.605 Y0.0931
Y0.0979
X4.6046 Y0.1027
X4.6037 Y0.1072
X4.6022 Y0.1115
X4.6 Y0.1153
X4.5972 Y0.1185
X4.5937 Y0.1213
X4.5896 Y0.1234
X4.585 Y0.1253
X4.5802 Y0.127
X4.5704 Y0.1299
X4.5604 Y0.1325
X4.4921 Y0.1497
X4.4832 Y0.1519
X4.4744 Y0.1539
X4.4656 Y0.1556
X4.4569 Y0.1568
X4.4517
X4.4466 Y0.1557
X4.4417 Y0.1538
X4.4371 Y0.1511
X4.433 Y0.1476
X4.4295 Y0.1436
X4.4249 Y0.1364
X4.4212 Y0.1286
X4.4181 Y0.1203
X4.4153 Y0.1117
X4.4127 Y0.1031
X4.4102 Y0.0943
X4.4079 Y0.0855
X4.4056 Y0.0766
X4.3956 Y0.0366
X4.5812 Y-0.01
X4.5875 Y0.0152
G3 X4.5868 Y0.0164 I-0.001 J0.0002
G1 X4.5858 Y0.0167
X4.5851 Y0.0168 Z0.0003
X4.5848 Y0.0169 Z0.001
X4.5664 Y0.0442
Y0.0445 Z0.0003 F13.33
X4.5665 Y0.0452 Z0
X4.5666 Y0.0462 F40
G3 X4.5658 Y0.0473 I-0.001 J0.0001
G2 X4.5652 Y0.0474 I0.0007 J0.005
G1 X4.4368 Y0.0797
G2 X4.4332 Y0.0859 I0.0012 J0.0048
G1 X4.4345 Y0.0906
X4.4346 Y0.091
X4.4363 Y0.0956
G2 X4.4366 Y0.0962 I0.0047 J-0.0017
G1 X4.4381 Y0.0991
G2 X4.4389 Y0.1002 I0.0044 J-0.0024
G1 X4.4412 Y0.1026
G2 X4.4427 Y0.1036 I0.0036 J-0.0035
G1 X4.4457 Y0.105
G2 X4.4474 Y0.1054 I0.0021 J-0.0046
G1 X4.4501 Y0.1056
G2 X4.451 I0.0004 J-0.005
G1 X4.4537 Y0.1053
X4.454
X4.4567 Y0.1048
X4.4569
X4.4596 Y0.1042
X4.4597
X4.4681 Y0.1023
X4.4682 Y0.1022
X4.5441 Y0.0832
X4.5493 Y0.0818
X4.5495
X4.5546 Y0.0803
X4.5548 Y0.0802
X4.5598 Y0.0785
G2 X4.5603 Y0.0783 I-0.0016 J-0.0047
G1 X4.5651 Y0.0761
G2 X4.5658 Y0.0757 I-0.0021 J-0.0045
G1 X4.568 Y0.0742
G2 X4.5692 Y0.0732 I-0.0027 J-0.0042
G1 X4.5708 Y0.0711
G2 X4.5717 Y0.0696 I-0.0039 J-0.0031
G1 X4.5725 Y0.067
G2 X4.5727 Y0.0659 I-0.0048 J-0.0015
G1 X4.573 Y0.0633
G2 Y0.0624 I-0.005 J-0.0004
G1 X4.5725 Y0.0571
G2 X4.5724 Y0.0565 I-0.005 J0.0004
G1 X4.5714 Y0.0513
G2 X4.5658 Y0.0473 I-0.0049 J0.001
G3 X4.5647 Y0.0465 I-0.0001 J-0.001
G1 X4.5645 Y0.0455
X4.5644 Y0.0448 Z0.0003
Y0.0445 Z0.001
G0 Z0.2
X4.6496 Y0.1606
G1 Z0.0394 F13.33
Z0.001
X4.6498 Y0.1604 Z0.0003
X4.6502 Y0.1598 Z0
X4.6508 Y0.1591 F40
G3 X4.6523 Y0.1589 I0.0008 J0.0006
G1 X4.7075 Y0.2024
X4.6888 Y0.2262
X4.6572 Y0.2013
G2 X4.6502 Y0.2022 I-0.0031 J0.0039
G1 X4.6228 Y0.2369
G2 X4.6237 Y0.2439 I0.0039 J0.0031
G1 X4.65 Y0.2646
X4.6325 Y0.2868
X4.6062 Y0.2661
G2 X4.5992 Y0.267 I-0.0031 J0.0039
G1 X4.5756 Y0.297
G2 X4.5764 Y0.304 I0.0039 J0.0031
G1 X4.6047 Y0.3263
X4.586 Y0.3501
X4.5132 Y0.2928
X4.6315 Y0.1426
X4.6523 Y0.1589
G3 X4.6524 Y0.1603 I-0.0006 J0.0008
G1 X4.6518 Y0.1611
X4.6514 Y0.1616 Z0.0003
X4.6512 Y0.1619 Z0.001
G0 Z0.2
X4.7747 Y0.2457
G1 Z0.0394 F13.33
Z0.001
X4.7749 Y0.2455 Z0.0003
X4.7755 Y0.2452 Z0
X4.7764 Y0.2446 F40
G3 X4.7778 Y0.245 I0.0005 J0.0009
G2 X4.7819 Y0.2474 I0.0043 J-0.0026
G1 X4.8039 Y0.2482
G2 X4.809 Y0.2438 I0.0002 J-0.005
G1 X4.8128 Y0.2124
X4.8651 Y0.2142
X4.8251 Y0.4039
X4.7447 Y0.4011
X4.7216 Y0.2092
X4.775 Y0.2111
X4.7771 Y0.2428
G2 X4.7778 Y0.245 I0.005 J-0.0003
G3 X4.7774 Y0.2464 I-0.0009 J0.0005
G1 X4.7765 Y0.2469
X4.7759 Y0.2472 Z0.0003
X4.7757 Y0.2474 Z0.001
X4.7743 Y0.2724
X4.7745 Y0.2726 Z0.0003 F13.33
X4.7751 Y0.273 Z0
X4.7759 Y0.2736 F40
G3 X4.7761 Y0.275 I-0.0006 J0.0008
G2 X4.7751 Y0.2784 I0.004 J0.003
G1 X4.7769 Y0.3022
Y0.3023
X4.7793 Y0.326
Y0.3261
X4.7838 Y0.3633
G2 X4.7937 Y0.3634 I0.005 J-0.0006
G1 X4.7968 Y0.3398
X4.8001 Y0.3164
X4.806 Y0.2795
G2 X4.8012 Y0.2738 I-0.0049 J-0.0008
G1 X4.7802 Y0.273
G2 X4.7761 Y0.275 I-0.0002 J0.005
G3 X4.7747 Y0.2752 I-0.0008 J-0.0006
G1 X4.7739 Y0.2746
X4.7733 Y0.2742 Z0.0003
X4.7731 Y0.274 Z0.001
G0 Z0.2
X4.9433 Y0.2048
G1 Z0.0394 F13.33
Z0.001
X4.9435 Z0.0003
X4.9442 Y0.2046 Z0
X4.9452 Y0.2043 F40
G3 X4.9464 Y0.205 I0.0003 J0.001
G2 X4.947 Y0.2063 I0.0048 J-0.0014
G1 X5.0309 Y0.3374
X4.9875 Y0.3651
X4.8847 Y0.2043
X4.9595 Y0.1565
X4.9758 Y0.1819
X4.9485 Y0.1993
G2 X4.9464 Y0.205 I0.0027 J0.0042
G3 X4.9457 Y0.2062 I-0.001 J0.0003
G1 X4.9448 Y0.2065
X4.9441 Y0.2067 Z0.0003
X4.9438 Y0.2068 Z0.001
G0 Z0.2
X5.0208 Y0.111
G1 Z0.0394 F13.33
Z0.001
X5.0207 Y0.1107 Z0.0003
X5.0206 Y0.11 Z0
X5.0204 Y0.1091 F40
G3 X5.0212 Y0.1079 I0.001 J-0.0002
G2 X5.025 Y0.1049 I-0.0009 J-0.0049
G1 X5.0335 Y0.0846
G2 X5.0312 Y0.0783 I-0.0046 J-0.0019
G1 X5.003 Y0.0635
X5.0233 Y0.0153
X5.1871 Y0.1204
X5.1561 Y0.1944
X4.9678 Y0.1475
X4.9884 Y0.0984
X5.0189 Y0.1078
G2 X5.0212 Y0.1079 I0.0015 J-0.0048
G3 X5.0224 Y0.1087 I0.0002 J0.001
G1 X5.0226 Y0.1097
X5.0227 Y0.1104 Z0.0003
X5.0228 Y0.1107 Z0.001
X5.0457 Y0.1209
X5.046 Y0.1207 Z0.0003 F13.33
X5.0466 Y0.1204 Z0
X5.0474 Y0.1198 F40
G3 X5.0488 Y0.1202 I0.0005 J0.0008
G2 X5.0517 Y0.1223 I0.0042 J-0.0026
G1 X5.0746 Y0.1291
X5.0747
X5.0978 Y0.1353
X5.0979
X5.1344 Y0.1444
G2 X5.138 Y0.1352 I0.0012 J-0.0049
G1 X5.117 Y0.1239
X5.0962 Y0.1124
X5.0799 Y0.1032
X5.0637 Y0.0938
G2 X5.0566 Y0.0962 I-0.0025 J0.0043
G1 X5.0485 Y0.1156
G2 X5.0488 Y0.1202 I0.0046 J0.0019
G3 X5.0485 Y0.1215 I-0.0009 J0.0005
G1 X5.0476 Y0.1221
X5.047 Y0.1224 Z0.0003
X5.0468 Y0.1226 Z0.001
G0 Z0.2
X5.0435 Y-0.0185
G1 Z0.0394 F13.33
Z0.001
X5.0436 Y-0.0182 Z0.0003
X5.0438 Y-0.0176 Z0
X5.0442 Y-0.0166 F40
G3 X5.0435 Y-0.0154 I-0.0009 J0.0003
G1 X5.0189 Y-0.0071
X4.9977 Y-0.07
X4.9955 Y-0.077
X4.9932 Y-0.0839
X4.9911 Y-0.0909
X4.9892 Y-0.0978
X4.9875 Y-0.1048
X4.9862 Y-0.1116
X4.9857 Y-0.1182
X4.9861 Y-0.1225
X4.9872 Y-0.1266
X4.989 Y-0.1304
X4.9914 Y-0.1338
X4.9946 Y-0.1367
X4.9994 Y-0.1399
X5.0046 Y-0.1427
X5.0103 Y-0.1451
X5.0161 Y-0.1472
X5.0336 Y-0.1531
X5.0389 Y-0.1547
X5.0443 Y-0.1559
X5.0495 Y-0.1565
X5.0547 Y-0.1564
X5.0594 Y-0.1555
X5.0637 Y-0.1534
X5.0674 Y-0.1506
X5.0708 Y-0.1471
X5.074 Y-0.1431
X5.077 Y-0.1388
X5.0798 Y-0.1341
G2 X5.089 Y-0.1373 I0.0043 J-0.0026
G1 X5.0885 Y-0.1414
X5.0882 Y-0.1455
X5.0881 Y-0.1496
X5.0883 Y-0.1535
X5.0888 Y-0.1572
X5.0897 Y-0.1606
X5.0911 Y-0.1633
X5.0936 Y-0.166
X5.0968 Y-0.1684
X5.1005 Y-0.1704
X5.1044 Y-0.1722
X5.1086 Y-0.1737
X5.1151 Y-0.1757
X5.1216 Y-0.1773
X5.1282 Y-0.1783
X5.1346 Y-0.1786
X5.1407 Y-0.1779
X5.1465 Y-0.176
X5.152 Y-0.173
X5.1569 Y-0.1693
X5.1618 Y-0.1639
X5.1659 Y-0.1577
X5.1695 Y-0.1509
X5.1727 Y-0.1437
X5.1757 Y-0.1364
X5.1785 Y-0.1289
X5.1811 Y-0.1214
X5.1992 Y-0.0678
X5.0435 Y-0.0154
G3 X5.0423 Y-0.016 I-0.0003 J-0.0009
G1 X5.0419 Y-0.0169
X5.0417 Y-0.0176 Z0.0003
X5.0416 Y-0.0179 Z0.001
X5.0868 Y-0.0819
X5.0866 Y-0.0821 Z0.0003 F13.33
X5.0861 Y-0.0826 Z0
X5.0854 Y-0.0832 F40
G3 X5.0853 Y-0.0846 I0.0007 J-0.0007
G2 X5.0863 Y-0.0899 I-0.0037 J-0.0034
G1 X5.0843 Y-0.0948
X5.0842 Y-0.0951
X5.082 Y-0.0999
G2 X5.0818 Y-0.1003 I-0.0045 J0.0021
G1 X5.0808 Y-0.1021
G2 X5.0806 Y-0.1024 I-0.0043 J0.0025
G1 X5.0794 Y-0.1041
G2 X5.0789 Y-0.1047 I-0.0041 J0.0028
G1 X5.0775 Y-0.1062
G2 X5.0761 Y-0.1073 I-0.0036 J0.0034
G1 X5.0742 Y-0.1082
G2 X5.0724 Y-0.1087 I-0.0022 J0.0045
G1 X5.0696 Y-0.1089
G2 X5.0687 I-0.0004 J0.005
G1 X5.066 Y-0.1086
G2 X5.0655 I0.0005 J0.005
G1 X5.0628 Y-0.108
G2 X5.0624 Y-0.1079 I0.001 J0.0049
G1 X5.0561 Y-0.1061
X5.0559 Y-0.106
X5.0382 Y-0.1
X5.0381
X5.0352 Y-0.099
X5.035 Y-0.0989
X5.0321 Y-0.0977
G2 X5.0317 Y-0.0975 I0.0019 J0.0046
G1 X5.0289 Y-0.096
G2 X5.0285 Y-0.0957 I0.0024 J0.0044
G1 X5.0259 Y-0.094
G2 X5.0249 Y-0.0931 I0.0028 J0.0041
G1 X5.0229 Y-0.0908
G2 X5.0219 Y-0.0887 I0.0038 J0.0033
G1 X5.0211 Y-0.0857
G2 X5.021 Y-0.0842 I0.0049 J0.0012
G1 X5.0213 Y-0.0793
G2 X5.0214 Y-0.0787 I0.005 J-0.0003
G1 X5.0223 Y-0.0739
X5.0224 Y-0.0736
X5.0237 Y-0.0689
G2 X5.0301 Y-0.0655 I0.0048 J-0.0013
G1 X5.0832 Y-0.0833
G2 X5.0853 Y-0.0846 I-0.0016 J-0.0047
G3 X5.0867 Y-0.0847 I0.0007 J0.0007
G1 X5.0874 Y-0.084
X5.088 Y-0.0835 Z0.0003
X5.0882 Y-0.0833 Z0.001
X5.1088 Y-0.0903
X5.1089 Y-0.0906 Z0.0003 F13.33
X5.109 Y-0.0913 Z0
X5.1092 Y-0.0922 F40
G3 X5.1103 Y-0.0931 I0.001 J0.0002
G2 X5.1128 Y-0.0933 I0.0008 J-0.0049
G1 X5.155 Y-0.1074
G2 X5.1581 Y-0.1139 I-0.0016 J-0.0047
G1 X5.157 Y-0.1169
X5.1559 Y-0.1198
X5.1557 Y-0.1201
X5.1544 Y-0.123
X5.1543 Y-0.1233
X5.1528 Y-0.1261
G2 X5.1519 Y-0.1272 I-0.0044 J0.0024
G1 X5.1497 Y-0.1294
G2 X5.1483 Y-0.1305 I-0.0036 J0.0035
G1 X5.1454 Y-0.1318
G2 X5.144 Y-0.1322 I-0.0021 J0.0045
G1 X5.1403 Y-0.1327
G2 X5.139 I-0.0006 J0.005
G1 X5.1354 Y-0.1322
G2 X5.1349 Y-0.1321 I0.0006 J0.005
G1 X5.1313 Y-0.1313
G2 X5.1309 Y-0.1312 I0.0011 J0.0049
G1 X5.1274 Y-0.13
X5.1272
X5.1218 Y-0.1281
X5.1216 Y-0.128
X5.1163 Y-0.1259
X5.116 Y-0.1258
X5.1108 Y-0.1233
G2 X5.1103 Y-0.1231 I0.0022 J0.0045
G1 X5.1084 Y-0.1219
G2 X5.1078 Y-0.1215 I0.0026 J0.0043
G1 X5.1062 Y-0.1201
G2 X5.1051 Y-0.1188 I0.0032 J0.0038
G1 X5.104 Y-0.1169
G2 X5.1034 Y-0.1154 I0.0043 J0.0025
G1 X5.103 Y-0.1133
G2 X5.1029 Y-0.112 I0.0049 J0.001
G1 X5.1032 Y-0.1077
G2 X5.1034 Y-0.1067 I0.005 J-0.0003
G1 X5.1045 Y-0.1025
X5.1046 Y-0.1023
X5.1056 Y-0.0991
X5.1064 Y-0.0965
G2 X5.1103 Y-0.0931 I0.0048 J-0.0015
G3 X5.1112 Y-0.0919 I-0.0002 J0.001
G1 X5.111 Y-0.0909
X5.1109 Y-0.0902 Z0.0003
X5.1108 Y-0.0899 Z0.001
G0 Z0.2
X4.8835 Y-0.2261
G1 Z0.0394 F13.33
Z0.001
X4.8837 Y-0.2263 Z0.0003
X4.8842 Y-0.2268 Z0
X4.885 Y-0.2275 F40
G3 X4.8864 Y-0.2274 I0.0007 J0.0007
G1 X4.9142 Y-0.1987
G3 Y-0.1973 I-0.0007 J0.0007
G1 X4.9135 Y-0.1966
X4.913 Y-0.1961 Z0.0003
X4.9127 Y-0.1959 Z0.001
G0 Z0.2
X4.8595 Y-0.2635
G1 Z0.0394 F13.33
Z0.001
X4.8598 Y-0.2634 Z0.0003
X4.8604 Y-0.263 Z0
X4.8613 Y-0.2625 F40
G3 X4.8617 Y-0.2612 I-0.0005 J0.0009
X4.7321 Y-0.311 I-0.0617 J-0.033
G1 Y-0.3112
X4.7337 Y-0.3191
X4.736 Y-0.3259
X4.739 Y-0.3322
X4.7425 Y-0.3382
X4.7464 Y-0.344
X4.7506 Y-0.3498
X4.7539 Y-0.3544
Y-0.3545
X4.7571 Y-0.3591
X4.7573 Y-0.3594
X4.7601 Y-0.3643
G2 X4.7604 Y-0.3648 I-0.0043 J-0.0025
G1 X4.7627 Y-0.3701
G2 X4.7629 Y-0.3708 I-0.0046 J-0.002
G1 X4.7645 Y-0.3766
G2 X4.7646 Y-0.3775 I-0.0048 J-0.0013
G1 X4.7652 Y-0.3841
G2 Y-0.3845 I-0.005 J-0.0004
G1 Y-0.3998
G3 X4.8348 Y-0.4134 I0.048 J0.0607
G1 Y-0.3845
G2 Y-0.3841 I0.005
G1 X4.8353 Y-0.3778
G2 X4.8355 Y-0.377 I0.005 J-0.0004
G1 X4.8369 Y-0.3713
G2 X4.8371 Y-0.3706 I0.0048 J-0.0012
G1 X4.8392 Y-0.3656
G2 X4.8395 Y-0.365 I0.0046 J-0.0019
G1 X4.8421 Y-0.3604
X4.8423 Y-0.36
X4.8453 Y-0.3556
X4.8454 Y-0.3554
X4.8485 Y-0.3511
X4.8516 Y-0.3467
X4.8547 Y-0.3424
X4.8583 Y-0.3369
X4.8616 Y-0.3312
X4.8643 Y-0.3252
X4.8664 Y-0.3187
X4.8679 Y-0.3113
Y-0.311
G3 X4.8617 Y-0.2612 I-0.0679 J0.0168
X4.8604 Y-0.2608 I-0.0009 J-0.0005
G1 X4.8595 Y-0.2613
X4.8588 Y-0.2616 Z0.0003
X4.8586 Y-0.2617 Z0.001
X4.8293 Y-0.2499
X4.8292 Y-0.2497 Z0.0003 F13.33
X4.8291 Y-0.249 Z0
X4.8288 Y-0.248 F40
G3 X4.8276 Y-0.2473 I-0.001 J-0.0003
G1 X4.817 Y-0.2501
X4.8076 Y-0.2528
X4.7995 Y-0.2554
X4.7924 Y-0.2579
X4.7866 Y-0.2603
X4.7817 Y-0.2625
X4.7779 Y-0.2646
X4.7751 Y-0.2666
X4.7733 Y-0.2682
X4.7723 Y-0.2695
X4.772 Y-0.2703
Y-0.2707
X4.7722 Y-0.2716
X4.7731 Y-0.273
X4.7749 Y-0.2749
X4.7775 Y-0.2769
X4.7823 Y-0.2799
X4.788 Y-0.2829
X4.7943 Y-0.286
X4.8011 Y-0.2892
X4.808 Y-0.2925
X4.8081
X4.8148 Y-0.2959
X4.815 Y-0.296
X4.8212 Y-0.2994
X4.8215 Y-0.2996
X4.8271 Y-0.3032
G2 X4.8275 Y-0.3035 I-0.0027 J-0.0042
G1 X4.8322 Y-0.3072
G2 X4.8327 Y-0.3077 I-0.0031 J-0.0039
G1 X4.8352 Y-0.3103
G2 X4.8356 Y-0.3109 I-0.0036 J-0.0034
G1 X4.8375 Y-0.3136
G2 X4.838 Y-0.3145 I-0.0041 J-0.0029
G1 X4.8392 Y-0.3173
G2 X4.8395 Y-0.3184 I-0.0046 J-0.002
G1 X4.84 Y-0.3213
G2 Y-0.3227 I-0.0049 J-0.0008
G1 X4.8397 Y-0.3257
G2 X4.8394 Y-0.327 I-0.005 J0.0006
G1 X4.8381 Y-0.3301
G2 X4.8376 Y-0.331 I-0.0046 J0.0019
G1 X4.8356 Y-0.3339
G2 X4.8352 Y-0.3345 I-0.0041 J0.0028
G1 X4.8324 Y-0.3375
G2 X4.8319 Y-0.3379 I-0.0037 J0.0034
G1 X4.8283 Y-0.341
G2 X4.8279 Y-0.3413 I-0.0032 J0.0038
G1 X4.8233 Y-0.3445
X4.823 Y-0.3447
X4.8174 Y-0.3481
X4.8172 Y-0.3482
X4.8107 Y-0.3516
X4.8105 Y-0.3517
X4.8029 Y-0.3552
X4.8027 Y-0.3553
X4.794 Y-0.359
X4.7939
X4.784 Y-0.3628
G3 X4.7835 Y-0.3641 I0.0004 J-0.0009
G1 X4.7838 Y-0.3651
X4.7841 Y-0.3657 Z0.0003
X4.7842 Y-0.366 Z0.001
G0 Z0.2
X4.7856 Y-0.465
G1 Z0.0394 F13.33
Z0.001
X4.7855 Y-0.4653 Z0.0003
X4.7853 Y-0.466 Z0
X4.785 Y-0.467 F40
G3 X4.7857 Y-0.4682 I0.001 J-0.0003
X4.7932 Y-0.4692 I0.0075 J0.027
G1 X4.8068
G3 X4.8314 Y-0.4545 J0.028
G2 X4.7652 Y-0.4421 I-0.0183 J0.0854
G3 X4.7857 Y-0.4682 I0.028 J0.0009
X4.787 Y-0.4675 I0.0003 J0.001
G1 X4.7872 Y-0.4665
X4.7874 Y-0.4659 Z0.0003
X4.7875 Y-0.4656 Z0.001
G0 Z0.2
X4.6896 Y-0.307
G1 Z0.0394 F13.33
Z0.001
X4.6897 Y-0.3068 Z0.0003
X4.6898 Y-0.3061 Z0
X4.69 Y-0.3051 F40
G3 X4.6892 Y-0.3039 I-0.001 J0.0002
G1 X4.6499 Y-0.2965
G3 X4.6487 Y-0.2973 I-0.0002 J-0.001
G1 X4.6485 Y-0.2983
X4.6484 Y-0.299 Z0.0003
X4.6483 Y-0.2993 Z0.001
G0 Z0.2
X4.705 Y-0.2372
G1 Z0.0394 F13.33
Z0.001
X4.7052 Y-0.237 Z0.0003
X4.7057 Y-0.2365 Z0
X4.7064 Y-0.2358 F40
G3 Y-0.2344 I-0.0007 J0.0007
G1 X4.6786 Y-0.2057
G3 X4.6772 I-0.0007 J-0.0007
G1 X4.6765 Y-0.2063
X4.676 Y-0.2068 Z0.0003
X4.6758 Y-0.207 Z0.001
G0 Z0.2
X4.792 Y-0.1852
G1 Z0.0394 F13.33
Z0.001
G18 G2 X4.793 Z0 I0.001
G1 X4.794 F40
G17 G3 X4.795 Y-0.1842 J0.001
G1 Y-0.1442
G3 X4.794 Y-0.1432 I-0.001
G1 X4.793
G18 G3 X4.792 Z0.001 K0.001
G0 Z0.2
X4.9074 Y-0.2913
G1 Z0.0394 F13.33
Z0.001
X4.9075 Y-0.2916 Z0.0003
X4.9076 Y-0.2923 Z0
X4.9078 Y-0.2933 F40
G17 G3 X4.909 Y-0.2941 I0.001 J0.0002
G1 X4.9483 Y-0.2867
G3 X4.9491 Y-0.2855 I-0.0002 J0.001
G1 X4.9489 Y-0.2846
X4.9488 Y-0.2839 Z0.0003
X4.9487 Y-0.2836 Z0.001
G0 Z0.2
X1.5221 Y-0.1743
G1 Z0.0394 F13.33
Z0.001
X1.522 Y-0.1746 Z0.0003
X1.5219 Y-0.1753 Z0
X1.5218 Y-0.1763 F40
G3 X1.5226 Y-0.1774 I0.001 J-0.0002
G1 X1.5282 Y-0.1783
X1.5346 Y-0.1786
X1.5407 Y-0.1779
X1.5465 Y-0.176
X1.552 Y-0.173
X1.5569 Y-0.1693
X1.5618 Y-0.1639
X1.5659 Y-0.1577
X1.5695 Y-0.1509
X1.5727 Y-0.1437
X1.5757 Y-0.1364
X1.5785 Y-0.1289
X1.5811 Y-0.1214
X1.5992 Y-0.0678
X1.4189 Y-0.0071
X1.3977 Y-0.07
X1.3955 Y-0.077
X1.3932 Y-0.0839
X1.3911 Y-0.0909
X1.3892 Y-0.0978
X1.3875 Y-0.1048
X1.3862 Y-0.1116
X1.3857 Y-0.1182
X1.3861 Y-0.1225
X1.3871 Y-0.1266
X1.389 Y-0.1304
X1.3915 Y-0.1338
X1.3946 Y-0.1367
X1.3994 Y-0.1399
X1.4046 Y-0.1427
X1.4103 Y-0.1451
X1.4161 Y-0.1472
X1.4336 Y-0.1531
X1.439 Y-0.1547
X1.4443 Y-0.1559
X1.4496 Y-0.1565
X1.4547 Y-0.1564
X1.4594 Y-0.1555
X1.4637 Y-0.1534
X1.4674 Y-0.1506
X1.4709 Y-0.1471
X1.4741 Y-0.1431
X1.477 Y-0.1388
X1.4798 Y-0.1341
G2 X1.489 Y-0.1373 I0.0043 J-0.0026
G1 X1.4885 Y-0.1414
X1.4882 Y-0.1455
X1.4881 Y-0.1496
X1.4883 Y-0.1535
X1.4888 Y-0.1572
X1.4897 Y-0.1605
X1.4911 Y-0.1633
X1.4936 Y-0.166
X1.4968 Y-0.1684
X1.5005 Y-0.1704
X1.5045 Y-0.1722
X1.5086 Y-0.1737
X1.5151 Y-0.1757
X1.5216 Y-0.1773
X1.5226 Y-0.1774
G3 X1.5238 Y-0.1766 I0.0002 J0.001
G1 X1.5239 Y-0.1756
X1.524 Y-0.1749 Z0.0003
X1.5241 Y-0.1746 Z0.001
X1.531 Y-0.1343
Y-0.134 Z0.0003 F13.33
X1.5313 Y-0.1334 Z0
X1.5316 Y-0.1324 F40
G3 X1.5309 Y-0.1312 I-0.001 J0.0003
G1 X1.5274 Y-0.13
X1.5272
X1.5218 Y-0.1281
X1.5216 Y-0.128
X1.5163 Y-0.1259
X1.5159 Y-0.1258
X1.5107 Y-0.1233
G2 X1.5103 Y-0.1231 I0.0022 J0.0045
G1 X1.5084 Y-0.1219
G2 X1.5079 Y-0.1215 I0.0026 J0.0042
G1 X1.5062 Y-0.1201
G2 X1.5051 Y-0.1188 I0.0032 J0.0038
G1 X1.504 Y-0.1169
G2 X1.5034 Y-0.1154 I0.0043 J0.0025
G1 X1.503 Y-0.1133
G2 X1.5029 Y-0.112 I0.0049 J0.001
G1 X1.5032 Y-0.1077
G2 X1.5034 Y-0.1067 I0.005 J-0.0003
G1 X1.5045 Y-0.1025
X1.5046 Y-0.1023
X1.5056 Y-0.0991
X1.5064 Y-0.0965
G2 X1.5128 Y-0.0933 I0.0048 J-0.0015
G1 X1.555 Y-0.1074
G2 X1.5581 Y-0.1139 I-0.0016 J-0.0047
G1 X1.557 Y-0.1168
Y-0.1169
X1.5558 Y-0.1199
X1.5557 Y-0.1201
X1.5544 Y-0.123
X1.5543 Y-0.1233
X1.5528 Y-0.1261
G2 X1.552 Y-0.1272 I-0.0044 J0.0024
G1 X1.5498 Y-0.1294
G2 X1.5483 Y-0.1305 I-0.0036 J0.0035
G1 X1.5454 Y-0.1318
G2 X1.544 Y-0.1322 I-0.0021 J0.0045
G1 X1.5403 Y-0.1327
G2 X1.539 I-0.0006 J0.005
G1 X1.5354 Y-0.1322
G2 X1.5349 Y-0.1321 I0.0006 J0.005
G1 X1.5313 Y-0.1313
X1.5309 Y-0.1312
G3 X1.5297 Y-0.1318 I-0.0003 J-0.001
G1 X1.5294 Y-0.1328
X1.5291 Y-0.1334 Z0.0003
X1.529 Y-0.1337 Z0.001
X1.4803 Y-0.1077
X1.4801 Y-0.1075 Z0.0003 F13.33
X1.4795 Y-0.107 Z0
X1.4788 Y-0.1063 F40
G3 X1.4774 I-0.0007 J-0.0007
G2 X1.4761 Y-0.1073 I-0.0036 J0.0035
G1 X1.4742 Y-0.1082
G2 X1.4724 Y-0.1087 I-0.0022 J0.0045
G1 X1.4696 Y-0.1089
G2 X1.4687 I-0.0004 J0.005
G1 X1.466 Y-0.1086
G2 X1.4655 I0.0005 J0.005
G1 X1.4628 Y-0.108
G2 X1.4624 Y-0.1079 I0.001 J0.0049
G1 X1.4561 Y-0.1061
X1.4559 Y-0.106
X1.4382 Y-0.1
X1.4381
X1.4352 Y-0.099
X1.4349 Y-0.0989
X1.4321 Y-0.0977
G2 X1.4317 Y-0.0975 I0.0019 J0.0046
G1 X1.4289 Y-0.096
G2 X1.4284 Y-0.0957 I0.0023 J0.0044
G1 X1.4259 Y-0.094
G2 X1.4249 Y-0.0931 I0.0028 J0.0041
G1 X1.4229 Y-0.0908
G2 X1.4219 Y-0.0887 I0.0038 J0.0032
G1 X1.4211 Y-0.0857
G2 X1.421 Y-0.0842 I0.0049 J0.0012
G1 X1.4213 Y-0.0794
G2 X1.4214 Y-0.0787 I0.005 J-0.0003
G1 X1.4224 Y-0.0739
Y-0.0736
X1.4237 Y-0.0689
G2 X1.4301 Y-0.0655 I0.0048 J-0.0013
G1 X1.4832 Y-0.0833
G2 X1.4863 Y-0.0899 I-0.0016 J-0.0047
G1 X1.4844 Y-0.0948
X1.4842 Y-0.0951
X1.482 Y-0.0999
G2 X1.4818 Y-0.1003 I-0.0045 J0.0021
G1 X1.4808 Y-0.1021
X1.4806 Y-0.1024
X1.4794 Y-0.1041
G2 X1.4789 Y-0.1048 I-0.0041 J0.0028
G1 X1.4775 Y-0.1063
X1.4774
G3 Y-0.1077 I0.0007 J-0.0007
G1 X1.4781 Y-0.1084
X1.4787 Y-0.1089 Z0.0003
X1.4789 Y-0.1091 Z0.001
G0 Z0.2
X1.4677 Y0.0474
G1 Z0.0394 F13.33
Z0.001
X1.4679 Y0.0471 Z0.0003
X1.4683 Y0.0465 Z0
X1.4688 Y0.0457 F40
G3 X1.4702 Y0.0454 I0.0008 J0.0005
G1 X1.5871 Y0.1204
X1.5561 Y0.1944
X1.3678 Y0.1475
X1.3884 Y0.0984
X1.4189 Y0.1078
G2 X1.425 Y0.1049 I0.0015 J-0.0048
G1 X1.4335 Y0.0846
G2 X1.4312 Y0.0783 I-0.0046 J-0.0019
G1 X1.403 Y0.0635
X1.4233 Y0.0153
X1.4702 Y0.0454
G3 X1.4705 Y0.0468 I-0.0005 J0.0008
G1 X1.47 Y0.0476
X1.4696 Y0.0482 Z0.0003
X1.4694 Y0.0485 Z0.001
X1.4609 Y0.0901
Y0.0904 Z0.0003 F13.33
X1.461 Y0.0911 Z0
X1.4612 Y0.0921 F40
G3 X1.4604 Y0.0932 I-0.001 J0.0002
G2 X1.4566 Y0.0962 I0.0008 J0.0049
G1 X1.4484 Y0.1156
G2 X1.4516 Y0.1223 I0.0046 J0.0019
G1 X1.4746 Y0.1291
X1.4747
X1.4978 Y0.1353
X1.4979
X1.5344 Y0.1444
G2 X1.538 Y0.1352 I0.0012 J-0.0049
G1 X1.517 Y0.1239
X1.4962 Y0.1124
X1.4799 Y0.1032
X1.4637 Y0.0938
G2 X1.4604 Y0.0932 I-0.0025 J0.0043
G3 X1.4592 Y0.0924 I-0.0002 J-0.001
G1 X1.4591 Y0.0914
X1.459 Y0.0907 Z0.0003
X1.4589 Y0.0904 Z0.001
G0 Z0.2
X1.3432 Y0.2048
G1 Z0.0394 F13.33
Z0.001
X1.3435 Z0.0003
X1.3442 Y0.2046 Z0
X1.3452 Y0.2043 F40
G3 X1.3464 Y0.205 I0.0003 J0.001
G2 X1.347 Y0.2063 I0.0048 J-0.0014
G1 X1.4308 Y0.3374
X1.3875 Y0.3651
X1.2847 Y0.2043
X1.3595 Y0.1565
X1.3758 Y0.1819
X1.3485 Y0.1993
G2 X1.3464 Y0.205 I0.0027 J0.0042
G3 X1.3457 Y0.2062 I-0.001 J0.0003
G1 X1.3448 Y0.2065
X1.3441 Y0.2067 Z0.0003
X1.3438 Y0.2068 Z0.001
G0 Z0.2
X1.2509 Y0.2669
G1 Z0.0394 F13.33
Z0.001
X1.2512 Y0.267 Z0.0003
X1.2519 Y0.2671 Z0
X1.2529 Y0.2673 F40
G3 X1.2537 Y0.2685 I-0.0002 J0.001
G1 X1.2251 Y0.4039
X1.1447 Y0.4011
X1.1217 Y0.2092
X1.1749 Y0.2111
X1.177 Y0.2428
G2 X1.1819 Y0.2474 I0.005 J-0.0003
G1 X1.2039 Y0.2482
G2 X1.209 Y0.2438 I0.0002 J-0.005
G1 X1.2128 Y0.2124
X1.2651 Y0.2142
X1.2537 Y0.2685
G3 X1.2525 Y0.2693 I-0.001 J-0.0002
G1 X1.2515 Y0.2691
X1.2508 Y0.2689 Z0.0003
X1.2505 Z0.001
X1.2085 Y0.2756
X1.2082 Y0.2758 Z0.0003 F13.33
X1.2076 Y0.2761 Z0
X1.2068 Y0.2766 F40
G3 X1.2054 Y0.2762 I-0.0005 J-0.0009
G2 X1.2012 Y0.2738 I-0.0043 J0.0025
G1 X1.1802 Y0.273
G2 X1.1751 Y0.2784 I-0.0002 J0.005
G1 X1.1769 Y0.3022
Y0.3023
X1.1793 Y0.326
Y0.3261
X1.1838 Y0.3633
G2 X1.1937 Y0.3634 I0.005 J-0.0006
G1 X1.1969 Y0.3398
X1.2002 Y0.3164
X1.206 Y0.2795
G2 X1.2054 Y0.2762 I-0.0049 J-0.0008
G3 X1.2058 Y0.2749 I0.0009 J-0.0005
G1 X1.2066 Y0.2744
X1.2072 Y0.274 Z0.0003
X1.2075 Y0.2739 Z0.001
G0 Z0.2
X1.0188 Y0.2385
G1 Z0.0394 F13.33
Z0.001
X1.0191 Z0.0003
X1.0198 Z0
X1.0208 Y0.2386 F40
G3 X1.0218 Y0.2397 I-0.0001 J0.001
G2 X1.0237 Y0.2439 I0.005 J0.0003
G1 X1.05 Y0.2646
X1.0325 Y0.2868
X1.0062 Y0.2661
G2 X0.9992 Y0.267 I-0.0031 J0.0039
G1 X0.9755 Y0.297
G2 X0.9764 Y0.304 I0.0039 J0.0031
G1 X1.0047 Y0.3263
X0.986 Y0.3501
X0.9133 Y0.2928
X1.0315 Y0.1426
X1.1075 Y0.2024
X1.0888 Y0.2262
X1.0572 Y0.2013
G2 X1.0502 Y0.2021 I-0.0031 J0.0039
G1 X1.0228 Y0.2369
G2 X1.0218 Y0.2397 I0.0039 J0.0031
G3 X1.0207 Y0.2406 I-0.001 J-0.0001
G1 X1.0197 Y0.2405
X1.019 Z0.0003
X1.0187 Z0.001
G0 Z0.2
X1.0015 Y0.1031
G1 Z0.0394 F13.33
Z0.001
X1.0018 Y0.1032 Z0.0003
X1.0024 Y0.1033 Z0
X1.0034 Y0.1035 F40
G3 X1.0042 Y0.1047 I-0.0002 J0.001
G1 X1.0037 Y0.1072
X1.0022 Y0.1115
X1 Y0.1153
X0.9972 Y0.1185
X0.9937 Y0.1212
X0.9896 Y0.1234
X0.985 Y0.1253
X0.9802 Y0.127
X0.9704 Y0.1299
X0.9604 Y0.1325
X0.8921 Y0.1497
X0.8832 Y0.1519
X0.8744 Y0.1539
X0.8655 Y0.1556
X0.8569 Y0.1568
X0.8517
X0.8466 Y0.1557
X0.8417 Y0.1538
X0.8371 Y0.1511
X0.8331 Y0.1476
X0.8295 Y0.1436
X0.8249 Y0.1364
X0.8212 Y0.1286
X0.8181 Y0.1203
X0.8153 Y0.1118
X0.8127 Y0.1031
X0.8102 Y0.0943
X0.8079 Y0.0855
X0.8056 Y0.0766
X0.7956 Y0.0366
X0.9812 Y-0.01
X0.999 Y0.0608
X1.0009 Y0.0689
X1.0027 Y0.077
X1.0041 Y0.0851
X1.005 Y0.0931
Y0.0979
X1.0046 Y0.1027
X1.0042 Y0.1047
G3 X1.003 Y0.1055 I-0.001 J-0.0002
G1 X1.002 Y0.1053
X1.0014 Y0.1051 Z0.0003
X1.0011 Z0.001
X0.966 Y0.079
X0.9658 Y0.0788 Z0.0003 F13.33
X0.9655 Y0.0782 Z0
X0.965 Y0.0773 F40
G3 X0.9654 Y0.0759 I0.0009 J-0.0005
G2 X0.9658 Y0.0757 I-0.0024 J-0.0044
G1 X0.968 Y0.0742
G2 X0.9692 Y0.0732 I-0.0027 J-0.0042
G1 X0.9708 Y0.0712
G2 X0.9717 Y0.0695 I-0.0039 J-0.0032
G1 X0.9725 Y0.067
G2 X0.9727 Y0.0659 I-0.0048 J-0.0015
G1 X0.973 Y0.0632
G2 Y0.0624 I-0.005 J-0.0004
G1 X0.9725 Y0.0571
G2 X0.9724 Y0.0565 I-0.005 J0.0004
G1 X0.9714 Y0.0513
G2 X0.9652 Y0.0474 I-0.0049 J0.001
G1 X0.8368 Y0.0797
G2 X0.8332 Y0.0859 I0.0012 J0.0048
G1 X0.8345 Y0.0906
X0.8346 Y0.091
X0.8363 Y0.0956
G2 X0.8366 Y0.0962 I0.0047 J-0.0017
G1 X0.8381 Y0.0991
G2 X0.8389 Y0.1002 I0.0044 J-0.0024
G1 X0.8412 Y0.1026
G2 X0.8427 Y0.1036 I0.0036 J-0.0035
G1 X0.8457 Y0.105
G2 X0.8474 Y0.1054 I0.0021 J-0.0046
G1 X0.8501 Y0.1056
G2 X0.851 I0.0004 J-0.005
G1 X0.8538 Y0.1053
X0.854
X0.8567 Y0.1048
X0.8569
X0.8596 Y0.1042
X0.8597
X0.8681 Y0.1023
X0.8682 Y0.1022
X0.9441 Y0.0832
X0.9493 Y0.0818
X0.9494
X0.9546 Y0.0803
X0.9548 Y0.0802
X0.9598 Y0.0785
G2 X0.9603 Y0.0783 I-0.0016 J-0.0047
G1 X0.9651 Y0.0761
X0.9654 Y0.0759
G3 X0.9668 Y0.0763 I0.0005 J0.0009
G1 X0.9673 Y0.0772
X0.9676 Y0.0778 Z0.0003
X0.9677 Y0.0781 Z0.001
G0 Z0.2
X0.8415 Y-0.1454
G1 Z0.0394 F13.33
Z0.001
X0.8416 Y-0.1456 Z0.0003
X0.8418 Y-0.1463 Z0
X0.8422 Y-0.1473 F40
G3 X0.8434 Y-0.1479 I0.0009 J0.0003
G1 X0.9992 Y-0.0952
X0.9826 Y-0.0461
X0.8023 Y-0.1071
X0.8189 Y-0.1562
X0.8434 Y-0.1479
G3 X0.8441 Y-0.1466 I-0.0003 J0.0009
G1 X0.8437 Y-0.1457
X0.8435 Y-0.145 Z0.0003
X0.8434 Y-0.1447 Z0.001
G0 Z0.2
X1.105 Y-0.2372
G1 Z0.0394 F13.33
Z0.001
X1.1052 Y-0.237 Z0.0003
X1.1057 Y-0.2365 Z0
X1.1064 Y-0.2358 F40
G3 Y-0.2344 I-0.0007 J0.0007
G1 X1.0786 Y-0.2057
G3 X1.0772 I-0.0007 J-0.0007
G1 X1.0765 Y-0.2063
X1.076 Y-0.2068 Z0.0003
X1.0758 Y-0.207 Z0.001
G0 Z0.2
X1.1725 Y-0.2331
G1 Z0.0394 F13.33
Z0.001
X1.1724 Y-0.2328 Z0.0003
X1.1721 Y-0.2322 Z0
X1.1717 Y-0.2313 F40
G3 X1.1704 Y-0.2308 I-0.0009 J-0.0004
X1.132 Y-0.311 I0.0296 J-0.0634
G1 X1.1321 Y-0.3112
X1.1337 Y-0.3191
X1.136 Y-0.3259
X1.139 Y-0.3322
X1.1425 Y-0.3382
X1.1464 Y-0.344
X1.1506 Y-0.3498
X1.1539 Y-0.3544
X1.154 Y-0.3545
X1.1571 Y-0.3591
X1.1573 Y-0.3594
X1.1601 Y-0.3643
G2 X1.1604 Y-0.3648 I-0.0043 J-0.0025
G1 X1.1627 Y-0.3701
G2 X1.1629 Y-0.3708 I-0.0046 J-0.002
G1 X1.1645 Y-0.3766
G2 X1.1646 Y-0.3775 I-0.0048 J-0.0013
G1 X1.1652 Y-0.3841
G2 Y-0.3845 I-0.005 J-0.0004
G1 Y-0.3998
G3 X1.2348 Y-0.4134 I0.048 J0.0607
G1 Y-0.3845
G2 Y-0.3841 I0.005
G1 X1.2353 Y-0.3778
G2 X1.2355 Y-0.377 I0.005 J-0.0004
G1 X1.2369 Y-0.3713
G2 X1.2371 Y-0.3706 I0.0048 J-0.0012
G1 X1.2392 Y-0.3656
G2 X1.2395 Y-0.365 I0.0046 J-0.0019
G1 X1.2421 Y-0.3604
X1.2423 Y-0.36
X1.2453 Y-0.3556
X1.2454 Y-0.3554
X1.2485 Y-0.3511
Y-0.351
X1.2517 Y-0.3467
X1.2547 Y-0.3424
X1.2584 Y-0.3369
X1.2616 Y-0.3312
X1.2643 Y-0.3252
X1.2665 Y-0.3187
X1.2679 Y-0.3113
X1.268 Y-0.311
G3 X1.1704 Y-0.2308 I-0.068 J0.0168
X1.1699 Y-0.2321 I0.0004 J-0.0009
G1 X1.1703 Y-0.233
X1.1706 Y-0.2337 Z0.0003
X1.1707 Y-0.2339 Z0.001
G0 Z0.2
X1.192 Y-0.1852
G1 Z0.0394 F13.33
Z0.001
G18 G2 X1.193 Z0 I0.001
G1 X1.194 F40
G17 G3 X1.195 Y-0.1842 J0.001
G1 Y-0.1442
G3 X1.194 Y-0.1432 I-0.001
G1 X1.193
G18 G3 X1.192 Z0.001 K0.001
G0 Z0.2
X1.2293 Y-0.2499
G1 Z0.0394 F13.33
Z0.001
X1.2292 Y-0.2497 Z0.0003
X1.2291 Y-0.249 Z0
X1.2288 Y-0.248 F40
G17 G3 X1.2276 Y-0.2473 I-0.001 J-0.0003
G1 X1.217 Y-0.2501
X1.2076 Y-0.2528
X1.1995 Y-0.2554
X1.1925 Y-0.2579
X1.1866 Y-0.2603
X1.1817 Y-0.2625
X1.1779 Y-0.2646
X1.1751 Y-0.2666
X1.1733 Y-0.2682
X1.1723 Y-0.2695
X1.172 Y-0.2703
X1.1719 Y-0.2707
X1.1722 Y-0.2716
X1.1731 Y-0.273
X1.1749 Y-0.2749
X1.1776 Y-0.2769
X1.1823 Y-0.2799
X1.188 Y-0.2829
X1.1943 Y-0.286
X1.2011 Y-0.2892
X1.208 Y-0.2925
X1.2081
X1.2148 Y-0.2959
X1.215 Y-0.296
X1.2212 Y-0.2994
X1.2215 Y-0.2996
X1.2271 Y-0.3032
G2 X1.2275 Y-0.3035 I-0.0027 J-0.0042
G1 X1.2322 Y-0.3072
G2 X1.2327 Y-0.3077 I-0.0031 J-0.0039
G1 X1.2352 Y-0.3103
G2 X1.2357 Y-0.3109 I-0.0036 J-0.0034
G1 X1.2375 Y-0.3136
G2 X1.238 Y-0.3145 I-0.0041 J-0.0029
G1 X1.2392 Y-0.3172
G2 X1.2396 Y-0.3184 I-0.0046 J-0.002
G1 X1.24 Y-0.3213
G2 Y-0.3227 I-0.0049 J-0.0008
G1 X1.2397 Y-0.3257
G2 X1.2393 Y-0.327 I-0.005 J0.0006
G1 X1.2381 Y-0.3301
G2 X1.2376 Y-0.331 I-0.0046 J0.0019
G1 X1.2356 Y-0.3339
G2 X1.2352 Y-0.3345 I-0.0041 J0.0028
G1 X1.2324 Y-0.3375
G2 X1.2319 Y-0.3379 I-0.0037 J0.0034
G1 X1.2283 Y-0.341
G2 X1.2279 Y-0.3413 I-0.0032 J0.0038
G1 X1.2233 Y-0.3445
X1.223 Y-0.3447
X1.2174 Y-0.3481
X1.2172 Y-0.3482
X1.2107 Y-0.3516
X1.2104 Y-0.3517
X1.2029 Y-0.3552
X1.2027 Y-0.3553
X1.194 Y-0.359
X1.1939
X1.1841 Y-0.3628
G3 X1.1835 Y-0.3641 I0.0004 J-0.0009
G1 X1.1838 Y-0.3651
X1.1841 Y-0.3657 Z0.0003
X1.1842 Y-0.366 Z0.001
G0 Z0.2
X1.1856 Y-0.465
G1 Z0.0394 F13.33
Z0.001
X1.1855 Y-0.4653 Z0.0003
X1.1853 Y-0.466 Z0
X1.185 Y-0.467 F40
G3 X1.1857 Y-0.4682 I0.001 J-0.0003
X1.1932 Y-0.4692 I0.0075 J0.027
G1 X1.2068
G3 X1.2314 Y-0.4545 J0.028
G2 X1.1652 Y-0.4421 I-0.0183 J0.0854
G3 X1.1857 Y-0.4682 I0.028 J0.0009
X1.187 Y-0.4675 I0.0003 J0.001
G1 X1.1872 Y-0.4665
X1.1874 Y-0.4659 Z0.0003
X1.1875 Y-0.4656 Z0.001
G0 Z0.2
X1.0896 Y-0.307
G1 Z0.0394 F13.33
Z0.001
X1.0897 Y-0.3068 Z0.0003
X1.0898 Y-0.3061 Z0
X1.09 Y-0.3051 F40
G3 X1.0892 Y-0.3039 I-0.001 J0.0002
G1 X1.0499 Y-0.2965
G3 X1.0487 Y-0.2973 I-0.0002 J-0.001
G1 X1.0485 Y-0.2983
X1.0484 Y-0.299 Z0.0003
X1.0483 Y-0.2993 Z0.001
G0 Z0.2
X1.2835 Y-0.2261
G1 Z0.0394 F13.33
Z0.001
X1.2837 Y-0.2263 Z0.0003
X1.2842 Y-0.2268 Z0
X1.285 Y-0.2275 F40
G3 X1.2864 Y-0.2274 I0.0007 J0.0007
G1 X1.3142 Y-0.1987
G3 Y-0.1973 I-0.0007 J0.0007
G1 X1.3135 Y-0.1966
X1.313 Y-0.1961 Z0.0003
X1.3127 Y-0.1959 Z0.001
G0 Z0.2
X1.3074 Y-0.2913
G1 Z0.0394 F13.33
Z0.001
X1.3075 Y-0.2916 Z0.0003
X1.3076 Y-0.2923 Z0
X1.3078 Y-0.2933 F40
G3 X1.309 Y-0.2941 I0.001 J0.0002
G1 X1.3483 Y-0.2867
G3 X1.3491 Y-0.2855 I-0.0002 J0.001
G1 X1.3489 Y-0.2846
X1.3488 Y-0.2839 Z0.0003
X1.3487 Y-0.2836 Z0.001
G0 Z0.2
X0.3221 Y-0.1743
G1 Z0.0394 F13.33
Z0.001
X0.322 Y-0.1746 Z0.0003
X0.3219 Y-0.1753 Z0
X0.3218 Y-0.1763 F40
G3 X0.3226 Y-0.1774 I0.001 J-0.0002
G1 X0.3282 Y-0.1783
X0.3346 Y-0.1786
X0.3407 Y-0.1779
X0.3465 Y-0.176
X0.352 Y-0.173
X0.3569 Y-0.1693
X0.3618 Y-0.1639
X0.3659 Y-0.1577
X0.3695 Y-0.1509
X0.3727 Y-0.1437
X0.3757 Y-0.1364
X0.3785 Y-0.1289
X0.3811 Y-0.1214
X0.3992 Y-0.0678
X0.2189 Y-0.0071
X0.1977 Y-0.07
X0.1955 Y-0.077
X0.1932 Y-0.0839
X0.1911 Y-0.0909
X0.1892 Y-0.0978
X0.1875 Y-0.1048
X0.1862 Y-0.1116
X0.1857 Y-0.1182
X0.1861 Y-0.1225
X0.1871 Y-0.1266
X0.189 Y-0.1304
X0.1914 Y-0.1338
X0.1946 Y-0.1367
X0.1994 Y-0.1399
X0.2046 Y-0.1427
X0.2103 Y-0.1451
X0.2161 Y-0.1472
X0.2336 Y-0.1531
X0.239 Y-0.1547
X0.2443 Y-0.1559
X0.2496 Y-0.1565
X0.2547 Y-0.1564
X0.2594 Y-0.1555
X0.2637 Y-0.1534
X0.2674 Y-0.1506
X0.2709 Y-0.1471
X0.2741 Y-0.1431
X0.277 Y-0.1388
X0.2798 Y-0.1341
G2 X0.289 Y-0.1373 I0.0043 J-0.0026
G1 X0.2885 Y-0.1414
X0.2882 Y-0.1455
X0.2881 Y-0.1496
X0.2883 Y-0.1535
X0.2888 Y-0.1572
X0.2897 Y-0.1605
X0.2911 Y-0.1633
X0.2936 Y-0.166
X0.2968 Y-0.1684
X0.3005 Y-0.1704
X0.3045 Y-0.1722
X0.3086 Y-0.1737
X0.3151 Y-0.1757
X0.3216 Y-0.1773
X0.3226 Y-0.1774
G3 X0.3238 Y-0.1766 I0.0002 J0.001
G1 X0.3239 Y-0.1756
X0.324 Y-0.1749 Z0.0003
X0.3241 Y-0.1746 Z0.001
X0.331 Y-0.1343
Y-0.134 Z0.0003 F13.33
X0.3313 Y-0.1334 Z0
X0.3316 Y-0.1324 F40
G3 X0.3309 Y-0.1312 I-0.001 J0.0003
G1 X0.3274 Y-0.13
X0.3272
X0.3218 Y-0.1281
X0.3216 Y-0.128
X0.3163 Y-0.1259
X0.3159 Y-0.1258
X0.3107 Y-0.1233
G2 X0.3103 Y-0.1231 I0.0022 J0.0045
G1 X0.3084 Y-0.1219
G2 X0.3078 Y-0.1215 I0.0026 J0.0042
G1 X0.3062 Y-0.1201
G2 X0.3051 Y-0.1188 I0.0032 J0.0038
G1 X0.304 Y-0.1169
G2 X0.3034 Y-0.1154 I0.0043 J0.0025
G1 X0.303 Y-0.1133
G2 X0.3029 Y-0.112 I0.0049 J0.001
G1 X0.3032 Y-0.1077
G2 X0.3034 Y-0.1067 I0.005 J-0.0003
G1 X0.3045 Y-0.1025
X0.3046 Y-0.1023
X0.3056 Y-0.0991
X0.3064 Y-0.0965
G2 X0.3128 Y-0.0933 I0.0048 J-0.0015
G1 X0.355 Y-0.1074
G2 X0.3581 Y-0.1139 I-0.0016 J-0.0047
G1 X0.357 Y-0.1168
Y-0.1169
X0.3558 Y-0.1199
X0.3557 Y-0.1201
X0.3544 Y-0.123
X0.3543 Y-0.1233
X0.3528 Y-0.1261
G2 X0.352 Y-0.1272 I-0.0044 J0.0024
G1 X0.3498 Y-0.1294
G2 X0.3483 Y-0.1305 I-0.0036 J0.0035
G1 X0.3454 Y-0.1318
G2 X0.344 Y-0.1322 I-0.0021 J0.0045
G1 X0.3403 Y-0.1327
G2 X0.339 I-0.0006 J0.005
G1 X0.3354 Y-0.1322
G2 X0.3349 Y-0.1321 I0.0006 J0.005
G1 X0.3313 Y-0.1313
X0.3309 Y-0.1312
G3 X0.3297 Y-0.1318 I-0.0003 J-0.001
G1 X0.3293 Y-0.1328
X0.3291 Y-0.1334 Z0.0003
X0.329 Y-0.1337 Z0.001
X0.2803 Y-0.1077
X0.2801 Y-0.1075 Z0.0003 F13.33
X0.2795 Y-0.107 Z0
X0.2788 Y-0.1063 F40
G3 X0.2774 I-0.0007 J-0.0007
G2 X0.2761 Y-0.1073 I-0.0036 J0.0035
G1 X0.2742 Y-0.1082
G2 X0.2724 Y-0.1087 I-0.0022 J0.0045
G1 X0.2696 Y-0.1089
G2 X0.2687 I-0.0004 J0.005
G1 X0.266 Y-0.1086
G2 X0.2655 I0.0005 J0.005
G1 X0.2628 Y-0.108
G2 X0.2624 Y-0.1079 I0.001 J0.0049
G1 X0.2561 Y-0.1061
X0.2559 Y-0.106
X0.2382 Y-0.1
X0.2381
X0.2352 Y-0.099
X0.2349 Y-0.0989
X0.2321 Y-0.0977
G2 X0.2317 Y-0.0975 I0.0019 J0.0046
G1 X0.2289 Y-0.096
G2 X0.2284 Y-0.0957 I0.0023 J0.0044
G1 X0.2259 Y-0.094
G2 X0.2249 Y-0.0931 I0.0028 J0.0041
G1 X0.2229 Y-0.0908
G2 X0.2219 Y-0.0887 I0.0038 J0.0032
G1 X0.2211 Y-0.0857
G2 X0.221 Y-0.0842 I0.0049 J0.0012
G1 X0.2213 Y-0.0794
G2 X0.2214 Y-0.0787 I0.005 J-0.0003
G1 X0.2224 Y-0.0739
Y-0.0736
X0.2237 Y-0.0689
G2 X0.2301 Y-0.0655 I0.0048 J-0.0013
G1 X0.2832 Y-0.0833
G2 X0.2863 Y-0.0899 I-0.0016 J-0.0047
G1 X0.2844 Y-0.0948
X0.2842 Y-0.0951
X0.282 Y-0.0999
G2 X0.2818 Y-0.1003 I-0.0045 J0.0021
G1 X0.2808 Y-0.1021
X0.2806 Y-0.1024
X0.2794 Y-0.1041
G2 X0.2789 Y-0.1048 I-0.0041 J0.0028
G1 X0.2775 Y-0.1063
X0.2774
G3 Y-0.1077 I0.0007 J-0.0007
G1 X0.2781 Y-0.1084
X0.2787 Y-0.1089 Z0.0003
X0.2789 Y-0.1091 Z0.001
G0 Z0.2
X0.2677 Y0.0474
G1 Z0.0394 F13.33
Z0.001
X0.2679 Y0.0471 Z0.0003
X0.2683 Y0.0465 Z0
X0.2688 Y0.0457 F40
G3 X0.2702 Y0.0454 I0.0008 J0.0005
G1 X0.3871 Y0.1204
X0.3561 Y0.1944
X0.1678 Y0.1475
X0.1884 Y0.0984
X0.2189 Y0.1078
G2 X0.225 Y0.1049 I0.0015 J-0.0048
G1 X0.2335 Y0.0846
G2 X0.2312 Y0.0783 I-0.0046 J-0.0019
G1 X0.203 Y0.0635
X0.2233 Y0.0153
X0.2702 Y0.0454
G3 X0.2705 Y0.0468 I-0.0005 J0.0008
G1 X0.27 Y0.0476
X0.2696 Y0.0482 Z0.0003
X0.2694 Y0.0485 Z0.001
X0.2609 Y0.0901
Y0.0904 Z0.0003 F13.33
X0.261 Y0.0911 Z0
X0.2612 Y0.0921 F40
G3 X0.2604 Y0.0932 I-0.001 J0.0002
G2 X0.2566 Y0.0962 I0.0008 J0.0049
G1 X0.2484 Y0.1156
G2 X0.2516 Y0.1223 I0.0046 J0.0019
G1 X0.2746 Y0.1291
X0.2747
X0.2978 Y0.1353
X0.2979
X0.3344 Y0.1444
G2 X0.338 Y0.1352 I0.0012 J-0.0049
G1 X0.317 Y0.1239
X0.2962 Y0.1124
X0.2799 Y0.1032
X0.2637 Y0.0938
G2 X0.2604 Y0.0932 I-0.0025 J0.0043
G3 X0.2592 Y0.0924 I-0.0002 J-0.001
G1 X0.2591 Y0.0914
X0.259 Y0.0907 Z0.0003
X0.2589 Y0.0904 Z0.001
G0 Z0.2
X0.1432 Y0.2048
G1 Z0.0394 F13.33
Z0.001
X0.1435 Z0.0003
X0.1442 Y0.2046 Z0
X0.1452 Y0.2043 F40
G3 X0.1464 Y0.205 I0.0003 J0.001
G2 X0.147 Y0.2063 I0.0048 J-0.0014
G1 X0.2308 Y0.3374
X0.1875 Y0.3651
X0.0847 Y0.2043
X0.1595 Y0.1565
X0.1758 Y0.1819
X0.1485 Y0.1993
G2 X0.1464 Y0.205 I0.0027 J0.0042
G3 X0.1457 Y0.2062 I-0.001 J0.0003
G1 X0.1448 Y0.2065
X0.1441 Y0.2067 Z0.0003
X0.1438 Y0.2068 Z0.001
G0 Z0.2
X0.0509 Y0.2669
G1 Z0.0394 F13.33
Z0.001
X0.0512 Y0.267 Z0.0003
X0.0519 Y0.2671 Z0
X0.0529 Y0.2673 F40
G3 X0.0537 Y0.2685 I-0.0002 J0.001
G1 X0.0251 Y0.4039
X-0.0553 Y0.4011
X-0.0783 Y0.2092
X-0.0251 Y0.2111
X-0.023 Y0.2428
G2 X-0.0181 Y0.2474 I0.005 J-0.0003
G1 X0.0039 Y0.2482
G2 X0.009 Y0.2438 I0.0002 J-0.005
G1 X0.0128 Y0.2124
X0.0651 Y0.2142
X0.0537 Y0.2685
G3 X0.0525 Y0.2693 I-0.001 J-0.0002
G1 X0.0515 Y0.2691
X0.0508 Y0.2689 Z0.0003
X0.0505 Z0.001
X0.0085 Y0.2756
X0.0082 Y0.2758 Z0.0003 F13.33
X0.0076 Y0.2761 Z0
X0.0068 Y0.2766 F40
G3 X0.0054 Y0.2762 I-0.0005 J-0.0009
G2 X0.0012 Y0.2738 I-0.0043 J0.0025
G1 X-0.0198 Y0.273
G2 X-0.0249 Y0.2784 I-0.0002 J0.005
G1 X-0.0231 Y0.3022
Y0.3023
X-0.0207 Y0.326
Y0.3261
X-0.0162 Y0.3633
G2 X-0.0063 Y0.3634 I0.005 J-0.0006
G1 X-0.0031 Y0.3398
X0.0002 Y0.3164
X0.006 Y0.2795
G2 X0.0054 Y0.2762 I-0.0049 J-0.0008
G3 X0.0058 Y0.2749 I0.0009 J-0.0005
G1 X0.0066 Y0.2744
X0.0072 Y0.274 Z0.0003
X0.0075 Y0.2739 Z0.001
G0 Z0.2
X-0.1812 Y0.2385
G1 Z0.0394 F13.33
Z0.001
X-0.1809 Z0.0003
X-0.1802 Z0
X-0.1792 Y0.2386 F40
G3 X-0.1782 Y0.2397 I-0.0001 J0.001
G2 X-0.1763 Y0.2439 I0.005 J0.0003
G1 X-0.15 Y0.2646
X-0.1675 Y0.2868
X-0.1938 Y0.2661
G2 X-0.2008 Y0.267 I-0.0031 J0.0039
G1 X-0.2245 Y0.297
G2 X-0.2236 Y0.304 I0.0039 J0.0031
G1 X-0.1953 Y0.3263
X-0.214 Y0.3501
X-0.2867 Y0.2928
X-0.1685 Y0.1426
X-0.0925 Y0.2024
X-0.1112 Y0.2262
X-0.1428 Y0.2013
G2 X-0.1498 Y0.2021 I-0.0031 J0.0039
G1 X-0.1772 Y0.2369
G2 X-0.1782 Y0.2397 I0.0039 J0.0031
G3 X-0.1793 Y0.2406 I-0.001 J-0.0001
G1 X-0.1803 Y0.2405
X-0.181 Z0.0003
X-0.1813 Z0.001
G0 Z0.2
X-0.1985 Y0.1031
G1 Z0.0394 F13.33
Z0.001
X-0.1982 Y0.1032 Z0.0003
X-0.1976 Y0.1033 Z0
X-0.1966 Y0.1035 F40
G3 X-0.1958 Y0.1047 I-0.0002 J0.001
G1 X-0.1963 Y0.1072
X-0.1978 Y0.1115
X-0.2 Y0.1153
X-0.2028 Y0.1185
X-0.2063 Y0.1212
X-0.2104 Y0.1234
X-0.215 Y0.1253
X-0.2198 Y0.127
X-0.2296 Y0.1299
X-0.2396 Y0.1325
X-0.3079 Y0.1497
X-0.3168 Y0.1519
X-0.3257 Y0.1539
X-0.3345 Y0.1556
X-0.3431 Y0.1568
X-0.3483
X-0.3534 Y0.1557
X-0.3583 Y0.1538
X-0.3629 Y0.1511
X-0.3669 Y0.1476
X-0.3705 Y0.1436
X-0.3751 Y0.1364
X-0.3788 Y0.1286
X-0.3819 Y0.1203
X-0.3847 Y0.1118
X-0.3873 Y0.1031
X-0.3898 Y0.0943
X-0.3921 Y0.0855
X-0.3944 Y0.0766
X-0.4044 Y0.0366
X-0.2188 Y-0.01
X-0.201 Y0.0608
X-0.1991 Y0.0689
X-0.1973 Y0.077
X-0.1959 Y0.0851
X-0.195 Y0.0931
Y0.0979
X-0.1954 Y0.1027
X-0.1958 Y0.1047
G3 X-0.197 Y0.1055 I-0.001 J-0.0002
G1 X-0.198 Y0.1053
X-0.1986 Y0.1051 Z0.0003
X-0.1989 Z0.001
X-0.234 Y0.079
X-0.2342 Y0.0788 Z0.0003 F13.33
X-0.2345 Y0.0782 Z0
X-0.235 Y0.0773 F40
G3 X-0.2346 Y0.0759 I0.0009 J-0.0005
G2 X-0.2342 Y0.0757 I-0.0024 J-0.0044
G1 X-0.232 Y0.0742
G2 X-0.2308 Y0.0732 I-0.0027 J-0.0042
G1 X-0.2292 Y0.0712
G2 X-0.2283 Y0.0695 I-0.0039 J-0.0032
G1 X-0.2275 Y0.067
G2 X-0.2273 Y0.0659 I-0.0048 J-0.0015
G1 X-0.227 Y0.0632
G2 Y0.0624 I-0.005 J-0.0004
G1 X-0.2275 Y0.0571
G2 X-0.2276 Y0.0565 I-0.005 J0.0004
G1 X-0.2286 Y0.0513
G2 X-0.2348 Y0.0474 I-0.0049 J0.001
G1 X-0.3632 Y0.0797
G2 X-0.3668 Y0.0859 I0.0012 J0.0048
G1 X-0.3655 Y0.0906
X-0.3654 Y0.091
X-0.3637 Y0.0956
G2 X-0.3634 Y0.0962 I0.0047 J-0.0017
G1 X-0.3619 Y0.0991
G2 X-0.3611 Y0.1002 I0.0044 J-0.0024
G1 X-0.3588 Y0.1026
G2 X-0.3573 Y0.1036 I0.0036 J-0.0035
G1 X-0.3543 Y0.105
G2 X-0.3526 Y0.1054 I0.0021 J-0.0046
G1 X-0.3499 Y0.1056
G2 X-0.349 I0.0004 J-0.005
G1 X-0.3462 Y0.1053
X-0.346
X-0.3433 Y0.1048
X-0.3431
X-0.3404 Y0.1042
X-0.3403
X-0.3319 Y0.1023
X-0.3318 Y0.1022
X-0.2559 Y0.0832
X-0.2507 Y0.0818
X-0.2506
X-0.2454 Y0.0803
X-0.2452 Y0.0802
X-0.2402 Y0.0785
G2 X-0.2397 Y0.0783 I-0.0016 J-0.0047
G1 X-0.2349 Y0.0761
X-0.2346 Y0.0759
G3 X-0.2332 Y0.0763 I0.0005 J0.0009
G1 X-0.2327 Y0.0772
X-0.2324 Y0.0778 Z0.0003
X-0.2323 Y0.0781 Z0.001
G0 Z0.2
X-0.3585 Y-0.1454
G1 Z0.0394 F13.33
Z0.001
X-0.3584 Y-0.1456 Z0.0003
X-0.3582 Y-0.1463 Z0
X-0.3578 Y-0.1473 F40
G3 X-0.3566 Y-0.1479 I0.0009 J0.0003
G1 X-0.2008 Y-0.0952
X-0.2174 Y-0.0461
X-0.3977 Y-0.1071
X-0.3811 Y-0.1562
X-0.3566 Y-0.1479
G3 X-0.3559 Y-0.1466 I-0.0003 J0.0009
G1 X-0.3563 Y-0.1457
X-0.3565 Y-0.145 Z0.0003
X-0.3566 Y-0.1447 Z0.001
G0 Z0.2
X-0.095 Y-0.2372
G1 Z0.0394 F13.33
Z0.001
X-0.0948 Y-0.237 Z0.0003
X-0.0943 Y-0.2365 Z0
X-0.0936 Y-0.2358 F40
G3 Y-0.2344 I-0.0007 J0.0007
G1 X-0.1214 Y-0.2057
G3 X-0.1228 I-0.0007 J-0.0007
G1 X-0.1235 Y-0.2063
X-0.124 Y-0.2068 Z0.0003
X-0.1242 Y-0.207 Z0.001
G0 Z0.2
X-0.0275 Y-0.2331
G1 Z0.0394 F13.33
Z0.001
X-0.0276 Y-0.2328 Z0.0003
X-0.0279 Y-0.2322 Z0
X-0.0283 Y-0.2313 F40
G3 X-0.0296 Y-0.2308 I-0.0009 J-0.0004
X-0.068 Y-0.311 I0.0296 J-0.0634
G1 X-0.0679 Y-0.3112
X-0.0663 Y-0.3191
X-0.064 Y-0.3259
X-0.061 Y-0.3322
X-0.0575 Y-0.3382
X-0.0536 Y-0.344
X-0.0494 Y-0.3498
X-0.0461 Y-0.3544
X-0.046 Y-0.3545
X-0.0429 Y-0.3591
X-0.0427 Y-0.3594
X-0.0399 Y-0.3643
G2 X-0.0396 Y-0.3648 I-0.0043 J-0.0025
G1 X-0.0373 Y-0.3701
G2 X-0.0371 Y-0.3708 I-0.0046 J-0.002
G1 X-0.0355 Y-0.3766
G2 X-0.0354 Y-0.3775 I-0.0048 J-0.0013
G1 X-0.0348 Y-0.3841
G2 Y-0.3845 I-0.005 J-0.0004
G1 Y-0.3998
G3 X0.0348 Y-0.4134 I0.048 J0.0607
G1 Y-0.3845
G2 Y-0.3841 I0.005
G1 X0.0353 Y-0.3778
G2 X0.0355 Y-0.377 I0.005 J-0.0004
G1 X0.0369 Y-0.3713
G2 X0.0371 Y-0.3706 I0.0048 J-0.0012
G1 X0.0392 Y-0.3656
G2 X0.0395 Y-0.365 I0.0046 J-0.0019
G1 X0.0421 Y-0.3604
X0.0423 Y-0.36
X0.0453 Y-0.3556
X0.0454 Y-0.3554
X0.0485 Y-0.3511
Y-0.351
X0.0517 Y-0.3467
X0.0547 Y-0.3424
X0.0584 Y-0.3369
X0.0616 Y-0.3312
X0.0643 Y-0.3251
X0.0665 Y-0.3187
X0.0679 Y-0.3113
X0.068 Y-0.311
G3 X-0.0296 Y-0.2308 I-0.068 J0.0168
X-0.0301 Y-0.2321 I0.0004 J-0.0009
G1 X-0.0297 Y-0.233
X-0.0294 Y-0.2337 Z0.0003
X-0.0293 Y-0.2339 Z0.001
G0 Z0.2
X-0.008 Y-0.1852
G1 Z0.0394 F13.33
Z0.001
G18 G2 X-0.007 Z0 I0.001
G1 X-0.006 F40
G17 G3 X-0.005 Y-0.1842 J0.001
G1 Y-0.1442
G3 X-0.006 Y-0.1432 I-0.001
G1 X-0.007
G18 G3 X-0.008 Z0.001 K0.001
G0 Z0.2
X0.0293 Y-0.2499
G1 Z0.0394 F13.33
Z0.001
X0.0292 Y-0.2497 Z0.0003
X0.0291 Y-0.249 Z0
X0.0288 Y-0.248 F40
G17 G3 X0.0276 Y-0.2473 I-0.001 J-0.0003
G1 X0.017 Y-0.2501
X0.0076 Y-0.2528
X-0.0005 Y-0.2554
X-0.0075 Y-0.2579
X-0.0134 Y-0.2603
X-0.0183 Y-0.2625
X-0.0221 Y-0.2646
X-0.0249 Y-0.2666
X-0.0267 Y-0.2682
X-0.0277 Y-0.2695
X-0.028 Y-0.2703
X-0.0281 Y-0.2707
X-0.0278 Y-0.2716
X-0.0269 Y-0.273
X-0.0251 Y-0.2749
X-0.0224 Y-0.2769
X-0.0177 Y-0.2799
X-0.012 Y-0.2829
X-0.0057 Y-0.286
X0.0011 Y-0.2892
X0.008 Y-0.2925
X0.0081
X0.0148 Y-0.2959
X0.015 Y-0.296
X0.0212 Y-0.2994
X0.0215 Y-0.2996
X0.0271 Y-0.3032
G2 X0.0275 Y-0.3035 I-0.0027 J-0.0042
G1 X0.0322 Y-0.3072
G2 X0.0327 Y-0.3077 I-0.0031 J-0.0039
G1 X0.0352 Y-0.3103
G2 X0.0357 Y-0.3109 I-0.0036 J-0.0034
G1 X0.0375 Y-0.3136
G2 X0.038 Y-0.3144 I-0.0041 J-0.0029
G1 X0.0392 Y-0.3172
G2 X0.0396 Y-0.3184 I-0.0046 J-0.002
G1 X0.04 Y-0.3213
G2 Y-0.3227 I-0.0049 J-0.0008
G1 X0.0397 Y-0.3257
G2 X0.0393 Y-0.327 I-0.005 J0.0006
G1 X0.0381 Y-0.3301
G2 X0.0376 Y-0.331 I-0.0046 J0.0019
G1 X0.0356 Y-0.3339
G2 X0.0352 Y-0.3345 I-0.0041 J0.0028
G1 X0.0324 Y-0.3375
G2 X0.0319 Y-0.3379 I-0.0037 J0.0034
G1 X0.0283 Y-0.341
G2 X0.0279 Y-0.3413 I-0.0032 J0.0038
G1 X0.0233 Y-0.3445
X0.023 Y-0.3447
X0.0174 Y-0.3481
X0.0172 Y-0.3482
X0.0107 Y-0.3516
X0.0104 Y-0.3517
X0.0029 Y-0.3552
X0.0027 Y-0.3553
X-0.006 Y-0.359
X-0.0061
X-0.016 Y-0.3628
G3 X-0.0165 Y-0.3641 I0.0004 J-0.0009
G1 X-0.0162 Y-0.3651
X-0.0159 Y-0.3657 Z0.0003
X-0.0158 Y-0.366 Z0.001
G0 Z0.2
X-0.0144 Y-0.465
G1 Z0.0394 F13.33
Z0.001
X-0.0145 Y-0.4653 Z0.0003
X-0.0147 Y-0.466 Z0
X-0.015 Y-0.467 F40
G3 X-0.0143 Y-0.4682 I0.001 J-0.0003
X-0.0068 Y-0.4692 I0.0075 J0.027
G1 X0.0068
G3 X0.0314 Y-0.4545 J0.028
G2 X-0.0348 Y-0.4421 I-0.0183 J0.0854
G3 X-0.0143 Y-0.4682 I0.028 J0.0009
X-0.013 Y-0.4675 I0.0003 J0.001
G1 X-0.0128 Y-0.4665
X-0.0126 Y-0.4659 Z0.0003
X-0.0125 Y-0.4656 Z0.001
G0 Z0.2
X-0.1104 Y-0.307
G1 Z0.0394 F13.33
Z0.001
X-0.1103 Y-0.3068 Z0.0003
X-0.1102 Y-0.3061 Z0
X-0.11 Y-0.3051 F40
G3 X-0.1108 Y-0.3039 I-0.001 J0.0002
G1 X-0.1501 Y-0.2965
G3 X-0.1513 Y-0.2973 I-0.0002 J-0.001
G1 X-0.1515 Y-0.2983
X-0.1516 Y-0.299 Z0.0003
X-0.1517 Y-0.2993 Z0.001
G0 Z0.2
X0.0835 Y-0.2261
G1 Z0.0394 F13.33
Z0.001
X0.0837 Y-0.2263 Z0.0003
X0.0842 Y-0.2268 Z0
X0.085 Y-0.2275 F40
G3 X0.0864 Y-0.2274 I0.0007 J0.0007
G1 X0.1142 Y-0.1987
G3 Y-0.1973 I-0.0007 J0.0007
G1 X0.1135 Y-0.1966
X0.113 Y-0.1961 Z0.0003
X0.1127 Y-0.1959 Z0.001
G0 Z0.2
X0.1074 Y-0.2913
G1 Z0.0394 F13.33
Z0.001
X0.1075 Y-0.2916 Z0.0003
X0.1076 Y-0.2923 Z0
X0.1078 Y-0.2933 F40
G3 X0.109 Y-0.2941 I0.001 J0.0002
G1 X0.1483 Y-0.2867
G3 X0.1491 Y-0.2855 I-0.0002 J0.001
G1 X0.1489 Y-0.2846
X0.1488 Y-0.2839 Z0.0003
X0.1487 Y-0.2836 Z0.001
G0 Z0.6
M9
G28 G91 Z0
G28 X0 Y0
M30
%
