%
(Leandra Part)
(ahhhh!!!!)
(T1  D=2 CR=0 - ZMIN=-4.5 - bullnose end mill)
G90 G94
G17
G21
G28 G91 Z0
G90

(Face1)
M9
T1 M6
S5000 M3
G54
M8
G0 X2.745 Y-50.809
Z15
Z5
G1 Z-0.05 F1000
G18 G3 X2.545 Z-0.25 I-0.2
G1 X1.445
X-0.229
G17 G2 Y-49.075 J0.867
G1 X1.445
G3 Y-47.341 J0.867
G1 X-6.271
X-6.593
G2 Y-45.607 J0.867
G1 X1.445
G3 Y-43.873 J0.867
G1 X-0.422
G2 Y-42.139 J0.867
G1 X-0.229
X1.445
G3 Y-40.405 J0.867
G1 X-0.229
G2 Y-38.671 J0.867
G1 X1.445
G18 G2 X1.645 Z-0.05 K0.2
G0 Z5
X-3.626 Y-43.873
G1 Z-0.05 F1000
G3 X-3.826 Z-0.25 I-0.2
G1 X-4.883
X-6.601
G17 G2 Y-42.139 J0.867
G1 X-4.926
G3 Y-40.405 J0.867
G1 X-6.601
G2 Y-38.671 J0.867
G1 X-4.926
G18 G2 X-4.726 Z-0.05 K0.2
G0 Z5
X-13.493 Y-40.405
G1 Z-0.05 F1000
G2 X-13.293 Z-0.25 I0.2
G1 X-12.808
X-12.673
G2 X-12.473 Z-0.05 K0.2
G0 Z5
X-13.393 Y-50.809
G1 Z-0.05 F1000
G3 X-13.593 Z-0.25 I-0.2
G1 X-14.693
X-24.553
G17 G2 Y-49.075 J0.867
G1 X-14.693
G3 Y-47.341 J0.867
G1 X-16.498
G18 G3 X-16.698 Z-0.05 K0.2
G0 Z5
X-13.393 Y-45.607
G1 Z-0.05 F1000
G3 X-13.593 Z-0.25 I-0.2
G1 X-14.693
X-24.041
G17 G2 Y-43.873 J0.867
G1 X-14.693
G3 Y-42.139 J0.867
G1 X-16.498
G18 G3 X-16.698 Z-0.05 K0.2
G0 Z5
X-13.393 Y-40.405
G1 Z-0.05 F1000
G3 X-13.593 Z-0.25 I-0.2
G1 X-14.693
X-24.869
G17 G2 Y-38.671 J0.867
G1 X-14.693
G18 G2 X-14.493 Z-0.05 K0.2
G0 Z5
X-12.421 Y-50.809
G1 Z-0.05 F1000
G2 X-12.221 Z-0.25 I0.2
G1 X-11.121
X-9.456
G17 G3 Y-49.075 J0.867
G1 X-11.121
X-12.805
G2 Y-47.341 J0.867
G1 X-8.228
G3 Y-45.607 J0.867
G1 X-12.805
G2 Y-43.873 J0.867
G1 X-11.121
X-9.456
G3 Y-42.139 J0.867
G1 X-11.121
X-11.682
G2 Y-40.405 J0.867
G1 X-9.454
G3 Y-38.671 J0.867
G1 X-9.494
X-13.047
G18 G3 X-13.247 Z-0.05 K0.2
G0 Z5
X3.36 Y-47.341
G1 Z-0.05 F1000
G2 X3.56 Z-0.25 I0.2
G1 X4.274
X11.805
X12.319
G17 G3 Y-45.607 J0.867
G1 X8.778
X7.508
X4.041
X4.04
G2 Y-43.873 J0.867
G1 X11.494
X12.544
G3 Y-42.139 J0.867
G1 X4.041
X3.959
G2 Y-40.405 J0.867
G1 X7.178
X10.228
X12.608
G3 Y-38.671 J0.867
G1 X12.482
X3.51
G18 G3 X3.31 Z-0.05 K0.2
G0 Z5
X14.023 Y-47.341
G1 Z-0.05 F1000
G2 X14.223 Z-0.25 I0.2
G1 X14.926
X22.635
G17 G3 Y-45.607 J0.867
G1 X14.612
X14.607
G2 Y-43.873 J0.867
G1 X16.338
G3 Y-42.139 J0.867
G1 X16.282
X14.607
G2 Y-40.405 J0.867
G1 X16.282
G3 Y-38.671 J0.867
G1 X14.607
G18 G3 X14.407 Z-0.05 K0.2
G0 Z5
X19.648 Y-43.873
G1 Z-0.05 F1000
G2 X19.848 Z-0.25 I0.2
G1 X20.78
X22.635
G17 G3 Y-42.139 J0.867
G1 X20.961
G2 Y-40.405 J0.867
G1 X22.635
G3 Y-38.671 J0.867
G1 X20.961
G18 G3 X20.76 Z-0.05 K0.2
G0 Z15
G17

(2D Contour3)
M8
G0 X42.14 Y-48.611
Z15
Z5
G1 Z1.5 F1000
Z-0.3 F333.3
X42.133 Z-0.352
X42.113 Y-48.613 Z-0.4
X42.082 Y-48.616 Z-0.441
X42.04 Y-48.62 Z-0.473
X41.992 Y-48.624 Z-0.493
X41.941 Y-48.629 Z-0.5
X41.742 Y-48.648 F1000
G3 X41.561 Y-48.865 I0.019 J-0.199
G1 X41.607 Y-49.352
G2 X41.609 Y-49.387 I-0.996 J-0.093
G1 X41.639 Y-49.891
G2 X41.64 Y-49.925 I-0.998 J-0.058
G1 X41.653 Y-50.449
G2 Y-50.483 I-1 J-0.024
G1 X41.647 Y-51.03
G2 X41.646 Y-51.063 I-1 J0.01
G1 X41.621 Y-51.637
G2 X41.619 Y-51.67 I-0.999 J0.044
G1 X41.572 Y-52.275
G2 X41.569 Y-52.307 I-0.997 J0.077
G1 X41.499 Y-52.949
G2 X41.495 Y-52.979 I-0.994 J0.109
G1 X41.399 Y-53.665
G2 X41.394 Y-53.694 I-0.99 J0.139
G1 X41.269 Y-54.43
G2 X41.263 Y-54.458 I-0.986 J0.168
G1 X41.104 Y-55.254
G2 X41.1 Y-55.274 I-0.981 J0.196
G1 X41.007 Y-55.698
G2 X41.004 Y-55.71 I-0.977 J0.215
G1 X40.9 Y-56.154
G2 X40.897 Y-56.167 I-0.974 J0.228
G1 X40.782 Y-56.632
G2 X40.779 Y-56.643 I-0.971 J0.24
G1 X40.652 Y-57.132
G2 X40.649 Y-57.143 I-0.968 J0.252
G1 X40.509 Y-57.658
G2 X40.506 Y-57.668 I-0.965 J0.263
G1 X40.352 Y-58.211
G2 X40.349 Y-58.222 I-0.962 J0.273
G1 X40.179 Y-58.796
G2 X40.176 Y-58.805 I-0.959 J0.284
G1 X39.989 Y-59.415
G2 X39.986 Y-59.424 I-0.956 J0.293
G1 X39.78 Y-60.072
X39.777 Y-60.081
X39.55 Y-60.772
G2 X39.472 Y-60.95 I-0.95 J0.312
G1 X38.555 Y-62.583
G2 X38.541 Y-62.607 I-0.872 J0.49
G1 X38.067 Y-63.398
G2 X38.057 Y-63.415 I-0.858 J0.514
G1 X37.574 Y-64.187
G2 X37.563 Y-64.204 I-0.848 J0.53
G1 X37.071 Y-64.958
G2 X37.059 Y-64.975 I-0.837 J0.547
G1 X36.557 Y-65.709
G2 X36.544 Y-65.727 I-0.825 J0.565
G1 X36.033 Y-66.44
G2 X36.019 Y-66.459 I-0.813 J0.583
G1 X35.499 Y-67.151
G2 X35.484 Y-67.17 I-0.799 J0.601
G1 X34.955 Y-67.84
G2 X34.939 Y-67.859 I-0.785 J0.62
G1 X34.401 Y-68.506
G2 X34.384 Y-68.526 I-0.769 J0.639
G1 X33.837 Y-69.15
G2 X33.819 Y-69.17 I-0.752 J0.659
G1 X33.264 Y-69.77
G2 X33.244 Y-69.791 I-0.734 J0.679
G1 X32.681 Y-70.366
G2 X32.66 Y-70.387 I-0.715 J0.7
G1 X32.089 Y-70.937
G2 X32.066 Y-70.957 I-0.694 J0.72
G1 X31.488 Y-71.481
G2 X31.464 Y-71.502 I-0.671 J0.741
G1 X30.877 Y-72
G2 X30.851 Y-72.021 I-0.647 J0.762
G1 X30.258 Y-72.492
G2 X30.231 Y-72.513 I-0.621 J0.784
G1 X29.631 Y-72.955
G2 X29.601 Y-72.976 I-0.594 J0.805
G1 X28.995 Y-73.391
G2 X28.964 Y-73.411 I-0.564 J0.826
G1 X28.351 Y-73.797
G2 X28.318 Y-73.817 I-0.533 J0.846
G1 X27.699 Y-74.174
G2 X27.664 Y-74.193 I-0.5 J0.866
G1 X27.04 Y-74.521
G2 X27.003 Y-74.539 I-0.464 J0.886
G1 X26.374 Y-74.836
G2 X26.335 Y-74.854 I-0.427 J0.904
G1 X25.701 Y-75.121
G2 X25.66 Y-75.137 I-0.388 J0.922
G1 X25.022 Y-75.373
G2 X24.98 Y-75.388 I-0.347 J0.938
G1 X24.337 Y-75.593
G2 X24.293 Y-75.606 I-0.305 J0.952
G1 X23.647 Y-75.78
G2 X23.602 Y-75.792 I-0.26 J0.965
G1 X22.953 Y-75.935
G2 X22.906 Y-75.944 I-0.215 J0.977
G1 X22.254 Y-76.055
G2 X22.207 Y-76.062 I-0.168 J0.986
G1 X21.553 Y-76.141
G2 X21.504 Y-76.146 I-0.121 J0.993
G1 X20.848 Y-76.194
G2 X20.8 Y-76.196 I-0.073 J0.997
G1 X20.142 Y-76.212
G2 X20.093 I-0.024 J1
G1 X19.434 Y-76.196
G2 X19.386 Y-76.194 I0.024 J1
G1 X18.726 Y-76.146
G2 X18.678 Y-76.142 I0.072 J0.997
G1 X18.018 Y-76.062
G2 X17.972 Y-76.055 I0.12 J0.993
G1 X17.311 Y-75.944
G2 X17.266 Y-75.935 I0.166 J0.986
G1 X16.606 Y-75.792
G2 X16.562 Y-75.782 I0.212 J0.977
G1 X15.903 Y-75.608
G2 X15.86 Y-75.595 I0.255 J0.967
G1 X15.202 Y-75.39
G2 X15.161 Y-75.376 I0.298 J0.955
G1 X14.505 Y-75.14
G2 X14.466 Y-75.125 I0.339 J0.941
G1 X13.812 Y-74.858
G2 X13.775 Y-74.842 I0.378 J0.926
G1 X13.123 Y-74.545
G2 X13.088 Y-74.528 I0.415 J0.91
G1 X12.438 Y-74.201
G2 X12.405 Y-74.183 I0.45 J0.893
G1 X11.759 Y-73.826
G2 X11.728 Y-73.808 I0.483 J0.875
G1 X11.085 Y-73.422
G2 X11.056 Y-73.404 I0.515 J0.857
G1 X10.418 Y-72.989
G2 X10.39 Y-72.97 I0.545 J0.839
G1 X9.756 Y-72.528
G2 X9.73 Y-72.509 I0.573 J0.82
G1 X9.1 Y-72.039
G2 X9.076 Y-72.02 I0.599 J0.801
G1 X8.451 Y-71.522
G2 X8.428 Y-71.503 I0.623 J0.782
G1 X7.809 Y-70.979
G2 X7.788 Y-70.961 I0.646 J0.763
G1 X7.174 Y-70.411
G2 X7.154 Y-70.392 I0.667 J0.745
G1 X6.547 Y-69.817
G2 X6.528 Y-69.799 I0.688 J0.726
G1 X5.927 Y-69.199
G2 X5.909 Y-69.181 I0.706 J0.708
G1 X5.314 Y-68.557
G2 X5.298 Y-68.539 I0.724 J0.69
G1 X4.71 Y-67.892
G2 X4.694 Y-67.875 I0.74 J0.672
G1 X4.113 Y-67.205
G2 X4.099 Y-67.188 I0.755 J0.655
G1 X3.525 Y-66.496
G2 X3.512 Y-66.479 I0.77 J0.638
G1 X2.946 Y-65.766
G2 X2.933 Y-65.75 I0.783 J0.622
G1 X2.375 Y-65.016
G2 X2.363 Y-65.001 I0.796 J0.606
G1 X1.812 Y-64.247
G2 X1.801 Y-64.232 I0.807 J0.59
G1 X1.259 Y-63.459
G2 X1.248 Y-63.444 I0.818 J0.575
G1 X0.714 Y-62.653
G2 X0.7 Y-62.632 I0.829 J0.56
G1 X0.5 Y-62.318
X0.3 Y-62.632
G2 X0.286 Y-62.653 I-0.843 J0.538
G1 X-0.248 Y-63.444
G2 X-0.259 Y-63.459 I-0.829 J0.56
G1 X-0.801 Y-64.232
G2 X-0.812 Y-64.247 I-0.818 J0.575
G1 X-1.363 Y-65.001
G2 X-1.375 Y-65.016 I-0.807 J0.59
G1 X-1.933 Y-65.75
G2 X-1.946 Y-65.766 I-0.796 J0.606
G1 X-2.512 Y-66.479
G2 X-2.525 Y-66.496 I-0.783 J0.622
G1 X-3.099 Y-67.188
G2 X-3.113 Y-67.205 I-0.77 J0.638
G1 X-3.694 Y-67.875
G2 X-3.71 Y-67.892 I-0.755 J0.655
G1 X-4.298 Y-68.539
G2 X-4.314 Y-68.557 I-0.74 J0.672
G1 X-4.909 Y-69.181
G2 X-4.927 Y-69.199 I-0.724 J0.69
G1 X-5.528 Y-69.799
G2 X-5.547 Y-69.817 I-0.706 J0.708
G1 X-6.154 Y-70.392
G2 X-6.174 Y-70.411 I-0.688 J0.726
G1 X-6.788 Y-70.961
G2 X-6.809 Y-70.979 I-0.667 J0.745
G1 X-7.428 Y-71.503
G2 X-7.451 Y-71.522 I-0.646 J0.763
G1 X-8.076 Y-72.02
G2 X-8.1 Y-72.039 I-0.623 J0.782
G1 X-8.73 Y-72.509
G2 X-8.756 Y-72.528 I-0.599 J0.801
G1 X-9.39 Y-72.971
G2 X-9.418 Y-72.989 I-0.572 J0.82
G1 X-10.056 Y-73.404
G2 X-10.085 Y-73.422 I-0.545 J0.839
G1 X-10.728 Y-73.808
G2 X-10.759 Y-73.826 I-0.515 J0.857
G1 X-11.405 Y-74.183
G2 X-11.438 Y-74.201 I-0.483 J0.875
G1 X-12.088 Y-74.528
G2 X-12.123 Y-74.545 I-0.45 J0.893
G1 X-12.775 Y-74.842
G2 X-12.812 Y-74.858 I-0.415 J0.91
G1 X-13.466 Y-75.125
G2 X-13.505 Y-75.14 I-0.378 J0.926
G1 X-14.161 Y-75.376
G2 X-14.202 Y-75.39 I-0.339 J0.941
G1 X-14.86 Y-75.595
G2 X-14.903 Y-75.608 I-0.298 J0.955
G1 X-15.562 Y-75.782
G2 X-15.606 Y-75.792 I-0.255 J0.967
G1 X-16.266 Y-75.935
G2 X-16.311 Y-75.944 I-0.212 J0.977
G1 X-16.972 Y-76.055
G2 X-17.018 Y-76.062 I-0.166 J0.986
G1 X-17.678 Y-76.142
G2 X-17.726 Y-76.146 I-0.12 J0.993
G1 X-18.386 Y-76.194
G2 X-18.434 Y-76.196 I-0.072 J0.997
G1 X-19.093 Y-76.212
G2 X-19.142 I-0.024 J1
G1 X-19.8 Y-76.196
G2 X-19.848 Y-76.194 I0.024 J1
G1 X-20.504 Y-76.146
G2 X-20.553 Y-76.141 I0.073 J0.997
G1 X-21.207 Y-76.062
G2 X-21.254 Y-76.055 I0.121 J0.993
G1 X-21.906 Y-75.944
G2 X-21.953 Y-75.935 I0.168 J0.986
G1 X-22.602 Y-75.792
G2 X-22.647 Y-75.78 I0.215 J0.977
G1 X-23.293 Y-75.606
G2 X-23.337 Y-75.593 I0.26 J0.965
G1 X-23.98 Y-75.388
G2 X-24.022 Y-75.373 I0.305 J0.952
G1 X-24.66 Y-75.137
G2 X-24.701 Y-75.121 I0.347 J0.938
G1 X-25.335 Y-74.854
G2 X-25.374 Y-74.836 I0.388 J0.922
G1 X-26.003 Y-74.539
G2 X-26.04 Y-74.521 I0.427 J0.904
G1 X-26.664 Y-74.193
G2 X-26.699 Y-74.174 I0.464 J0.886
G1 X-27.318 Y-73.817
G2 X-27.351 Y-73.797 I0.5 J0.866
G1 X-27.964 Y-73.411
G2 X-27.995 Y-73.391 I0.533 J0.846
G1 X-28.601 Y-72.976
G2 X-28.631 Y-72.955 I0.564 J0.826
G1 X-29.231 Y-72.513
G2 X-29.258 Y-72.492 I0.594 J0.805
G1 X-29.851 Y-72.021
G2 X-29.877 Y-72 I0.621 J0.784
G1 X-30.464 Y-71.502
G2 X-30.488 Y-71.481 I0.647 J0.762
G1 X-31.066 Y-70.957
G2 X-31.089 Y-70.937 I0.671 J0.741
G1 X-31.66 Y-70.387
G2 X-31.681 Y-70.366 I0.694 J0.72
G1 X-32.244 Y-69.791
G2 X-32.264 Y-69.77 I0.715 J0.7
G1 X-32.819 Y-69.17
G2 X-32.837 Y-69.15 I0.734 J0.679
G1 X-33.384 Y-68.526
G2 X-33.401 Y-68.506 I0.752 J0.659
G1 X-33.939 Y-67.859
G2 X-33.955 Y-67.84 I0.769 J0.639
G1 X-34.484 Y-67.17
G2 X-34.499 Y-67.151 I0.785 J0.62
G1 X-35.019 Y-66.459
G2 X-35.033 Y-66.44 I0.799 J0.601
G1 X-35.544 Y-65.727
G2 X-35.557 Y-65.709 I0.813 J0.583
G1 X-36.059 Y-64.975
G2 X-36.071 Y-64.958 I0.825 J0.565
G1 X-36.563 Y-64.204
G2 X-36.574 Y-64.187 I0.837 J0.547
G1 X-37.057 Y-63.415
G2 X-37.067 Y-63.398 I0.848 J0.53
G1 X-37.541 Y-62.607
G2 X-37.555 Y-62.583 I0.858 J0.514
G1 X-38.472 Y-60.95
G2 X-38.55 Y-60.772 I0.872 J0.49
G1 X-38.777 Y-60.081
X-38.78 Y-60.072
X-38.986 Y-59.424
G2 X-38.989 Y-59.415 I0.953 J0.303
G1 X-39.176 Y-58.805
G2 X-39.179 Y-58.796 I0.956 J0.293
G1 X-39.349 Y-58.222
G2 X-39.352 Y-58.211 I0.959 J0.284
G1 X-39.506 Y-57.668
G2 X-39.509 Y-57.658 I0.962 J0.273
G1 X-39.649 Y-57.143
G2 X-39.652 Y-57.132 I0.965 J0.263
G1 X-39.779 Y-56.643
G2 X-39.782 Y-56.632 I0.968 J0.252
G1 X-39.897 Y-56.167
G2 X-39.9 Y-56.154 I0.971 J0.24
G1 X-40.004 Y-55.71
G2 X-40.007 Y-55.698 I0.974 J0.228
G1 X-40.1 Y-55.274
G2 X-40.104 Y-55.254 I0.977 J0.215
G1 X-40.263 Y-54.458
G2 X-40.269 Y-54.43 I0.981 J0.196
G1 X-40.394 Y-53.694
G2 X-40.399 Y-53.665 I0.986 J0.168
G1 X-40.495 Y-52.979
G2 X-40.499 Y-52.949 I0.99 J0.139
G1 X-40.569 Y-52.307
G2 X-40.572 Y-52.275 I0.994 J0.109
G1 X-40.619 Y-51.67
G2 X-40.621 Y-51.637 I0.997 J0.077
G1 X-40.646 Y-51.063
G2 X-40.647 Y-51.03 I0.999 J0.044
G1 X-40.653 Y-50.483
G2 Y-50.449 I1 J0.01
G1 X-40.64 Y-49.925
G2 X-40.639 Y-49.891 I1 J-0.024
G1 X-40.609 Y-49.387
G2 X-40.607 Y-49.352 I0.998 J-0.058
G1 X-40.561 Y-48.865
G2 X-40.557 Y-48.831 I0.996 J-0.093
G1 X-40.497 Y-48.359
G2 X-40.489 Y-48.308 I0.992 J-0.127
G1 X-40.325 Y-47.396
G2 X-40.311 Y-47.332 I0.984 J-0.178
G1 X-40.091 Y-46.451
G2 X-40.074 Y-46.391 I0.97 J-0.242
G1 X-39.801 Y-45.528
G2 X-39.782 Y-45.474 I0.953 J-0.302
G1 X-39.456 Y-44.618
G2 X-39.436 Y-44.57 I0.935 J-0.356
G1 X-39.056 Y-43.71
G2 X-39.036 Y-43.667 I0.915 J-0.404
G1 X-38.6 Y-42.793
G2 X-38.58 Y-42.756 I0.895 J-0.447
G1 X-38.084 Y-41.858
G2 X-38.065 Y-41.826 I0.875 J-0.484
G1 X-37.504 Y-40.894
G2 X-37.491 Y-40.873 I0.857 J-0.516
G1 X-37.185 Y-40.391
G2 X-37.176 Y-40.378 I0.844 J-0.537
G1 X-36.851 Y-39.884
G2 X-36.843 Y-39.872 I0.835 J-0.55
G1 X-36.498 Y-39.363
G2 X-36.491 Y-39.353 I0.828 J-0.561
G1 X-36.125 Y-38.828
G2 X-36.118 Y-38.818 I0.82 J-0.572
G1 X-35.73 Y-38.276
G2 X-35.724 Y-38.267 I0.813 J-0.582
G1 X-35.312 Y-37.706
G2 X-35.306 Y-37.697 I0.807 J-0.591
G1 X-34.869 Y-37.115
X-34.863 Y-37.107
X-34.4 Y-36.501
X-34.394 Y-36.494
X-33.902 Y-35.862
X-33.896 Y-35.855
X-33.372 Y-35.195
X-33.368 Y-35.189
X-32.81 Y-34.497
X-32.805 Y-34.491
X-32.211 Y-33.765
X-32.206 Y-33.76
X-31.572 Y-32.995
X-31.568 Y-32.99
X-30.889 Y-32.184
X-30.886 Y-32.179
X-30.16 Y-31.326
X-30.156 Y-31.322
X-29.377 Y-30.416
X-29.375 Y-30.414
X-28.964 Y-29.94
X-28.963 Y-29.938
X-28.537 Y-29.449
X-28.535 Y-29.447
X-28.093 Y-28.942
X-28.092 Y-28.94
X-27.633 Y-28.418
X-27.631 Y-28.416
X-27.154 Y-27.876
X-27.153 Y-27.875
X-26.658 Y-27.316
X-26.656 Y-27.314
X-26.141 Y-26.735
X-26.139 Y-26.733
X-25.603 Y-26.133
X-25.601 Y-26.131
X-25.042 Y-25.508
X-25.041 Y-25.506
X-24.458 Y-24.859
X-24.457 Y-24.857
X-23.849 Y-24.184
X-23.848 Y-24.183
X-23.213 Y-23.482
X-23.212 Y-23.48
X-22.549 Y-22.75
X-22.548 Y-22.749
X-21.854 Y-21.988
X-21.853 Y-21.986
X-21.126 Y-21.191
X-21.125 Y-21.19
X-20.364 Y-20.359
X-20.363 Y-20.358
X-19.564 Y-19.489
Y-19.488
X-18.725 Y-18.577
X-18.724 Y-18.576
X-17.842 Y-17.62
X-17.841 Y-17.619
X-16.913 Y-16.616
X-16.912 Y-16.615
X-15.933 Y-15.559
X-15.423 Y-15.01
X-14.899 Y-14.446
X-14.36 Y-13.867
X-13.806 Y-13.272
X-13.237 Y-12.661
X-12.65 Y-12.032
X-12.046 Y-11.385
X-11.424 Y-10.72
X-10.782 Y-10.034
X-10.121 Y-9.328
X-9.439 Y-8.6
X-8.735 Y-7.85
X-8.009 Y-7.075
X-7.258 Y-6.276
X-6.482 Y-5.451
X-5.68 Y-4.598
X-4.85 Y-3.716
X-3.991 Y-2.803
X-3.1 Y-1.859
X-2.178 Y-0.88
X-1.221 Y0.134
X-0.227 Y1.187
G2 X1.227 I0.727 J-0.687
G1 X2.22 Y0.135
X3.177 Y-0.88
X4.1 Y-1.858
X4.99 Y-2.803
X5.85 Y-3.715
X6.68 Y-4.597
X7.482 Y-5.45
X8.258 Y-6.276
X9.009 Y-7.075
X9.735 Y-7.849
X10.439 Y-8.6
X11.121 Y-9.328
X11.782 Y-10.034
X12.423 Y-10.719
X13.045 Y-11.385
X13.65 Y-12.032
X14.236 Y-12.661
X14.806 Y-13.272
X15.36 Y-13.867
X15.899 Y-14.446
X16.423 Y-15.01
X16.932 Y-15.559
X17.912 Y-16.615
X17.913 Y-16.616
X18.841 Y-17.619
X18.842 Y-17.62
X19.724 Y-18.576
X19.725 Y-18.577
X20.564 Y-19.488
Y-19.489
X21.363 Y-20.358
X21.364 Y-20.359
X22.125 Y-21.19
X22.126 Y-21.191
X22.853 Y-21.986
X22.854 Y-21.988
X23.548 Y-22.749
X23.549 Y-22.75
X24.212 Y-23.48
X24.213 Y-23.482
X24.848 Y-24.183
X24.849 Y-24.184
X25.457 Y-24.857
X25.458 Y-24.859
X26.041 Y-25.506
X26.042 Y-25.508
X26.601 Y-26.131
X26.603 Y-26.133
X27.139 Y-26.733
X27.141 Y-26.735
X27.656 Y-27.314
X27.658 Y-27.316
X28.153 Y-27.875
X28.154 Y-27.876
X28.631 Y-28.416
X28.633 Y-28.418
X29.092 Y-28.94
X29.093 Y-28.942
X29.535 Y-29.447
X29.537 Y-29.449
X29.963 Y-29.938
X29.964 Y-29.94
X30.375 Y-30.414
X30.377 Y-30.416
X31.156 Y-31.322
X31.16 Y-31.326
X31.886 Y-32.179
X31.889 Y-32.184
X32.568 Y-32.99
X32.572 Y-32.995
X33.206 Y-33.76
X33.211 Y-33.765
X33.805 Y-34.491
X33.81 Y-34.497
X34.368 Y-35.189
X34.372 Y-35.195
X34.896 Y-35.855
X34.902 Y-35.862
X35.394 Y-36.494
X35.4 Y-36.501
X35.863 Y-37.107
X35.869 Y-37.115
X36.306 Y-37.697
G2 X36.312 Y-37.706 I-0.8 J-0.6
G1 X36.724 Y-38.267
G2 X36.73 Y-38.276 I-0.807 J-0.591
G1 X37.118 Y-38.818
G2 X37.125 Y-38.828 I-0.813 J-0.582
G1 X37.491 Y-39.353
G2 X37.498 Y-39.363 I-0.82 J-0.572
G1 X37.843 Y-39.872
G2 X37.851 Y-39.884 I-0.828 J-0.561
G1 X38.176 Y-40.378
G2 X38.185 Y-40.391 I-0.835 J-0.55
G1 X38.491 Y-40.873
G2 X38.504 Y-40.894 I-0.844 J-0.537
G1 X39.065 Y-41.826
G2 X39.084 Y-41.858 I-0.857 J-0.516
G1 X39.58 Y-42.756
G2 X39.6 Y-42.793 I-0.875 J-0.484
G1 X40.036 Y-43.667
G2 X40.056 Y-43.71 I-0.895 J-0.447
G1 X40.436 Y-44.57
G2 X40.456 Y-44.618 I-0.915 J-0.404
G1 X40.782 Y-45.474
G2 X40.801 Y-45.528 I-0.935 J-0.356
G1 X41.074 Y-46.391
G2 X41.091 Y-46.451 I-0.953 J-0.302
G1 X41.311 Y-47.332
G2 X41.325 Y-47.396 I-0.97 J-0.242
G1 X41.489 Y-48.308
G2 X41.497 Y-48.359 I-0.984 J-0.178
G1 X41.557 Y-48.831
G2 X41.561 Y-48.865 I-0.992 J-0.127
G3 X41.779 Y-49.046 I0.199 J0.019
G1 X41.978 Y-49.027
X42.03 Y-49.023 Z-0.493
X42.078 Y-49.018 Z-0.473
X42.119 Y-49.014 Z-0.441
X42.151 Y-49.011 Z-0.4
X42.17 Y-49.009 Z-0.352
X42.177 Z-0.3
G0 Z5
X42.14 Y-48.611
G1 Z1 F1000
Z-0.8 F333.3
X42.133 Z-0.852
X42.113 Y-48.613 Z-0.9
X42.082 Y-48.616 Z-0.941
X42.04 Y-48.62 Z-0.973
X41.992 Y-48.624 Z-0.993
X41.941 Y-48.629 Z-1
X41.742 Y-48.648 F1000
G3 X41.561 Y-48.865 I0.019 J-0.199
G1 X41.607 Y-49.352
G2 X41.609 Y-49.387 I-0.996 J-0.093
G1 X41.639 Y-49.891
G2 X41.64 Y-49.925 I-0.998 J-0.058
G1 X41.653 Y-50.449
G2 X39.653 Y-50.496 I-1 J-0.024
X40.646 Y-49.473 I1 J0.024
X41.653 Y-50.483 I0.007 J-1
G1 X41.647 Y-51.03
G2 X39.647 Y-51.009 I-1 J0.01
X40.675 Y-50.02 I1 J-0.01
X41.646 Y-51.063 I-0.027 J-1
G1 X41.621 Y-51.637
G2 X39.623 Y-51.548 I-0.999 J0.044
X40.682 Y-50.595 I0.999 J-0.044
X41.619 Y-51.67 I-0.061 J-0.998
G1 X41.572 Y-52.275
G2 X39.578 Y-52.121 I-0.997 J0.077
X40.668 Y-51.202 I0.997 J-0.077
X41.569 Y-52.307 I-0.093 J-0.996
G1 X41.499 Y-52.949
G2 X39.511 Y-52.731 I-0.994 J0.109
X40.629 Y-51.848 I0.994 J-0.109
X41.495 Y-52.979 I-0.124 J-0.992
G1 X41.399 Y-53.665
G2 X39.418 Y-53.386 I-0.99 J0.139
X40.562 Y-52.537 I0.99 J-0.139
X41.394 Y-53.694 I-0.154 J-0.988
G1 X41.269 Y-54.43
G2 X41.263 Y-54.458 I-0.986 J0.168
G1 X41.104 Y-55.254
G2 X41.1 Y-55.274 I-0.981 J0.196
G1 X41.007 Y-55.698
G2 X41.004 Y-55.71 I-0.977 J0.215
G1 X40.9 Y-56.154
G2 X40.897 Y-56.167 I-0.974 J0.228
G1 X40.782 Y-56.632
G2 X40.779 Y-56.643 I-0.971 J0.24
G1 X40.652 Y-57.132
G2 X40.649 Y-57.143 I-0.968 J0.252
G1 X40.509 Y-57.658
G2 X40.506 Y-57.668 I-0.965 J0.263
G1 X40.352 Y-58.211
G2 X40.349 Y-58.222 I-0.962 J0.273
G1 X40.179 Y-58.796
G2 X40.176 Y-58.805 I-0.959 J0.284
G1 X39.989 Y-59.415
G2 X39.986 Y-59.424 I-0.956 J0.293
G1 X39.78 Y-60.072
X39.777 Y-60.081
X39.55 Y-60.772
G2 X39.472 Y-60.95 I-0.95 J0.312
G1 X38.555 Y-62.583
G2 X38.541 Y-62.607 I-0.872 J0.49
G1 X38.067 Y-63.398
G2 X38.057 Y-63.415 I-0.858 J0.514
G1 X37.574 Y-64.187
G2 X37.563 Y-64.204 I-0.848 J0.53
G1 X37.071 Y-64.958
G2 X37.059 Y-64.975 I-0.837 J0.547
G1 X36.557 Y-65.709
G2 X36.544 Y-65.727 I-0.825 J0.565
G1 X36.033 Y-66.44
G2 X34.407 Y-65.275 I-0.813 J0.583
X35.812 Y-65.052 I0.813 J-0.583
X36.019 Y-66.459 I-0.592 J-0.806
G1 X35.499 Y-67.151
G2 X33.9 Y-65.948 I-0.799 J0.601
X35.31 Y-65.758 I0.799 J-0.601
X35.484 Y-67.17 I-0.611 J-0.792
G1 X34.955 Y-67.84
G2 X33.385 Y-66.6 I-0.785 J0.62
X34.8 Y-66.443 I0.785 J-0.62
X34.939 Y-67.859 I-0.63 J-0.777
G1 X34.401 Y-68.506
G2 X32.863 Y-67.228 I-0.769 J0.639
X34.281 Y-67.106 I0.769 J-0.639
X34.384 Y-68.526 I-0.649 J-0.761
G1 X33.837 Y-69.15
G2 X32.333 Y-67.832 I-0.752 J0.659
X33.754 Y-67.748 I0.752 J-0.659
X33.819 Y-69.17 I-0.669 J-0.743
G1 X33.264 Y-69.77
G2 X31.796 Y-68.412 I-0.734 J0.679
X33.219 Y-68.367 I0.734 J-0.679
X33.244 Y-69.791 I-0.689 J-0.724
G1 X32.681 Y-70.366
G2 X32.66 Y-70.387 I-0.715 J0.7
G1 X32.089 Y-70.937
G2 X32.066 Y-70.957 I-0.694 J0.72
G1 X31.488 Y-71.481
G2 X31.464 Y-71.502 I-0.671 J0.741
G1 X30.877 Y-72
G2 X30.851 Y-72.021 I-0.647 J0.762
G1 X30.258 Y-72.492
G2 X30.231 Y-72.513 I-0.621 J0.784
G1 X29.631 Y-72.955
G2 X29.601 Y-72.976 I-0.594 J0.805
G1 X28.995 Y-73.391
G2 X28.964 Y-73.411 I-0.564 J0.826
G1 X28.351 Y-73.797
G2 X28.318 Y-73.817 I-0.533 J0.846
G1 X27.699 Y-74.174
G2 X27.664 Y-74.193 I-0.5 J0.866
G1 X27.04 Y-74.521
G2 X27.003 Y-74.539 I-0.464 J0.886
G1 X26.374 Y-74.836
G2 X26.335 Y-74.854 I-0.427 J0.904
G1 X25.701 Y-75.121
G2 X25.66 Y-75.137 I-0.388 J0.922
G1 X25.022 Y-75.373
G2 X24.98 Y-75.388 I-0.347 J0.938
G1 X24.337 Y-75.593
G2 X24.293 Y-75.606 I-0.305 J0.952
G1 X23.647 Y-75.78
G2 X23.602 Y-75.792 I-0.26 J0.965
G1 X22.953 Y-75.935
G2 X22.906 Y-75.944 I-0.215 J0.977
G1 X22.254 Y-76.055
G2 X22.207 Y-76.062 I-0.168 J0.986
G1 X21.553 Y-76.141
G2 X21.311 Y-74.156 I-0.121 J0.993
X22.427 Y-75.052 I0.121 J-0.993
X21.504 Y-76.146 I-0.995 J-0.097
G1 X20.848 Y-76.194
G2 X20.703 Y-74.199 I-0.073 J0.997
X21.774 Y-75.148 I0.073 J-0.997
X20.8 Y-76.196 I-0.999 J-0.048
G1 X20.142 Y-76.212
G2 X20.093 Y-74.213 I-0.024 J1
X21.117 Y-75.212 I0.024 J-1
X20.093 Y-76.212 I-1
G1 X19.434 Y-76.196
G2 X19.482 Y-74.197 I0.024 J1
X20.457 Y-75.245 I-0.024 J-1
X19.386 Y-76.194 I-0.999 J0.048
G1 X18.726 Y-76.146
G2 X18.87 Y-74.151 I0.072 J0.997
X19.793 Y-75.245 I-0.072 J-0.997
X18.678 Y-76.142 I-0.995 J0.096
G1 X18.018 Y-76.062
G2 X18.257 Y-74.076 I0.12 J0.993
X19.127 Y-75.212 I-0.12 J-0.993
X17.972 Y-76.055 I-0.99 J0.143
G1 X17.311 Y-75.944
G2 X17.643 Y-73.972 I0.166 J0.986
X18.459 Y-75.147 I-0.166 J-0.986
X17.266 Y-75.935 I-0.982 J0.189
G1 X16.606 Y-75.792
G2 X16.562 Y-75.782 I0.212 J0.977
G1 X15.903 Y-75.608
G2 X15.86 Y-75.595 I0.255 J0.967
G1 X15.202 Y-75.39
G2 X15.161 Y-75.376 I0.298 J0.955
G1 X14.505 Y-75.14
G2 X14.466 Y-75.125 I0.339 J0.941
G1 X13.812 Y-74.858
G2 X13.775 Y-74.842 I0.378 J0.926
G1 X13.123 Y-74.545
G2 X13.088 Y-74.528 I0.415 J0.91
G1 X12.438 Y-74.201
G2 X12.405 Y-74.183 I0.45 J0.893
G1 X11.759 Y-73.826
G2 X11.728 Y-73.808 I0.483 J0.875
G1 X11.085 Y-73.422
G2 X11.056 Y-73.404 I0.515 J0.857
G1 X10.418 Y-72.989
G2 X10.39 Y-72.97 I0.545 J0.839
G1 X9.756 Y-72.528
G2 X9.73 Y-72.509 I0.573 J0.82
G1 X9.1 Y-72.039
G2 X9.076 Y-72.02 I0.599 J0.801
G1 X8.451 Y-71.522
G2 X8.428 Y-71.503 I0.623 J0.782
G1 X7.809 Y-70.979
G2 X7.788 Y-70.961 I0.646 J0.763
G1 X7.174 Y-70.411
G2 X7.154 Y-70.392 I0.667 J0.745
G1 X6.547 Y-69.817
G2 X6.528 Y-69.799 I0.688 J0.726
G1 X5.927 Y-69.199
G2 X7.339 Y-67.783 I0.706 J0.708
X7.332 Y-69.206 I-0.706 J-0.708
X5.909 Y-69.181 I-0.699 J0.715
G1 X5.314 Y-68.557
G2 X6.762 Y-67.177 I0.724 J0.69
X6.719 Y-68.599 I-0.724 J-0.69
X5.298 Y-68.539 I-0.681 J0.732
G1 X4.71 Y-67.892
G2 X6.19 Y-66.547 I0.74 J0.672
X6.114 Y-67.967 I-0.74 J-0.672
X4.694 Y-67.875 I-0.664 J0.748
G1 X4.113 Y-67.205
G2 X5.624 Y-65.894 I0.755 J0.655
X5.516 Y-67.312 I-0.755 J-0.655
X4.099 Y-67.188 I-0.647 J0.763
G1 X3.525 Y-66.496
G2 X5.065 Y-65.219 I0.77 J0.638
X4.925 Y-66.634 I-0.77 J-0.638
X3.512 Y-66.479 I-0.63 J0.777
G1 X2.946 Y-65.766
G2 X2.933 Y-65.75 I0.783 J0.622
G1 X2.375 Y-65.016
G2 X2.363 Y-65.001 I0.796 J0.606
G1 X1.812 Y-64.247
G2 X1.801 Y-64.232 I0.807 J0.59
G1 X1.259 Y-63.459
G2 X1.248 Y-63.444 I0.818 J0.575
G1 X0.714 Y-62.653
G2 X0.7 Y-62.632 I0.829 J0.56
G1 X0.5 Y-62.318
X0.3 Y-62.632
G2 X0.286 Y-62.653 I-0.843 J0.538
G1 X-0.248 Y-63.444
G2 X-0.259 Y-63.459 I-0.829 J0.56
G1 X-0.801 Y-64.232
G2 X-0.812 Y-64.247 I-0.818 J0.575
G1 X-1.363 Y-65.001
G2 X-1.375 Y-65.016 I-0.807 J0.59
G1 X-1.933 Y-65.75
G2 X-1.946 Y-65.766 I-0.796 J0.606
G1 X-2.512 Y-66.479
G2 X-4.078 Y-65.236 I-0.783 J0.622
X-2.665 Y-65.081 I0.783 J-0.622
X-2.525 Y-66.496 I-0.63 J-0.777
G1 X-3.099 Y-67.188
G2 X-4.639 Y-65.911 I-0.77 J0.638
X-3.222 Y-65.787 I0.77 J-0.638
X-3.113 Y-67.205 I-0.647 J-0.763
G1 X-3.694 Y-67.875
G2 X-5.205 Y-66.564 I-0.755 J0.655
X-3.786 Y-66.472 I0.755 J-0.655
X-3.71 Y-67.892 I-0.664 J-0.748
G1 X-4.298 Y-68.539
G2 X-5.778 Y-67.195 I-0.74 J0.672
X-4.357 Y-67.135 I0.74 J-0.672
X-4.314 Y-68.557 I-0.681 J-0.732
G1 X-4.909 Y-69.181
G2 X-6.357 Y-67.801 I-0.724 J0.69
X-4.934 Y-67.776 I0.724 J-0.69
X-4.927 Y-69.199 I-0.699 J-0.715
G1 X-5.528 Y-69.799
G2 X-5.547 Y-69.817 I-0.706 J0.708
G1 X-6.154 Y-70.392
G2 X-6.174 Y-70.411 I-0.688 J0.726
G1 X-6.788 Y-70.961
G2 X-6.809 Y-70.979 I-0.667 J0.745
G1 X-7.428 Y-71.503
G2 X-7.451 Y-71.522 I-0.646 J0.763
G1 X-8.076 Y-72.02
G2 X-8.1 Y-72.039 I-0.623 J0.782
G1 X-8.73 Y-72.509
G2 X-8.756 Y-72.528 I-0.599 J0.801
G1 X-9.39 Y-72.971
G2 X-9.418 Y-72.989 I-0.572 J0.82
G1 X-10.056 Y-73.404
G2 X-10.085 Y-73.422 I-0.545 J0.839
G1 X-10.728 Y-73.808
G2 X-10.759 Y-73.826 I-0.515 J0.857
G1 X-11.405 Y-74.183
G2 X-11.438 Y-74.201 I-0.483 J0.875
G1 X-12.088 Y-74.528
G2 X-12.123 Y-74.545 I-0.45 J0.893
G1 X-12.775 Y-74.842
G2 X-12.812 Y-74.858 I-0.415 J0.91
G1 X-13.466 Y-75.125
G2 X-13.505 Y-75.14 I-0.378 J0.926
G1 X-14.161 Y-75.376
G2 X-14.202 Y-75.39 I-0.339 J0.941
G1 X-14.86 Y-75.595
G2 X-14.903 Y-75.608 I-0.298 J0.955
G1 X-15.562 Y-75.782
G2 X-15.606 Y-75.792 I-0.255 J0.967
G1 X-16.266 Y-75.935
G2 X-16.689 Y-73.981 I-0.212 J0.977
X-15.495 Y-74.769 I0.212 J-0.977
X-16.311 Y-75.944 I-0.982 J-0.189
G1 X-16.972 Y-76.055
G2 X-17.304 Y-74.083 I-0.166 J0.986
X-16.148 Y-74.926 I0.166 J-0.986
X-17.018 Y-76.062 I-0.99 J-0.143
G1 X-17.678 Y-76.142
G2 X-17.918 Y-74.156 I-0.12 J0.993
X-16.803 Y-75.053 I0.12 J-0.993
X-17.726 Y-76.146 I-0.995 J-0.096
G1 X-18.386 Y-76.194
G2 X-18.53 Y-74.199 I-0.072 J0.997
X-17.459 Y-75.148 I0.072 J-0.997
X-18.434 Y-76.196 I-0.999 J-0.048
G1 X-19.093 Y-76.212
G2 X-19.142 Y-74.213 I-0.024 J1
X-18.117 Y-75.213 I0.024 J-1
X-19.142 Y-76.212 I-1
G1 X-19.8 Y-76.196
G2 X-19.751 Y-74.197 I0.024 J1
X-18.777 Y-75.245 I-0.024 J-1
X-19.848 Y-76.194 I-0.999 J0.048
G1 X-20.504 Y-76.146
G2 X-20.359 Y-74.151 I0.073 J0.997
X-19.436 Y-75.246 I-0.073 J-0.997
X-20.553 Y-76.141 I-0.995 J0.097
G1 X-21.207 Y-76.062
G2 X-21.254 Y-76.055 I0.121 J0.993
G1 X-21.906 Y-75.944
G2 X-21.953 Y-75.935 I0.168 J0.986
G1 X-22.602 Y-75.792
G2 X-22.647 Y-75.78 I0.215 J0.977
G1 X-23.293 Y-75.606
G2 X-23.337 Y-75.593 I0.26 J0.965
G1 X-23.98 Y-75.388
G2 X-24.022 Y-75.373 I0.305 J0.952
G1 X-24.66 Y-75.137
G2 X-24.701 Y-75.121 I0.347 J0.938
G1 X-25.335 Y-74.854
G2 X-25.374 Y-74.836 I0.388 J0.922
G1 X-26.003 Y-74.539
G2 X-26.04 Y-74.521 I0.427 J0.904
G1 X-26.664 Y-74.193
G2 X-26.699 Y-74.174 I0.464 J0.886
G1 X-27.318 Y-73.817
G2 X-27.351 Y-73.797 I0.5 J0.866
G1 X-27.964 Y-73.411
G2 X-27.995 Y-73.391 I0.533 J0.846
G1 X-28.601 Y-72.976
G2 X-28.631 Y-72.955 I0.564 J0.826
G1 X-29.231 Y-72.513
G2 X-29.258 Y-72.492 I0.594 J0.805
G1 X-29.851 Y-72.021
G2 X-29.877 Y-72 I0.621 J0.784
G1 X-30.464 Y-71.502
G2 X-30.488 Y-71.481 I0.647 J0.762
G1 X-31.066 Y-70.957
G2 X-31.089 Y-70.937 I0.671 J0.741
G1 X-31.66 Y-70.387
G2 X-31.681 Y-70.366 I0.694 J0.72
G1 X-32.244 Y-69.791
G2 X-30.815 Y-68.391 I0.715 J0.7
X-30.84 Y-69.815 I-0.715 J-0.7
X-32.264 Y-69.77 I-0.689 J0.724
G1 X-32.819 Y-69.17
G2 X-31.351 Y-67.812 I0.734 J0.679
X-31.416 Y-69.234 I-0.734 J-0.679
X-32.837 Y-69.15 I-0.669 J0.743
G1 X-33.384 Y-68.526
G2 X-31.88 Y-67.208 I0.752 J0.659
X-31.982 Y-68.628 I-0.752 J-0.659
X-33.401 Y-68.506 I-0.649 J0.761
G1 X-33.939 Y-67.859
G2 X-32.401 Y-66.58 I0.769 J0.639
X-32.54 Y-67.996 I-0.769 J-0.639
X-33.955 Y-67.84 I-0.63 J0.777
G1 X-34.484 Y-67.17
G2 X-32.915 Y-65.93 I0.785 J0.62
X-33.089 Y-67.341 I-0.785 J-0.62
X-34.499 Y-67.151 I-0.611 J0.792
G1 X-35.019 Y-66.459
G2 X-33.421 Y-65.256 I0.799 J0.601
X-33.628 Y-66.664 I-0.799 J-0.601
X-35.033 Y-66.44 I-0.592 J0.806
G1 X-35.544 Y-65.727
G2 X-35.557 Y-65.709 I0.813 J0.583
G1 X-36.059 Y-64.975
G2 X-36.071 Y-64.958 I0.825 J0.565
G1 X-36.563 Y-64.204
G2 X-36.574 Y-64.187 I0.837 J0.547
G1 X-37.057 Y-63.415
G2 X-37.067 Y-63.398 I0.848 J0.53
G1 X-37.541 Y-62.607
G2 X-37.555 Y-62.583 I0.858 J0.514
G1 X-38.472 Y-60.95
G2 X-38.55 Y-60.772 I0.872 J0.49
G1 X-38.777 Y-60.081
X-38.78 Y-60.072
X-38.986 Y-59.424
G2 X-38.989 Y-59.415 I0.953 J0.303
G1 X-39.176 Y-58.805
G2 X-39.179 Y-58.796 I0.956 J0.293
G1 X-39.349 Y-58.222
G2 X-39.352 Y-58.211 I0.959 J0.284
G1 X-39.506 Y-57.668
G2 X-39.509 Y-57.658 I0.962 J0.273
G1 X-39.649 Y-57.143
G2 X-39.652 Y-57.132 I0.965 J0.263
G1 X-39.779 Y-56.643
G2 X-39.782 Y-56.632 I0.968 J0.252
G1 X-39.897 Y-56.167
G2 X-39.9 Y-56.154 I0.971 J0.24
G1 X-40.004 Y-55.71
G2 X-40.007 Y-55.698 I0.974 J0.228
G1 X-40.1 Y-55.274
G2 X-40.104 Y-55.254 I0.977 J0.215
G1 X-40.263 Y-54.458
G2 X-40.269 Y-54.43 I0.981 J0.196
G1 X-40.394 Y-53.694
G2 X-38.423 Y-53.357 I0.986 J0.168
X-39.255 Y-54.513 I-0.986 J-0.168
X-40.399 Y-53.665 I-0.154 J0.988
G1 X-40.495 Y-52.979
G2 X-38.515 Y-52.701 I0.99 J0.139
X-39.381 Y-53.832 I-0.99 J-0.139
X-40.499 Y-52.949 I-0.124 J0.992
G1 X-40.569 Y-52.307
G2 X-38.581 Y-52.089 I0.994 J0.109
X-39.482 Y-53.194 I-0.994 J-0.109
X-40.572 Y-52.275 I-0.093 J0.996
G1 X-40.619 Y-51.67
G2 X-38.625 Y-51.516 I0.997 J0.077
X-39.561 Y-52.591 I-0.997 J-0.077
X-40.621 Y-51.637 I-0.061 J0.998
G1 X-40.646 Y-51.063
G2 X-38.648 Y-50.975 I0.999 J0.044
X-39.62 Y-52.019 I-0.999 J-0.044
X-40.647 Y-51.03 I-0.027 J1
G1 X-40.653 Y-50.483
G2 Y-50.449 I1 J0.01
G1 X-40.64 Y-49.925
G2 X-40.639 Y-49.891 I1 J-0.024
G1 X-40.609 Y-49.387
G2 X-40.607 Y-49.352 I0.998 J-0.058
G1 X-40.561 Y-48.865
G2 X-40.557 Y-48.831 I0.996 J-0.093
G1 X-40.497 Y-48.359
G2 X-40.489 Y-48.308 I0.992 J-0.127
G1 X-40.325 Y-47.396
G2 X-40.311 Y-47.332 I0.984 J-0.178
G1 X-40.091 Y-46.451
G2 X-40.074 Y-46.391 I0.97 J-0.242
G1 X-39.801 Y-45.528
G2 X-39.782 Y-45.474 I0.953 J-0.302
G1 X-39.456 Y-44.618
G2 X-39.436 Y-44.57 I0.935 J-0.356
G1 X-39.056 Y-43.71
G2 X-39.036 Y-43.667 I0.915 J-0.404
G1 X-38.6 Y-42.793
G2 X-38.58 Y-42.756 I0.895 J-0.447
G1 X-38.084 Y-41.858
G2 X-38.065 Y-41.826 I0.875 J-0.484
G1 X-37.504 Y-40.894
G2 X-37.491 Y-40.873 I0.857 J-0.516
G1 X-37.185 Y-40.391
G2 X-37.176 Y-40.378 I0.844 J-0.537
G1 X-36.851 Y-39.884
G2 X-36.843 Y-39.872 I0.835 J-0.55
G1 X-36.498 Y-39.363
G2 X-36.491 Y-39.353 I0.828 J-0.561
G1 X-36.125 Y-38.828
G2 X-36.118 Y-38.818 I0.82 J-0.572
G1 X-35.73 Y-38.276
G2 X-35.724 Y-38.267 I0.813 J-0.582
G1 X-35.312 Y-37.706
G2 X-35.306 Y-37.697 I0.807 J-0.591
G1 X-34.869 Y-37.115
X-34.863 Y-37.107
X-34.4 Y-36.501
X-34.394 Y-36.494
X-33.902 Y-35.862
X-33.896 Y-35.855
X-33.372 Y-35.195
X-33.368 Y-35.189
X-32.81 Y-34.497
X-32.805 Y-34.491
X-32.211 Y-33.765
X-32.206 Y-33.76
X-31.572 Y-32.995
X-31.568 Y-32.99
X-30.889 Y-32.184
X-30.886 Y-32.179
X-30.16 Y-31.326
X-30.156 Y-31.322
X-29.377 Y-30.416
X-29.375 Y-30.414
X-28.964 Y-29.94
X-28.963 Y-29.938
X-28.537 Y-29.449
X-28.535 Y-29.447
X-28.093 Y-28.942
X-28.092 Y-28.94
X-27.633 Y-28.418
X-27.631 Y-28.416
X-27.154 Y-27.876
X-27.153 Y-27.875
X-26.658 Y-27.316
X-26.656 Y-27.314
X-26.141 Y-26.735
X-26.139 Y-26.733
X-25.603 Y-26.133
X-25.601 Y-26.131
X-25.042 Y-25.508
X-25.041 Y-25.506
X-24.458 Y-24.859
X-24.457 Y-24.857
X-23.849 Y-24.184
X-23.848 Y-24.183
X-23.213 Y-23.482
X-23.212 Y-23.48
X-22.549 Y-22.75
X-22.548 Y-22.749
X-21.854 Y-21.988
X-21.853 Y-21.986
X-21.126 Y-21.191
X-21.125 Y-21.19
X-20.364 Y-20.359
X-20.363 Y-20.358
X-19.564 Y-19.489
Y-19.488
X-18.725 Y-18.577
X-18.724 Y-18.576
X-17.842 Y-17.62
X-17.841 Y-17.619
X-16.913 Y-16.616
X-16.912 Y-16.615
X-15.933 Y-15.559
X-15.423 Y-15.01
X-14.899 Y-14.446
X-14.36 Y-13.867
X-13.806 Y-13.272
X-13.237 Y-12.661
X-12.65 Y-12.032
X-12.046 Y-11.385
X-11.424 Y-10.72
X-10.782 Y-10.034
X-10.121 Y-9.328
X-9.439 Y-8.6
X-8.735 Y-7.85
X-8.009 Y-7.075
X-7.258 Y-6.276
X-6.482 Y-5.451
X-5.68 Y-4.598
X-4.85 Y-3.716
X-3.991 Y-2.803
X-3.1 Y-1.859
X-2.178 Y-0.88
X-1.221 Y0.134
X-0.227 Y1.187
G2 X1.227 I0.727 J-0.687
G1 X2.22 Y0.135
X3.177 Y-0.88
X4.1 Y-1.858
X4.99 Y-2.803
X5.85 Y-3.715
X6.68 Y-4.597
X7.482 Y-5.45
X8.258 Y-6.276
X9.009 Y-7.075
X9.735 Y-7.849
X10.439 Y-8.6
X11.121 Y-9.328
X11.782 Y-10.034
X12.423 Y-10.719
X13.045 Y-11.385
X13.65 Y-12.032
X14.236 Y-12.661
X14.806 Y-13.272
X15.36 Y-13.867
X15.899 Y-14.446
X16.423 Y-15.01
X16.932 Y-15.559
X17.912 Y-16.615
X17.913 Y-16.616
X18.841 Y-17.619
X18.842 Y-17.62
X19.724 Y-18.576
X19.725 Y-18.577
X20.564 Y-19.488
Y-19.489
X21.363 Y-20.358
X21.364 Y-20.359
X22.125 Y-21.19
X22.126 Y-21.191
X22.853 Y-21.986
X22.854 Y-21.988
X23.548 Y-22.749
X23.549 Y-22.75
X24.212 Y-23.48
X24.213 Y-23.482
X24.848 Y-24.183
X24.849 Y-24.184
X25.457 Y-24.857
X25.458 Y-24.859
X26.041 Y-25.506
X26.042 Y-25.508
X26.601 Y-26.131
X26.603 Y-26.133
X27.139 Y-26.733
X27.141 Y-26.735
X27.656 Y-27.314
X27.658 Y-27.316
X28.153 Y-27.875
X28.154 Y-27.876
X28.631 Y-28.416
X28.633 Y-28.418
X29.092 Y-28.94
X29.093 Y-28.942
X29.535 Y-29.447
X29.537 Y-29.449
X29.963 Y-29.938
X29.964 Y-29.94
X30.375 Y-30.414
X30.377 Y-30.416
X31.156 Y-31.322
X31.16 Y-31.326
X31.886 Y-32.179
X31.889 Y-32.184
X32.568 Y-32.99
X32.572 Y-32.995
X33.206 Y-33.76
X33.211 Y-33.765
X33.805 Y-34.491
X33.81 Y-34.497
X34.368 Y-35.189
X34.372 Y-35.195
X34.896 Y-35.855
X34.902 Y-35.862
X35.394 Y-36.494
X35.4 Y-36.501
X35.863 Y-37.107
X35.869 Y-37.115
X36.306 Y-37.697
G2 X36.312 Y-37.706 I-0.8 J-0.6
G1 X36.724 Y-38.267
G2 X36.73 Y-38.276 I-0.807 J-0.591
G1 X37.118 Y-38.818
G2 X37.125 Y-38.828 I-0.813 J-0.582
G1 X37.491 Y-39.353
G2 X37.498 Y-39.363 I-0.82 J-0.572
G1 X37.843 Y-39.872
G2 X37.851 Y-39.884 I-0.828 J-0.561
G1 X38.176 Y-40.378
G2 X38.185 Y-40.391 I-0.835 J-0.55
G1 X38.491 Y-40.873
G2 X38.504 Y-40.894 I-0.844 J-0.537
G1 X39.065 Y-41.826
G2 X39.084 Y-41.858 I-0.857 J-0.516
G1 X39.58 Y-42.756
G2 X39.6 Y-42.793 I-0.875 J-0.484
G1 X40.036 Y-43.667
G2 X40.056 Y-43.71 I-0.895 J-0.447
G1 X40.436 Y-44.57
G2 X40.456 Y-44.618 I-0.915 J-0.404
G1 X40.782 Y-45.474
G2 X40.801 Y-45.528 I-0.935 J-0.356
G1 X41.074 Y-46.391
G2 X41.091 Y-46.451 I-0.953 J-0.302
G1 X41.311 Y-47.332
G2 X41.325 Y-47.396 I-0.97 J-0.242
G1 X41.489 Y-48.308
G2 X41.497 Y-48.359 I-0.984 J-0.178
G1 X41.557 Y-48.831
G2 X41.561 Y-48.865 I-0.992 J-0.127
G3 X41.779 Y-49.046 I0.199 J0.019
G1 X41.978 Y-49.027
X42.03 Y-49.023 Z-0.993
X42.078 Y-49.018 Z-0.973
X42.119 Y-49.014 Z-0.941
X42.151 Y-49.011 Z-0.9
X42.17 Y-49.009 Z-0.852
X42.177 Z-0.8
G0 Z5
X42.14 Y-48.611
G1 Z0.5 F1000
Z-1.3 F333.3
X42.133 Z-1.352
X42.113 Y-48.613 Z-1.4
X42.082 Y-48.616 Z-1.441
X42.04 Y-48.62 Z-1.473
X41.992 Y-48.624 Z-1.493
X41.941 Y-48.629 Z-1.5
X41.742 Y-48.648 F1000
G3 X41.583 Y-48.755 I0.019 J-0.199
G1 Z-1
G3 X41.561 Y-48.865 I0.178 J-0.092
G1 X41.607 Y-49.352
G2 X41.609 Y-49.387 I-0.996 J-0.093
G1 X41.639 Y-49.891
G2 X41.64 Y-49.925 I-0.998 J-0.058
G1 X41.653 Y-50.449
G2 Y-50.483 I-1 J-0.024
G1 X41.647 Y-51.03
G2 X41.646 Y-51.063 I-1 J0.01
G1 X41.621 Y-51.637
G2 X41.619 Y-51.67 I-0.999 J0.044
G1 X41.572 Y-52.275
G2 X41.569 Y-52.307 I-0.997 J0.077
G1 X41.499 Y-52.949
G2 X41.495 Y-52.979 I-0.994 J0.109
G1 X41.399 Y-53.665
G2 X41.394 Y-53.694 I-0.99 J0.139
G1 X41.385 Y-53.751
Z-1.5 F333.3
X41.269 Y-54.43 F1000
G2 X41.263 Y-54.458 I-0.986 J0.168
G1 X41.104 Y-55.254
G2 X41.1 Y-55.274 I-0.981 J0.196
G1 X41.007 Y-55.698
G2 X41.004 Y-55.71 I-0.977 J0.215
G1 X40.9 Y-56.154
G2 X40.897 Y-56.167 I-0.974 J0.228
G1 X40.782 Y-56.632
G2 X40.779 Y-56.643 I-0.971 J0.24
G1 X40.652 Y-57.132
G2 X40.649 Y-57.143 I-0.968 J0.252
G1 X40.509 Y-57.658
G2 X40.506 Y-57.668 I-0.965 J0.263
G1 X40.352 Y-58.211
G2 X40.349 Y-58.222 I-0.962 J0.273
G1 X40.179 Y-58.796
G2 X40.176 Y-58.805 I-0.959 J0.284
G1 X39.989 Y-59.415
G2 X39.986 Y-59.424 I-0.956 J0.293
G1 X39.78 Y-60.072
X39.777 Y-60.081
X39.55 Y-60.772
G2 X39.472 Y-60.95 I-0.95 J0.312
G1 X38.555 Y-62.583
G2 X38.541 Y-62.607 I-0.872 J0.49
G1 X38.067 Y-63.398
G2 X38.057 Y-63.415 I-0.858 J0.514
G1 X37.574 Y-64.187
G2 X37.563 Y-64.204 I-0.848 J0.53
G1 X37.071 Y-64.958
G2 X37.059 Y-64.975 I-0.837 J0.547
G1 X36.557 Y-65.709
G2 X36.544 Y-65.727 I-0.825 J0.565
G1 X36.266 Y-66.114
Z-1
X36.033 Y-66.44
G2 X36.019 Y-66.459 I-0.813 J0.583
G1 X35.499 Y-67.151
G2 X35.484 Y-67.17 I-0.799 J0.601
G1 X34.955 Y-67.84
G2 X34.939 Y-67.859 I-0.785 J0.62
G1 X34.401 Y-68.506
G2 X34.384 Y-68.526 I-0.769 J0.639
G1 X33.837 Y-69.15
G2 X33.819 Y-69.17 I-0.752 J0.659
G1 X33.264 Y-69.77
G2 X33.244 Y-69.791 I-0.734 J0.679
G1 X33.075 Y-69.963
Z-1.5 F333.3
X32.681 Y-70.366 F1000
G2 X32.66 Y-70.387 I-0.715 J0.7
G1 X32.089 Y-70.937
G2 X32.066 Y-70.957 I-0.694 J0.72
G1 X31.488 Y-71.481
G2 X31.464 Y-71.502 I-0.671 J0.741
G1 X30.877 Y-72
G2 X30.851 Y-72.021 I-0.647 J0.762
G1 X30.258 Y-72.492
G2 X30.231 Y-72.513 I-0.621 J0.784
G1 X29.631 Y-72.955
G2 X29.601 Y-72.976 I-0.594 J0.805
G1 X28.995 Y-73.391
G2 X28.964 Y-73.411 I-0.564 J0.826
G1 X28.351 Y-73.797
G2 X28.318 Y-73.817 I-0.533 J0.846
G1 X27.699 Y-74.174
G2 X27.664 Y-74.193 I-0.5 J0.866
G1 X27.04 Y-74.521
G2 X27.003 Y-74.539 I-0.464 J0.886
G1 X26.374 Y-74.836
G2 X26.335 Y-74.854 I-0.427 J0.904
G1 X25.701 Y-75.121
G2 X25.66 Y-75.137 I-0.388 J0.922
G1 X25.022 Y-75.373
G2 X24.98 Y-75.388 I-0.347 J0.938
G1 X24.337 Y-75.593
G2 X24.293 Y-75.606 I-0.305 J0.952
G1 X23.647 Y-75.78
G2 X23.602 Y-75.792 I-0.26 J0.965
G1 X22.953 Y-75.935
G2 X22.906 Y-75.944 I-0.215 J0.977
G1 X22.254 Y-76.055
G2 X22.207 Y-76.062 I-0.168 J0.986
G1 X22.205
Z-1
X21.553 Y-76.141
G2 X21.504 Y-76.146 I-0.121 J0.993
G1 X20.848 Y-76.194
G2 X20.8 Y-76.196 I-0.073 J0.997
G1 X20.142 Y-76.212
G2 X20.093 I-0.024 J1
G1 X19.434 Y-76.196
G2 X19.386 Y-76.194 I0.024 J1
G1 X18.726 Y-76.146
G2 X18.678 Y-76.142 I0.072 J0.997
G1 X18.018 Y-76.062
G2 X17.972 Y-76.055 I0.12 J0.993
G1 X17.311 Y-75.944
G2 X17.266 Y-75.935 I0.166 J0.986
G1 X17.207 Y-75.923
Z-1.5 F333.3
X16.606 Y-75.792 F1000
G2 X16.562 Y-75.782 I0.212 J0.977
G1 X15.903 Y-75.608
G2 X15.86 Y-75.595 I0.255 J0.967
G1 X15.202 Y-75.39
G2 X15.161 Y-75.376 I0.298 J0.955
G1 X14.505 Y-75.14
G2 X14.466 Y-75.125 I0.339 J0.941
G1 X13.812 Y-74.858
G2 X13.775 Y-74.842 I0.378 J0.926
G1 X13.123 Y-74.545
G2 X13.088 Y-74.528 I0.415 J0.91
G1 X12.438 Y-74.201
G2 X12.405 Y-74.183 I0.45 J0.893
G1 X11.759 Y-73.826
G2 X11.728 Y-73.808 I0.483 J0.875
G1 X11.085 Y-73.422
G2 X11.056 Y-73.404 I0.515 J0.857
G1 X10.418 Y-72.989
G2 X10.39 Y-72.97 I0.545 J0.839
G1 X9.756 Y-72.528
G2 X9.73 Y-72.509 I0.573 J0.82
G1 X9.1 Y-72.039
G2 X9.076 Y-72.02 I0.599 J0.801
G1 X8.451 Y-71.522
G2 X8.428 Y-71.503 I0.623 J0.782
G1 X7.809 Y-70.979
G2 X7.788 Y-70.961 I0.646 J0.763
G1 X7.174 Y-70.411
G2 X7.154 Y-70.392 I0.667 J0.745
G1 X6.547 Y-69.817
G2 X6.528 Y-69.799 I0.688 J0.726
G1 X6.443 Y-69.715
Z-1
X5.927 Y-69.199
G2 X5.909 Y-69.181 I0.706 J0.708
G1 X5.314 Y-68.557
G2 X5.298 Y-68.539 I0.724 J0.69
G1 X4.71 Y-67.892
G2 X4.694 Y-67.875 I0.74 J0.672
G1 X4.113 Y-67.205
G2 X4.099 Y-67.188 I0.755 J0.655
G1 X3.525 Y-66.496
G2 X3.512 Y-66.479 I0.77 J0.638
G1 X3.117 Y-65.982
Z-1.5 F333.3
X2.946 Y-65.766 F1000
G2 X2.933 Y-65.75 I0.783 J0.622
G1 X2.375 Y-65.016
G2 X2.363 Y-65.001 I0.796 J0.606
G1 X1.812 Y-64.247
G2 X1.801 Y-64.232 I0.807 J0.59
G1 X1.259 Y-63.459
G2 X1.248 Y-63.444 I0.818 J0.575
G1 X0.714 Y-62.653
G2 X0.7 Y-62.632 I0.829 J0.56
G1 X0.5 Y-62.318
X0.3 Y-62.632
G2 X0.286 Y-62.653 I-0.843 J0.538
G1 X-0.248 Y-63.444
G2 X-0.259 Y-63.459 I-0.829 J0.56
G1 X-0.801 Y-64.232
G2 X-0.812 Y-64.247 I-0.818 J0.575
G1 X-1.363 Y-65.001
G2 X-1.375 Y-65.016 I-0.807 J0.59
G1 X-1.933 Y-65.75
G2 X-1.946 Y-65.766 I-0.796 J0.606
G1 X-2.117 Y-65.982
Z-1
X-2.512 Y-66.479
G2 X-2.525 Y-66.496 I-0.783 J0.622
G1 X-3.099 Y-67.188
G2 X-3.113 Y-67.205 I-0.77 J0.638
G1 X-3.694 Y-67.875
G2 X-3.71 Y-67.892 I-0.755 J0.655
G1 X-4.298 Y-68.539
G2 X-4.314 Y-68.557 I-0.74 J0.672
G1 X-4.909 Y-69.181
G2 X-4.927 Y-69.199 I-0.724 J0.69
G1 X-5.443 Y-69.715
Z-1.5 F333.3
X-5.528 Y-69.799 F1000
G2 X-5.547 Y-69.817 I-0.706 J0.708
G1 X-6.154 Y-70.392
G2 X-6.174 Y-70.411 I-0.688 J0.726
G1 X-6.788 Y-70.961
G2 X-6.809 Y-70.979 I-0.667 J0.745
G1 X-7.428 Y-71.503
G2 X-7.451 Y-71.522 I-0.646 J0.763
G1 X-8.076 Y-72.02
G2 X-8.1 Y-72.039 I-0.623 J0.782
G1 X-8.73 Y-72.509
G2 X-8.756 Y-72.528 I-0.599 J0.801
G1 X-9.39 Y-72.971
G2 X-9.418 Y-72.989 I-0.572 J0.82
G1 X-10.056 Y-73.404
G2 X-10.085 Y-73.422 I-0.545 J0.839
G1 X-10.728 Y-73.808
G2 X-10.759 Y-73.826 I-0.515 J0.857
G1 X-11.405 Y-74.183
G2 X-11.438 Y-74.201 I-0.483 J0.875
G1 X-12.088 Y-74.528
G2 X-12.123 Y-74.545 I-0.45 J0.893
G1 X-12.775 Y-74.842
G2 X-12.812 Y-74.858 I-0.415 J0.91
G1 X-13.466 Y-75.125
G2 X-13.505 Y-75.14 I-0.378 J0.926
G1 X-14.161 Y-75.376
G2 X-14.202 Y-75.39 I-0.339 J0.941
G1 X-14.86 Y-75.595
G2 X-14.903 Y-75.608 I-0.298 J0.955
G1 X-15.562 Y-75.782
G2 X-15.606 Y-75.792 I-0.255 J0.967
G1 X-16.207 Y-75.923
Z-1
X-16.266 Y-75.935
G2 X-16.311 Y-75.944 I-0.212 J0.977
G1 X-16.972 Y-76.055
G2 X-17.018 Y-76.062 I-0.166 J0.986
G1 X-17.678 Y-76.142
G2 X-17.726 Y-76.146 I-0.12 J0.993
G1 X-18.386 Y-76.194
G2 X-18.434 Y-76.196 I-0.072 J0.997
G1 X-19.093 Y-76.212
G2 X-19.142 I-0.024 J1
G1 X-19.8 Y-76.196
G2 X-19.848 Y-76.194 I0.024 J1
G1 X-20.504 Y-76.146
G2 X-20.553 Y-76.141 I0.073 J0.997
G1 X-21.205 Y-76.062
Z-1.5 F333.3
X-21.207 F1000
G2 X-21.254 Y-76.055 I0.121 J0.993
G1 X-21.906 Y-75.944
G2 X-21.953 Y-75.935 I0.168 J0.986
G1 X-22.602 Y-75.792
G2 X-22.647 Y-75.78 I0.215 J0.977
G1 X-23.293 Y-75.606
G2 X-23.337 Y-75.593 I0.26 J0.965
G1 X-23.98 Y-75.388
G2 X-24.022 Y-75.373 I0.305 J0.952
G1 X-24.66 Y-75.137
G2 X-24.701 Y-75.121 I0.347 J0.938
G1 X-25.335 Y-74.854
G2 X-25.374 Y-74.836 I0.388 J0.922
G1 X-26.003 Y-74.539
G2 X-26.04 Y-74.521 I0.427 J0.904
G1 X-26.664 Y-74.193
G2 X-26.699 Y-74.174 I0.464 J0.886
G1 X-27.318 Y-73.817
G2 X-27.351 Y-73.797 I0.5 J0.866
G1 X-27.964 Y-73.411
G2 X-27.995 Y-73.391 I0.533 J0.846
G1 X-28.601 Y-72.976
G2 X-28.631 Y-72.955 I0.564 J0.826
G1 X-29.231 Y-72.513
G2 X-29.258 Y-72.492 I0.594 J0.805
G1 X-29.851 Y-72.021
G2 X-29.877 Y-72 I0.621 J0.784
G1 X-30.464 Y-71.502
G2 X-30.488 Y-71.481 I0.647 J0.762
G1 X-31.066 Y-70.957
G2 X-31.089 Y-70.937 I0.671 J0.741
G1 X-31.66 Y-70.387
G2 X-31.681 Y-70.366 I0.694 J0.72
G1 X-32.075 Y-69.963
Z-1
X-32.244 Y-69.791
G2 X-32.264 Y-69.77 I0.715 J0.7
G1 X-32.819 Y-69.17
G2 X-32.837 Y-69.15 I0.734 J0.679
G1 X-33.384 Y-68.526
G2 X-33.401 Y-68.506 I0.752 J0.659
G1 X-33.939 Y-67.859
G2 X-33.955 Y-67.84 I0.769 J0.639
G1 X-34.484 Y-67.17
G2 X-34.499 Y-67.151 I0.785 J0.62
G1 X-35.019 Y-66.459
G2 X-35.033 Y-66.44 I0.799 J0.601
G1 X-35.266 Y-66.114
Z-1.5 F333.3
X-35.544 Y-65.727 F1000
G2 X-35.557 Y-65.709 I0.813 J0.583
G1 X-36.059 Y-64.975
G2 X-36.071 Y-64.958 I0.825 J0.565
G1 X-36.563 Y-64.204
G2 X-36.574 Y-64.187 I0.837 J0.547
G1 X-37.057 Y-63.415
G2 X-37.067 Y-63.398 I0.848 J0.53
G1 X-37.541 Y-62.607
G2 X-37.555 Y-62.583 I0.858 J0.514
G1 X-38.472 Y-60.95
G2 X-38.55 Y-60.772 I0.872 J0.49
G1 X-38.777 Y-60.081
X-38.78 Y-60.072
X-38.986 Y-59.424
G2 X-38.989 Y-59.415 I0.953 J0.303
G1 X-39.176 Y-58.805
G2 X-39.179 Y-58.796 I0.956 J0.293
G1 X-39.349 Y-58.222
G2 X-39.352 Y-58.211 I0.959 J0.284
G1 X-39.506 Y-57.668
G2 X-39.509 Y-57.658 I0.962 J0.273
G1 X-39.649 Y-57.143
G2 X-39.652 Y-57.132 I0.965 J0.263
G1 X-39.779 Y-56.643
G2 X-39.782 Y-56.632 I0.968 J0.252
G1 X-39.897 Y-56.167
G2 X-39.9 Y-56.154 I0.971 J0.24
G1 X-40.004 Y-55.71
G2 X-40.007 Y-55.698 I0.974 J0.228
G1 X-40.1 Y-55.274
G2 X-40.104 Y-55.254 I0.977 J0.215
G1 X-40.263 Y-54.458
G2 X-40.269 Y-54.43 I0.981 J0.196
G1 X-40.385 Y-53.751
Z-1
X-40.394 Y-53.694
G2 X-40.399 Y-53.665 I0.986 J0.168
G1 X-40.495 Y-52.979
G2 X-40.499 Y-52.949 I0.99 J0.139
G1 X-40.569 Y-52.307
G2 X-40.572 Y-52.275 I0.994 J0.109
G1 X-40.619 Y-51.67
G2 X-40.621 Y-51.637 I0.997 J0.077
G1 X-40.646 Y-51.063
G2 X-40.647 Y-51.03 I0.999 J0.044
G1 X-40.653 Y-50.483
G2 Y-50.449 I1 J0.01
G1 X-40.64 Y-49.925
G2 X-40.639 Y-49.891 I1 J-0.024
G1 X-40.609 Y-49.387
G2 X-40.607 Y-49.352 I0.998 J-0.058
G1 X-40.561 Y-48.865
G2 X-40.557 Y-48.831 I0.996 J-0.093
G1 X-40.548 Y-48.754
Z-1.5 F333.3
X-40.497 Y-48.359 F1000
G2 X-40.489 Y-48.308 I0.992 J-0.127
G1 X-40.325 Y-47.396
G2 X-40.311 Y-47.332 I0.984 J-0.178
G1 X-40.091 Y-46.451
G2 X-40.074 Y-46.391 I0.97 J-0.242
G1 X-39.801 Y-45.528
G2 X-39.782 Y-45.474 I0.953 J-0.302
G1 X-39.456 Y-44.618
G2 X-39.436 Y-44.57 I0.935 J-0.356
G1 X-39.056 Y-43.71
G2 X-39.036 Y-43.667 I0.915 J-0.404
G1 X-38.6 Y-42.793
G2 X-38.58 Y-42.756 I0.895 J-0.447
G1 X-38.084 Y-41.858
G2 X-38.065 Y-41.826 I0.875 J-0.484
G1 X-37.504 Y-40.894
G2 X-37.491 Y-40.873 I0.857 J-0.516
G1 X-37.185 Y-40.391
G2 X-37.176 Y-40.378 I0.844 J-0.537
G1 X-36.851 Y-39.884
G2 X-36.843 Y-39.872 I0.835 J-0.55
G1 X-36.498 Y-39.363
G2 X-36.491 Y-39.353 I0.828 J-0.561
G1 X-36.125 Y-38.828
G2 X-36.118 Y-38.818 I0.82 J-0.572
G1 X-35.73 Y-38.276
G2 X-35.724 Y-38.267 I0.813 J-0.582
G1 X-35.312 Y-37.706
G2 X-35.306 Y-37.697 I0.807 J-0.591
G1 X-34.869 Y-37.115
X-34.863 Y-37.107
X-34.4 Y-36.501
X-34.394 Y-36.494
X-33.902 Y-35.862
X-33.896 Y-35.855
X-33.888 Y-35.845
Z-1
X-33.372 Y-35.195
X-33.368 Y-35.189
X-32.81 Y-34.497
X-32.805 Y-34.491
X-32.211 Y-33.765
X-32.206 Y-33.76
X-31.572 Y-32.995
X-31.568 Y-32.99
X-30.889 Y-32.184
X-30.886 Y-32.179
X-30.716 Y-31.98
Z-1.5 F333.3
X-30.16 Y-31.326 F1000
X-30.156 Y-31.322
X-29.377 Y-30.416
X-29.375 Y-30.414
X-28.964 Y-29.94
X-28.963 Y-29.938
X-28.537 Y-29.449
X-28.535 Y-29.447
X-28.093 Y-28.942
X-28.092 Y-28.94
X-27.633 Y-28.418
X-27.631 Y-28.416
X-27.154 Y-27.876
X-27.153 Y-27.875
X-26.658 Y-27.316
X-26.656 Y-27.314
X-26.141 Y-26.735
X-26.139 Y-26.733
X-25.603 Y-26.133
X-25.601 Y-26.131
X-25.042 Y-25.508
X-25.041 Y-25.506
X-24.458 Y-24.859
X-24.457 Y-24.857
X-23.849 Y-24.184
X-23.848 Y-24.183
X-23.213 Y-23.482
X-23.212 Y-23.48
X-22.549 Y-22.75
X-22.548 Y-22.749
X-21.854 Y-21.988
X-21.853 Y-21.986
X-21.386 Y-21.475
Z-1
X-21.126 Y-21.191
X-21.125 Y-21.19
X-20.364 Y-20.359
X-20.363 Y-20.358
X-19.564 Y-19.489
Y-19.488
X-18.725 Y-18.577
X-18.724 Y-18.576
X-18.002 Y-17.794
Z-1.5 F333.3
X-17.842 Y-17.62 F1000
X-17.841 Y-17.619
X-16.913 Y-16.616
X-16.912 Y-16.615
X-15.933 Y-15.559
X-15.423 Y-15.01
X-14.899 Y-14.446
X-14.36 Y-13.867
X-13.806 Y-13.272
X-13.237 Y-12.661
X-12.65 Y-12.032
X-12.046 Y-11.385
X-11.424 Y-10.72
X-10.782 Y-10.034
X-10.121 Y-9.328
X-9.439 Y-8.6
X-8.735 Y-7.85
X-8.453 Y-7.549
Z-1
X-8.009 Y-7.075
X-7.258 Y-6.276
X-6.482 Y-5.451
X-5.68 Y-4.598
X-5.029 Y-3.906
Z-1.5 F333.3
X-4.85 Y-3.716 F1000
X-3.991 Y-2.803
X-3.1 Y-1.859
X-2.178 Y-0.88
X-1.221 Y0.134
X-0.227 Y1.187
G2 X1.227 I0.727 J-0.687
G1 X2.22 Y0.135
X3.177 Y-0.88
X4.1 Y-1.858
X4.99 Y-2.803
X5.85 Y-3.715
X6.029 Y-3.906
Z-1
X6.68 Y-4.597
X7.482 Y-5.45
X8.258 Y-6.276
X9.009 Y-7.075
X9.453 Y-7.549
Z-1.5 F333.3
X9.735 Y-7.849 F1000
X10.439 Y-8.6
X11.121 Y-9.328
X11.782 Y-10.034
X12.423 Y-10.719
X13.045 Y-11.385
X13.65 Y-12.032
X14.236 Y-12.661
X14.806 Y-13.272
X15.36 Y-13.867
X15.899 Y-14.446
X16.423 Y-15.01
X16.932 Y-15.559
X17.912 Y-16.615
X17.913 Y-16.616
X18.841 Y-17.619
X18.842 Y-17.62
X19.002 Y-17.794
Z-1
X19.724 Y-18.576
X19.725 Y-18.577
X20.564 Y-19.488
Y-19.489
X21.363 Y-20.358
X21.364 Y-20.359
X22.125 Y-21.19
X22.126 Y-21.191
X22.386 Y-21.475
Z-1.5 F333.3
X22.853 Y-21.986 F1000
X22.854 Y-21.988
X23.548 Y-22.749
X23.549 Y-22.75
X24.212 Y-23.48
X24.213 Y-23.482
X24.848 Y-24.183
X24.849 Y-24.184
X25.457 Y-24.857
X25.458 Y-24.859
X26.041 Y-25.506
X26.042 Y-25.508
X26.601 Y-26.131
X26.603 Y-26.133
X27.139 Y-26.733
X27.141 Y-26.735
X27.656 Y-27.314
X27.658 Y-27.316
X28.153 Y-27.875
X28.154 Y-27.876
X28.631 Y-28.416
X28.633 Y-28.418
X29.092 Y-28.94
X29.093 Y-28.942
X29.535 Y-29.447
X29.537 Y-29.449
X29.963 Y-29.938
X29.964 Y-29.94
X30.375 Y-30.414
X30.377 Y-30.416
X31.156 Y-31.322
X31.16 Y-31.326
X31.716 Y-31.98
Z-1
X31.886 Y-32.179
X31.889 Y-32.184
X32.568 Y-32.99
X32.572 Y-32.995
X33.206 Y-33.76
X33.211 Y-33.765
X33.805 Y-34.491
X33.81 Y-34.497
X34.368 Y-35.189
X34.372 Y-35.195
X34.888 Y-35.845
Z-1.5 F333.3
X34.896 Y-35.855 F1000
X34.902 Y-35.862
X35.394 Y-36.494
X35.4 Y-36.501
X35.863 Y-37.107
X35.869 Y-37.115
X36.306 Y-37.697
G2 X36.312 Y-37.706 I-0.8 J-0.6
G1 X36.724 Y-38.267
G2 X36.73 Y-38.276 I-0.807 J-0.591
G1 X37.118 Y-38.818
G2 X37.125 Y-38.828 I-0.813 J-0.582
G1 X37.491 Y-39.353
G2 X37.498 Y-39.363 I-0.82 J-0.572
G1 X37.843 Y-39.872
G2 X37.851 Y-39.884 I-0.828 J-0.561
G1 X38.176 Y-40.378
G2 X38.185 Y-40.391 I-0.835 J-0.55
G1 X38.491 Y-40.873
G2 X38.504 Y-40.894 I-0.844 J-0.537
G1 X39.065 Y-41.826
G2 X39.084 Y-41.858 I-0.857 J-0.516
G1 X39.58 Y-42.756
G2 X39.6 Y-42.793 I-0.875 J-0.484
G1 X40.036 Y-43.667
G2 X40.056 Y-43.71 I-0.895 J-0.447
G1 X40.436 Y-44.57
G2 X40.456 Y-44.618 I-0.915 J-0.404
G1 X40.782 Y-45.474
G2 X40.801 Y-45.528 I-0.935 J-0.356
G1 X41.074 Y-46.391
G2 X41.091 Y-46.451 I-0.953 J-0.302
G1 X41.311 Y-47.332
G2 X41.325 Y-47.396 I-0.97 J-0.242
G1 X41.489 Y-48.308
G2 X41.497 Y-48.359 I-0.984 J-0.178
G1 X41.548 Y-48.754
Z-1
X41.557 Y-48.831
G2 X41.561 Y-48.865 I-0.992 J-0.127
G3 X41.779 Y-49.046 I0.199 J0.019
G1 X42.177 Y-49.009
G0 Z5
X42.14 Y-48.611
G1 Z0 F1000
Z-1.8 F333.3
X42.133 Z-1.852
X42.113 Y-48.613 Z-1.9
X42.082 Y-48.616 Z-1.941
X42.04 Y-48.62 Z-1.973
X41.992 Y-48.624 Z-1.993
X41.941 Y-48.629 Z-2
X41.742 Y-48.648 F1000
G3 X41.583 Y-48.755 I0.019 J-0.199
G1 Z-1
G3 X41.561 Y-48.865 I0.178 J-0.092
G1 X41.607 Y-49.352
G2 X41.609 Y-49.387 I-0.996 J-0.093
G1 X41.639 Y-49.891
G2 X41.64 Y-49.925 I-0.998 J-0.058
G1 X41.653 Y-50.449
G2 Y-50.483 I-1 J-0.024
G1 X41.647 Y-51.03
G2 X41.646 Y-51.063 I-1 J0.01
G1 X41.621 Y-51.637
G2 X41.619 Y-51.67 I-0.999 J0.044
G1 X41.572 Y-52.275
G2 X41.569 Y-52.307 I-0.997 J0.077
G1 X41.499 Y-52.949
G2 X41.495 Y-52.979 I-0.994 J0.109
G1 X41.399 Y-53.665
G2 X41.394 Y-53.694 I-0.99 J0.139
G1 X41.385 Y-53.751
Z-2 F333.3
X41.269 Y-54.43 F1000
G2 X41.263 Y-54.458 I-0.986 J0.168
G1 X41.104 Y-55.254
G2 X41.1 Y-55.274 I-0.981 J0.196
G1 X41.007 Y-55.698
G2 X41.004 Y-55.71 I-0.977 J0.215
G1 X40.9 Y-56.154
G2 X40.897 Y-56.167 I-0.974 J0.228
G1 X40.782 Y-56.632
G2 X40.779 Y-56.643 I-0.971 J0.24
G1 X40.652 Y-57.132
G2 X40.649 Y-57.143 I-0.968 J0.252
G1 X40.509 Y-57.658
G2 X40.506 Y-57.668 I-0.965 J0.263
G1 X40.352 Y-58.211
G2 X40.349 Y-58.222 I-0.962 J0.273
G1 X40.179 Y-58.796
G2 X40.176 Y-58.805 I-0.959 J0.284
G1 X39.989 Y-59.415
G2 X39.986 Y-59.424 I-0.956 J0.293
G1 X39.78 Y-60.072
X39.777 Y-60.081
X39.55 Y-60.772
G2 X39.472 Y-60.95 I-0.95 J0.312
G1 X38.555 Y-62.583
G2 X38.541 Y-62.607 I-0.872 J0.49
G1 X38.067 Y-63.398
G2 X38.057 Y-63.415 I-0.858 J0.514
G1 X37.574 Y-64.187
G2 X37.563 Y-64.204 I-0.848 J0.53
G1 X37.071 Y-64.958
G2 X37.059 Y-64.975 I-0.837 J0.547
G1 X36.557 Y-65.709
G2 X36.544 Y-65.727 I-0.825 J0.565
G1 X36.266 Y-66.114
Z-1
X36.033 Y-66.44
G2 X36.019 Y-66.459 I-0.813 J0.583
G1 X35.499 Y-67.151
G2 X35.484 Y-67.17 I-0.799 J0.601
G1 X34.955 Y-67.84
G2 X34.939 Y-67.859 I-0.785 J0.62
G1 X34.401 Y-68.506
G2 X34.384 Y-68.526 I-0.769 J0.639
G1 X33.837 Y-69.15
G2 X33.819 Y-69.17 I-0.752 J0.659
G1 X33.264 Y-69.77
G2 X33.244 Y-69.791 I-0.734 J0.679
G1 X33.075 Y-69.963
Z-2 F333.3
X32.681 Y-70.366 F1000
G2 X32.66 Y-70.387 I-0.715 J0.7
G1 X32.089 Y-70.937
G2 X32.066 Y-70.957 I-0.694 J0.72
G1 X31.488 Y-71.481
G2 X31.464 Y-71.502 I-0.671 J0.741
G1 X30.877 Y-72
G2 X30.851 Y-72.021 I-0.647 J0.762
G1 X30.258 Y-72.492
G2 X30.231 Y-72.513 I-0.621 J0.784
G1 X29.631 Y-72.955
G2 X29.601 Y-72.976 I-0.594 J0.805
G1 X28.995 Y-73.391
G2 X28.964 Y-73.411 I-0.564 J0.826
G1 X28.351 Y-73.797
G2 X28.318 Y-73.817 I-0.533 J0.846
G1 X27.699 Y-74.174
G2 X27.664 Y-74.193 I-0.5 J0.866
G1 X27.04 Y-74.521
G2 X27.003 Y-74.539 I-0.464 J0.886
G1 X26.374 Y-74.836
G2 X26.335 Y-74.854 I-0.427 J0.904
G1 X25.701 Y-75.121
G2 X25.66 Y-75.137 I-0.388 J0.922
G1 X25.022 Y-75.373
G2 X24.98 Y-75.388 I-0.347 J0.938
G1 X24.337 Y-75.593
G2 X24.293 Y-75.606 I-0.305 J0.952
G1 X23.647 Y-75.78
G2 X23.602 Y-75.792 I-0.26 J0.965
G1 X22.953 Y-75.935
G2 X22.906 Y-75.944 I-0.215 J0.977
G1 X22.254 Y-76.055
G2 X22.207 Y-76.062 I-0.168 J0.986
G1 X22.205
Z-1
X21.553 Y-76.141
G2 X21.504 Y-76.146 I-0.121 J0.993
G1 X20.848 Y-76.194
G2 X20.8 Y-76.196 I-0.073 J0.997
G1 X20.142 Y-76.212
G2 X20.093 I-0.024 J1
G1 X19.434 Y-76.196
G2 X19.386 Y-76.194 I0.024 J1
G1 X18.726 Y-76.146
G2 X18.678 Y-76.142 I0.072 J0.997
G1 X18.018 Y-76.062
G2 X17.972 Y-76.055 I0.12 J0.993
G1 X17.311 Y-75.944
G2 X17.266 Y-75.935 I0.166 J0.986
G1 X17.207 Y-75.923
Z-2 F333.3
X16.606 Y-75.792 F1000
G2 X16.562 Y-75.782 I0.212 J0.977
G1 X15.903 Y-75.608
G2 X15.86 Y-75.595 I0.255 J0.967
G1 X15.202 Y-75.39
G2 X15.161 Y-75.376 I0.298 J0.955
G1 X14.505 Y-75.14
G2 X14.466 Y-75.125 I0.339 J0.941
G1 X13.812 Y-74.858
G2 X13.775 Y-74.842 I0.378 J0.926
G1 X13.123 Y-74.545
G2 X13.088 Y-74.528 I0.415 J0.91
G1 X12.438 Y-74.201
G2 X12.405 Y-74.183 I0.45 J0.893
G1 X11.759 Y-73.826
G2 X11.728 Y-73.808 I0.483 J0.875
G1 X11.085 Y-73.422
G2 X11.056 Y-73.404 I0.515 J0.857
G1 X10.418 Y-72.989
G2 X10.39 Y-72.97 I0.545 J0.839
G1 X9.756 Y-72.528
G2 X9.73 Y-72.509 I0.573 J0.82
G1 X9.1 Y-72.039
G2 X9.076 Y-72.02 I0.599 J0.801
G1 X8.451 Y-71.522
G2 X8.428 Y-71.503 I0.623 J0.782
G1 X7.809 Y-70.979
G2 X7.788 Y-70.961 I0.646 J0.763
G1 X7.174 Y-70.411
G2 X7.154 Y-70.392 I0.667 J0.745
G1 X6.547 Y-69.817
G2 X6.528 Y-69.799 I0.688 J0.726
G1 X6.443 Y-69.715
Z-1
X5.927 Y-69.199
G2 X5.909 Y-69.181 I0.706 J0.708
G1 X5.314 Y-68.557
G2 X5.298 Y-68.539 I0.724 J0.69
G1 X4.71 Y-67.892
G2 X4.694 Y-67.875 I0.74 J0.672
G1 X4.113 Y-67.205
G2 X4.099 Y-67.188 I0.755 J0.655
G1 X3.525 Y-66.496
G2 X3.512 Y-66.479 I0.77 J0.638
G1 X3.117 Y-65.982
Z-2 F333.3
X2.946 Y-65.766 F1000
G2 X2.933 Y-65.75 I0.783 J0.622
G1 X2.375 Y-65.016
G2 X2.363 Y-65.001 I0.796 J0.606
G1 X1.812 Y-64.247
G2 X1.801 Y-64.232 I0.807 J0.59
G1 X1.259 Y-63.459
G2 X1.248 Y-63.444 I0.818 J0.575
G1 X0.714 Y-62.653
G2 X0.7 Y-62.632 I0.829 J0.56
G1 X0.5 Y-62.318
X0.3 Y-62.632
G2 X0.286 Y-62.653 I-0.843 J0.538
G1 X-0.248 Y-63.444
G2 X-0.259 Y-63.459 I-0.829 J0.56
G1 X-0.801 Y-64.232
G2 X-0.812 Y-64.247 I-0.818 J0.575
G1 X-1.363 Y-65.001
G2 X-1.375 Y-65.016 I-0.807 J0.59
G1 X-1.933 Y-65.75
G2 X-1.946 Y-65.766 I-0.796 J0.606
G1 X-2.117 Y-65.982
Z-1
X-2.512 Y-66.479
G2 X-2.525 Y-66.496 I-0.783 J0.622
G1 X-3.099 Y-67.188
G2 X-3.113 Y-67.205 I-0.77 J0.638
G1 X-3.694 Y-67.875
G2 X-3.71 Y-67.892 I-0.755 J0.655
G1 X-4.298 Y-68.539
G2 X-4.314 Y-68.557 I-0.74 J0.672
G1 X-4.909 Y-69.181
G2 X-4.927 Y-69.199 I-0.724 J0.69
G1 X-5.443 Y-69.715
Z-2 F333.3
X-5.528 Y-69.799 F1000
G2 X-5.547 Y-69.817 I-0.706 J0.708
G1 X-6.154 Y-70.392
G2 X-6.174 Y-70.411 I-0.688 J0.726
G1 X-6.788 Y-70.961
G2 X-6.809 Y-70.979 I-0.667 J0.745
G1 X-7.428 Y-71.503
G2 X-7.451 Y-71.522 I-0.646 J0.763
G1 X-8.076 Y-72.02
G2 X-8.1 Y-72.039 I-0.623 J0.782
G1 X-8.73 Y-72.509
G2 X-8.756 Y-72.528 I-0.599 J0.801
G1 X-9.39 Y-72.971
G2 X-9.418 Y-72.989 I-0.572 J0.82
G1 X-10.056 Y-73.404
G2 X-10.085 Y-73.422 I-0.545 J0.839
G1 X-10.728 Y-73.808
G2 X-10.759 Y-73.826 I-0.515 J0.857
G1 X-11.405 Y-74.183
G2 X-11.438 Y-74.201 I-0.483 J0.875
G1 X-12.088 Y-74.528
G2 X-12.123 Y-74.545 I-0.45 J0.893
G1 X-12.775 Y-74.842
G2 X-12.812 Y-74.858 I-0.415 J0.91
G1 X-13.466 Y-75.125
G2 X-13.505 Y-75.14 I-0.378 J0.926
G1 X-14.161 Y-75.376
G2 X-14.202 Y-75.39 I-0.339 J0.941
G1 X-14.86 Y-75.595
G2 X-14.903 Y-75.608 I-0.298 J0.955
G1 X-15.562 Y-75.782
G2 X-15.606 Y-75.792 I-0.255 J0.967
G1 X-16.207 Y-75.923
Z-1
X-16.266 Y-75.935
G2 X-16.311 Y-75.944 I-0.212 J0.977
G1 X-16.972 Y-76.055
G2 X-17.018 Y-76.062 I-0.166 J0.986
G1 X-17.678 Y-76.142
G2 X-17.726 Y-76.146 I-0.12 J0.993
G1 X-18.386 Y-76.194
G2 X-18.434 Y-76.196 I-0.072 J0.997
G1 X-19.093 Y-76.212
G2 X-19.142 I-0.024 J1
G1 X-19.8 Y-76.196
G2 X-19.848 Y-76.194 I0.024 J1
G1 X-20.504 Y-76.146
G2 X-20.553 Y-76.141 I0.073 J0.997
G1 X-21.205 Y-76.062
Z-2 F333.3
X-21.207 F1000
G2 X-21.254 Y-76.055 I0.121 J0.993
G1 X-21.906 Y-75.944
G2 X-21.953 Y-75.935 I0.168 J0.986
G1 X-22.602 Y-75.792
G2 X-22.647 Y-75.78 I0.215 J0.977
G1 X-23.293 Y-75.606
G2 X-23.337 Y-75.593 I0.26 J0.965
G1 X-23.98 Y-75.388
G2 X-24.022 Y-75.373 I0.305 J0.952
G1 X-24.66 Y-75.137
G2 X-24.701 Y-75.121 I0.347 J0.938
G1 X-25.335 Y-74.854
G2 X-25.374 Y-74.836 I0.388 J0.922
G1 X-26.003 Y-74.539
G2 X-26.04 Y-74.521 I0.427 J0.904
G1 X-26.664 Y-74.193
G2 X-26.699 Y-74.174 I0.464 J0.886
G1 X-27.318 Y-73.817
G2 X-27.351 Y-73.797 I0.5 J0.866
G1 X-27.964 Y-73.411
G2 X-27.995 Y-73.391 I0.533 J0.846
G1 X-28.601 Y-72.976
G2 X-28.631 Y-72.955 I0.564 J0.826
G1 X-29.231 Y-72.513
G2 X-29.258 Y-72.492 I0.594 J0.805
G1 X-29.851 Y-72.021
G2 X-29.877 Y-72 I0.621 J0.784
G1 X-30.464 Y-71.502
G2 X-30.488 Y-71.481 I0.647 J0.762
G1 X-31.066 Y-70.957
G2 X-31.089 Y-70.937 I0.671 J0.741
G1 X-31.66 Y-70.387
G2 X-31.681 Y-70.366 I0.694 J0.72
G1 X-32.075 Y-69.963
Z-1
X-32.244 Y-69.791
G2 X-32.264 Y-69.77 I0.715 J0.7
G1 X-32.819 Y-69.17
G2 X-32.837 Y-69.15 I0.734 J0.679
G1 X-33.384 Y-68.526
G2 X-33.401 Y-68.506 I0.752 J0.659
G1 X-33.939 Y-67.859
G2 X-33.955 Y-67.84 I0.769 J0.639
G1 X-34.484 Y-67.17
G2 X-34.499 Y-67.151 I0.785 J0.62
G1 X-35.019 Y-66.459
G2 X-35.033 Y-66.44 I0.799 J0.601
G1 X-35.266 Y-66.114
Z-2 F333.3
X-35.544 Y-65.727 F1000
G2 X-35.557 Y-65.709 I0.813 J0.583
G1 X-36.059 Y-64.975
G2 X-36.071 Y-64.958 I0.825 J0.565
G1 X-36.563 Y-64.204
G2 X-36.574 Y-64.187 I0.837 J0.547
G1 X-37.057 Y-63.415
G2 X-37.067 Y-63.398 I0.848 J0.53
G1 X-37.541 Y-62.607
G2 X-37.555 Y-62.583 I0.858 J0.514
G1 X-38.472 Y-60.95
G2 X-38.55 Y-60.772 I0.872 J0.49
G1 X-38.777 Y-60.081
X-38.78 Y-60.072
X-38.986 Y-59.424
G2 X-38.989 Y-59.415 I0.953 J0.303
G1 X-39.176 Y-58.805
G2 X-39.179 Y-58.796 I0.956 J0.293
G1 X-39.349 Y-58.222
G2 X-39.352 Y-58.211 I0.959 J0.284
G1 X-39.506 Y-57.668
G2 X-39.509 Y-57.658 I0.962 J0.273
G1 X-39.649 Y-57.143
G2 X-39.652 Y-57.132 I0.965 J0.263
G1 X-39.779 Y-56.643
G2 X-39.782 Y-56.632 I0.968 J0.252
G1 X-39.897 Y-56.167
G2 X-39.9 Y-56.154 I0.971 J0.24
G1 X-40.004 Y-55.71
G2 X-40.007 Y-55.698 I0.974 J0.228
G1 X-40.1 Y-55.274
G2 X-40.104 Y-55.254 I0.977 J0.215
G1 X-40.263 Y-54.458
G2 X-40.269 Y-54.43 I0.981 J0.196
G1 X-40.385 Y-53.751
Z-1
X-40.394 Y-53.694
G2 X-40.399 Y-53.665 I0.986 J0.168
G1 X-40.495 Y-52.979
G2 X-40.499 Y-52.949 I0.99 J0.139
G1 X-40.569 Y-52.307
G2 X-40.572 Y-52.275 I0.994 J0.109
G1 X-40.619 Y-51.67
G2 X-40.621 Y-51.637 I0.997 J0.077
G1 X-40.646 Y-51.063
G2 X-40.647 Y-51.03 I0.999 J0.044
G1 X-40.653 Y-50.483
G2 Y-50.449 I1 J0.01
G1 X-40.64 Y-49.925
G2 X-40.639 Y-49.891 I1 J-0.024
G1 X-40.609 Y-49.387
G2 X-40.607 Y-49.352 I0.998 J-0.058
G1 X-40.561 Y-48.865
G2 X-40.557 Y-48.831 I0.996 J-0.093
G1 X-40.548 Y-48.754
Z-2 F333.3
X-40.497 Y-48.359 F1000
G2 X-40.489 Y-48.308 I0.992 J-0.127
G1 X-40.325 Y-47.396
G2 X-40.311 Y-47.332 I0.984 J-0.178
G1 X-40.091 Y-46.451
G2 X-40.074 Y-46.391 I0.97 J-0.242
G1 X-39.801 Y-45.528
G2 X-39.782 Y-45.474 I0.953 J-0.302
G1 X-39.456 Y-44.618
G2 X-39.436 Y-44.57 I0.935 J-0.356
G1 X-39.056 Y-43.71
G2 X-39.036 Y-43.667 I0.915 J-0.404
G1 X-38.6 Y-42.793
G2 X-38.58 Y-42.756 I0.895 J-0.447
G1 X-38.084 Y-41.858
G2 X-38.065 Y-41.826 I0.875 J-0.484
G1 X-37.504 Y-40.894
G2 X-37.491 Y-40.873 I0.857 J-0.516
G1 X-37.185 Y-40.391
G2 X-37.176 Y-40.378 I0.844 J-0.537
G1 X-36.851 Y-39.884
G2 X-36.843 Y-39.872 I0.835 J-0.55
G1 X-36.498 Y-39.363
G2 X-36.491 Y-39.353 I0.828 J-0.561
G1 X-36.125 Y-38.828
G2 X-36.118 Y-38.818 I0.82 J-0.572
G1 X-35.73 Y-38.276
G2 X-35.724 Y-38.267 I0.813 J-0.582
G1 X-35.312 Y-37.706
G2 X-35.306 Y-37.697 I0.807 J-0.591
G1 X-34.869 Y-37.115
X-34.863 Y-37.107
X-34.4 Y-36.501
X-34.394 Y-36.494
X-33.902 Y-35.862
X-33.896 Y-35.855
X-33.888 Y-35.845
Z-1
X-33.372 Y-35.195
X-33.368 Y-35.189
X-32.81 Y-34.497
X-32.805 Y-34.491
X-32.211 Y-33.765
X-32.206 Y-33.76
X-31.572 Y-32.995
X-31.568 Y-32.99
X-30.889 Y-32.184
X-30.886 Y-32.179
X-30.716 Y-31.98
Z-2 F333.3
X-30.16 Y-31.326 F1000
X-30.156 Y-31.322
X-29.377 Y-30.416
X-29.375 Y-30.414
X-28.964 Y-29.94
X-28.963 Y-29.938
X-28.537 Y-29.449
X-28.535 Y-29.447
X-28.093 Y-28.942
X-28.092 Y-28.94
X-27.633 Y-28.418
X-27.631 Y-28.416
X-27.154 Y-27.876
X-27.153 Y-27.875
X-26.658 Y-27.316
X-26.656 Y-27.314
X-26.141 Y-26.735
X-26.139 Y-26.733
X-25.603 Y-26.133
X-25.601 Y-26.131
X-25.042 Y-25.508
X-25.041 Y-25.506
X-24.458 Y-24.859
X-24.457 Y-24.857
X-23.849 Y-24.184
X-23.848 Y-24.183
X-23.213 Y-23.482
X-23.212 Y-23.48
X-22.549 Y-22.75
X-22.548 Y-22.749
X-21.854 Y-21.988
X-21.853 Y-21.986
X-21.386 Y-21.475
Z-1
X-21.126 Y-21.191
X-21.125 Y-21.19
X-20.364 Y-20.359
X-20.363 Y-20.358
X-19.564 Y-19.489
Y-19.488
X-18.725 Y-18.577
X-18.724 Y-18.576
X-18.002 Y-17.794
Z-2 F333.3
X-17.842 Y-17.62 F1000
X-17.841 Y-17.619
X-16.913 Y-16.616
X-16.912 Y-16.615
X-15.933 Y-15.559
X-15.423 Y-15.01
X-14.899 Y-14.446
X-14.36 Y-13.867
X-13.806 Y-13.272
X-13.237 Y-12.661
X-12.65 Y-12.032
X-12.046 Y-11.385
X-11.424 Y-10.72
X-10.782 Y-10.034
X-10.121 Y-9.328
X-9.439 Y-8.6
X-8.735 Y-7.85
X-8.453 Y-7.549
Z-1
X-8.009 Y-7.075
X-7.258 Y-6.276
X-6.482 Y-5.451
X-5.68 Y-4.598
X-5.029 Y-3.906
Z-2 F333.3
X-4.85 Y-3.716 F1000
X-3.991 Y-2.803
X-3.1 Y-1.859
X-2.178 Y-0.88
X-1.221 Y0.134
X-0.227 Y1.187
G2 X1.227 I0.727 J-0.687
G1 X2.22 Y0.135
X3.177 Y-0.88
X4.1 Y-1.858
X4.99 Y-2.803
X5.85 Y-3.715
X6.029 Y-3.906
Z-1
X6.68 Y-4.597
X7.482 Y-5.45
X8.258 Y-6.276
X9.009 Y-7.075
X9.453 Y-7.549
Z-2 F333.3
X9.735 Y-7.849 F1000
X10.439 Y-8.6
X11.121 Y-9.328
X11.782 Y-10.034
X12.423 Y-10.719
X13.045 Y-11.385
X13.65 Y-12.032
X14.236 Y-12.661
X14.806 Y-13.272
X15.36 Y-13.867
X15.899 Y-14.446
X16.423 Y-15.01
X16.932 Y-15.559
X17.912 Y-16.615
X17.913 Y-16.616
X18.841 Y-17.619
X18.842 Y-17.62
X19.002 Y-17.794
Z-1
X19.724 Y-18.576
X19.725 Y-18.577
X20.564 Y-19.488
Y-19.489
X21.363 Y-20.358
X21.364 Y-20.359
X22.125 Y-21.19
X22.126 Y-21.191
X22.386 Y-21.475
Z-2 F333.3
X22.853 Y-21.986 F1000
X22.854 Y-21.988
X23.548 Y-22.749
X23.549 Y-22.75
X24.212 Y-23.48
X24.213 Y-23.482
X24.848 Y-24.183
X24.849 Y-24.184
X25.457 Y-24.857
X25.458 Y-24.859
X26.041 Y-25.506
X26.042 Y-25.508
X26.601 Y-26.131
X26.603 Y-26.133
X27.139 Y-26.733
X27.141 Y-26.735
X27.656 Y-27.314
X27.658 Y-27.316
X28.153 Y-27.875
X28.154 Y-27.876
X28.631 Y-28.416
X28.633 Y-28.418
X29.092 Y-28.94
X29.093 Y-28.942
X29.535 Y-29.447
X29.537 Y-29.449
X29.963 Y-29.938
X29.964 Y-29.94
X30.375 Y-30.414
X30.377 Y-30.416
X31.156 Y-31.322
X31.16 Y-31.326
X31.716 Y-31.98
Z-1
X31.886 Y-32.179
X31.889 Y-32.184
X32.568 Y-32.99
X32.572 Y-32.995
X33.206 Y-33.76
X33.211 Y-33.765
X33.805 Y-34.491
X33.81 Y-34.497
X34.368 Y-35.189
X34.372 Y-35.195
X34.888 Y-35.845
Z-2 F333.3
X34.896 Y-35.855 F1000
X34.902 Y-35.862
X35.394 Y-36.494
X35.4 Y-36.501
X35.863 Y-37.107
X35.869 Y-37.115
X36.306 Y-37.697
G2 X36.312 Y-37.706 I-0.8 J-0.6
G1 X36.724 Y-38.267
G2 X36.73 Y-38.276 I-0.807 J-0.591
G1 X37.118 Y-38.818
G2 X37.125 Y-38.828 I-0.813 J-0.582
G1 X37.491 Y-39.353
G2 X37.498 Y-39.363 I-0.82 J-0.572
G1 X37.843 Y-39.872
G2 X37.851 Y-39.884 I-0.828 J-0.561
G1 X38.176 Y-40.378
G2 X38.185 Y-40.391 I-0.835 J-0.55
G1 X38.491 Y-40.873
G2 X38.504 Y-40.894 I-0.844 J-0.537
G1 X39.065 Y-41.826
G2 X39.084 Y-41.858 I-0.857 J-0.516
G1 X39.58 Y-42.756
G2 X39.6 Y-42.793 I-0.875 J-0.484
G1 X40.036 Y-43.667
G2 X40.056 Y-43.71 I-0.895 J-0.447
G1 X40.436 Y-44.57
G2 X40.456 Y-44.618 I-0.915 J-0.404
G1 X40.782 Y-45.474
G2 X40.801 Y-45.528 I-0.935 J-0.356
G1 X41.074 Y-46.391
G2 X41.091 Y-46.451 I-0.953 J-0.302
G1 X41.311 Y-47.332
G2 X41.325 Y-47.396 I-0.97 J-0.242
G1 X41.489 Y-48.308
G2 X41.497 Y-48.359 I-0.984 J-0.178
G1 X41.548 Y-48.754
Z-1
X41.557 Y-48.831
G2 X41.561 Y-48.865 I-0.992 J-0.127
G3 X41.779 Y-49.046 I0.199 J0.019
G1 X42.177 Y-49.009
G0 Z5
X42.14 Y-48.611
G1 Z-0.5 F1000
Z-2.3 F333.3
X42.133 Z-2.352
X42.113 Y-48.613 Z-2.4
X42.082 Y-48.616 Z-2.441
X42.04 Y-48.62 Z-2.473
X41.992 Y-48.624 Z-2.493
X41.941 Y-48.629 Z-2.5
X41.742 Y-48.648 F1000
G3 X41.583 Y-48.755 I0.019 J-0.199
G1 Z-1
G3 X41.561 Y-48.865 I0.178 J-0.092
G1 X41.607 Y-49.352
G2 X41.609 Y-49.387 I-0.996 J-0.093
G1 X41.639 Y-49.891
G2 X41.64 Y-49.925 I-0.998 J-0.058
G1 X41.653 Y-50.449
G2 Y-50.483 I-1 J-0.024
G1 X41.647 Y-51.03
G2 X41.646 Y-51.063 I-1 J0.01
G1 X41.621 Y-51.637
G2 X41.619 Y-51.67 I-0.999 J0.044
G1 X41.572 Y-52.275
G2 X41.569 Y-52.307 I-0.997 J0.077
G1 X41.499 Y-52.949
G2 X41.495 Y-52.979 I-0.994 J0.109
G1 X41.399 Y-53.665
G2 X41.394 Y-53.694 I-0.99 J0.139
G1 X41.385 Y-53.751
Z-2.5 F333.3
X41.269 Y-54.43 F1000
G2 X41.263 Y-54.458 I-0.986 J0.168
G1 X41.104 Y-55.254
G2 X41.1 Y-55.274 I-0.981 J0.196
G1 X41.007 Y-55.698
G2 X41.004 Y-55.71 I-0.977 J0.215
G1 X40.9 Y-56.154
G2 X40.897 Y-56.167 I-0.974 J0.228
G1 X40.782 Y-56.632
G2 X40.779 Y-56.643 I-0.971 J0.24
G1 X40.652 Y-57.132
G2 X40.649 Y-57.143 I-0.968 J0.252
G1 X40.509 Y-57.658
G2 X40.506 Y-57.668 I-0.965 J0.263
G1 X40.352 Y-58.211
G2 X40.349 Y-58.222 I-0.962 J0.273
G1 X40.179 Y-58.796
G2 X40.176 Y-58.805 I-0.959 J0.284
G1 X39.989 Y-59.415
G2 X39.986 Y-59.424 I-0.956 J0.293
G1 X39.78 Y-60.072
X39.777 Y-60.081
X39.55 Y-60.772
G2 X39.472 Y-60.95 I-0.95 J0.312
G1 X38.555 Y-62.583
G2 X38.541 Y-62.607 I-0.872 J0.49
G1 X38.067 Y-63.398
G2 X38.057 Y-63.415 I-0.858 J0.514
G1 X37.574 Y-64.187
G2 X37.563 Y-64.204 I-0.848 J0.53
G1 X37.071 Y-64.958
G2 X37.059 Y-64.975 I-0.837 J0.547
G1 X36.557 Y-65.709
G2 X36.544 Y-65.727 I-0.825 J0.565
G1 X36.266 Y-66.114
Z-1
X36.033 Y-66.44
G2 X36.019 Y-66.459 I-0.813 J0.583
G1 X35.499 Y-67.151
G2 X35.484 Y-67.17 I-0.799 J0.601
G1 X34.955 Y-67.84
G2 X34.939 Y-67.859 I-0.785 J0.62
G1 X34.401 Y-68.506
G2 X34.384 Y-68.526 I-0.769 J0.639
G1 X33.837 Y-69.15
G2 X33.819 Y-69.17 I-0.752 J0.659
G1 X33.264 Y-69.77
G2 X33.244 Y-69.791 I-0.734 J0.679
G1 X33.075 Y-69.963
Z-2.5 F333.3
X32.681 Y-70.366 F1000
G2 X32.66 Y-70.387 I-0.715 J0.7
G1 X32.089 Y-70.937
G2 X32.066 Y-70.957 I-0.694 J0.72
G1 X31.488 Y-71.481
G2 X31.464 Y-71.502 I-0.671 J0.741
G1 X30.877 Y-72
G2 X30.851 Y-72.021 I-0.647 J0.762
G1 X30.258 Y-72.492
G2 X30.231 Y-72.513 I-0.621 J0.784
G1 X29.631 Y-72.955
G2 X29.601 Y-72.976 I-0.594 J0.805
G1 X28.995 Y-73.391
G2 X28.964 Y-73.411 I-0.564 J0.826
G1 X28.351 Y-73.797
G2 X28.318 Y-73.817 I-0.533 J0.846
G1 X27.699 Y-74.174
G2 X27.664 Y-74.193 I-0.5 J0.866
G1 X27.04 Y-74.521
G2 X27.003 Y-74.539 I-0.464 J0.886
G1 X26.374 Y-74.836
G2 X26.335 Y-74.854 I-0.427 J0.904
G1 X25.701 Y-75.121
G2 X25.66 Y-75.137 I-0.388 J0.922
G1 X25.022 Y-75.373
G2 X24.98 Y-75.388 I-0.347 J0.938
G1 X24.337 Y-75.593
G2 X24.293 Y-75.606 I-0.305 J0.952
G1 X23.647 Y-75.78
G2 X23.602 Y-75.792 I-0.26 J0.965
G1 X22.953 Y-75.935
G2 X22.906 Y-75.944 I-0.215 J0.977
G1 X22.254 Y-76.055
G2 X22.207 Y-76.062 I-0.168 J0.986
G1 X22.205
Z-1
X21.553 Y-76.141
G2 X21.504 Y-76.146 I-0.121 J0.993
G1 X20.848 Y-76.194
G2 X20.8 Y-76.196 I-0.073 J0.997
G1 X20.142 Y-76.212
G2 X20.093 I-0.024 J1
G1 X19.434 Y-76.196
G2 X19.386 Y-76.194 I0.024 J1
G1 X18.726 Y-76.146
G2 X18.678 Y-76.142 I0.072 J0.997
G1 X18.018 Y-76.062
G2 X17.972 Y-76.055 I0.12 J0.993
G1 X17.311 Y-75.944
G2 X17.266 Y-75.935 I0.166 J0.986
G1 X17.207 Y-75.923
Z-2.5 F333.3
X16.606 Y-75.792 F1000
G2 X16.562 Y-75.782 I0.212 J0.977
G1 X15.903 Y-75.608
G2 X15.86 Y-75.595 I0.255 J0.967
G1 X15.202 Y-75.39
G2 X15.161 Y-75.376 I0.298 J0.955
G1 X14.505 Y-75.14
G2 X14.466 Y-75.125 I0.339 J0.941
G1 X13.812 Y-74.858
G2 X13.775 Y-74.842 I0.378 J0.926
G1 X13.123 Y-74.545
G2 X13.088 Y-74.528 I0.415 J0.91
G1 X12.438 Y-74.201
G2 X12.405 Y-74.183 I0.45 J0.893
G1 X11.759 Y-73.826
G2 X11.728 Y-73.808 I0.483 J0.875
G1 X11.085 Y-73.422
G2 X11.056 Y-73.404 I0.515 J0.857
G1 X10.418 Y-72.989
G2 X10.39 Y-72.97 I0.545 J0.839
G1 X9.756 Y-72.528
G2 X9.73 Y-72.509 I0.573 J0.82
G1 X9.1 Y-72.039
G2 X9.076 Y-72.02 I0.599 J0.801
G1 X8.451 Y-71.522
G2 X8.428 Y-71.503 I0.623 J0.782
G1 X7.809 Y-70.979
G2 X7.788 Y-70.961 I0.646 J0.763
G1 X7.174 Y-70.411
G2 X7.154 Y-70.392 I0.667 J0.745
G1 X6.547 Y-69.817
G2 X6.528 Y-69.799 I0.688 J0.726
G1 X6.443 Y-69.715
Z-1
X5.927 Y-69.199
G2 X5.909 Y-69.181 I0.706 J0.708
G1 X5.314 Y-68.557
G2 X5.298 Y-68.539 I0.724 J0.69
G1 X4.71 Y-67.892
G2 X4.694 Y-67.875 I0.74 J0.672
G1 X4.113 Y-67.205
G2 X4.099 Y-67.188 I0.755 J0.655
G1 X3.525 Y-66.496
G2 X3.512 Y-66.479 I0.77 J0.638
G1 X3.117 Y-65.982
Z-2.5 F333.3
X2.946 Y-65.766 F1000
G2 X2.933 Y-65.75 I0.783 J0.622
G1 X2.375 Y-65.016
G2 X2.363 Y-65.001 I0.796 J0.606
G1 X1.812 Y-64.247
G2 X1.801 Y-64.232 I0.807 J0.59
G1 X1.259 Y-63.459
G2 X1.248 Y-63.444 I0.818 J0.575
G1 X0.714 Y-62.653
G2 X0.7 Y-62.632 I0.829 J0.56
G1 X0.5 Y-62.318
X0.3 Y-62.632
G2 X0.286 Y-62.653 I-0.843 J0.538
G1 X-0.248 Y-63.444
G2 X-0.259 Y-63.459 I-0.829 J0.56
G1 X-0.801 Y-64.232
G2 X-0.812 Y-64.247 I-0.818 J0.575
G1 X-1.363 Y-65.001
G2 X-1.375 Y-65.016 I-0.807 J0.59
G1 X-1.933 Y-65.75
G2 X-1.946 Y-65.766 I-0.796 J0.606
G1 X-2.117 Y-65.982
Z-1
X-2.512 Y-66.479
G2 X-2.525 Y-66.496 I-0.783 J0.622
G1 X-3.099 Y-67.188
G2 X-3.113 Y-67.205 I-0.77 J0.638
G1 X-3.694 Y-67.875
G2 X-3.71 Y-67.892 I-0.755 J0.655
G1 X-4.298 Y-68.539
G2 X-4.314 Y-68.557 I-0.74 J0.672
G1 X-4.909 Y-69.181
G2 X-4.927 Y-69.199 I-0.724 J0.69
G1 X-5.443 Y-69.715
Z-2.5 F333.3
X-5.528 Y-69.799 F1000
G2 X-5.547 Y-69.817 I-0.706 J0.708
G1 X-6.154 Y-70.392
G2 X-6.174 Y-70.411 I-0.688 J0.726
G1 X-6.788 Y-70.961
G2 X-6.809 Y-70.979 I-0.667 J0.745
G1 X-7.428 Y-71.503
G2 X-7.451 Y-71.522 I-0.646 J0.763
G1 X-8.076 Y-72.02
G2 X-8.1 Y-72.039 I-0.623 J0.782
G1 X-8.73 Y-72.509
G2 X-8.756 Y-72.528 I-0.599 J0.801
G1 X-9.39 Y-72.971
G2 X-9.418 Y-72.989 I-0.572 J0.82
G1 X-10.056 Y-73.404
G2 X-10.085 Y-73.422 I-0.545 J0.839
G1 X-10.728 Y-73.808
G2 X-10.759 Y-73.826 I-0.515 J0.857
G1 X-11.405 Y-74.183
G2 X-11.438 Y-74.201 I-0.483 J0.875
G1 X-12.088 Y-74.528
G2 X-12.123 Y-74.545 I-0.45 J0.893
G1 X-12.775 Y-74.842
G2 X-12.812 Y-74.858 I-0.415 J0.91
G1 X-13.466 Y-75.125
G2 X-13.505 Y-75.14 I-0.378 J0.926
G1 X-14.161 Y-75.376
G2 X-14.202 Y-75.39 I-0.339 J0.941
G1 X-14.86 Y-75.595
G2 X-14.903 Y-75.608 I-0.298 J0.955
G1 X-15.562 Y-75.782
G2 X-15.606 Y-75.792 I-0.255 J0.967
G1 X-16.207 Y-75.923
Z-1
X-16.266 Y-75.935
G2 X-16.311 Y-75.944 I-0.212 J0.977
G1 X-16.972 Y-76.055
G2 X-17.018 Y-76.062 I-0.166 J0.986
G1 X-17.678 Y-76.142
G2 X-17.726 Y-76.146 I-0.12 J0.993
G1 X-18.386 Y-76.194
G2 X-18.434 Y-76.196 I-0.072 J0.997
G1 X-19.093 Y-76.212
G2 X-19.142 I-0.024 J1
G1 X-19.8 Y-76.196
G2 X-19.848 Y-76.194 I0.024 J1
G1 X-20.504 Y-76.146
G2 X-20.553 Y-76.141 I0.073 J0.997
G1 X-21.205 Y-76.062
Z-2.5 F333.3
X-21.207 F1000
G2 X-21.254 Y-76.055 I0.121 J0.993
G1 X-21.906 Y-75.944
G2 X-21.953 Y-75.935 I0.168 J0.986
G1 X-22.602 Y-75.792
G2 X-22.647 Y-75.78 I0.215 J0.977
G1 X-23.293 Y-75.606
G2 X-23.337 Y-75.593 I0.26 J0.965
G1 X-23.98 Y-75.388
G2 X-24.022 Y-75.373 I0.305 J0.952
G1 X-24.66 Y-75.137
G2 X-24.701 Y-75.121 I0.347 J0.938
G1 X-25.335 Y-74.854
G2 X-25.374 Y-74.836 I0.388 J0.922
G1 X-26.003 Y-74.539
G2 X-26.04 Y-74.521 I0.427 J0.904
G1 X-26.664 Y-74.193
G2 X-26.699 Y-74.174 I0.464 J0.886
G1 X-27.318 Y-73.817
G2 X-27.351 Y-73.797 I0.5 J0.866
G1 X-27.964 Y-73.411
G2 X-27.995 Y-73.391 I0.533 J0.846
G1 X-28.601 Y-72.976
G2 X-28.631 Y-72.955 I0.564 J0.826
G1 X-29.231 Y-72.513
G2 X-29.258 Y-72.492 I0.594 J0.805
G1 X-29.851 Y-72.021
G2 X-29.877 Y-72 I0.621 J0.784
G1 X-30.464 Y-71.502
G2 X-30.488 Y-71.481 I0.647 J0.762
G1 X-31.066 Y-70.957
G2 X-31.089 Y-70.937 I0.671 J0.741
G1 X-31.66 Y-70.387
G2 X-31.681 Y-70.366 I0.694 J0.72
G1 X-32.075 Y-69.963
Z-1
X-32.244 Y-69.791
G2 X-32.264 Y-69.77 I0.715 J0.7
G1 X-32.819 Y-69.17
G2 X-32.837 Y-69.15 I0.734 J0.679
G1 X-33.384 Y-68.526
G2 X-33.401 Y-68.506 I0.752 J0.659
G1 X-33.939 Y-67.859
G2 X-33.955 Y-67.84 I0.769 J0.639
G1 X-34.484 Y-67.17
G2 X-34.499 Y-67.151 I0.785 J0.62
G1 X-35.019 Y-66.459
G2 X-35.033 Y-66.44 I0.799 J0.601
G1 X-35.266 Y-66.114
Z-2.5 F333.3
X-35.544 Y-65.727 F1000
G2 X-35.557 Y-65.709 I0.813 J0.583
G1 X-36.059 Y-64.975
G2 X-36.071 Y-64.958 I0.825 J0.565
G1 X-36.563 Y-64.204
G2 X-36.574 Y-64.187 I0.837 J0.547
G1 X-37.057 Y-63.415
G2 X-37.067 Y-63.398 I0.848 J0.53
G1 X-37.541 Y-62.607
G2 X-37.555 Y-62.583 I0.858 J0.514
G1 X-38.472 Y-60.95
G2 X-38.55 Y-60.772 I0.872 J0.49
G1 X-38.777 Y-60.081
X-38.78 Y-60.072
X-38.986 Y-59.424
G2 X-38.989 Y-59.415 I0.953 J0.303
G1 X-39.176 Y-58.805
G2 X-39.179 Y-58.796 I0.956 J0.293
G1 X-39.349 Y-58.222
G2 X-39.352 Y-58.211 I0.959 J0.284
G1 X-39.506 Y-57.668
G2 X-39.509 Y-57.658 I0.962 J0.273
G1 X-39.649 Y-57.143
G2 X-39.652 Y-57.132 I0.965 J0.263
G1 X-39.779 Y-56.643
G2 X-39.782 Y-56.632 I0.968 J0.252
G1 X-39.897 Y-56.167
G2 X-39.9 Y-56.154 I0.971 J0.24
G1 X-40.004 Y-55.71
G2 X-40.007 Y-55.698 I0.974 J0.228
G1 X-40.1 Y-55.274
G2 X-40.104 Y-55.254 I0.977 J0.215
G1 X-40.263 Y-54.458
G2 X-40.269 Y-54.43 I0.981 J0.196
G1 X-40.385 Y-53.751
Z-1
X-40.394 Y-53.694
G2 X-40.399 Y-53.665 I0.986 J0.168
G1 X-40.495 Y-52.979
G2 X-40.499 Y-52.949 I0.99 J0.139
G1 X-40.569 Y-52.307
G2 X-40.572 Y-52.275 I0.994 J0.109
G1 X-40.619 Y-51.67
G2 X-40.621 Y-51.637 I0.997 J0.077
G1 X-40.646 Y-51.063
G2 X-40.647 Y-51.03 I0.999 J0.044
G1 X-40.653 Y-50.483
G2 Y-50.449 I1 J0.01
G1 X-40.64 Y-49.925
G2 X-40.639 Y-49.891 I1 J-0.024
G1 X-40.609 Y-49.387
G2 X-40.607 Y-49.352 I0.998 J-0.058
G1 X-40.561 Y-48.865
G2 X-40.557 Y-48.831 I0.996 J-0.093
G1 X-40.548 Y-48.754
Z-2.5 F333.3
X-40.497 Y-48.359 F1000
G2 X-40.489 Y-48.308 I0.992 J-0.127
G1 X-40.325 Y-47.396
G2 X-40.311 Y-47.332 I0.984 J-0.178
G1 X-40.091 Y-46.451
G2 X-40.074 Y-46.391 I0.97 J-0.242
G1 X-39.801 Y-45.528
G2 X-39.782 Y-45.474 I0.953 J-0.302
G1 X-39.456 Y-44.618
G2 X-39.436 Y-44.57 I0.935 J-0.356
G1 X-39.056 Y-43.71
G2 X-39.036 Y-43.667 I0.915 J-0.404
G1 X-38.6 Y-42.793
G2 X-38.58 Y-42.756 I0.895 J-0.447
G1 X-38.084 Y-41.858
G2 X-38.065 Y-41.826 I0.875 J-0.484
G1 X-37.504 Y-40.894
G2 X-37.491 Y-40.873 I0.857 J-0.516
G1 X-37.185 Y-40.391
G2 X-37.176 Y-40.378 I0.844 J-0.537
G1 X-36.851 Y-39.884
G2 X-36.843 Y-39.872 I0.835 J-0.55
G1 X-36.498 Y-39.363
G2 X-36.491 Y-39.353 I0.828 J-0.561
G1 X-36.125 Y-38.828
G2 X-36.118 Y-38.818 I0.82 J-0.572
G1 X-35.73 Y-38.276
G2 X-35.724 Y-38.267 I0.813 J-0.582
G1 X-35.312 Y-37.706
G2 X-35.306 Y-37.697 I0.807 J-0.591
G1 X-34.869 Y-37.115
X-34.863 Y-37.107
X-34.4 Y-36.501
X-34.394 Y-36.494
X-33.902 Y-35.862
X-33.896 Y-35.855
X-33.888 Y-35.845
Z-1
X-33.372 Y-35.195
X-33.368 Y-35.189
X-32.81 Y-34.497
X-32.805 Y-34.491
X-32.211 Y-33.765
X-32.206 Y-33.76
X-31.572 Y-32.995
X-31.568 Y-32.99
X-30.889 Y-32.184
X-30.886 Y-32.179
X-30.716 Y-31.98
Z-2.5 F333.3
X-30.16 Y-31.326 F1000
X-30.156 Y-31.322
X-29.377 Y-30.416
X-29.375 Y-30.414
X-28.964 Y-29.94
X-28.963 Y-29.938
X-28.537 Y-29.449
X-28.535 Y-29.447
X-28.093 Y-28.942
X-28.092 Y-28.94
X-27.633 Y-28.418
X-27.631 Y-28.416
X-27.154 Y-27.876
X-27.153 Y-27.875
X-26.658 Y-27.316
X-26.656 Y-27.314
X-26.141 Y-26.735
X-26.139 Y-26.733
X-25.603 Y-26.133
X-25.601 Y-26.131
X-25.042 Y-25.508
X-25.041 Y-25.506
X-24.458 Y-24.859
X-24.457 Y-24.857
X-23.849 Y-24.184
X-23.848 Y-24.183
X-23.213 Y-23.482
X-23.212 Y-23.48
X-22.549 Y-22.75
X-22.548 Y-22.749
X-21.854 Y-21.988
X-21.853 Y-21.986
X-21.386 Y-21.475
Z-1
X-21.126 Y-21.191
X-21.125 Y-21.19
X-20.364 Y-20.359
X-20.363 Y-20.358
X-19.564 Y-19.489
Y-19.488
X-18.725 Y-18.577
X-18.724 Y-18.576
X-18.002 Y-17.794
Z-2.5 F333.3
X-17.842 Y-17.62 F1000
X-17.841 Y-17.619
X-16.913 Y-16.616
X-16.912 Y-16.615
X-15.933 Y-15.559
X-15.423 Y-15.01
X-14.899 Y-14.446
X-14.36 Y-13.867
X-13.806 Y-13.272
X-13.237 Y-12.661
X-12.65 Y-12.032
X-12.046 Y-11.385
X-11.424 Y-10.72
X-10.782 Y-10.034
X-10.121 Y-9.328
X-9.439 Y-8.6
X-8.735 Y-7.85
X-8.453 Y-7.549
Z-1
X-8.009 Y-7.075
X-7.258 Y-6.276
X-6.482 Y-5.451
X-5.68 Y-4.598
X-5.029 Y-3.906
Z-2.5 F333.3
X-4.85 Y-3.716 F1000
X-3.991 Y-2.803
X-3.1 Y-1.859
X-2.178 Y-0.88
X-1.221 Y0.134
X-0.227 Y1.187
G2 X1.227 I0.727 J-0.687
G1 X2.22 Y0.135
X3.177 Y-0.88
X4.1 Y-1.858
X4.99 Y-2.803
X5.85 Y-3.715
X6.029 Y-3.906
Z-1
X6.68 Y-4.597
X7.482 Y-5.45
X8.258 Y-6.276
X9.009 Y-7.075
X9.453 Y-7.549
Z-2.5 F333.3
X9.735 Y-7.849 F1000
X10.439 Y-8.6
X11.121 Y-9.328
X11.782 Y-10.034
X12.423 Y-10.719
X13.045 Y-11.385
X13.65 Y-12.032
X14.236 Y-12.661
X14.806 Y-13.272
X15.36 Y-13.867
X15.899 Y-14.446
X16.423 Y-15.01
X16.932 Y-15.559
X17.912 Y-16.615
X17.913 Y-16.616
X18.841 Y-17.619
X18.842 Y-17.62
X19.002 Y-17.794
Z-1
X19.724 Y-18.576
X19.725 Y-18.577
X20.564 Y-19.488
Y-19.489
X21.363 Y-20.358
X21.364 Y-20.359
X22.125 Y-21.19
X22.126 Y-21.191
X22.386 Y-21.475
Z-2.5 F333.3
X22.853 Y-21.986 F1000
X22.854 Y-21.988
X23.548 Y-22.749
X23.549 Y-22.75
X24.212 Y-23.48
X24.213 Y-23.482
X24.848 Y-24.183
X24.849 Y-24.184
X25.457 Y-24.857
X25.458 Y-24.859
X26.041 Y-25.506
X26.042 Y-25.508
X26.601 Y-26.131
X26.603 Y-26.133
X27.139 Y-26.733
X27.141 Y-26.735
X27.656 Y-27.314
X27.658 Y-27.316
X28.153 Y-27.875
X28.154 Y-27.876
X28.631 Y-28.416
X28.633 Y-28.418
X29.092 Y-28.94
X29.093 Y-28.942
X29.535 Y-29.447
X29.537 Y-29.449
X29.963 Y-29.938
X29.964 Y-29.94
X30.375 Y-30.414
X30.377 Y-30.416
X31.156 Y-31.322
X31.16 Y-31.326
X31.716 Y-31.98
Z-1
X31.886 Y-32.179
X31.889 Y-32.184
X32.568 Y-32.99
X32.572 Y-32.995
X33.206 Y-33.76
X33.211 Y-33.765
X33.805 Y-34.491
X33.81 Y-34.497
X34.368 Y-35.189
X34.372 Y-35.195
X34.888 Y-35.845
Z-2.5 F333.3
X34.896 Y-35.855 F1000
X34.902 Y-35.862
X35.394 Y-36.494
X35.4 Y-36.501
X35.863 Y-37.107
X35.869 Y-37.115
X36.306 Y-37.697
G2 X36.312 Y-37.706 I-0.8 J-0.6
G1 X36.724 Y-38.267
G2 X36.73 Y-38.276 I-0.807 J-0.591
G1 X37.118 Y-38.818
G2 X37.125 Y-38.828 I-0.813 J-0.582
G1 X37.491 Y-39.353
G2 X37.498 Y-39.363 I-0.82 J-0.572
G1 X37.843 Y-39.872
G2 X37.851 Y-39.884 I-0.828 J-0.561
G1 X38.176 Y-40.378
G2 X38.185 Y-40.391 I-0.835 J-0.55
G1 X38.491 Y-40.873
G2 X38.504 Y-40.894 I-0.844 J-0.537
G1 X39.065 Y-41.826
G2 X39.084 Y-41.858 I-0.857 J-0.516
G1 X39.58 Y-42.756
G2 X39.6 Y-42.793 I-0.875 J-0.484
G1 X40.036 Y-43.667
G2 X40.056 Y-43.71 I-0.895 J-0.447
G1 X40.436 Y-44.57
G2 X40.456 Y-44.618 I-0.915 J-0.404
G1 X40.782 Y-45.474
G2 X40.801 Y-45.528 I-0.935 J-0.356
G1 X41.074 Y-46.391
G2 X41.091 Y-46.451 I-0.953 J-0.302
G1 X41.311 Y-47.332
G2 X41.325 Y-47.396 I-0.97 J-0.242
G1 X41.489 Y-48.308
G2 X41.497 Y-48.359 I-0.984 J-0.178
G1 X41.548 Y-48.754
Z-1
X41.557 Y-48.831
G2 X41.561 Y-48.865 I-0.992 J-0.127
G3 X41.779 Y-49.046 I0.199 J0.019
G1 X42.177 Y-49.009
G0 Z5
X42.14 Y-48.611
G1 Z-1 F1000
Z-2.8 F333.3
X42.133 Z-2.852
X42.113 Y-48.613 Z-2.9
X42.082 Y-48.616 Z-2.941
X42.04 Y-48.62 Z-2.973
X41.992 Y-48.624 Z-2.993
X41.941 Y-48.629 Z-3
X41.742 Y-48.648 F1000
G3 X41.583 Y-48.755 I0.019 J-0.199
G1 Z-1
G3 X41.561 Y-48.865 I0.178 J-0.092
G1 X41.607 Y-49.352
G2 X41.609 Y-49.387 I-0.996 J-0.093
G1 X41.639 Y-49.891
G2 X41.64 Y-49.925 I-0.998 J-0.058
G1 X41.653 Y-50.449
G2 Y-50.483 I-1 J-0.024
G1 X41.647 Y-51.03
G2 X41.646 Y-51.063 I-1 J0.01
G1 X41.621 Y-51.637
G2 X41.619 Y-51.67 I-0.999 J0.044
G1 X41.572 Y-52.275
G2 X41.569 Y-52.307 I-0.997 J0.077
G1 X41.499 Y-52.949
G2 X41.495 Y-52.979 I-0.994 J0.109
G1 X41.399 Y-53.665
G2 X41.394 Y-53.694 I-0.99 J0.139
G1 X41.385 Y-53.751
Z-3 F333.3
X41.269 Y-54.43 F1000
G2 X41.263 Y-54.458 I-0.986 J0.168
G1 X41.104 Y-55.254
G2 X41.1 Y-55.274 I-0.981 J0.196
G1 X41.007 Y-55.698
G2 X41.004 Y-55.71 I-0.977 J0.215
G1 X40.9 Y-56.154
G2 X40.897 Y-56.167 I-0.974 J0.228
G1 X40.782 Y-56.632
G2 X40.779 Y-56.643 I-0.971 J0.24
G1 X40.652 Y-57.132
G2 X40.649 Y-57.143 I-0.968 J0.252
G1 X40.509 Y-57.658
G2 X40.506 Y-57.668 I-0.965 J0.263
G1 X40.352 Y-58.211
G2 X40.349 Y-58.222 I-0.962 J0.273
G1 X40.179 Y-58.796
G2 X40.176 Y-58.805 I-0.959 J0.284
G1 X39.989 Y-59.415
G2 X39.986 Y-59.424 I-0.956 J0.293
G1 X39.78 Y-60.072
X39.777 Y-60.081
X39.55 Y-60.772
G2 X39.472 Y-60.95 I-0.95 J0.312
G1 X38.555 Y-62.583
G2 X38.541 Y-62.607 I-0.872 J0.49
G1 X38.067 Y-63.398
G2 X38.057 Y-63.415 I-0.858 J0.514
G1 X37.574 Y-64.187
G2 X37.563 Y-64.204 I-0.848 J0.53
G1 X37.071 Y-64.958
G2 X37.059 Y-64.975 I-0.837 J0.547
G1 X36.557 Y-65.709
G2 X36.544 Y-65.727 I-0.825 J0.565
G1 X36.266 Y-66.114
Z-1
X36.033 Y-66.44
G2 X36.019 Y-66.459 I-0.813 J0.583
G1 X35.499 Y-67.151
G2 X35.484 Y-67.17 I-0.799 J0.601
G1 X34.955 Y-67.84
G2 X34.939 Y-67.859 I-0.785 J0.62
G1 X34.401 Y-68.506
G2 X34.384 Y-68.526 I-0.769 J0.639
G1 X33.837 Y-69.15
G2 X33.819 Y-69.17 I-0.752 J0.659
G1 X33.264 Y-69.77
G2 X33.244 Y-69.791 I-0.734 J0.679
G1 X33.075 Y-69.963
Z-3 F333.3
X32.681 Y-70.366 F1000
G2 X32.66 Y-70.387 I-0.715 J0.7
G1 X32.089 Y-70.937
G2 X32.066 Y-70.957 I-0.694 J0.72
G1 X31.488 Y-71.481
G2 X31.464 Y-71.502 I-0.671 J0.741
G1 X30.877 Y-72
G2 X30.851 Y-72.021 I-0.647 J0.762
G1 X30.258 Y-72.492
G2 X30.231 Y-72.513 I-0.621 J0.784
G1 X29.631 Y-72.955
G2 X29.601 Y-72.976 I-0.594 J0.805
G1 X28.995 Y-73.391
G2 X28.964 Y-73.411 I-0.564 J0.826
G1 X28.351 Y-73.797
G2 X28.318 Y-73.817 I-0.533 J0.846
G1 X27.699 Y-74.174
G2 X27.664 Y-74.193 I-0.5 J0.866
G1 X27.04 Y-74.521
G2 X27.003 Y-74.539 I-0.464 J0.886
G1 X26.374 Y-74.836
G2 X26.335 Y-74.854 I-0.427 J0.904
G1 X25.701 Y-75.121
G2 X25.66 Y-75.137 I-0.388 J0.922
G1 X25.022 Y-75.373
G2 X24.98 Y-75.388 I-0.347 J0.938
G1 X24.337 Y-75.593
G2 X24.293 Y-75.606 I-0.305 J0.952
G1 X23.647 Y-75.78
G2 X23.602 Y-75.792 I-0.26 J0.965
G1 X22.953 Y-75.935
G2 X22.906 Y-75.944 I-0.215 J0.977
G1 X22.254 Y-76.055
G2 X22.207 Y-76.062 I-0.168 J0.986
G1 X22.205
Z-1
X21.553 Y-76.141
G2 X21.504 Y-76.146 I-0.121 J0.993
G1 X20.848 Y-76.194
G2 X20.8 Y-76.196 I-0.073 J0.997
G1 X20.142 Y-76.212
G2 X20.093 I-0.024 J1
G1 X19.434 Y-76.196
G2 X19.386 Y-76.194 I0.024 J1
G1 X18.726 Y-76.146
G2 X18.678 Y-76.142 I0.072 J0.997
G1 X18.018 Y-76.062
G2 X17.972 Y-76.055 I0.12 J0.993
G1 X17.311 Y-75.944
G2 X17.266 Y-75.935 I0.166 J0.986
G1 X17.207 Y-75.923
Z-3 F333.3
X16.606 Y-75.792 F1000
G2 X16.562 Y-75.782 I0.212 J0.977
G1 X15.903 Y-75.608
G2 X15.86 Y-75.595 I0.255 J0.967
G1 X15.202 Y-75.39
G2 X15.161 Y-75.376 I0.298 J0.955
G1 X14.505 Y-75.14
G2 X14.466 Y-75.125 I0.339 J0.941
G1 X13.812 Y-74.858
G2 X13.775 Y-74.842 I0.378 J0.926
G1 X13.123 Y-74.545
G2 X13.088 Y-74.528 I0.415 J0.91
G1 X12.438 Y-74.201
G2 X12.405 Y-74.183 I0.45 J0.893
G1 X11.759 Y-73.826
G2 X11.728 Y-73.808 I0.483 J0.875
G1 X11.085 Y-73.422
G2 X11.056 Y-73.404 I0.515 J0.857
G1 X10.418 Y-72.989
G2 X10.39 Y-72.97 I0.545 J0.839
G1 X9.756 Y-72.528
G2 X9.73 Y-72.509 I0.573 J0.82
G1 X9.1 Y-72.039
G2 X9.076 Y-72.02 I0.599 J0.801
G1 X8.451 Y-71.522
G2 X8.428 Y-71.503 I0.623 J0.782
G1 X7.809 Y-70.979
G2 X7.788 Y-70.961 I0.646 J0.763
G1 X7.174 Y-70.411
G2 X7.154 Y-70.392 I0.667 J0.745
G1 X6.547 Y-69.817
G2 X6.528 Y-69.799 I0.688 J0.726
G1 X6.443 Y-69.715
Z-1
X5.927 Y-69.199
G2 X5.909 Y-69.181 I0.706 J0.708
G1 X5.314 Y-68.557
G2 X5.298 Y-68.539 I0.724 J0.69
G1 X4.71 Y-67.892
G2 X4.694 Y-67.875 I0.74 J0.672
G1 X4.113 Y-67.205
G2 X4.099 Y-67.188 I0.755 J0.655
G1 X3.525 Y-66.496
G2 X3.512 Y-66.479 I0.77 J0.638
G1 X3.117 Y-65.982
Z-3 F333.3
X2.946 Y-65.766 F1000
G2 X2.933 Y-65.75 I0.783 J0.622
G1 X2.375 Y-65.016
G2 X2.363 Y-65.001 I0.796 J0.606
G1 X1.812 Y-64.247
G2 X1.801 Y-64.232 I0.807 J0.59
G1 X1.259 Y-63.459
G2 X1.248 Y-63.444 I0.818 J0.575
G1 X0.714 Y-62.653
G2 X0.7 Y-62.632 I0.829 J0.56
G1 X0.5 Y-62.318
X0.3 Y-62.632
G2 X0.286 Y-62.653 I-0.843 J0.538
G1 X-0.248 Y-63.444
G2 X-0.259 Y-63.459 I-0.829 J0.56
G1 X-0.801 Y-64.232
G2 X-0.812 Y-64.247 I-0.818 J0.575
G1 X-1.363 Y-65.001
G2 X-1.375 Y-65.016 I-0.807 J0.59
G1 X-1.933 Y-65.75
G2 X-1.946 Y-65.766 I-0.796 J0.606
G1 X-2.117 Y-65.982
Z-1
X-2.512 Y-66.479
G2 X-2.525 Y-66.496 I-0.783 J0.622
G1 X-3.099 Y-67.188
G2 X-3.113 Y-67.205 I-0.77 J0.638
G1 X-3.694 Y-67.875
G2 X-3.71 Y-67.892 I-0.755 J0.655
G1 X-4.298 Y-68.539
G2 X-4.314 Y-68.557 I-0.74 J0.672
G1 X-4.909 Y-69.181
G2 X-4.927 Y-69.199 I-0.724 J0.69
G1 X-5.443 Y-69.715
Z-3 F333.3
X-5.528 Y-69.799 F1000
G2 X-5.547 Y-69.817 I-0.706 J0.708
G1 X-6.154 Y-70.392
G2 X-6.174 Y-70.411 I-0.688 J0.726
G1 X-6.788 Y-70.961
G2 X-6.809 Y-70.979 I-0.667 J0.745
G1 X-7.428 Y-71.503
G2 X-7.451 Y-71.522 I-0.646 J0.763
G1 X-8.076 Y-72.02
G2 X-8.1 Y-72.039 I-0.623 J0.782
G1 X-8.73 Y-72.509
G2 X-8.756 Y-72.528 I-0.599 J0.801
G1 X-9.39 Y-72.971
G2 X-9.418 Y-72.989 I-0.572 J0.82
G1 X-10.056 Y-73.404
G2 X-10.085 Y-73.422 I-0.545 J0.839
G1 X-10.728 Y-73.808
G2 X-10.759 Y-73.826 I-0.515 J0.857
G1 X-11.405 Y-74.183
G2 X-11.438 Y-74.201 I-0.483 J0.875
G1 X-12.088 Y-74.528
G2 X-12.123 Y-74.545 I-0.45 J0.893
G1 X-12.775 Y-74.842
G2 X-12.812 Y-74.858 I-0.415 J0.91
G1 X-13.466 Y-75.125
G2 X-13.505 Y-75.14 I-0.378 J0.926
G1 X-14.161 Y-75.376
G2 X-14.202 Y-75.39 I-0.339 J0.941
G1 X-14.86 Y-75.595
G2 X-14.903 Y-75.608 I-0.298 J0.955
G1 X-15.562 Y-75.782
G2 X-15.606 Y-75.792 I-0.255 J0.967
G1 X-16.207 Y-75.923
Z-1
X-16.266 Y-75.935
G2 X-16.311 Y-75.944 I-0.212 J0.977
G1 X-16.972 Y-76.055
G2 X-17.018 Y-76.062 I-0.166 J0.986
G1 X-17.678 Y-76.142
G2 X-17.726 Y-76.146 I-0.12 J0.993
G1 X-18.386 Y-76.194
G2 X-18.434 Y-76.196 I-0.072 J0.997
G1 X-19.093 Y-76.212
G2 X-19.142 I-0.024 J1
G1 X-19.8 Y-76.196
G2 X-19.848 Y-76.194 I0.024 J1
G1 X-20.504 Y-76.146
G2 X-20.553 Y-76.141 I0.073 J0.997
G1 X-21.205 Y-76.062
Z-3 F333.3
X-21.207 F1000
G2 X-21.254 Y-76.055 I0.121 J0.993
G1 X-21.906 Y-75.944
G2 X-21.953 Y-75.935 I0.168 J0.986
G1 X-22.602 Y-75.792
G2 X-22.647 Y-75.78 I0.215 J0.977
G1 X-23.293 Y-75.606
G2 X-23.337 Y-75.593 I0.26 J0.965
G1 X-23.98 Y-75.388
G2 X-24.022 Y-75.373 I0.305 J0.952
G1 X-24.66 Y-75.137
G2 X-24.701 Y-75.121 I0.347 J0.938
G1 X-25.335 Y-74.854
G2 X-25.374 Y-74.836 I0.388 J0.922
G1 X-26.003 Y-74.539
G2 X-26.04 Y-74.521 I0.427 J0.904
G1 X-26.664 Y-74.193
G2 X-26.699 Y-74.174 I0.464 J0.886
G1 X-27.318 Y-73.817
G2 X-27.351 Y-73.797 I0.5 J0.866
G1 X-27.964 Y-73.411
G2 X-27.995 Y-73.391 I0.533 J0.846
G1 X-28.601 Y-72.976
G2 X-28.631 Y-72.955 I0.564 J0.826
G1 X-29.231 Y-72.513
G2 X-29.258 Y-72.492 I0.594 J0.805
G1 X-29.851 Y-72.021
G2 X-29.877 Y-72 I0.621 J0.784
G1 X-30.464 Y-71.502
G2 X-30.488 Y-71.481 I0.647 J0.762
G1 X-31.066 Y-70.957
G2 X-31.089 Y-70.937 I0.671 J0.741
G1 X-31.66 Y-70.387
G2 X-31.681 Y-70.366 I0.694 J0.72
G1 X-32.075 Y-69.963
Z-1
X-32.244 Y-69.791
G2 X-32.264 Y-69.77 I0.715 J0.7
G1 X-32.819 Y-69.17
G2 X-32.837 Y-69.15 I0.734 J0.679
G1 X-33.384 Y-68.526
G2 X-33.401 Y-68.506 I0.752 J0.659
G1 X-33.939 Y-67.859
G2 X-33.955 Y-67.84 I0.769 J0.639
G1 X-34.484 Y-67.17
G2 X-34.499 Y-67.151 I0.785 J0.62
G1 X-35.019 Y-66.459
G2 X-35.033 Y-66.44 I0.799 J0.601
G1 X-35.266 Y-66.114
Z-3 F333.3
X-35.544 Y-65.727 F1000
G2 X-35.557 Y-65.709 I0.813 J0.583
G1 X-36.059 Y-64.975
G2 X-36.071 Y-64.958 I0.825 J0.565
G1 X-36.563 Y-64.204
G2 X-36.574 Y-64.187 I0.837 J0.547
G1 X-37.057 Y-63.415
G2 X-37.067 Y-63.398 I0.848 J0.53
G1 X-37.541 Y-62.607
G2 X-37.555 Y-62.583 I0.858 J0.514
G1 X-38.472 Y-60.95
G2 X-38.55 Y-60.772 I0.872 J0.49
G1 X-38.777 Y-60.081
X-38.78 Y-60.072
X-38.986 Y-59.424
G2 X-38.989 Y-59.415 I0.953 J0.303
G1 X-39.176 Y-58.805
G2 X-39.179 Y-58.796 I0.956 J0.293
G1 X-39.349 Y-58.222
G2 X-39.352 Y-58.211 I0.959 J0.284
G1 X-39.506 Y-57.668
G2 X-39.509 Y-57.658 I0.962 J0.273
G1 X-39.649 Y-57.143
G2 X-39.652 Y-57.132 I0.965 J0.263
G1 X-39.779 Y-56.643
G2 X-39.782 Y-56.632 I0.968 J0.252
G1 X-39.897 Y-56.167
G2 X-39.9 Y-56.154 I0.971 J0.24
G1 X-40.004 Y-55.71
G2 X-40.007 Y-55.698 I0.974 J0.228
G1 X-40.1 Y-55.274
G2 X-40.104 Y-55.254 I0.977 J0.215
G1 X-40.263 Y-54.458
G2 X-40.269 Y-54.43 I0.981 J0.196
G1 X-40.385 Y-53.751
Z-1
X-40.394 Y-53.694
G2 X-40.399 Y-53.665 I0.986 J0.168
G1 X-40.495 Y-52.979
G2 X-40.499 Y-52.949 I0.99 J0.139
G1 X-40.569 Y-52.307
G2 X-40.572 Y-52.275 I0.994 J0.109
G1 X-40.619 Y-51.67
G2 X-40.621 Y-51.637 I0.997 J0.077
G1 X-40.646 Y-51.063
G2 X-40.647 Y-51.03 I0.999 J0.044
G1 X-40.653 Y-50.483
G2 Y-50.449 I1 J0.01
G1 X-40.64 Y-49.925
G2 X-40.639 Y-49.891 I1 J-0.024
G1 X-40.609 Y-49.387
G2 X-40.607 Y-49.352 I0.998 J-0.058
G1 X-40.561 Y-48.865
G2 X-40.557 Y-48.831 I0.996 J-0.093
G1 X-40.548 Y-48.754
Z-3 F333.3
X-40.497 Y-48.359 F1000
G2 X-40.489 Y-48.308 I0.992 J-0.127
G1 X-40.325 Y-47.396
G2 X-40.311 Y-47.332 I0.984 J-0.178
G1 X-40.091 Y-46.451
G2 X-40.074 Y-46.391 I0.97 J-0.242
G1 X-39.801 Y-45.528
G2 X-39.782 Y-45.474 I0.953 J-0.302
G1 X-39.456 Y-44.618
G2 X-39.436 Y-44.57 I0.935 J-0.356
G1 X-39.056 Y-43.71
G2 X-39.036 Y-43.667 I0.915 J-0.404
G1 X-38.6 Y-42.793
G2 X-38.58 Y-42.756 I0.895 J-0.447
G1 X-38.084 Y-41.858
G2 X-38.065 Y-41.826 I0.875 J-0.484
G1 X-37.504 Y-40.894
G2 X-37.491 Y-40.873 I0.857 J-0.516
G1 X-37.185 Y-40.391
G2 X-37.176 Y-40.378 I0.844 J-0.537
G1 X-36.851 Y-39.884
G2 X-36.843 Y-39.872 I0.835 J-0.55
G1 X-36.498 Y-39.363
G2 X-36.491 Y-39.353 I0.828 J-0.561
G1 X-36.125 Y-38.828
G2 X-36.118 Y-38.818 I0.82 J-0.572
G1 X-35.73 Y-38.276
G2 X-35.724 Y-38.267 I0.813 J-0.582
G1 X-35.312 Y-37.706
G2 X-35.306 Y-37.697 I0.807 J-0.591
G1 X-34.869 Y-37.115
X-34.863 Y-37.107
X-34.4 Y-36.501
X-34.394 Y-36.494
X-33.902 Y-35.862
X-33.896 Y-35.855
X-33.888 Y-35.845
Z-1
X-33.372 Y-35.195
X-33.368 Y-35.189
X-32.81 Y-34.497
X-32.805 Y-34.491
X-32.211 Y-33.765
X-32.206 Y-33.76
X-31.572 Y-32.995
X-31.568 Y-32.99
X-30.889 Y-32.184
X-30.886 Y-32.179
X-30.716 Y-31.98
Z-3 F333.3
X-30.16 Y-31.326 F1000
X-30.156 Y-31.322
X-29.377 Y-30.416
X-29.375 Y-30.414
X-28.964 Y-29.94
X-28.963 Y-29.938
X-28.537 Y-29.449
X-28.535 Y-29.447
X-28.093 Y-28.942
X-28.092 Y-28.94
X-27.633 Y-28.418
X-27.631 Y-28.416
X-27.154 Y-27.876
X-27.153 Y-27.875
X-26.658 Y-27.316
X-26.656 Y-27.314
X-26.141 Y-26.735
X-26.139 Y-26.733
X-25.603 Y-26.133
X-25.601 Y-26.131
X-25.042 Y-25.508
X-25.041 Y-25.506
X-24.458 Y-24.859
X-24.457 Y-24.857
X-23.849 Y-24.184
X-23.848 Y-24.183
X-23.213 Y-23.482
X-23.212 Y-23.48
X-22.549 Y-22.75
X-22.548 Y-22.749
X-21.854 Y-21.988
X-21.853 Y-21.986
X-21.386 Y-21.475
Z-1
X-21.126 Y-21.191
X-21.125 Y-21.19
X-20.364 Y-20.359
X-20.363 Y-20.358
X-19.564 Y-19.489
Y-19.488
X-18.725 Y-18.577
X-18.724 Y-18.576
X-18.002 Y-17.794
Z-3 F333.3
X-17.842 Y-17.62 F1000
X-17.841 Y-17.619
X-16.913 Y-16.616
X-16.912 Y-16.615
X-15.933 Y-15.559
X-15.423 Y-15.01
X-14.899 Y-14.446
X-14.36 Y-13.867
X-13.806 Y-13.272
X-13.237 Y-12.661
X-12.65 Y-12.032
X-12.046 Y-11.385
X-11.424 Y-10.72
X-10.782 Y-10.034
X-10.121 Y-9.328
X-9.439 Y-8.6
X-8.735 Y-7.85
X-8.453 Y-7.549
Z-1
X-8.009 Y-7.075
X-7.258 Y-6.276
X-6.482 Y-5.451
X-5.68 Y-4.598
X-5.029 Y-3.906
Z-3 F333.3
X-4.85 Y-3.716 F1000
X-3.991 Y-2.803
X-3.1 Y-1.859
X-2.178 Y-0.88
X-1.221 Y0.134
X-0.227 Y1.187
G2 X1.227 I0.727 J-0.687
G1 X2.22 Y0.135
X3.177 Y-0.88
X4.1 Y-1.858
X4.99 Y-2.803
X5.85 Y-3.715
X6.029 Y-3.906
Z-1
X6.68 Y-4.597
X7.482 Y-5.45
X8.258 Y-6.276
X9.009 Y-7.075
X9.453 Y-7.549
Z-3 F333.3
X9.735 Y-7.849 F1000
X10.439 Y-8.6
X11.121 Y-9.328
X11.782 Y-10.034
X12.423 Y-10.719
X13.045 Y-11.385
X13.65 Y-12.032
X14.236 Y-12.661
X14.806 Y-13.272
X15.36 Y-13.867
X15.899 Y-14.446
X16.423 Y-15.01
X16.932 Y-15.559
X17.912 Y-16.615
X17.913 Y-16.616
X18.841 Y-17.619
X18.842 Y-17.62
X19.002 Y-17.794
Z-1
X19.724 Y-18.576
X19.725 Y-18.577
X20.564 Y-19.488
Y-19.489
X21.363 Y-20.358
X21.364 Y-20.359
X22.125 Y-21.19
X22.126 Y-21.191
X22.386 Y-21.475
Z-3 F333.3
X22.853 Y-21.986 F1000
X22.854 Y-21.988
X23.548 Y-22.749
X23.549 Y-22.75
X24.212 Y-23.48
X24.213 Y-23.482
X24.848 Y-24.183
X24.849 Y-24.184
X25.457 Y-24.857
X25.458 Y-24.859
X26.041 Y-25.506
X26.042 Y-25.508
X26.601 Y-26.131
X26.603 Y-26.133
X27.139 Y-26.733
X27.141 Y-26.735
X27.656 Y-27.314
X27.658 Y-27.316
X28.153 Y-27.875
X28.154 Y-27.876
X28.631 Y-28.416
X28.633 Y-28.418
X29.092 Y-28.94
X29.093 Y-28.942
X29.535 Y-29.447
X29.537 Y-29.449
X29.963 Y-29.938
X29.964 Y-29.94
X30.375 Y-30.414
X30.377 Y-30.416
X31.156 Y-31.322
X31.16 Y-31.326
X31.716 Y-31.98
Z-1
X31.886 Y-32.179
X31.889 Y-32.184
X32.568 Y-32.99
X32.572 Y-32.995
X33.206 Y-33.76
X33.211 Y-33.765
X33.805 Y-34.491
X33.81 Y-34.497
X34.368 Y-35.189
X34.372 Y-35.195
X34.888 Y-35.845
Z-3 F333.3
X34.896 Y-35.855 F1000
X34.902 Y-35.862
X35.394 Y-36.494
X35.4 Y-36.501
X35.863 Y-37.107
X35.869 Y-37.115
X36.306 Y-37.697
G2 X36.312 Y-37.706 I-0.8 J-0.6
G1 X36.724 Y-38.267
G2 X36.73 Y-38.276 I-0.807 J-0.591
G1 X37.118 Y-38.818
G2 X37.125 Y-38.828 I-0.813 J-0.582
G1 X37.491 Y-39.353
G2 X37.498 Y-39.363 I-0.82 J-0.572
G1 X37.843 Y-39.872
G2 X37.851 Y-39.884 I-0.828 J-0.561
G1 X38.176 Y-40.378
G2 X38.185 Y-40.391 I-0.835 J-0.55
G1 X38.491 Y-40.873
G2 X38.504 Y-40.894 I-0.844 J-0.537
G1 X39.065 Y-41.826
G2 X39.084 Y-41.858 I-0.857 J-0.516
G1 X39.58 Y-42.756
G2 X39.6 Y-42.793 I-0.875 J-0.484
G1 X40.036 Y-43.667
G2 X40.056 Y-43.71 I-0.895 J-0.447
G1 X40.436 Y-44.57
G2 X40.456 Y-44.618 I-0.915 J-0.404
G1 X40.782 Y-45.474
G2 X40.801 Y-45.528 I-0.935 J-0.356
G1 X41.074 Y-46.391
G2 X41.091 Y-46.451 I-0.953 J-0.302
G1 X41.311 Y-47.332
G2 X41.325 Y-47.396 I-0.97 J-0.242
G1 X41.489 Y-48.308
G2 X41.497 Y-48.359 I-0.984 J-0.178
G1 X41.548 Y-48.754
Z-1
X41.557 Y-48.831
G2 X41.561 Y-48.865 I-0.992 J-0.127
G3 X41.779 Y-49.046 I0.199 J0.019
G1 X42.177 Y-49.009
G0 Z5
X42.14 Y-48.611
G1 Z-1.5 F1000
Z-3.3 F333.3
X42.133 Z-3.352
X42.113 Y-48.613 Z-3.4
X42.082 Y-48.616 Z-3.441
X42.04 Y-48.62 Z-3.473
X41.992 Y-48.624 Z-3.493
X41.941 Y-48.629 Z-3.5
X41.742 Y-48.648 F1000
G3 X41.583 Y-48.755 I0.019 J-0.199
G1 Z-1
G3 X41.561 Y-48.865 I0.178 J-0.092
G1 X41.607 Y-49.352
G2 X41.609 Y-49.387 I-0.996 J-0.093
G1 X41.639 Y-49.891
G2 X41.64 Y-49.925 I-0.998 J-0.058
G1 X41.653 Y-50.449
G2 Y-50.483 I-1 J-0.024
G1 X41.647 Y-51.03
G2 X41.646 Y-51.063 I-1 J0.01
G1 X41.621 Y-51.637
G2 X41.619 Y-51.67 I-0.999 J0.044
G1 X41.572 Y-52.275
G2 X41.569 Y-52.307 I-0.997 J0.077
G1 X41.499 Y-52.949
G2 X41.495 Y-52.979 I-0.994 J0.109
G1 X41.399 Y-53.665
G2 X41.394 Y-53.694 I-0.99 J0.139
G1 X41.385 Y-53.751
Z-3.5 F333.3
X41.269 Y-54.43 F1000
G2 X41.263 Y-54.458 I-0.986 J0.168
G1 X41.104 Y-55.254
G2 X41.1 Y-55.274 I-0.981 J0.196
G1 X41.007 Y-55.698
G2 X41.004 Y-55.71 I-0.977 J0.215
G1 X40.9 Y-56.154
G2 X40.897 Y-56.167 I-0.974 J0.228
G1 X40.782 Y-56.632
G2 X40.779 Y-56.643 I-0.971 J0.24
G1 X40.652 Y-57.132
G2 X40.649 Y-57.143 I-0.968 J0.252
G1 X40.509 Y-57.658
G2 X40.506 Y-57.668 I-0.965 J0.263
G1 X40.352 Y-58.211
G2 X40.349 Y-58.222 I-0.962 J0.273
G1 X40.179 Y-58.796
G2 X40.176 Y-58.805 I-0.959 J0.284
G1 X39.989 Y-59.415
G2 X39.986 Y-59.424 I-0.956 J0.293
G1 X39.78 Y-60.072
X39.777 Y-60.081
X39.55 Y-60.772
G2 X39.472 Y-60.95 I-0.95 J0.312
G1 X38.555 Y-62.583
G2 X38.541 Y-62.607 I-0.872 J0.49
G1 X38.067 Y-63.398
G2 X38.057 Y-63.415 I-0.858 J0.514
G1 X37.574 Y-64.187
G2 X37.563 Y-64.204 I-0.848 J0.53
G1 X37.071 Y-64.958
G2 X37.059 Y-64.975 I-0.837 J0.547
G1 X36.557 Y-65.709
G2 X36.544 Y-65.727 I-0.825 J0.565
G1 X36.266 Y-66.114
Z-1
X36.033 Y-66.44
G2 X36.019 Y-66.459 I-0.813 J0.583
G1 X35.499 Y-67.151
G2 X35.484 Y-67.17 I-0.799 J0.601
G1 X34.955 Y-67.84
G2 X34.939 Y-67.859 I-0.785 J0.62
G1 X34.401 Y-68.506
G2 X34.384 Y-68.526 I-0.769 J0.639
G1 X33.837 Y-69.15
G2 X33.819 Y-69.17 I-0.752 J0.659
G1 X33.264 Y-69.77
G2 X33.244 Y-69.791 I-0.734 J0.679
G1 X33.075 Y-69.963
Z-3.5 F333.3
X32.681 Y-70.366 F1000
G2 X32.66 Y-70.387 I-0.715 J0.7
G1 X32.089 Y-70.937
G2 X32.066 Y-70.957 I-0.694 J0.72
G1 X31.488 Y-71.481
G2 X31.464 Y-71.502 I-0.671 J0.741
G1 X30.877 Y-72
G2 X30.851 Y-72.021 I-0.647 J0.762
G1 X30.258 Y-72.492
G2 X30.231 Y-72.513 I-0.621 J0.784
G1 X29.631 Y-72.955
G2 X29.601 Y-72.976 I-0.594 J0.805
G1 X28.995 Y-73.391
G2 X28.964 Y-73.411 I-0.564 J0.826
G1 X28.351 Y-73.797
G2 X28.318 Y-73.817 I-0.533 J0.846
G1 X27.699 Y-74.174
G2 X27.664 Y-74.193 I-0.5 J0.866
G1 X27.04 Y-74.521
G2 X27.003 Y-74.539 I-0.464 J0.886
G1 X26.374 Y-74.836
G2 X26.335 Y-74.854 I-0.427 J0.904
G1 X25.701 Y-75.121
G2 X25.66 Y-75.137 I-0.388 J0.922
G1 X25.022 Y-75.373
G2 X24.98 Y-75.388 I-0.347 J0.938
G1 X24.337 Y-75.593
G2 X24.293 Y-75.606 I-0.305 J0.952
G1 X23.647 Y-75.78
G2 X23.602 Y-75.792 I-0.26 J0.965
G1 X22.953 Y-75.935
G2 X22.906 Y-75.944 I-0.215 J0.977
G1 X22.254 Y-76.055
G2 X22.207 Y-76.062 I-0.168 J0.986
G1 X22.205
Z-1
X21.553 Y-76.141
G2 X21.504 Y-76.146 I-0.121 J0.993
G1 X20.848 Y-76.194
G2 X20.8 Y-76.196 I-0.073 J0.997
G1 X20.142 Y-76.212
G2 X20.093 I-0.024 J1
G1 X19.434 Y-76.196
G2 X19.386 Y-76.194 I0.024 J1
G1 X18.726 Y-76.146
G2 X18.678 Y-76.142 I0.072 J0.997
G1 X18.018 Y-76.062
G2 X17.972 Y-76.055 I0.12 J0.993
G1 X17.311 Y-75.944
G2 X17.266 Y-75.935 I0.166 J0.986
G1 X17.207 Y-75.923
Z-3.5 F333.3
X16.606 Y-75.792 F1000
G2 X16.562 Y-75.782 I0.212 J0.977
G1 X15.903 Y-75.608
G2 X15.86 Y-75.595 I0.255 J0.967
G1 X15.202 Y-75.39
G2 X15.161 Y-75.376 I0.298 J0.955
G1 X14.505 Y-75.14
G2 X14.466 Y-75.125 I0.339 J0.941
G1 X13.812 Y-74.858
G2 X13.775 Y-74.842 I0.378 J0.926
G1 X13.123 Y-74.545
G2 X13.088 Y-74.528 I0.415 J0.91
G1 X12.438 Y-74.201
G2 X12.405 Y-74.183 I0.45 J0.893
G1 X11.759 Y-73.826
G2 X11.728 Y-73.808 I0.483 J0.875
G1 X11.085 Y-73.422
G2 X11.056 Y-73.404 I0.515 J0.857
G1 X10.418 Y-72.989
G2 X10.39 Y-72.97 I0.545 J0.839
G1 X9.756 Y-72.528
G2 X9.73 Y-72.509 I0.573 J0.82
G1 X9.1 Y-72.039
G2 X9.076 Y-72.02 I0.599 J0.801
G1 X8.451 Y-71.522
G2 X8.428 Y-71.503 I0.623 J0.782
G1 X7.809 Y-70.979
G2 X7.788 Y-70.961 I0.646 J0.763
G1 X7.174 Y-70.411
G2 X7.154 Y-70.392 I0.667 J0.745
G1 X6.547 Y-69.817
G2 X6.528 Y-69.799 I0.688 J0.726
G1 X6.443 Y-69.715
Z-1
X5.927 Y-69.199
G2 X5.909 Y-69.181 I0.706 J0.708
G1 X5.314 Y-68.557
G2 X5.298 Y-68.539 I0.724 J0.69
G1 X4.71 Y-67.892
G2 X4.694 Y-67.875 I0.74 J0.672
G1 X4.113 Y-67.205
G2 X4.099 Y-67.188 I0.755 J0.655
G1 X3.525 Y-66.496
G2 X3.512 Y-66.479 I0.77 J0.638
G1 X3.117 Y-65.982
Z-3.5 F333.3
X2.946 Y-65.766 F1000
G2 X2.933 Y-65.75 I0.783 J0.622
G1 X2.375 Y-65.016
G2 X2.363 Y-65.001 I0.796 J0.606
G1 X1.812 Y-64.247
G2 X1.801 Y-64.232 I0.807 J0.59
G1 X1.259 Y-63.459
G2 X1.248 Y-63.444 I0.818 J0.575
G1 X0.714 Y-62.653
G2 X0.7 Y-62.632 I0.829 J0.56
G1 X0.5 Y-62.318
X0.3 Y-62.632
G2 X0.286 Y-62.653 I-0.843 J0.538
G1 X-0.248 Y-63.444
G2 X-0.259 Y-63.459 I-0.829 J0.56
G1 X-0.801 Y-64.232
G2 X-0.812 Y-64.247 I-0.818 J0.575
G1 X-1.363 Y-65.001
G2 X-1.375 Y-65.016 I-0.807 J0.59
G1 X-1.933 Y-65.75
G2 X-1.946 Y-65.766 I-0.796 J0.606
G1 X-2.117 Y-65.982
Z-1
X-2.512 Y-66.479
G2 X-2.525 Y-66.496 I-0.783 J0.622
G1 X-3.099 Y-67.188
G2 X-3.113 Y-67.205 I-0.77 J0.638
G1 X-3.694 Y-67.875
G2 X-3.71 Y-67.892 I-0.755 J0.655
G1 X-4.298 Y-68.539
G2 X-4.314 Y-68.557 I-0.74 J0.672
G1 X-4.909 Y-69.181
G2 X-4.927 Y-69.199 I-0.724 J0.69
G1 X-5.443 Y-69.715
Z-3.5 F333.3
X-5.528 Y-69.799 F1000
G2 X-5.547 Y-69.817 I-0.706 J0.708
G1 X-6.154 Y-70.392
G2 X-6.174 Y-70.411 I-0.688 J0.726
G1 X-6.788 Y-70.961
G2 X-6.809 Y-70.979 I-0.667 J0.745
G1 X-7.428 Y-71.503
G2 X-7.451 Y-71.522 I-0.646 J0.763
G1 X-8.076 Y-72.02
G2 X-8.1 Y-72.039 I-0.623 J0.782
G1 X-8.73 Y-72.509
G2 X-8.756 Y-72.528 I-0.599 J0.801
G1 X-9.39 Y-72.971
G2 X-9.418 Y-72.989 I-0.572 J0.82
G1 X-10.056 Y-73.404
G2 X-10.085 Y-73.422 I-0.545 J0.839
G1 X-10.728 Y-73.808
G2 X-10.759 Y-73.826 I-0.515 J0.857
G1 X-11.405 Y-74.183
G2 X-11.438 Y-74.201 I-0.483 J0.875
G1 X-12.088 Y-74.528
G2 X-12.123 Y-74.545 I-0.45 J0.893
G1 X-12.775 Y-74.842
G2 X-12.812 Y-74.858 I-0.415 J0.91
G1 X-13.466 Y-75.125
G2 X-13.505 Y-75.14 I-0.378 J0.926
G1 X-14.161 Y-75.376
G2 X-14.202 Y-75.39 I-0.339 J0.941
G1 X-14.86 Y-75.595
G2 X-14.903 Y-75.608 I-0.298 J0.955
G1 X-15.562 Y-75.782
G2 X-15.606 Y-75.792 I-0.255 J0.967
G1 X-16.207 Y-75.923
Z-1
X-16.266 Y-75.935
G2 X-16.311 Y-75.944 I-0.212 J0.977
G1 X-16.972 Y-76.055
G2 X-17.018 Y-76.062 I-0.166 J0.986
G1 X-17.678 Y-76.142
G2 X-17.726 Y-76.146 I-0.12 J0.993
G1 X-18.386 Y-76.194
G2 X-18.434 Y-76.196 I-0.072 J0.997
G1 X-19.093 Y-76.212
G2 X-19.142 I-0.024 J1
G1 X-19.8 Y-76.196
G2 X-19.848 Y-76.194 I0.024 J1
G1 X-20.504 Y-76.146
G2 X-20.553 Y-76.141 I0.073 J0.997
G1 X-21.205 Y-76.062
Z-3.5 F333.3
X-21.207 F1000
G2 X-21.254 Y-76.055 I0.121 J0.993
G1 X-21.906 Y-75.944
G2 X-21.953 Y-75.935 I0.168 J0.986
G1 X-22.602 Y-75.792
G2 X-22.647 Y-75.78 I0.215 J0.977
G1 X-23.293 Y-75.606
G2 X-23.337 Y-75.593 I0.26 J0.965
G1 X-23.98 Y-75.388
G2 X-24.022 Y-75.373 I0.305 J0.952
G1 X-24.66 Y-75.137
G2 X-24.701 Y-75.121 I0.347 J0.938
G1 X-25.335 Y-74.854
G2 X-25.374 Y-74.836 I0.388 J0.922
G1 X-26.003 Y-74.539
G2 X-26.04 Y-74.521 I0.427 J0.904
G1 X-26.664 Y-74.193
G2 X-26.699 Y-74.174 I0.464 J0.886
G1 X-27.318 Y-73.817
G2 X-27.351 Y-73.797 I0.5 J0.866
G1 X-27.964 Y-73.411
G2 X-27.995 Y-73.391 I0.533 J0.846
G1 X-28.601 Y-72.976
G2 X-28.631 Y-72.955 I0.564 J0.826
G1 X-29.231 Y-72.513
G2 X-29.258 Y-72.492 I0.594 J0.805
G1 X-29.851 Y-72.021
G2 X-29.877 Y-72 I0.621 J0.784
G1 X-30.464 Y-71.502
G2 X-30.488 Y-71.481 I0.647 J0.762
G1 X-31.066 Y-70.957
G2 X-31.089 Y-70.937 I0.671 J0.741
G1 X-31.66 Y-70.387
G2 X-31.681 Y-70.366 I0.694 J0.72
G1 X-32.075 Y-69.963
Z-1
X-32.244 Y-69.791
G2 X-32.264 Y-69.77 I0.715 J0.7
G1 X-32.819 Y-69.17
G2 X-32.837 Y-69.15 I0.734 J0.679
G1 X-33.384 Y-68.526
G2 X-33.401 Y-68.506 I0.752 J0.659
G1 X-33.939 Y-67.859
G2 X-33.955 Y-67.84 I0.769 J0.639
G1 X-34.484 Y-67.17
G2 X-34.499 Y-67.151 I0.785 J0.62
G1 X-35.019 Y-66.459
G2 X-35.033 Y-66.44 I0.799 J0.601
G1 X-35.266 Y-66.114
Z-3.5 F333.3
X-35.544 Y-65.727 F1000
G2 X-35.557 Y-65.709 I0.813 J0.583
G1 X-36.059 Y-64.975
G2 X-36.071 Y-64.958 I0.825 J0.565
G1 X-36.563 Y-64.204
G2 X-36.574 Y-64.187 I0.837 J0.547
G1 X-37.057 Y-63.415
G2 X-37.067 Y-63.398 I0.848 J0.53
G1 X-37.541 Y-62.607
G2 X-37.555 Y-62.583 I0.858 J0.514
G1 X-38.472 Y-60.95
G2 X-38.55 Y-60.772 I0.872 J0.49
G1 X-38.777 Y-60.081
X-38.78 Y-60.072
X-38.986 Y-59.424
G2 X-38.989 Y-59.415 I0.953 J0.303
G1 X-39.176 Y-58.805
G2 X-39.179 Y-58.796 I0.956 J0.293
G1 X-39.349 Y-58.222
G2 X-39.352 Y-58.211 I0.959 J0.284
G1 X-39.506 Y-57.668
G2 X-39.509 Y-57.658 I0.962 J0.273
G1 X-39.649 Y-57.143
G2 X-39.652 Y-57.132 I0.965 J0.263
G1 X-39.779 Y-56.643
G2 X-39.782 Y-56.632 I0.968 J0.252
G1 X-39.897 Y-56.167
G2 X-39.9 Y-56.154 I0.971 J0.24
G1 X-40.004 Y-55.71
G2 X-40.007 Y-55.698 I0.974 J0.228
G1 X-40.1 Y-55.274
G2 X-40.104 Y-55.254 I0.977 J0.215
G1 X-40.263 Y-54.458
G2 X-40.269 Y-54.43 I0.981 J0.196
G1 X-40.385 Y-53.751
Z-1
X-40.394 Y-53.694
G2 X-40.399 Y-53.665 I0.986 J0.168
G1 X-40.495 Y-52.979
G2 X-40.499 Y-52.949 I0.99 J0.139
G1 X-40.569 Y-52.307
G2 X-40.572 Y-52.275 I0.994 J0.109
G1 X-40.619 Y-51.67
G2 X-40.621 Y-51.637 I0.997 J0.077
G1 X-40.646 Y-51.063
G2 X-40.647 Y-51.03 I0.999 J0.044
G1 X-40.653 Y-50.483
G2 Y-50.449 I1 J0.01
G1 X-40.64 Y-49.925
G2 X-40.639 Y-49.891 I1 J-0.024
G1 X-40.609 Y-49.387
G2 X-40.607 Y-49.352 I0.998 J-0.058
G1 X-40.561 Y-48.865
G2 X-40.557 Y-48.831 I0.996 J-0.093
G1 X-40.548 Y-48.754
