%
(RRCnC token x10 in y direction)
(T4  D=0.01 CR=0 - ZMIN=0 - flat end mill)
G90 G94
G17
G20
G28 G91 Z0
G90

(2D Contour1)
M9
T4 M6
S5000 M3
G54
M8
G0 X0.3307 Y2.2488
Z0.6
Z0.2
G1 Z0.0394 F13.33
Z0.001
Y2.2485 Z0.0003
X0.3308 Y2.2478 Z0
Y2.2468 F40
G3 X0.3319 Y2.2459 I0.001 J0.0001
G1 X0.3486 Y2.2475
X0.3488
X0.3566 Y2.2481
X0.357
X0.3648
G2 X0.3654 Y2.248 J-0.005
G1 X0.368 Y2.2477
G2 X0.3689 Y2.2475 I-0.0006 J-0.005
G1 X0.3714 Y2.2468
G2 X0.3729 Y2.246 I-0.0014 J-0.0048
G1 X0.375 Y2.2445
G2 X0.3762 Y2.2432 I-0.003 J-0.004
G1 X0.3777 Y2.241
G2 X0.3782 Y2.2398 I-0.0042 J-0.0027
G1 X0.379 Y2.2373
G2 X0.3792 Y2.2365 I-0.0048 J-0.0016
G1 X0.3796 Y2.2339
G2 X0.3797 Y2.2334 I-0.0049 J-0.0007
G1 X0.3798 Y2.2309
G2 X0.3797 Y2.2301 I-0.005 J-0.0002
G1 X0.3794 Y2.2277
G2 X0.3791 Y2.2265 I-0.005 J0.0006
G1 X0.3783 Y2.2242
G2 X0.3772 Y2.2226 I-0.0047 J0.0018
G1 X0.3756 Y2.2208
G2 X0.3741 Y2.2197 I-0.0037 J0.0034
G1 X0.3719 Y2.2187
G2 X0.3712 Y2.2184 I-0.0022 J0.0045
G1 X0.3688 Y2.2177
G2 X0.3683 Y2.2175 I-0.0014 J0.0048
G1 X0.361 Y2.2162
X0.3607
X0.3534 Y2.2154
X0.3533
X0.3233 Y2.2125
X0.3282 Y2.161
X0.3423 Y2.1624
X0.3516 Y2.1634
X0.3607 Y2.1649
X0.3696 Y2.1669
X0.3781 Y2.1698
X0.3828 Y2.1721
X0.3869 Y2.1751
X0.3905 Y2.1789
X0.3937 Y2.1832
X0.3964 Y2.1879
X0.3997 Y2.1955
X0.402 Y2.2035
X0.4035 Y2.2118
X0.4041 Y2.2202
Y2.2288
X0.4035 Y2.2373
X0.4023 Y2.2465
X0.4004 Y2.2554
X0.3977 Y2.264
X0.394 Y2.2722
X0.3905 Y2.2782
X0.3864 Y2.2838
X0.3816 Y2.2886
X0.3762 Y2.2927
X0.371 Y2.2955
X0.3654 Y2.2976
X0.3596 Y2.2986
X0.3534 Y2.2989
X0.3469 Y2.2988
X0.3404 Y2.2984
X0.3338 Y2.298
X0.3271 Y2.2974
X0.2685 Y2.2918
X0.259 Y2.2908
X0.2496 Y2.2893
X0.2404 Y2.2873
X0.2315 Y2.2846
X0.2265 Y2.2824
X0.2219 Y2.2796
X0.2179 Y2.2761
X0.2144 Y2.272
X0.2115 Y2.2674
X0.2081 Y2.2597
X0.2058 Y2.2515
X0.2044 Y2.243
X0.2037 Y2.2344
X0.2038 Y2.2256
X0.2043 Y2.2168
X0.2056 Y2.2076
X0.2076 Y2.1986
X0.2104 Y2.1899
X0.2142 Y2.1816
X0.2179 Y2.1757
X0.2222 Y2.1701
X0.2271 Y2.165
X0.2325 Y2.1609
X0.237 Y2.1585
X0.2421 Y2.157
X0.2476 Y2.1561
X0.2533 Y2.1556
X0.2591 Y2.1555
X0.2708 Y2.1558
X0.2825 Y2.1567
X0.2854 Y2.157
X0.2805 Y2.2085
X0.2603 Y2.2066
X0.2602
X0.2522 Y2.2059
X0.2519
X0.2439 Y2.2058
G2 X0.2434 Y2.2059 I-0.0001 J0.005
G1 X0.2407 Y2.2061
G2 X0.2401 Y2.2062 I0.0005 J0.005
G1 X0.2375 Y2.2068
G2 X0.236 Y2.2074 I0.0011 J0.0049
G1 X0.2338 Y2.2087
G2 X0.2324 Y2.21 I0.0026 J0.0043
G1 X0.2307 Y2.2121
G2 X0.23 Y2.2134 I0.004 J0.003
G1 X0.2291 Y2.2159
G2 X0.2288 Y2.2168 I0.0047 J0.0017
G1 X0.2284 Y2.2194
G2 X0.2283 Y2.2201 I0.0049 J0.0009
G1 X0.2282 Y2.2226
G2 X0.2283 Y2.2235 I0.005 J0.0002
G1 X0.2286 Y2.226
G2 X0.229 Y2.2272 I0.0049 J-0.0007
G1 X0.2299 Y2.2295
G2 X0.2309 Y2.231 I0.0046 J-0.0019
G1 X0.2326 Y2.2328
G2 X0.234 Y2.2339 I0.0036 J-0.0034
G1 X0.2362 Y2.235
G2 X0.237 Y2.2353 I0.0023 J-0.0044
G1 X0.2394 Y2.2361
G2 X0.2399 Y2.2362 I0.0015 J-0.0048
G1 X0.2474 Y2.2377
X0.2477
X0.2552 Y2.2386
X0.2553 Y2.2387
X0.3319 Y2.2459
G3 X0.3328 Y2.247 I-0.0001 J0.001
G1 X0.3327 Y2.248
Y2.2487 Z0.0003
Y2.249 Z0.001
G0 Z0.2
X0.2648 Y2.3999
G1 Z0.0394 F13.33
Z0.001
X0.265 Y2.3997 Z0.0003
X0.2656 Y2.3992 Z0
X0.2663 Y2.3986 F40
G3 X0.2678 Y2.3987 I0.0007 J0.0008
G1 X0.271 Y2.4025
X0.2743 Y2.4066
X0.2774 Y2.4107
X0.2802 Y2.4149
X0.2824 Y2.419
X0.2836 Y2.4231
X0.2839 Y2.4274
X0.2831 Y2.4332
X0.2811 Y2.4387
X0.2782 Y2.4439
X0.2744 Y2.4487
X0.27 Y2.4531
X0.2643 Y2.4576
X0.258 Y2.4611
X0.2513 Y2.4635
X0.2459 Y2.4643
X0.2403
X0.2345 Y2.4634
G2 X0.2303 Y2.472 I-0.0007 J0.0049
G1 X0.2374 Y2.4788
X0.2006 Y2.5122
X0.0964 Y2.3976
X0.1326 Y2.3646
X0.2043 Y2.4434
X0.2098 Y2.4494
X0.21 Y2.4496
X0.2158 Y2.4553
X0.216 Y2.4555
X0.218 Y2.4573
G2 X0.2183 Y2.4575 I0.0033 J-0.0037
G1 X0.2204 Y2.4592
G2 X0.2213 Y2.4597 I0.003 J-0.004
G1 X0.2237 Y2.4609
G2 X0.2258 Y2.4614 I0.0022 J-0.0045
G1 X0.2286
G2 X0.2305 Y2.4611 I0.0001 J-0.005
G1 X0.233 Y2.46
G2 X0.2342 Y2.4594 I-0.0019 J-0.0046
G1 X0.2363 Y2.4577
G2 X0.2369 Y2.4572 I-0.003 J-0.004
G1 X0.2386 Y2.4554
G2 X0.2393 Y2.4545 I-0.0036 J-0.0034
G1 X0.2405 Y2.4524
G2 X0.2412 Y2.4505 I-0.0043 J-0.0025
G1 X0.2415 Y2.4481
G2 X0.2412 Y2.4456 I-0.005 J-0.0007
G1 X0.2404 Y2.4433
G2 X0.2399 Y2.4424 I-0.0047 J0.0018
G1 X0.2385 Y2.4403
X0.2384 Y2.44
X0.2369 Y2.4381
X0.2367 Y2.4379
X0.232 Y2.4322
X0.2319 Y2.432
X0.2269 Y2.4265
X0.1534 Y2.3457
X0.1896 Y2.3128
X0.264 Y2.3945
X0.2676 Y2.3985
X0.2678 Y2.3987
G3 X0.2676 Y2.4001 I-0.0008 J0.0007
G1 X0.2669 Y2.4008
X0.2663 Y2.4012 Z0.0003
X0.2661 Y2.4014 Z0.001
G0 Z0.2
X0.0646 Y2.4531
G1 Z0.0394 F13.33
Z0.001
X0.0649 Y2.453 Z0.0003
X0.0656 Z0
X0.0666 Y2.4528 F40
G3 X0.0677 Y2.4537 I0.0001 J0.001
G1 X0.0678 Y2.4549
X0.0686 Y2.4667
X0.0688 Y2.4787
Y2.4817
X0.0176
Y2.4598
Y2.4597
X0.0174 Y2.4512
Y2.4509
X0.0167 Y2.4425
G2 Y2.442 I-0.005 J0.0004
G1 X0.0162 Y2.4393
G2 X0.016 Y2.4386 I-0.0049 J0.0009
G1 X0.0152 Y2.4359
G2 X0.0145 Y2.4346 I-0.0048 J0.0015
G1 X0.0129 Y2.4323
G2 X0.0115 Y2.4309 I-0.0041 J0.0029
G1 X0.0092 Y2.4294
G2 X0.0078 Y2.4288 I-0.0028 J0.0042
G1 X0.0051 Y2.428
G2 X0.0041 Y2.4278 I-0.0014 J0.0048
G1 X0.0013 Y2.4276
G2 X0.0006 I-0.0004 J0.005
G1 X-0.002 Y2.4278
G2 X-0.0027 Y2.4279 I0.0003 J0.005
G1 X-0.0052 Y2.4284
G2 X-0.0064 Y2.4288 I0.001 J0.0049
G1 X-0.0087 Y2.4299
G2 X-0.0101 Y2.4309 I0.0022 J0.0045
G1 X-0.0119 Y2.4327
G2 X-0.0129 Y2.4342 I0.0036 J0.0035
G1 X-0.0139 Y2.4365
G2 X-0.0143 Y2.4375 I0.0045 J0.0021
G1 X-0.0148 Y2.44
G2 X-0.0149 Y2.4405 I0.0049 J0.0011
G1 X-0.0155 Y2.4456
X-0.0156 Y2.446
X-0.0158 Y2.4511
Y2.4513
X-0.0159 Y2.4564
Y2.4565
Y2.5513
Y2.5514
X-0.0157 Y2.5594
G2 Y2.5598 I0.005 J-0.0001
G1 X-0.0149 Y2.5678
G2 X-0.0148 Y2.5684 I0.005 J-0.0005
G1 X-0.0142 Y2.571
G2 X-0.0139 Y2.572 I0.0049 J-0.0011
G1 X-0.0128 Y2.5745
G2 X-0.0118 Y2.5759 I0.0046 J-0.0021
G1 X-0.0099 Y2.5778
G2 X-0.0085 Y2.5788 I0.0035 J-0.0035
G1 X-0.006 Y2.5799
G2 X-0.0049 Y2.5803 I0.0021 J-0.0045
G1 X-0.0023 Y2.5808
G2 X-0.0016 Y2.5809 I0.001 J-0.0049
G1 X0.0011 Y2.5811
G2 X0.0016 I0.0003 J-0.005
G1 X0.0041 Y2.581
G2 X0.0047 Y2.5809 I-0.0002 J-0.005
G1 X0.0071 Y2.5804
G2 X0.0082 Y2.5801 I-0.0009 J-0.0049
G1 X0.0104 Y2.5791
G2 X0.0118 Y2.5782 I-0.002 J-0.0046
G1 X0.0136 Y2.5766
G2 X0.0147 Y2.575 I-0.0034 J-0.0036
G1 X0.0157 Y2.5728
G2 X0.016 Y2.5719 I-0.0046 J-0.0021
G1 X0.0166 Y2.5695
G2 X0.0167 Y2.5688 I-0.0049 J-0.0012
G1 X0.0174 Y2.5616
Y2.5612
X0.0176 Y2.5539
Y2.5538
Y2.5246
X0.0688
Y2.5382
X0.0687 Y2.5456
X0.0683 Y2.5529
X0.0676 Y2.5601
X0.0665 Y2.5671
X0.0647 Y2.5737
X0.0621 Y2.5796
X0.0583 Y2.5847
X0.0535 Y2.5892
X0.048 Y2.5929
X0.0392 Y2.5974
X0.0299 Y2.6005
X0.0201 Y2.6026
X0.0101 Y2.6037
X-0.0001 Y2.604
X-0.0093 Y2.6037
X-0.0183 Y2.6027
X-0.0271 Y2.6008
X-0.0357 Y2.5979
X-0.042 Y2.595
X-0.0479 Y2.5915
X-0.0531 Y2.5872
X-0.0577 Y2.5822
X-0.0615 Y2.5765
X-0.0642 Y2.5704
X-0.0657 Y2.5637
X-0.0664 Y2.5565
X-0.0668 Y2.549
X-0.067 Y2.5415
X-0.0671 Y2.5339
Y2.4753
X-0.0669 Y2.4657
X-0.0664 Y2.4562
X-0.0653 Y2.4469
X-0.0634 Y2.4378
X-0.0617 Y2.4326
X-0.0593 Y2.4278
X-0.0562 Y2.4235
X-0.0524 Y2.4197
X-0.048 Y2.4164
X-0.0407 Y2.4124
X-0.0328 Y2.4093
X-0.0245 Y2.4071
X-0.0159 Y2.4057
X-0.0072 Y2.4049
X0.0016 Y2.4046
X0.011 Y2.405
X0.0203 Y2.4062
X0.0293 Y2.4083
X0.0379 Y2.4115
X0.0442 Y2.4147
X0.0502 Y2.4186
X0.0556 Y2.4231
X0.0601 Y2.4283
X0.0629 Y2.4328
X0.0648 Y2.4378
X0.0662 Y2.4433
X0.0672 Y2.449
X0.0677 Y2.4537
G3 X0.0668 Y2.4548 I-0.001 J0.0001
G1 X0.0658 Y2.4549
X0.0651 Y2.455 Z0.0003
X0.0648 Y2.4551 Z0.001
G0 Z0.2
X-0.1295 Y2.4306
G1 Z0.0394 F13.33
Z0.001
X-0.1293 Y2.4308 Z0.0003
X-0.1287 Y2.4313 Z0
X-0.128 Y2.4319 F40
G3 Y2.4334 I-0.0007 J0.0007
G1 X-0.1319 Y2.4375
X-0.1357 Y2.4416
X-0.1397 Y2.4455
X-0.1436 Y2.4493
X-0.1473 Y2.4525
X-0.1513 Y2.4545
X-0.1558 Y2.4555
X-0.1611 Y2.4558
X-0.1662 Y2.4549
X-0.1714 Y2.453
X-0.1766 Y2.4504
X-0.1819 Y2.4474
G2 X-0.1881 Y2.455 I-0.0025 J0.0043
G1 X-0.185 Y2.4586
X-0.1822 Y2.4623
X-0.1797 Y2.4661
X-0.1777 Y2.4699
X-0.1765 Y2.4737
X-0.1763 Y2.4773
X-0.1771 Y2.481
X-0.1789 Y2.4852
X-0.1815 Y2.4894
X-0.1845 Y2.4936
X-0.1878 Y2.4976
X-0.1913 Y2.5015
X-0.1967 Y2.5069
X-0.2024 Y2.5118
X-0.2084 Y2.516
X-0.2148 Y2.5191
X-0.2201 Y2.5206
X-0.2256 Y2.521
X-0.2312 Y2.5206
X-0.2367 Y2.5193
X-0.2418 Y2.5172
X-0.2491 Y2.5128
X-0.2561 Y2.5075
X-0.263 Y2.5018
X-0.2699 Y2.4959
X-0.2767 Y2.4899
X-0.2834 Y2.4838
X-0.2901 Y2.4776
X-0.3183 Y2.4514
X-0.1885 Y2.3118
X-0.1509 Y2.3468
X-0.209 Y2.4094
G2 X-0.2087 Y2.4165 I0.0037 J0.0034
G1 X-0.2052 Y2.4196
G2 X-0.2048 Y2.4199 I0.0033 J-0.0038
G1 X-0.201 Y2.4226
G2 X-0.2005 Y2.4229 I0.0029 J-0.0041
G1 X-0.1978 Y2.4244
G2 X-0.1966 Y2.4248 I0.0023 J-0.0044
G1 X-0.1936 Y2.4255
G2 X-0.1914 Y2.4256 I0.0012 J-0.0049
G1 X-0.1884 Y2.425
G2 X-0.1868 Y2.4243 I-0.001 J-0.0049
G1 X-0.1829 Y2.4218
G2 X-0.1823 Y2.4214 I-0.0027 J-0.0042
G1 X-0.1788 Y2.4185
X-0.1785 Y2.4182
X-0.1752 Y2.415
X-0.1751 Y2.4149
X-0.1719 Y2.4115
X-0.1718
X-0.1299 Y2.3663
X-0.0954 Y2.3983
X-0.128 Y2.4334
G3 X-0.1294 I-0.0007 J-0.0007
G1 X-0.1301 Y2.4327
X-0.1306 Y2.4323 Z0.0003
X-0.1308 Y2.4321 Z0.001
G0 Z0.2
X-0.2241 Y2.4722
G1 Z0.0394 F13.33
Z0.001
X-0.2243 Y2.472 Z0.0003
X-0.2248 Y2.4715 Z0
X-0.2256 Y2.4708 F40
G3 Y2.4694 I0.0007 J-0.0007
G1 X-0.2216 Y2.465
X-0.2215
X-0.2199 Y2.4631
X-0.2197 Y2.463
X-0.2181 Y2.461
X-0.2179 Y2.4608
X-0.2164 Y2.4587
X-0.2162 Y2.4584
X-0.2149 Y2.4563
G2 X-0.2146 Y2.4558 I-0.0042 J-0.0027
G1 X-0.2135 Y2.4535
G2 X-0.2131 Y2.4524 I-0.0045 J-0.0022
G1 X-0.2126 Y2.4499
G2 Y2.448 I-0.0049 J-0.0011
G1 X-0.213 Y2.4455
G2 X-0.2136 Y2.444 I-0.0049 J0.0009
G1 X-0.2153 Y2.4409
G2 X-0.2157 Y2.4403 I-0.0044 J0.0024
G1 X-0.2178 Y2.4376
G2 X-0.2181 Y2.4372 I-0.004 J0.0031
G1 X-0.2205 Y2.4347
X-0.2206 Y2.4345
X-0.2231 Y2.4321
G2 X-0.2303 Y2.4322 I-0.0035 J0.0036
G1 X-0.2607 Y2.4649
G2 X-0.2603 Y2.4721 I0.0037 J0.0034
G1 X-0.2569 Y2.4751
G2 X-0.2565 Y2.4753 I0.0033 J-0.0038
G1 X-0.2528 Y2.478
G2 X-0.2523 Y2.4783 I0.0029 J-0.0041
G1 X-0.2502 Y2.4794
G2 X-0.2496 Y2.4797 I0.0024 J-0.0044
G1 X-0.2474 Y2.4805
G2 X-0.2462 Y2.4808 I0.0018 J-0.0047
G1 X-0.2439 Y2.4811
G2 X-0.2422 Y2.481 I0.0006 J-0.005
G1 X-0.2391 Y2.4803
G2 X-0.2378 Y2.4798 I-0.0011 J-0.0049
G1 X-0.235 Y2.4783
G2 X-0.2343 Y2.4778 I-0.0024 J-0.0044
G1 X-0.2318 Y2.4758
G2 X-0.2314 Y2.4755 I-0.0031 J-0.0039
G1 X-0.2292 Y2.4732
X-0.2291 Y2.4731
X-0.2256 Y2.4694
G3 X-0.2242 Y2.4693 I0.0007 J0.0007
G1 X-0.2235 Y2.47
X-0.223 Y2.4705 Z0.0003
X-0.2228 Y2.4707 Z0.001
G0 Z0.2
X-0.2512 Y2.2839
G1 Z0.0394 F13.33
Z0.001
Y2.2842 Z0.0003
X-0.2511 Y2.2849 Z0
X-0.251 Y2.2859 F40
G3 X-0.252 Y2.287 I-0.001 J0.0001
G1 X-0.2576 Y2.2875
X-0.2633 Y2.2879
X-0.2688 Y2.2882
X-0.2743 Y2.2883
X-0.2793 Y2.2882
X-0.2836 Y2.287
X-0.2876 Y2.2846
X-0.2917 Y2.2813
X-0.2948 Y2.2772
X-0.2974 Y2.2722
X-0.2996 Y2.2667
X-0.3015 Y2.2609
G2 X-0.3113 Y2.2624 I-0.0048 J0.0016
G1 X-0.3114 Y2.2672
X-0.3117 Y2.2719
X-0.3124 Y2.2763
X-0.3136 Y2.2804
X-0.3153 Y2.2841
X-0.3175 Y2.287
X-0.3205 Y2.2891
X-0.326 Y2.2914
X-0.3321 Y2.293
X-0.3385 Y2.2941
X-0.345 Y2.2948
X-0.3527 Y2.2952
X-0.3603 Y2.295
X-0.3676 Y2.294
X-0.3745 Y2.292
X-0.3793 Y2.2895
X-0.3838 Y2.2861
X-0.3877 Y2.2821
X-0.3908 Y2.2774
X-0.3933 Y2.2724
X-0.3957 Y2.2642
X-0.3973 Y2.2555
X-0.3986 Y2.2466
X-0.3997 Y2.2376
X-0.4007 Y2.2285
X-0.4016 Y2.2194
X-0.4024 Y2.2103
X-0.4056 Y2.1718
X-0.2147 Y2.1558
X-0.2103 Y2.2072
X-0.296 Y2.2144
G2 X-0.3005 Y2.22 I0.0004 J0.005
G1 X-0.2999 Y2.2246
G2 Y2.225 I0.005 J-0.0006
G1 X-0.2989 Y2.2296
G2 X-0.2988 Y2.2302 I0.0049 J-0.001
G1 X-0.298 Y2.2324
G2 X-0.2977 Y2.2331 I0.0047 J-0.0016
G1 X-0.2967 Y2.2351
G2 X-0.296 Y2.2361 I0.0044 J-0.0023
G1 X-0.2944 Y2.2379
G2 X-0.2929 Y2.2391 I0.0037 J-0.0033
G1 X-0.2908 Y2.2401
G2 X-0.2895 Y2.2405 I0.0022 J-0.0045
G1 X-0.2849 Y2.2413
G2 X-0.2842 Y2.2414 I0.0009 J-0.0049
G1 X-0.2796 Y2.2415
X-0.2793
X-0.2746 Y2.2414
X-0.2744
X-0.2698 Y2.2411
X-0.2697
X-0.2079 Y2.2359
X-0.204 Y2.283
X-0.252 Y2.287
G3 X-0.253 Y2.2861 I-0.0001 J-0.001
G1 X-0.2531 Y2.2851
X-0.2532 Y2.2844 Z0.0003
Y2.2841 Z0.001
G0 Z0.2
X-0.3496 Y2.2508
G1 Z0.0394 F13.33
Z0.001
Y2.2505 Z0.0003
X-0.3497 Y2.2498 Z0
X-0.3498 Y2.2488 F40
G3 X-0.3489 Y2.2477 I0.001 J-0.0001
G1 X-0.3429 Y2.2472
X-0.3427
X-0.3378 Y2.2466
G2 X-0.3373 Y2.2465 I-0.0006 J-0.005
G1 X-0.3324 Y2.2454
G2 X-0.3317 Y2.2452 I-0.0011 J-0.0049
G1 X-0.3293 Y2.2442
G2 X-0.3283 Y2.2437 I-0.0019 J-0.0046
G1 X-0.3261 Y2.2422
G2 X-0.3247 Y2.2407 I-0.0029 J-0.0041
G1 X-0.3234 Y2.2385
G2 X-0.3227 Y2.2369 I-0.0042 J-0.0026
G1 X-0.3218 Y2.2323
G2 X-0.3217 Y2.2315 I-0.0049 J-0.001
G1 X-0.3215 Y2.2268
G2 Y2.2264 I-0.005 J-0.0002
G1 X-0.3218 Y2.2218
G2 X-0.3272 Y2.217 I-0.005 J0.0003
G1 X-0.3719 Y2.2208
G2 X-0.3764 Y2.2264 I0.0004 J0.005
G1 X-0.3759 Y2.2309
G2 X-0.3758 Y2.2313 I0.005 J-0.0006
G1 X-0.3748 Y2.2357
G2 X-0.3747 Y2.2364 I0.0049 J-0.001
G1 X-0.3739 Y2.2386
G2 X-0.3736 Y2.2392 I0.0047 J-0.0017
G1 X-0.3725 Y2.2413
G2 X-0.3719 Y2.2423 I0.0045 J-0.0023
G1 X-0.3704 Y2.2441
G2 X-0.369 Y2.2452 I0.0038 J-0.0032
G1 X-0.3663 Y2.2468
G2 X-0.3649 Y2.2473 I0.0025 J-0.0043
G1 X-0.3618 Y2.248
G2 X-0.361 Y2.2481 I0.0011 J-0.0049
G1 X-0.3578 Y2.2483
G2 X-0.3573 I0.0003 J-0.005
G1 X-0.3542 Y2.2482
X-0.3539
X-0.3489 Y2.2477
G3 X-0.3478 Y2.2486 I0.0001 J0.001
G1 X-0.3477 Y2.2496
X-0.3476 Y2.2503 Z0.0003
Y2.2506 Z0.001
G0 Z0.2
X0.0282 Y1.4799
G1 Z0.0394 F13.33
Z0.001
X0.0284 Y1.48 Z0.0003
X0.0291 Y1.4802 Z0
X0.0301 Y1.4805 F40
G3 X0.0307 Y1.4818 I-0.0003 J0.001
G1 X0.0291 Y1.4867
X0.0259 Y1.4952
X0.0218 Y1.5031
X0.018 Y1.5084
X0.0132 Y1.5127
X0.0075 Y1.516
X0.0012 Y1.5186
X-0.0084 Y1.521
X-0.0184 Y1.522
X-0.0285 Y1.5218
X-0.0386 Y1.5205
X-0.0487 Y1.5185
X-0.0575 Y1.5159
X-0.0661 Y1.5128
X-0.0742 Y1.5088
X-0.0818 Y1.5041
X-0.0873 Y1.4998
X-0.0922 Y1.4949
X-0.0963 Y1.4895
X-0.0995 Y1.4836
X-0.1019 Y1.4771
X-0.1031 Y1.4706
X-0.1029 Y1.4637
X-0.1019 Y1.4565
X-0.1005 Y1.4492
X-0.099 Y1.4418
X-0.0972 Y1.4344
X-0.0833 Y1.3774
X-0.0809 Y1.3682
X-0.0781 Y1.3591
X-0.0748 Y1.3503
X-0.0708 Y1.342
X-0.0679 Y1.3373
X-0.0645 Y1.3332
X-0.0605 Y1.3298
X-0.0559 Y1.327
X-0.0509 Y1.3248
X-0.0428 Y1.3225
X-0.0344 Y1.3214
X-0.0258 Y1.3212
X-0.0171 Y1.3219
X-0.0084 Y1.3232
X0.0002 Y1.325
X0.0091 Y1.3276
X0.0177 Y1.3308
X0.0259 Y1.3348
X0.0335 Y1.3398
X0.0389 Y1.3443
X0.0438 Y1.3494
X0.0481 Y1.3549
X0.0514 Y1.3608
X0.0532 Y1.3657
X0.054 Y1.3709
X0.0541 Y1.3764
X0.0537 Y1.3821
X0.053 Y1.3879
X0.051 Y1.3994
X0.0484 Y1.4108
X0.0478 Y1.4135
X-0.0025 Y1.4013
X0.0023 Y1.3816
X0.0035 Y1.3764
Y1.3763
X0.0045 Y1.3711
X0.0046 Y1.3708
X0.0053 Y1.3655
G2 X0.0054 Y1.3651 I-0.005 J-0.0007
G1 X0.0055 Y1.3624
G2 Y1.3618 I-0.005 J-0.0002
G1 X0.0053 Y1.3592
G2 X0.0049 Y1.3577 I-0.005 J0.0004
G1 X0.0039 Y1.3552
G2 X0.0029 Y1.3536 I-0.0046 J0.0019
G1 X0.001 Y1.3517
G2 X-0.0001 Y1.3509 I-0.0036 J0.0035
G1 X-0.0024 Y1.3496
G2 X-0.0033 Y1.3492 I-0.0024 J0.0044
G1 X-0.0058 Y1.3483
G2 X-0.0065 Y1.3482 I-0.0016 J0.0048
G1 X-0.009 Y1.3477
G2 X-0.0098 Y1.3476 I-0.0009 J0.0049
G1 X-0.0123
G2 X-0.0136 Y1.3478 J0.005
G1 X-0.016 Y1.3484
G2 X-0.0176 Y1.3491 I0.0012 J0.0048
G1 X-0.0197 Y1.3505
G2 X-0.0209 Y1.3517 I0.0028 J0.0042
G1 X-0.0224 Y1.3537
G2 X-0.0228 Y1.3544 I0.004 J0.0029
G1 X-0.024 Y1.3567
G2 X-0.0242 Y1.3572 I0.0045 J0.0022
G1 X-0.0259 Y1.3619
X-0.026 Y1.3622
X-0.0275 Y1.367
Y1.3672
X-0.0288 Y1.3721
Y1.3722
X-0.0509 Y1.4629
X-0.0521 Y1.468
Y1.4682
X-0.0531 Y1.4734
Y1.4736
X-0.0538 Y1.4788
G2 X-0.0539 Y1.4793 I0.005 J0.0006
G1 Y1.482
G2 Y1.4828 I0.005 J0.0001
G1 X-0.0535 Y1.4854
G2 X-0.0529 Y1.4871 I0.0049 J-0.0007
G1 X-0.0517 Y1.4894
G2 X-0.0506 Y1.4907 I0.0044 J-0.0024
G1 X-0.0486 Y1.4924
G2 X-0.0475 Y1.4932 I0.0033 J-0.0038
G1 X-0.0451 Y1.4943
G2 X-0.0445 Y1.4946 I0.0021 J-0.0045
G1 X-0.042 Y1.4954
G2 X-0.0414 Y1.4955 I0.0015 J-0.0048
G1 X-0.039 Y1.496
G2 X-0.0382 I0.0009 J-0.0049
G1 X-0.0357 Y1.4961
G2 X-0.0345 Y1.496 I0.0001 J-0.005
G1 X-0.0321 Y1.4954
G2 X-0.0304 Y1.4946 I-0.0011 J-0.0049
G1 X-0.0284 Y1.4932
G2 X-0.0271 Y1.492 I-0.0029 J-0.0041
G1 X-0.0257 Y1.49
G2 X-0.0253 Y1.4892 I-0.0041 J-0.0028
G1 X-0.0243 Y1.487
G2 X-0.0241 Y1.4865 I-0.0045 J-0.0021
G1 X-0.0218 Y1.4796
X-0.0217 Y1.4793
X-0.0198 Y1.4722
Y1.4721
X-0.0127 Y1.443
X0.0376 Y1.4552
X0.0343 Y1.4689
X0.0319 Y1.4779
X0.0307 Y1.4818
G3 X0.0295 Y1.4824 I-0.001 J-0.0003
G1 X0.0285 Y1.4821
X0.0278 Y1.4819 Z0.0003
X0.0276 Y1.4818 Z0.001
G0 Z0.2
X0.2179 Y1.3924
G1 Z0.0394 F13.33
Z0.001
X0.2181 Y1.3927 Z0.0003
X0.2185 Y1.3932 Z0
X0.2192 Y1.3939 F40
G3 Y1.3953 I-0.0007 J0.0007
G1 X0.2006 Y1.4122
X0.0964 Y1.2976
X0.1326 Y1.2646
X0.2043 Y1.3434
X0.2098 Y1.3494
X0.21 Y1.3496
X0.2158 Y1.3553
X0.216 Y1.3555
X0.218 Y1.3573
G2 X0.2183 Y1.3575 I0.0033 J-0.0037
G1 X0.2204 Y1.3592
G2 X0.2213 Y1.3597 I0.003 J-0.004
G1 X0.2237 Y1.3609
G2 X0.2258 Y1.3614 I0.0022 J-0.0045
G1 X0.2286
G2 X0.2305 Y1.3611 I0.0001 J-0.005
G1 X0.233 Y1.36
G2 X0.2342 Y1.3594 I-0.0019 J-0.0046
G1 X0.2363 Y1.3577
G2 X0.2369 Y1.3572 I-0.003 J-0.004
G1 X0.2386 Y1.3554
G2 X0.2393 Y1.3545 I-0.0036 J-0.0034
G1 X0.2405 Y1.3524
G2 X0.2412 Y1.3505 I-0.0043 J-0.0025
G1 X0.2415 Y1.3481
G2 X0.2412 Y1.3456 I-0.005 J-0.0007
G1 X0.2404 Y1.3433
G2 X0.2399 Y1.3424 I-0.0047 J0.0018
G1 X0.2385 Y1.3403
X0.2384 Y1.34
X0.2369 Y1.3381
X0.2367 Y1.3379
X0.232 Y1.3322
X0.2319 Y1.332
X0.2269 Y1.3265
X0.1534 Y1.2457
X0.1896 Y1.2128
X0.264 Y1.2945
X0.2676 Y1.2985
X0.271 Y1.3025
X0.2743 Y1.3066
X0.2774 Y1.3107
X0.2802 Y1.3149
X0.2824 Y1.319
X0.2836 Y1.3231
X0.2839 Y1.3274
X0.2831 Y1.3332
X0.2811 Y1.3387
X0.2782 Y1.3439
X0.2744 Y1.3487
X0.27 Y1.3531
X0.2643 Y1.3576
X0.258 Y1.3611
X0.2513 Y1.3635
X0.2459 Y1.3643
X0.2403
X0.2345 Y1.3634
G2 X0.2303 Y1.372 I-0.0007 J0.0049
G1 X0.2374 Y1.3788
X0.2192 Y1.3953
G3 X0.2177 I-0.0007 J-0.0007
G1 X0.2171 Y1.3945
X0.2166 Y1.394 Z0.0003
X0.2164 Y1.3938 Z0.001
G0 Z0.2
X0.3307 Y1.1488
G1 Z0.0394 F13.33
Z0.001
Y1.1485 Z0.0003
X0.3308 Y1.1478 Z0
Y1.1468 F40
G3 X0.3319 Y1.1459 I0.001 J0.0001
G1 X0.3486 Y1.1475
X0.3488
X0.3566 Y1.1481
X0.357
X0.3648
G2 X0.3654 Y1.148 J-0.005
G1 X0.368 Y1.1477
G2 X0.3689 Y1.1475 I-0.0006 J-0.005
G1 X0.3714 Y1.1468
G2 X0.3729 Y1.146 I-0.0014 J-0.0048
G1 X0.375 Y1.1445
G2 X0.3762 Y1.1432 I-0.003 J-0.004
G1 X0.3777 Y1.141
G2 X0.3782 Y1.1398 I-0.0042 J-0.0027
G1 X0.379 Y1.1373
G2 X0.3792 Y1.1365 I-0.0048 J-0.0016
G1 X0.3796 Y1.1339
G2 X0.3797 Y1.1334 I-0.0049 J-0.0007
G1 X0.3798 Y1.1309
G2 X0.3797 Y1.1301 I-0.005 J-0.0002
G1 X0.3794 Y1.1277
G2 X0.3791 Y1.1265 I-0.005 J0.0006
G1 X0.3783 Y1.1242
G2 X0.3772 Y1.1226 I-0.0047 J0.0018
G1 X0.3756 Y1.1208
G2 X0.3741 Y1.1197 I-0.0037 J0.0034
G1 X0.3719 Y1.1187
G2 X0.3712 Y1.1184 I-0.0022 J0.0045
G1 X0.3688 Y1.1177
G2 X0.3683 Y1.1175 I-0.0014 J0.0048
G1 X0.361 Y1.1162
X0.3607
X0.3534 Y1.1154
X0.3533
X0.3233 Y1.1125
X0.3282 Y1.061
X0.3423 Y1.0624
X0.3516 Y1.0634
X0.3607 Y1.0649
X0.3696 Y1.0669
X0.3781 Y1.0698
X0.3828 Y1.0721
X0.3869 Y1.0751
X0.3905 Y1.0789
X0.3937 Y1.0832
X0.3964 Y1.0879
X0.3997 Y1.0955
X0.402 Y1.1035
X0.4035 Y1.1118
X0.4041 Y1.1202
Y1.1288
X0.4035 Y1.1373
X0.4023 Y1.1465
X0.4004 Y1.1554
X0.3977 Y1.164
X0.394 Y1.1722
X0.3905 Y1.1782
X0.3864 Y1.1838
X0.3816 Y1.1886
X0.3762 Y1.1927
X0.371 Y1.1955
X0.3654 Y1.1976
X0.3596 Y1.1986
X0.3534 Y1.1989
X0.3469 Y1.1988
X0.3404 Y1.1984
X0.3338 Y1.198
X0.3271 Y1.1974
X0.2685 Y1.1918
X0.259 Y1.1908
X0.2496 Y1.1893
X0.2404 Y1.1873
X0.2315 Y1.1846
X0.2265 Y1.1824
X0.2219 Y1.1796
X0.2179 Y1.1761
X0.2144 Y1.172
X0.2115 Y1.1674
X0.2081 Y1.1597
X0.2058 Y1.1515
X0.2044 Y1.143
X0.2037 Y1.1344
X0.2038 Y1.1256
X0.2043 Y1.1168
X0.2056 Y1.1076
X0.2076 Y1.0986
X0.2104 Y1.0899
X0.2142 Y1.0816
X0.2179 Y1.0757
X0.2222 Y1.0701
X0.2271 Y1.065
X0.2325 Y1.0609
X0.237 Y1.0585
X0.2421 Y1.057
X0.2476 Y1.0561
X0.2533 Y1.0556
X0.2591 Y1.0555
X0.2708 Y1.0558
X0.2825 Y1.0567
X0.2854 Y1.057
X0.2805 Y1.1085
X0.2603 Y1.1066
X0.2602
X0.2522 Y1.1059
X0.2519
X0.2439 Y1.1058
G2 X0.2434 Y1.1059 I-0.0001 J0.005
G1 X0.2407 Y1.1061
G2 X0.2401 Y1.1062 I0.0005 J0.005
G1 X0.2375 Y1.1068
G2 X0.236 Y1.1074 I0.0011 J0.0049
G1 X0.2338 Y1.1087
G2 X0.2324 Y1.11 I0.0026 J0.0043
G1 X0.2307 Y1.1121
G2 X0.23 Y1.1134 I0.004 J0.003
G1 X0.2291 Y1.1159
G2 X0.2288 Y1.1168 I0.0047 J0.0017
G1 X0.2284 Y1.1194
G2 X0.2283 Y1.1201 I0.0049 J0.0009
G1 X0.2282 Y1.1226
G2 X0.2283 Y1.1235 I0.005 J0.0002
G1 X0.2286 Y1.126
G2 X0.229 Y1.1272 I0.0049 J-0.0007
G1 X0.2299 Y1.1295
G2 X0.2309 Y1.131 I0.0046 J-0.0019
G1 X0.2326 Y1.1328
G2 X0.234 Y1.1339 I0.0036 J-0.0034
G1 X0.2362 Y1.135
G2 X0.237 Y1.1353 I0.0023 J-0.0044
G1 X0.2394 Y1.1361
G2 X0.2399 Y1.1362 I0.0015 J-0.0048
G1 X0.2474 Y1.1377
X0.2477
X0.2552 Y1.1386
X0.2553 Y1.1387
X0.3319 Y1.1459
G3 X0.3328 Y1.147 I-0.0001 J0.001
G1 X0.3327 Y1.148
Y1.1487 Z0.0003
Y1.149 Z0.001
G0 Z0.2
X0.7421 Y1.1921
G1 Z0.0394 F13.33
Z0.001
Y1.1924 Z0.0003
Y1.1931 Z0
Y1.1941 F40
G3 X0.741 Y1.195 I-0.001
G1 X0.7397
X0.7324 Y1.194
X0.7255 Y1.192
X0.7207 Y1.1895
X0.7162 Y1.1861
X0.7123 Y1.1821
X0.7092 Y1.1774
X0.7067 Y1.1724
X0.7043 Y1.1642
X0.7027 Y1.1555
X0.7014 Y1.1466
X0.7003 Y1.1376
X0.6993 Y1.1285
X0.6984 Y1.1194
X0.6976 Y1.1103
X0.6944 Y1.0718
X0.8853 Y1.0558
X0.8897 Y1.1072
X0.804 Y1.1144
G2 X0.7995 Y1.12 I0.0004 J0.005
G1 X0.8001 Y1.1246
G2 Y1.125 I0.005 J-0.0006
G1 X0.8011 Y1.1296
G2 X0.8012 Y1.1302 I0.0049 J-0.001
G1 X0.802 Y1.1324
G2 X0.8023 Y1.1331 I0.0047 J-0.0016
G1 X0.8033 Y1.1351
G2 X0.804 Y1.1361 I0.0044 J-0.0023
G1 X0.8056 Y1.1379
G2 X0.8071 Y1.1391 I0.0037 J-0.0033
G1 X0.8092 Y1.1401
G2 X0.8105 Y1.1405 I0.0022 J-0.0045
G1 X0.8151 Y1.1413
G2 X0.8158 Y1.1414 I0.0009 J-0.0049
G1 X0.8205 Y1.1415
X0.8207
X0.8254 Y1.1414
X0.8256
X0.8302 Y1.1411
X0.8303
X0.8921 Y1.1359
X0.896 Y1.183
X0.848 Y1.187
X0.8424 Y1.1875
X0.8368 Y1.1879
X0.8312 Y1.1882
X0.8257 Y1.1883
X0.8207 Y1.1882
X0.8164 Y1.187
X0.8124 Y1.1846
X0.8083 Y1.1813
X0.8052 Y1.1772
X0.8026 Y1.1722
X0.8004 Y1.1667
X0.7985 Y1.1609
G2 X0.7887 Y1.1624 I-0.0048 J0.0015
G1 X0.7886 Y1.1672
X0.7883 Y1.1719
X0.7876 Y1.1763
X0.7864 Y1.1804
X0.7847 Y1.1841
X0.7825 Y1.187
X0.7795 Y1.1891
X0.774 Y1.1914
X0.7679 Y1.193
X0.7615 Y1.1941
X0.755 Y1.1948
X0.7473 Y1.1952
X0.741 Y1.195
G3 X0.7401 Y1.194 J-0.001
G1 Y1.193
Y1.1923 Z0.0003
Y1.192 Z0.001
X0.7418 Y1.1513
Y1.151 Z0.0003 F13.33
X0.7417 Y1.1503 Z0
Y1.1493 F40
G3 X0.7427 Y1.1483 I0.001
G1 X0.7458 Y1.1482
X0.7461
X0.7571 Y1.1472
X0.7573
X0.7622 Y1.1466
G2 X0.7627 Y1.1465 I-0.0006 J-0.005
G1 X0.7676 Y1.1454
G2 X0.7683 Y1.1452 I-0.0011 J-0.0049
G1 X0.7707 Y1.1442
G2 X0.7717 Y1.1437 I-0.0019 J-0.0046
G1 X0.7739 Y1.1422
G2 X0.7753 Y1.1407 I-0.0029 J-0.0041
G1 X0.7766 Y1.1385
G2 X0.7773 Y1.1369 I-0.0042 J-0.0026
G1 X0.7782 Y1.1323
G2 X0.7783 Y1.1315 I-0.0049 J-0.001
G1 X0.7785 Y1.1268
G2 Y1.1264 I-0.005 J-0.0002
G1 X0.7782 Y1.1218
G2 X0.7728 Y1.117 I-0.005 J0.0003
G1 X0.7281 Y1.1208
G2 X0.7236 Y1.1264 I0.0004 J0.005
G1 X0.7241 Y1.1309
G2 X0.7242 Y1.1313 I0.005 J-0.0006
G1 X0.7252 Y1.1357
G2 X0.7253 Y1.1364 I0.0049 J-0.001
G1 X0.7261 Y1.1386
G2 X0.7264 Y1.1392 I0.0047 J-0.0017
G1 X0.7275 Y1.1413
G2 X0.7281 Y1.1423 I0.0045 J-0.0023
G1 X0.7296 Y1.1441
G2 X0.731 Y1.1452 I0.0038 J-0.0032
G1 X0.7337 Y1.1468
G2 X0.7351 Y1.1473 I0.0025 J-0.0043
G1 X0.7382 Y1.148
G2 X0.739 Y1.1481 I0.0011 J-0.0049
G1 X0.7422 Y1.1483
G2 X0.7427 I0.0003 J-0.005
G3 X0.7437 Y1.1492 J0.001
G1 Y1.1502
X0.7438 Y1.151 Z0.0003
Y1.1512 Z0.001
G0 Z0.2
X0.8871 Y1.3098
G1 Z0.0394 F13.33
Z0.001
X0.8874 Y1.3099 Z0.0003
X0.8881 Y1.3101 Z0
X0.8891 Y1.3103 F40
G3 X0.8898 Y1.3115 I-0.0002 J0.001
G2 X0.8913 Y1.3165 I0.0048 J0.0012
G1 X0.8948 Y1.3196
G2 X0.8952 Y1.3199 I0.0033 J-0.0038
G1 X0.899 Y1.3226
G2 X0.8995 Y1.3229 I0.0029 J-0.0041
G1 X0.9022 Y1.3244
G2 X0.9034 Y1.3248 I0.0023 J-0.0044
G1 X0.9064 Y1.3255
G2 X0.9086 Y1.3256 I0.0012 J-0.0049
G1 X0.9116 Y1.325
G2 X0.9132 Y1.3243 I-0.001 J-0.0049
G1 X0.9171 Y1.3218
G2 X0.9177 Y1.3214 I-0.0027 J-0.0042
G1 X0.9212 Y1.3184
X0.9215 Y1.3182
X0.9248 Y1.315
X0.9249 Y1.3149
X0.9281 Y1.3115
X0.9282
X0.9701 Y1.2663
X1.0046 Y1.2983
X0.972 Y1.3334
X0.9681 Y1.3375
X0.9643 Y1.3416
X0.9603 Y1.3455
X0.9564 Y1.3493
X0.9527 Y1.3525
X0.9487 Y1.3545
X0.9442 Y1.3555
X0.9389 Y1.3558
X0.9338 Y1.3549
X0.9286 Y1.353
X0.9234 Y1.3504
X0.9181 Y1.3474
G2 X0.9119 Y1.355 I-0.0025 J0.0043
G1 X0.915 Y1.3586
X0.9178 Y1.3623
X0.9203 Y1.3661
X0.9223 Y1.3699
X0.9235 Y1.3737
X0.9237 Y1.3773
X0.9229 Y1.381
X0.9211 Y1.3852
X0.9185 Y1.3894
X0.9155 Y1.3936
X0.9122 Y1.3976
X0.9087 Y1.4015
X0.9033 Y1.4069
X0.8976 Y1.4118
X0.8916 Y1.416
X0.8852 Y1.4191
X0.8799 Y1.4206
X0.8744 Y1.421
X0.8688 Y1.4206
X0.8633 Y1.4193
X0.8582 Y1.4172
X0.8509 Y1.4128
X0.8439 Y1.4075
X0.837 Y1.4018
X0.8301 Y1.3959
X0.8233 Y1.3899
X0.8166 Y1.3838
X0.8099 Y1.3776
X0.7817 Y1.3514
X0.9115 Y1.2118
X0.9491 Y1.2468
X0.891 Y1.3094
G2 X0.8898 Y1.3115 I0.0037 J0.0034
G3 X0.8886 Y1.3123 I-0.001 J-0.0002
G1 X0.8876 Y1.312
X0.8869 Y1.3118 Z0.0003
X0.8866 Z0.001
X0.8718 Y1.3277
X0.8719 Y1.328 Z0.0003 F13.33
X0.8721 Y1.3287 Z0
X0.8724 Y1.3296 F40
G3 X0.8718 Y1.3309 I-0.0009 J0.0003
G2 X0.8697 Y1.3322 I0.0016 J0.0047
G1 X0.8393 Y1.3649
G2 X0.8397 Y1.3721 I0.0037 J0.0034
G1 X0.8431 Y1.3751
G2 X0.8435 Y1.3753 I0.0033 J-0.0038
G1 X0.8472 Y1.378
G2 X0.8477 Y1.3783 I0.0029 J-0.0041
G1 X0.8498 Y1.3794
G2 X0.8504 Y1.3797 I0.0024 J-0.0044
G1 X0.8526 Y1.3805
G2 X0.8538 Y1.3808 I0.0018 J-0.0047
G1 X0.8561 Y1.3811
G2 X0.8578 Y1.381 I0.0006 J-0.005
G1 X0.8609 Y1.3803
G2 X0.8622 Y1.3798 I-0.0011 J-0.0049
G1 X0.865 Y1.3783
G2 X0.8657 Y1.3778 I-0.0024 J-0.0044
G1 X0.8682 Y1.3758
G2 X0.8686 Y1.3755 I-0.0031 J-0.0039
G1 X0.8708 Y1.3732
X0.8709 Y1.3731
X0.8784 Y1.365
X0.8785
X0.8801 Y1.3631
X0.8803 Y1.363
X0.8819 Y1.361
X0.8821 Y1.3608
X0.8836 Y1.3587
X0.8838 Y1.3584
X0.8851 Y1.3563
G2 X0.8854 Y1.3558 I-0.0042 J-0.0027
G1 X0.8865 Y1.3535
G2 X0.8869 Y1.3524 I-0.0045 J-0.0022
G1 X0.8874 Y1.3499
G2 Y1.348 I-0.0049 J-0.0011
G1 X0.887 Y1.3455
G2 X0.8864 Y1.344 I-0.0049 J0.0009
G1 X0.8847 Y1.3409
G2 X0.8843 Y1.3403 I-0.0044 J0.0024
G1 X0.8822 Y1.3376
G2 X0.8819 Y1.3372 I-0.004 J0.0031
G1 X0.8795 Y1.3347
X0.8794 Y1.3345
X0.8769 Y1.3321
G2 X0.8718 Y1.3309 I-0.0035 J0.0036
G3 X0.8705 Y1.3303 I-0.0003 J-0.0009
G1 X0.8702 Y1.3293
X0.87 Y1.3287 Z0.0003
X0.8699 Y1.3284 Z0.001
G0 Z0.2
X1.0642 Y1.3882
G1 Z0.0394 F13.33
Z0.001
X1.0645 Y1.3883 Z0.0003
X1.0652 Y1.3885 Z0
X1.0661 Y1.3887 F40
G3 X1.0669 Y1.3899 I-0.0002 J0.001
G1 X1.0491 Y1.4629
X1.0479 Y1.468
Y1.4682
X1.0469 Y1.4734
Y1.4736
X1.0462 Y1.4788
G2 X1.0461 Y1.4793 I0.005 J0.0006
G1 Y1.482
G2 Y1.4828 I0.005 J0.0001
G1 X1.0465 Y1.4854
G2 X1.0471 Y1.4871 I0.0049 J-0.0007
G1 X1.0483 Y1.4894
G2 X1.0494 Y1.4907 I0.0044 J-0.0024
G1 X1.0514 Y1.4924
G2 X1.0525 Y1.4932 I0.0033 J-0.0038
G1 X1.0549 Y1.4943
G2 X1.0555 Y1.4946 I0.0022 J-0.0045
G1 X1.058 Y1.4954
G2 X1.0586 Y1.4955 I0.0015 J-0.0048
G1 X1.061 Y1.496
G2 X1.0618 I0.0009 J-0.0049
G1 X1.0643 Y1.4961
G2 X1.0655 Y1.496 I0.0001 J-0.005
G1 X1.0679 Y1.4954
G2 X1.0696 Y1.4946 I-0.0011 J-0.0049
G1 X1.0716 Y1.4932
G2 X1.0729 Y1.492 I-0.0029 J-0.0041
G1 X1.0743 Y1.49
G2 X1.0747 Y1.4892 I-0.0041 J-0.0028
G1 X1.0757 Y1.487
G2 X1.0759 Y1.4865 I-0.0045 J-0.0021
G1 X1.0782 Y1.4796
X1.0783 Y1.4793
X1.0802 Y1.4722
Y1.4721
X1.0873 Y1.443
X1.1376 Y1.4552
X1.1343 Y1.4689
X1.1319 Y1.4779
X1.1291 Y1.4867
X1.1259 Y1.4952
X1.1219 Y1.5031
X1.118 Y1.5084
X1.1132 Y1.5127
X1.1075 Y1.516
X1.1012 Y1.5186
X1.0916 Y1.521
X1.0816 Y1.522
X1.0715 Y1.5218
X1.0614 Y1.5205
X1.0513 Y1.5185
X1.0425 Y1.5159
X1.0339 Y1.5128
X1.0258 Y1.5088
X1.0182 Y1.5041
X1.0127 Y1.4998
X1.0078 Y1.4949
X1.0037 Y1.4895
X1.0005 Y1.4836
X0.9981 Y1.4771
X0.9969 Y1.4706
X0.9971 Y1.4637
X0.9981 Y1.4565
X0.9995 Y1.4492
X1.001 Y1.4418
X1.0028 Y1.4344
X1.0167 Y1.3774
X1.0191 Y1.3682
X1.0219 Y1.3591
X1.0252 Y1.3503
X1.0292 Y1.342
X1.0321 Y1.3373
X1.0355 Y1.3332
X1.0395 Y1.3298
X1.0441 Y1.327
X1.0491 Y1.3248
X1.0572 Y1.3225
X1.0656 Y1.3214
X1.0742 Y1.3212
X1.0829 Y1.3219
X1.0916 Y1.3232
X1.1002 Y1.325
X1.1091 Y1.3276
X1.1177 Y1.3308
X1.1259 Y1.3348
X1.1335 Y1.3398
X1.1389 Y1.3443
X1.1438 Y1.3494
X1.1481 Y1.3549
X1.1514 Y1.3608
X1.1532 Y1.3657
X1.154 Y1.3709
X1.1541 Y1.3764
X1.1537 Y1.3821
X1.153 Y1.3878
X1.151 Y1.3994
X1.1484 Y1.4108
X1.1478 Y1.4135
X1.0975 Y1.4013
X1.1023 Y1.3816
X1.1035 Y1.3764
Y1.3763
X1.1045 Y1.3711
X1.1046 Y1.3708
X1.1053 Y1.3655
G2 X1.1054 Y1.3651 I-0.005 J-0.0007
G1 X1.1055 Y1.3624
G2 Y1.3618 I-0.005 J-0.0002
G1 X1.1053 Y1.3592
G2 X1.1049 Y1.3577 I-0.005 J0.0004
G1 X1.1039 Y1.3552
G2 X1.1029 Y1.3536 I-0.0046 J0.0019
G1 X1.101 Y1.3517
G2 X1.0999 Y1.3509 I-0.0036 J0.0035
G1 X1.0976 Y1.3496
G2 X1.0967 Y1.3492 I-0.0024 J0.0044
G1 X1.0942 Y1.3483
G2 X1.0935 Y1.3482 I-0.0016 J0.0048
G1 X1.091 Y1.3477
G2 X1.0902 Y1.3476 I-0.0009 J0.0049
G1 X1.0877
G2 X1.0864 Y1.3478 J0.005
G1 X1.084 Y1.3484
G2 X1.0824 Y1.3491 I0.0012 J0.0048
G1 X1.0803 Y1.3505
G2 X1.0791 Y1.3517 I0.0028 J0.0042
G1 X1.0776 Y1.3537
G2 X1.0772 Y1.3544 I0.004 J0.0029
G1 X1.076 Y1.3567
G2 X1.0758 Y1.3572 I0.0045 J0.0022
G1 X1.0741 Y1.3619
X1.074 Y1.3622
X1.0725 Y1.367
Y1.3672
X1.0712 Y1.3721
Y1.3722
X1.0669 Y1.3899
G3 X1.0657 Y1.3907 I-0.001 J-0.0002
G1 X1.0647 Y1.3904
X1.064 Y1.3903 Z0.0003
X1.0637 Y1.3902 Z0.001
G0 Z0.2
X1.3179 Y1.3924
G1 Z0.0394 F13.33
Z0.001
X1.3181 Y1.3926 Z0.0003
X1.3185 Y1.3932 Z0
X1.3192 Y1.3939 F40
G3 Y1.3953 I-0.0007 J0.0007
G1 X1.3006 Y1.4122
X1.1964 Y1.2976
X1.2326 Y1.2646
X1.3043 Y1.3434
X1.3098 Y1.3494
X1.31 Y1.3496
X1.3158 Y1.3553
X1.316 Y1.3555
X1.318 Y1.3573
G2 X1.3183 Y1.3575 I0.0033 J-0.0037
G1 X1.3204 Y1.3592
G2 X1.3213 Y1.3597 I0.003 J-0.004
G1 X1.3237 Y1.3609
G2 X1.3258 Y1.3614 I0.0022 J-0.0045
G1 X1.3286
G2 X1.3305 Y1.3611 I0.0001 J-0.005
G1 X1.333 Y1.36
G2 X1.3342 Y1.3594 I-0.0019 J-0.0046
G1 X1.3363 Y1.3577
G2 X1.3369 Y1.3572 I-0.003 J-0.004
G1 X1.3386 Y1.3554
G2 X1.3393 Y1.3545 I-0.0036 J-0.0034
G1 X1.3405 Y1.3524
G2 X1.3412 Y1.3505 I-0.0043 J-0.0025
G1 X1.3415 Y1.3481
G2 X1.3412 Y1.3456 I-0.005 J-0.0007
G1 X1.3404 Y1.3433
G2 X1.3399 Y1.3423 I-0.0047 J0.0018
G1 X1.3385 Y1.3403
X1.3384 Y1.34
X1.3369 Y1.3381
X1.3367 Y1.3379
X1.332 Y1.3322
X1.3319 Y1.332
X1.3269 Y1.3265
X1.2534 Y1.2457
X1.2896 Y1.2128
X1.364 Y1.2945
X1.3676 Y1.2985
X1.371 Y1.3025
X1.3743 Y1.3066
X1.3774 Y1.3107
X1.3802 Y1.3149
X1.3824 Y1.319
X1.3836 Y1.3231
X1.3839 Y1.3274
X1.3831 Y1.3332
X1.3811 Y1.3387
X1.3782 Y1.3439
X1.3744 Y1.3487
X1.37 Y1.3531
X1.3643 Y1.3576
X1.358 Y1.3611
X1.3513 Y1.3635
X1.3459 Y1.3643
X1.3403
X1.3345 Y1.3634
G2 X1.3303 Y1.372 I-0.0007 J0.0049
G1 X1.3374 Y1.3788
X1.3192 Y1.3953
G3 X1.3177 I-0.0007 J-0.0007
G1 X1.3171 Y1.3945
X1.3166 Y1.394 Z0.0003
X1.3164 Y1.3938 Z0.001
G0 Z0.2
X1.4307 Y1.1488
G1 Z0.0394 F13.33
Z0.001
Y1.1485 Z0.0003
X1.4308 Y1.1478 Z0
Y1.1468 F40
G3 X1.4319 Y1.1459 I0.001 J0.0001
G1 X1.4486 Y1.1475
X1.4487
X1.4566 Y1.1481
X1.457
X1.4648
G2 X1.4654 Y1.148 J-0.005
G1 X1.468 Y1.1477
G2 X1.4689 Y1.1475 I-0.0006 J-0.005
G1 X1.4714 Y1.1468
G2 X1.4729 Y1.146 I-0.0014 J-0.0048
G1 X1.475 Y1.1445
G2 X1.4762 Y1.1432 I-0.003 J-0.004
G1 X1.4777 Y1.141
G2 X1.4782 Y1.1398 I-0.0042 J-0.0027
G1 X1.479 Y1.1373
G2 X1.4792 Y1.1365 I-0.0048 J-0.0016
G1 X1.4796 Y1.1339
G2 X1.4797 Y1.1334 I-0.0049 J-0.0007
G1 X1.4798 Y1.1309
G2 X1.4797 Y1.1301 I-0.005 J-0.0002
G1 X1.4794 Y1.1277
G2 X1.4791 Y1.1265 I-0.005 J0.0006
G1 X1.4783 Y1.1242
G2 X1.4772 Y1.1226 I-0.0047 J0.0018
G1 X1.4756 Y1.1208
G2 X1.4741 Y1.1197 I-0.0037 J0.0034
G1 X1.4719 Y1.1187
G2 X1.4712 Y1.1184 I-0.0022 J0.0045
G1 X1.4688 Y1.1177
G2 X1.4683 Y1.1175 I-0.0014 J0.0048
G1 X1.461 Y1.1162
X1.4607
X1.4534 Y1.1154
X1.4533
X1.4233 Y1.1125
X1.4282 Y1.061
X1.4423 Y1.0624
X1.4516 Y1.0634
X1.4607 Y1.0649
X1.4696 Y1.0669
X1.4781 Y1.0698
X1.4828 Y1.0721
X1.4869 Y1.0751
X1.4905 Y1.0789
X1.4937 Y1.0832
X1.4964 Y1.0879
X1.4997 Y1.0955
X1.502 Y1.1035
X1.5035 Y1.1118
X1.5041 Y1.1202
Y1.1288
X1.5035 Y1.1373
X1.5023 Y1.1465
X1.5004 Y1.1554
X1.4977 Y1.164
X1.494 Y1.1722
X1.4905 Y1.1782
X1.4864 Y1.1838
X1.4816 Y1.1886
X1.4762 Y1.1927
X1.471 Y1.1955
X1.4654 Y1.1976
X1.4596 Y1.1986
X1.4534 Y1.1989
X1.4469 Y1.1988
X1.4404 Y1.1984
X1.4338 Y1.198
X1.4271 Y1.1974
X1.3685 Y1.1918
X1.359 Y1.1908
X1.3496 Y1.1893
X1.3404 Y1.1873
X1.3315 Y1.1846
X1.3265 Y1.1824
X1.3219 Y1.1796
X1.3179 Y1.1761
X1.3144 Y1.172
X1.3115 Y1.1674
X1.3081 Y1.1597
X1.3058 Y1.1515
X1.3044 Y1.143
X1.3037 Y1.1344
X1.3038 Y1.1256
X1.3043 Y1.1168
X1.3056 Y1.1076
X1.3076 Y1.0986
X1.3104 Y1.0899
X1.3142 Y1.0816
X1.3179 Y1.0757
X1.3222 Y1.0701
X1.3271 Y1.065
X1.3325 Y1.0609
X1.337 Y1.0585
X1.3421 Y1.057
X1.3476 Y1.0561
X1.3533 Y1.0556
X1.3591 Y1.0555
X1.3708 Y1.0558
X1.3825 Y1.0567
X1.3854 Y1.057
X1.3805 Y1.1085
X1.3603 Y1.1066
X1.3602
X1.3522 Y1.1059
X1.3519
X1.3439 Y1.1058
G2 X1.3434 Y1.1059 I-0.0001 J0.005
G1 X1.3407 Y1.1061
G2 X1.3401 Y1.1062 I0.0005 J0.005
G1 X1.3375 Y1.1068
G2 X1.336 Y1.1074 I0.0011 J0.0049
G1 X1.3338 Y1.1087
G2 X1.3324 Y1.11 I0.0026 J0.0043
G1 X1.3307 Y1.1121
G2 X1.33 Y1.1134 I0.004 J0.0031
G1 X1.3291 Y1.1159
G2 X1.3288 Y1.1168 I0.0047 J0.0017
G1 X1.3284 Y1.1194
G2 X1.3283 Y1.1201 I0.0049 J0.0009
G1 X1.3282 Y1.1226
G2 X1.3283 Y1.1235 I0.005 J0.0002
G1 X1.3286 Y1.126
G2 X1.329 Y1.1272 I0.0049 J-0.0007
G1 X1.3299 Y1.1295
G2 X1.3309 Y1.131 I0.0046 J-0.0019
G1 X1.3326 Y1.1328
G2 X1.334 Y1.1339 I0.0036 J-0.0034
G1 X1.3362 Y1.135
G2 X1.337 Y1.1353 I0.0023 J-0.0044
G1 X1.3394 Y1.1361
G2 X1.3399 Y1.1362 I0.0015 J-0.0048
G1 X1.3474 Y1.1377
X1.3477
X1.3552 Y1.1386
X1.3553 Y1.1387
X1.4319 Y1.1459
G3 X1.4328 Y1.147 I-0.0001 J0.001
G1 X1.4327 Y1.148
Y1.1487 Z0.0003
Y1.149 Z0.001
G0 Z0.2
X1.1654 Y0.3502
G1 Z0.0394 F13.33
Z0.001
X1.1657 Z0.0003
X1.1664 Z0
X1.1674 Y0.3503 F40
G3 X1.1684 Y0.3513 I-0.0001 J0.001
G1 X1.1683 Y0.3529
X1.1676 Y0.3601
X1.1665 Y0.3671
X1.1647 Y0.3737
X1.1621 Y0.3796
X1.1583 Y0.3847
X1.1535 Y0.3892
X1.148 Y0.3929
X1.1392 Y0.3974
X1.1299 Y0.4005
X1.1201 Y0.4026
X1.1101 Y0.4037
X1.0999 Y0.404
X1.0907 Y0.4037
X1.0817 Y0.4027
X1.0728 Y0.4008
X1.0643 Y0.3979
X1.058 Y0.395
X1.0521 Y0.3915
X1.0469 Y0.3872
X1.0423 Y0.3822
X1.0385 Y0.3765
X1.0358 Y0.3704
X1.0343 Y0.3637
X1.0336 Y0.3565
X1.0332 Y0.349
X1.033 Y0.3415
X1.0329 Y0.3339
Y0.2753
X1.033 Y0.2657
X1.0336 Y0.2562
X1.0347 Y0.2469
X1.0366 Y0.2378
X1.0383 Y0.2326
X1.0407 Y0.2278
X1.0438 Y0.2235
X1.0476 Y0.2197
X1.052 Y0.2164
X1.0593 Y0.2124
X1.0672 Y0.2093
X1.0755 Y0.2071
X1.0841 Y0.2057
X1.0928 Y0.2049
X1.1016 Y0.2046
X1.111 Y0.205
X1.1203 Y0.2062
X1.1293 Y0.2083
X1.1379 Y0.2114
X1.1442 Y0.2147
X1.1502 Y0.2186
X1.1556 Y0.2231
X1.1601 Y0.2283
X1.1629 Y0.2328
X1.1648 Y0.2378
X1.1662 Y0.2433
X1.1672 Y0.249
X1.1678 Y0.2549
X1.1686 Y0.2667
X1.1688 Y0.2787
Y0.2817
X1.1176
Y0.2598
Y0.2597
X1.1174 Y0.2512
Y0.2509
X1.1167 Y0.2425
G2 Y0.242 I-0.005 J0.0004
G1 X1.1162 Y0.2393
G2 X1.116 Y0.2386 I-0.0049 J0.0009
G1 X1.1152 Y0.2359
G2 X1.1145 Y0.2346 I-0.0048 J0.0015
G1 X1.1129 Y0.2323
G2 X1.1115 Y0.2309 I-0.0041 J0.0029
G1 X1.1092 Y0.2294
G2 X1.1078 Y0.2288 I-0.0028 J0.0042
G1 X1.1051 Y0.228
G2 X1.1041 Y0.2278 I-0.0014 J0.0048
G1 X1.1013 Y0.2276
G2 X1.1006 I-0.0004 J0.005
G1 X1.098 Y0.2278
G2 X1.0973 Y0.2279 I0.0003 J0.005
G1 X1.0948 Y0.2284
G2 X1.0936 Y0.2288 I0.001 J0.0049
G1 X1.0913 Y0.2299
G2 X1.0899 Y0.2309 I0.0022 J0.0045
G1 X1.0881 Y0.2327
G2 X1.0871 Y0.2342 I0.0036 J0.0035
G1 X1.0861 Y0.2365
G2 X1.0857 Y0.2375 I0.0045 J0.0021
G1 X1.0852 Y0.24
G2 X1.0851 Y0.2405 I0.0049 J0.0011
G1 X1.0844 Y0.2456
Y0.246
X1.0842 Y0.2511
Y0.2513
X1.0841 Y0.2564
Y0.2565
Y0.3513
Y0.3514
X1.0843 Y0.3594
G2 Y0.3598 I0.005 J-0.0001
G1 X1.0851 Y0.3678
G2 X1.0852 Y0.3684 I0.005 J-0.0005
G1 X1.0858 Y0.371
G2 X1.0861 Y0.372 I0.0049 J-0.0011
G1 X1.0872 Y0.3745
G2 X1.0882 Y0.3759 I0.0046 J-0.0021
G1 X1.0901 Y0.3778
G2 X1.0915 Y0.3788 I0.0035 J-0.0035
G1 X1.094 Y0.3799
G2 X1.0951 Y0.3803 I0.0021 J-0.0045
G1 X1.0977 Y0.3808
G2 X1.0984 Y0.3809 I0.001 J-0.0049
G1 X1.1011 Y0.3811
G2 X1.1016 I0.0003 J-0.005
G1 X1.1041 Y0.381
G2 X1.1047 Y0.3809 I-0.0002 J-0.005
G1 X1.1071 Y0.3805
G2 X1.1082 Y0.3801 I-0.0009 J-0.0049
G1 X1.1104 Y0.3791
G2 X1.1118 Y0.3782 I-0.002 J-0.0046
G1 X1.1136 Y0.3765
G2 X1.1147 Y0.375 I-0.0034 J-0.0036
G1 X1.1157 Y0.3728
G2 X1.116 Y0.3719 I-0.0046 J-0.0021
G1 X1.1166 Y0.3695
G2 X1.1167 Y0.3688 I-0.0049 J-0.0012
G1 X1.1174 Y0.3616
Y0.3612
X1.1176 Y0.3539
Y0.3538
Y0.3246
X1.1688
Y0.3382
X1.1687 Y0.3456
X1.1684 Y0.3513
G3 X1.1673 Y0.3523 I-0.001 J-0.0001
G1 X1.1663 Y0.3522
X1.1656 Z0.0003
X1.1653 Z0.001
G0 Z0.2
X1.3179 Y0.2924
G1 Z0.0394 F13.33
Z0.001
X1.3181 Y0.2926 Z0.0003
X1.3185 Y0.2932 Z0
X1.3192 Y0.2939 F40
G3 Y0.2953 I-0.0007 J0.0007
G1 X1.3006 Y0.3122
X1.1964 Y0.1976
X1.2326 Y0.1646
X1.3043 Y0.2434
X1.3098 Y0.2494
X1.31 Y0.2496
X1.3158 Y0.2553
X1.316 Y0.2555
X1.318 Y0.2573
G2 X1.3183 Y0.2575 I0.0033 J-0.0037
G1 X1.3204 Y0.2592
G2 X1.3213 Y0.2597 I0.003 J-0.004
G1 X1.3237 Y0.2609
G2 X1.3259 Y0.2614 I0.0022 J-0.0045
G1 X1.3286
G2 X1.3305 Y0.2611 I0.0001 J-0.005
G1 X1.333 Y0.26
G2 X1.3342 Y0.2594 I-0.0019 J-0.0046
G1 X1.3363 Y0.2577
G2 X1.3369 Y0.2572 I-0.003 J-0.004
G1 X1.3386 Y0.2554
G2 X1.3393 Y0.2545 I-0.0036 J-0.0034
G1 X1.3405 Y0.2524
G2 X1.3412 Y0.2505 I-0.0043 J-0.0025
G1 X1.3415 Y0.2481
G2 X1.3412 Y0.2456 I-0.005 J-0.0007
G1 X1.3404 Y0.2433
G2 X1.3399 Y0.2424 I-0.0047 J0.0018
G1 X1.3385 Y0.2403
X1.3384 Y0.24
X1.3369 Y0.2381
X1.3367 Y0.2379
X1.332 Y0.2322
X1.3319 Y0.232
X1.3269 Y0.2265
X1.2534 Y0.1457
X1.2896 Y0.1128
X1.364 Y0.1945
X1.3676 Y0.1985
X1.371 Y0.2025
X1.3743 Y0.2066
X1.3774 Y0.2107
X1.3802 Y0.2149
X1.3824 Y0.219
X1.3836 Y0.2231
X1.3839 Y0.2274
X1.3831 Y0.2332
X1.3811 Y0.2387
X1.3782 Y0.2439
X1.3744 Y0.2487
X1.37 Y0.2531
X1.3643 Y0.2576
X1.358 Y0.2611
X1.3513 Y0.2635
X1.3459 Y0.2643
X1.3403
X1.3345 Y0.2634
G2 X1.3303 Y0.272 I-0.0007 J0.0049
G1 X1.3374 Y0.2788
X1.3192 Y0.2953
G3 X1.3177 I-0.0007 J-0.0007
G1 X1.3171 Y0.2945
X1.3166 Y0.294 Z0.0003
X1.3164 Y0.2938 Z0.001
G0 Z0.2
X1.4307 Y0.0488
G1 Z0.0394 F13.33
Z0.001
Y0.0485 Z0.0003
X1.4308 Y0.0478 Z0
Y0.0468 F40
G3 X1.4319 Y0.0459 I0.001 J0.0001
G1 X1.4486 Y0.0475
X1.4487
X1.4566 Y0.0481
X1.457
X1.4648
G2 X1.4654 Y0.048 J-0.005
G1 X1.468 Y0.0477
G2 X1.4689 Y0.0475 I-0.0006 J-0.005
G1 X1.4714 Y0.0468
G2 X1.4729 Y0.046 I-0.0014 J-0.0048
G1 X1.475 Y0.0445
G2 X1.4762 Y0.0432 I-0.003 J-0.004
G1 X1.4777 Y0.041
G2 X1.4782 Y0.0398 I-0.0042 J-0.0027
G1 X1.479 Y0.0373
G2 X1.4792 Y0.0365 I-0.0048 J-0.0016
G1 X1.4796 Y0.0339
G2 X1.4797 Y0.0334 I-0.0049 J-0.0007
G1 X1.4798 Y0.0309
G2 X1.4797 Y0.0301 I-0.005 J-0.0002
G1 X1.4794 Y0.0277
G2 X1.4791 Y0.0265 I-0.005 J0.0006
G1 X1.4783 Y0.0242
G2 X1.4772 Y0.0226 I-0.0047 J0.0018
G1 X1.4756 Y0.0208
G2 X1.4741 Y0.0197 I-0.0037 J0.0034
G1 X1.4719 Y0.0187
G2 X1.4712 Y0.0184 I-0.0022 J0.0045
G1 X1.4688 Y0.0177
G2 X1.4683 Y0.0175 I-0.0014 J0.0048
G1 X1.461 Y0.0162
X1.4607
X1.4534 Y0.0154
X1.4533
X1.4233 Y0.0125
X1.4282 Y-0.039
X1.4423 Y-0.0376
X1.4516 Y-0.0366
X1.4607 Y-0.0351
X1.4696 Y-0.0331
X1.4781 Y-0.0302
X1.4828 Y-0.0279
X1.4869 Y-0.0249
X1.4905 Y-0.0211
X1.4937 Y-0.0168
X1.4964 Y-0.0121
X1.4997 Y-0.0045
X1.502 Y0.0035
X1.5035 Y0.0118
X1.5041 Y0.0202
Y0.0288
X1.5035 Y0.0373
X1.5023 Y0.0465
X1.5004 Y0.0554
X1.4977 Y0.064
X1.494 Y0.0722
X1.4905 Y0.0782
X1.4864 Y0.0838
X1.4816 Y0.0886
X1.4762 Y0.0927
X1.471 Y0.0955
X1.4654 Y0.0976
X1.4596 Y0.0986
X1.4534 Y0.0989
X1.4469 Y0.0988
X1.4404 Y0.0984
X1.4338 Y0.098
X1.4271 Y0.0974
X1.3685 Y0.0918
X1.359 Y0.0908
X1.3496 Y0.0893
X1.3404 Y0.0873
X1.3315 Y0.0846
X1.3265 Y0.0824
X1.3219 Y0.0796
X1.3179 Y0.0761
X1.3144 Y0.072
X1.3115 Y0.0674
X1.3081 Y0.0597
X1.3058 Y0.0515
X1.3044 Y0.043
X1.3037 Y0.0344
X1.3038 Y0.0256
X1.3043 Y0.0168
X1.3056 Y0.0076
X1.3076 Y-0.0014
X1.3104 Y-0.0101
X1.3142 Y-0.0184
X1.3179 Y-0.0243
X1.3222 Y-0.0299
X1.3271 Y-0.035
X1.3325 Y-0.0391
X1.337 Y-0.0415
X1.3421 Y-0.043
X1.3476 Y-0.0439
X1.3533 Y-0.0444
X1.3591 Y-0.0445
X1.3708 Y-0.0442
X1.3825 Y-0.0433
X1.3854 Y-0.043
X1.3805 Y0.0085
X1.3603 Y0.0066
X1.3602
X1.3522 Y0.0059
X1.3519
X1.3439 Y0.0058
G2 X1.3434 Y0.0059 I-0.0001 J0.005
G1 X1.3407 Y0.0061
G2 X1.3401 Y0.0062 I0.0005 J0.005
G1 X1.3375 Y0.0068
G2 X1.336 Y0.0074 I0.0011 J0.0049
G1 X1.3338 Y0.0087
G2 X1.3324 Y0.01 I0.0026 J0.0043
G1 X1.3307 Y0.0121
G2 X1.33 Y0.0134 I0.004 J0.0031
G1 X1.3291 Y0.0159
G2 X1.3288 Y0.0168 I0.0047 J0.0017
G1 X1.3284 Y0.0194
G2 X1.3283 Y0.0201 I0.0049 J0.0009
G1 X1.3282 Y0.0226
G2 X1.3283 Y0.0235 I0.005 J0.0002
G1 X1.3286 Y0.026
G2 X1.329 Y0.0272 I0.0049 J-0.0007
G1 X1.3299 Y0.0295
G2 X1.3309 Y0.031 I0.0046 J-0.0019
G1 X1.3326 Y0.0328
G2 X1.334 Y0.0339 I0.0036 J-0.0034
G1 X1.3362 Y0.035
G2 X1.337 Y0.0353 I0.0023 J-0.0044
G1 X1.3394 Y0.0361
G2 X1.3399 Y0.0362 I0.0015 J-0.0048
G1 X1.3474 Y0.0377
X1.3477
X1.3552 Y0.0386
X1.3553 Y0.0387
X1.4319 Y0.0459
G3 X1.4328 Y0.047 I-0.0001 J0.001
G1 X1.4327 Y0.048
Y0.0487 Z0.0003
X1.4326 Y0.049 Z0.001
G0 Z0.2
X0.9705 Y0.2306
G1 Z0.0394 F13.33
Z0.001
X0.9707 Y0.2308 Z0.0003
X0.9713 Y0.2313 Z0
X0.972 Y0.232 F40
G3 Y0.2334 I-0.0007 J0.0007
G1 X0.9681 Y0.2375
X0.9643 Y0.2416
X0.9603 Y0.2455
X0.9564 Y0.2494
X0.9527 Y0.2525
X0.9487 Y0.2545
X0.9442 Y0.2555
X0.9389 Y0.2558
X0.9338 Y0.2549
X0.9286 Y0.253
X0.9234 Y0.2504
X0.9181 Y0.2474
G2 X0.9119 Y0.255 I-0.0025 J0.0043
G1 X0.915 Y0.2586
X0.9178 Y0.2623
X0.9203 Y0.2661
X0.9223 Y0.2699
X0.9235 Y0.2737
X0.9237 Y0.2773
X0.9229 Y0.281
X0.9211 Y0.2852
X0.9185 Y0.2894
X0.9155 Y0.2936
X0.9122 Y0.2976
X0.9087 Y0.3015
X0.9033 Y0.3069
X0.8976 Y0.3118
X0.8916 Y0.316
X0.8852 Y0.3191
X0.8799 Y0.3206
X0.8744 Y0.321
X0.8688 Y0.3206
X0.8633 Y0.3193
X0.8582 Y0.3172
X0.8509 Y0.3128
X0.8439 Y0.3075
X0.837 Y0.3018
X0.8301 Y0.2959
X0.8233 Y0.2899
X0.8166 Y0.2838
X0.8099 Y0.2776
X0.7817 Y0.2514
X0.9115 Y0.1118
X0.9491 Y0.1468
X0.891 Y0.2094
G2 X0.8913 Y0.2165 I0.0037 J0.0034
G1 X0.8948 Y0.2196
G2 X0.8952 Y0.2199 I0.0033 J-0.0038
G1 X0.899 Y0.2226
G2 X0.8995 Y0.2229 I0.0029 J-0.0041
G1 X0.9022 Y0.2244
G2 X0.9034 Y0.2248 I0.0023 J-0.0044
G1 X0.9064 Y0.2255
G2 X0.9086 Y0.2256 I0.0012 J-0.0049
G1 X0.9116 Y0.225
G2 X0.9132 Y0.2243 I-0.001 J-0.0049
G1 X0.9171 Y0.2218
G2 X0.9177 Y0.2214 I-0.0027 J-0.0042
G1 X0.9212 Y0.2184
X0.9215 Y0.2182
X0.9248 Y0.215
X0.9249 Y0.2149
X0.9281 Y0.2115
X0.9282
X0.9701 Y0.1663
X1.0046 Y0.1983
X0.972 Y0.2334
G3 X0.9706 I-0.0007 J-0.0007
G1 X0.9699 Y0.2327
X0.9694 Y0.2323 Z0.0003
X0.9692 Y0.2321 Z0.001
G0 Z0.2
X0.8759 Y0.2722
G1 Z0.0394 F13.33
Z0.001
X0.8757 Y0.272 Z0.0003
X0.8752 Y0.2715 Z0
X0.8744 Y0.2708 F40
G3 Y0.2694 I0.0007 J-0.0007
G1 X0.8784 Y0.265
X0.8785
X0.8801 Y0.2631
X0.8803 Y0.263
X0.8819 Y0.261
X0.8821 Y0.2608
X0.8836 Y0.2587
X0.8838 Y0.2584
X0.8851 Y0.2563
G2 X0.8854 Y0.2558 I-0.0042 J-0.0027
G1 X0.8865 Y0.2535
G2 X0.8869 Y0.2524 I-0.0045 J-0.0022
G1 X0.8874 Y0.2499
G2 Y0.248 I-0.0049 J-0.0011
G1 X0.887 Y0.2455
G2 X0.8864 Y0.244 I-0.0049 J0.0009
G1 X0.8847 Y0.2409
G2 X0.8843 Y0.2403 I-0.0044 J0.0024
G1 X0.8822 Y0.2376
G2 X0.8819 Y0.2372 I-0.004 J0.0031
G1 X0.8795 Y0.2347
X0.8794 Y0.2345
X0.8769 Y0.2321
G2 X0.8697 Y0.2322 I-0.0035 J0.0036
G1 X0.8393 Y0.2649
G2 X0.8397 Y0.2721 I0.0037 J0.0034
G1 X0.8431 Y0.2751
G2 X0.8435 Y0.2754 I0.0033 J-0.0038
G1 X0.8472 Y0.278
G2 X0.8477 Y0.2783 I0.0029 J-0.0041
G1 X0.8498 Y0.2794
G2 X0.8504 Y0.2797 I0.0024 J-0.0044
G1 X0.8526 Y0.2805
G2 X0.8537 Y0.2808 I0.0018 J-0.0047
G1 X0.8561 Y0.2811
G2 X0.8578 Y0.281 I0.0006 J-0.005
G1 X0.8609 Y0.2803
G2 X0.8622 Y0.2798 I-0.0011 J-0.0049
G1 X0.865 Y0.2783
G2 X0.8657 Y0.2778 I-0.0024 J-0.0044
G1 X0.8682 Y0.2758
G2 X0.8686 Y0.2755 I-0.0031 J-0.0039
G1 X0.8708 Y0.2732
X0.8709 Y0.2731
X0.8744 Y0.2694
G3 X0.8758 Y0.2693 I0.0007 J0.0007
G1 X0.8765 Y0.27
X0.877 Y0.2705 Z0.0003
X0.8773 Y0.2707 Z0.001
G0 Z0.2
X0.8488 Y0.0839
G1 Z0.0394 F13.33
Z0.001
Y0.0842 Z0.0003
X0.8489 Y0.0849 Z0
Y0.0859 F40
G3 X0.848 Y0.087 I-0.001 J0.0001
G1 X0.8424 Y0.0875
X0.8368 Y0.0879
X0.8312 Y0.0882
X0.8257 Y0.0883
X0.8207 Y0.0882
X0.8164 Y0.087
X0.8124 Y0.0846
X0.8083 Y0.0813
X0.8052 Y0.0772
X0.8026 Y0.0722
X0.8004 Y0.0667
X0.7985 Y0.0609
G2 X0.7887 Y0.0624 I-0.0048 J0.0016
G1 X0.7886 Y0.0672
X0.7883 Y0.0718
X0.7876 Y0.0763
X0.7864 Y0.0804
X0.7847 Y0.0841
X0.7825 Y0.087
X0.7795 Y0.0891
X0.774 Y0.0914
X0.7679 Y0.093
X0.7615 Y0.0941
X0.755 Y0.0948
X0.7473 Y0.0952
X0.7412 Y0.0951
X0.7397 Y0.095
X0.7324 Y0.094
X0.7255 Y0.092
X0.7207 Y0.0895
X0.7162 Y0.0861
X0.7123 Y0.0821
X0.7092 Y0.0774
X0.7067 Y0.0724
X0.7043 Y0.0642
X0.7027 Y0.0555
X0.7014 Y0.0466
X0.7003 Y0.0376
X0.6993 Y0.0285
X0.6984 Y0.0194
X0.6976 Y0.0103
X0.6944 Y-0.0282
X0.8853 Y-0.0442
X0.8897 Y0.0072
X0.804 Y0.0144
G2 X0.7995 Y0.02 I0.0004 J0.005
G1 X0.8001 Y0.0246
G2 Y0.025 I0.005 J-0.0006
G1 X0.8011 Y0.0296
G2 X0.8012 Y0.0302 I0.0049 J-0.001
G1 X0.802 Y0.0324
G2 X0.8023 Y0.0331 I0.0047 J-0.0016
G1 X0.8033 Y0.0351
G2 X0.804 Y0.0361 I0.0044 J-0.0023
G1 X0.8056 Y0.0379
G2 X0.8071 Y0.0391 I0.0037 J-0.0033
G1 X0.8092 Y0.0401
G2 X0.8105 Y0.0405 I0.0022 J-0.0045
G1 X0.8151 Y0.0413
G2 X0.8158 Y0.0414 I0.0009 J-0.0049
G1 X0.8205 Y0.0415
X0.8207
X0.8254 Y0.0414
X0.8256
X0.8302 Y0.0411
X0.8303
X0.8921 Y0.0359
X0.896 Y0.083
X0.848 Y0.087
G3 X0.847 Y0.0861 I-0.0001 J-0.001
G1 X0.8469 Y0.0851
X0.8468 Y0.0844 Z0.0003
Y0.0841 Z0.001
G0 Z0.2
X0.7504 Y0.0508
G1 Z0.0394 F13.33
Z0.001
Y0.0505 Z0.0003
X0.7503 Y0.0498 Z0
X0.7502 Y0.0488 F40
G3 X0.7511 Y0.0477 I0.001 J-0.0001
G1 X0.7571 Y0.0472
X0.7573
X0.7622 Y0.0466
G2 X0.7627 Y0.0465 I-0.0006 J-0.005
G1 X0.7676 Y0.0454
G2 X0.7683 Y0.0452 I-0.0011 J-0.0049
G1 X0.7707 Y0.0442
G2 X0.7717 Y0.0437 I-0.0019 J-0.0046
G1 X0.7739 Y0.0422
G2 X0.7753 Y0.0407 I-0.0029 J-0.0041
G1 X0.7766 Y0.0385
G2 X0.7773 Y0.0369 I-0.0042 J-0.0026
G1 X0.7782 Y0.0323
G2 X0.7783 Y0.0315 I-0.0049 J-0.001
G1 X0.7785 Y0.0268
G2 Y0.0264 I-0.005 J-0.0002
G1 X0.7782 Y0.0218
G2 X0.7728 Y0.017 I-0.005 J0.0003
G1 X0.7281 Y0.0208
G2 X0.7236 Y0.0264 I0.0004 J0.005
G1 X0.7241 Y0.0309
G2 X0.7242 Y0.0313 I0.005 J-0.0006
G1 X0.7252 Y0.0357
G2 X0.7253 Y0.0364 I0.0049 J-0.001
G1 X0.7261 Y0.0386
G2 X0.7264 Y0.0392 I0.0047 J-0.0017
G1 X0.7275 Y0.0413
G2 X0.7281 Y0.0423 I0.0045 J-0.0023
G1 X0.7296 Y0.0441
G2 X0.731 Y0.0452 I0.0038 J-0.0032
G1 X0.7337 Y0.0468
G2 X0.7351 Y0.0473 I0.0025 J-0.0043
G1 X0.7382 Y0.048
G2 X0.739 Y0.0481 I0.0011 J-0.0049
G1 X0.7422 Y0.0483
G2 X0.7427 I0.0003 J-0.005
G1 X0.7458 Y0.0482
X0.7461
X0.7511 Y0.0477
G3 X0.7522 Y0.0486 I0.0001 J0.001
G1 X0.7523 Y0.0496
X0.7524 Y0.0503 Z0.0003
Y0.0506 Z0.001
G0 Z0.2
X0.3539 Y-0.0332
G1 Z0.0394 F13.33
Z0.001
Y-0.0334 Z0.0003
X0.354 Y-0.0341 Z0
X0.3542 Y-0.0351 F40
G3 X0.3554 Y-0.036 I0.001 J0.0002
G1 X0.3607 Y-0.0351
X0.3696 Y-0.0331
X0.3781 Y-0.0302
X0.3827 Y-0.0279
X0.3869 Y-0.0249
X0.3905 Y-0.0211
X0.3937 Y-0.0168
X0.3964 Y-0.0121
X0.3997 Y-0.0045
X0.402 Y0.0035
X0.4035 Y0.0118
X0.4041 Y0.0202
Y0.0288
X0.4035 Y0.0373
X0.4023 Y0.0465
X0.4004 Y0.0554
X0.3977 Y0.064
X0.394 Y0.0722
X0.3905 Y0.0782
X0.3864 Y0.0838
X0.3816 Y0.0886
X0.3762 Y0.0927
X0.371 Y0.0955
X0.3654 Y0.0976
X0.3596 Y0.0986
X0.3534 Y0.0989
X0.3469 Y0.0988
X0.3404 Y0.0984
X0.3338 Y0.098
X0.3271 Y0.0974
X0.2685 Y0.0918
X0.259 Y0.0908
X0.2496 Y0.0893
X0.2404 Y0.0873
X0.2315 Y0.0846
X0.2265 Y0.0824
X0.2219 Y0.0796
X0.2179 Y0.0761
X0.2144 Y0.072
X0.2115 Y0.0674
X0.2081 Y0.0597
X0.2058 Y0.0515
X0.2044 Y0.043
X0.2037 Y0.0344
X0.2038 Y0.0256
X0.2043 Y0.0168
X0.2056 Y0.0076
X0.2076 Y-0.0014
X0.2104 Y-0.0101
X0.2142 Y-0.0184
X0.2179 Y-0.0243
X0.2222 Y-0.0299
X0.2271 Y-0.035
X0.2325 Y-0.0391
X0.237 Y-0.0415
X0.2421 Y-0.043
X0.2476 Y-0.0439
X0.2533 Y-0.0444
X0.2591 Y-0.0445
X0.2708 Y-0.0442
X0.2825 Y-0.0433
X0.2854 Y-0.043
X0.2805 Y0.0085
X0.2603 Y0.0066
X0.2602
X0.2522 Y0.0059
X0.2519
X0.2439 Y0.0058
G2 X0.2434 Y0.0059 I-0.0001 J0.005
G1 X0.2407 Y0.0061
G2 X0.2401 Y0.0062 I0.0005 J0.005
G1 X0.2375 Y0.0068
G2 X0.236 Y0.0074 I0.0011 J0.0049
G1 X0.2338 Y0.0087
G2 X0.2324 Y0.01 I0.0026 J0.0043
G1 X0.2307 Y0.0121
G2 X0.23 Y0.0134 I0.004 J0.003
G1 X0.2291 Y0.0159
G2 X0.2288 Y0.0168 I0.0047 J0.0017
G1 X0.2284 Y0.0194
G2 X0.2283 Y0.0201 I0.0049 J0.0009
G1 X0.2282 Y0.0226
G2 X0.2283 Y0.0235 I0.005 J0.0002
G1 X0.2286 Y0.026
G2 X0.229 Y0.0272 I0.0049 J-0.0007
G1 X0.2299 Y0.0295
G2 X0.2309 Y0.031 I0.0046 J-0.0019
G1 X0.2326 Y0.0328
G2 X0.234 Y0.0339 I0.0036 J-0.0034
G1 X0.2362 Y0.035
G2 X0.237 Y0.0353 I0.0023 J-0.0044
G1 X0.2394 Y0.0361
G2 X0.2399 Y0.0362 I0.0015 J-0.0048
G1 X0.2474 Y0.0377
X0.2477
X0.2552 Y0.0386
X0.2553 Y0.0387
X0.3486 Y0.0475
X0.3488
X0.3566 Y0.0481
X0.357
X0.3648
G2 X0.3654 Y0.048 J-0.005
G1 X0.368 Y0.0477
G2 X0.3689 Y0.0475 I-0.0006 J-0.005
G1 X0.3714 Y0.0468
G2 X0.3729 Y0.046 I-0.0014 J-0.0048
G1 X0.375 Y0.0445
G2 X0.3762 Y0.0432 I-0.003 J-0.004
G1 X0.3777 Y0.041
G2 X0.3782 Y0.0398 I-0.0042 J-0.0027
G1 X0.379 Y0.0373
G2 X0.3792 Y0.0365 I-0.0048 J-0.0016
G1 X0.3796 Y0.0339
G2 X0.3797 Y0.0334 I-0.0049 J-0.0007
G1 X0.3798 Y0.0309
G2 X0.3797 Y0.0301 I-0.005 J-0.0002
G1 X0.3794 Y0.0277
G2 X0.3791 Y0.0265 I-0.005 J0.0006
G1 X0.3783 Y0.0242
G2 X0.3772 Y0.0226 I-0.0047 J0.0018
G1 X0.3756 Y0.0208
G2 X0.3741 Y0.0197 I-0.0037 J0.0034
G1 X0.3719 Y0.0187
G2 X0.3712 Y0.0184 I-0.0022 J0.0045
G1 X0.3688 Y0.0177
G2 X0.3683 Y0.0175 I-0.0014 J0.0048
G1 X0.361 Y0.0162
X0.3607
X0.3534 Y0.0154
X0.3533
X0.3233 Y0.0125
X0.3282 Y-0.039
X0.3423 Y-0.0376
X0.3516 Y-0.0366
X0.3554 Y-0.036
G3 X0.3562 Y-0.0348 I-0.0002 J0.001
G1 X0.356 Y-0.0338
X0.3559 Y-0.0331 Z0.0003
Y-0.0328 Z0.001
G0 Z0.2
X0.2648 Y0.1999
G1 Z0.0394 F13.33
Z0.001
X0.265 Y0.1997 Z0.0003
X0.2656 Y0.1992 Z0
X0.2663 Y0.1986 F40
G3 X0.2678 Y0.1987 I0.0007 J0.0008
G1 X0.271 Y0.2025
X0.2743 Y0.2066
X0.2774 Y0.2107
X0.2802 Y0.2149
X0.2824 Y0.219
X0.2836 Y0.2231
X0.2839 Y0.2274
X0.2831 Y0.2332
X0.2811 Y0.2387
X0.2782 Y0.2439
X0.2744 Y0.2487
X0.27 Y0.2531
X0.2643 Y0.2576
X0.258 Y0.2611
X0.2513 Y0.2635
X0.2459 Y0.2643
X0.2403
X0.2345 Y0.2634
G2 X0.2303 Y0.272 I-0.0007 J0.0049
G1 X0.2374 Y0.2788
X0.2006 Y0.3122
X0.0964 Y0.1976
X0.1326 Y0.1646
X0.2043 Y0.2434
X0.2098 Y0.2494
X0.21 Y0.2496
X0.2158 Y0.2553
X0.216 Y0.2555
X0.218 Y0.2573
G2 X0.2183 Y0.2575 I0.0033 J-0.0037
G1 X0.2204 Y0.2592
G2 X0.2213 Y0.2597 I0.003 J-0.004
G1 X0.2237 Y0.2609
G2 X0.2259 Y0.2614 I0.0022 J-0.0045
G1 X0.2286
G2 X0.2305 Y0.2611 I0.0001 J-0.005
G1 X0.233 Y0.26
G2 X0.2342 Y0.2594 I-0.0019 J-0.0046
G1 X0.2363 Y0.2577
G2 X0.2369 Y0.2572 I-0.003 J-0.004
G1 X0.2386 Y0.2554
G2 X0.2393 Y0.2545 I-0.0036 J-0.0034
G1 X0.2405 Y0.2524
G2 X0.2412 Y0.2505 I-0.0043 J-0.0025
G1 X0.2415 Y0.2481
G2 X0.2412 Y0.2456 I-0.005 J-0.0007
G1 X0.2404 Y0.2433
G2 X0.2399 Y0.2424 I-0.0047 J0.0018
G1 X0.2385 Y0.2403
X0.2384 Y0.24
X0.2369 Y0.2381
X0.2367 Y0.2379
X0.232 Y0.2322
X0.2319 Y0.232
X0.2269 Y0.2265
X0.1534 Y0.1457
X0.1896 Y0.1128
X0.264 Y0.1945
X0.2676 Y0.1985
X0.2678 Y0.1987
G3 X0.2676 Y0.2001 I-0.0008 J0.0007
G1 X0.2669 Y0.2008
X0.2663 Y0.2012 Z0.0003
X0.2661 Y0.2014 Z0.001
G0 Z0.2
X0.0504 Y0.2843
G1 Z0.0394 F13.33
Z0.001
X0.0507 Y0.2844 Z0.0003
X0.0514 Z0
X0.0524 Y0.2846 F40
G3 X0.0533 Y0.2857 I-0.0001 J0.001
G1 X0.053 Y0.2879
X0.051 Y0.2994
X0.0484 Y0.3108
X0.0478 Y0.3135
X-0.0025 Y0.3013
X0.0023 Y0.2816
X0.0035 Y0.2764
Y0.2763
X0.0045 Y0.2711
X0.0046 Y0.2708
X0.0053 Y0.2655
G2 X0.0054 Y0.2651 I-0.005 J-0.0007
G1 X0.0055 Y0.2624
G2 Y0.2618 I-0.005 J-0.0002
G1 X0.0053 Y0.2592
G2 X0.0049 Y0.2577 I-0.005 J0.0004
G1 X0.0039 Y0.2552
G2 X0.0029 Y0.2536 I-0.0046 J0.0019
G1 X0.001 Y0.2517
G2 X-0.0001 Y0.2508 I-0.0036 J0.0035
G1 X-0.0024 Y0.2496
G2 X-0.0033 Y0.2492 I-0.0024 J0.0044
G1 X-0.0058 Y0.2483
G2 X-0.0065 Y0.2482 I-0.0016 J0.0047
G1 X-0.009 Y0.2477
G2 X-0.0098 Y0.2476 I-0.0009 J0.0049
G1 X-0.0123
G2 X-0.0136 Y0.2478 J0.005
G1 X-0.016 Y0.2484
G2 X-0.0176 Y0.2491 I0.0012 J0.0048
G1 X-0.0197 Y0.2505
G2 X-0.0209 Y0.2517 I0.0028 J0.0042
G1 X-0.0224 Y0.2537
G2 X-0.0228 Y0.2544 I0.004 J0.003
G1 X-0.024 Y0.2567
G2 X-0.0242 Y0.2572 I0.0045 J0.0022
G1 X-0.0259 Y0.2619
X-0.026 Y0.2622
X-0.0275 Y0.267
Y0.2672
X-0.0288 Y0.2721
Y0.2722
X-0.0509 Y0.3629
X-0.0521 Y0.368
Y0.3682
X-0.0531 Y0.3734
Y0.3736
X-0.0538 Y0.3788
G2 X-0.0539 Y0.3793 I0.005 J0.0006
G1 Y0.382
G2 Y0.3828 I0.005 J0.0001
G1 X-0.0535 Y0.3854
G2 X-0.0529 Y0.3871 I0.0049 J-0.0007
G1 X-0.0517 Y0.3894
G2 X-0.0506 Y0.3907 I0.0044 J-0.0024
G1 X-0.0486 Y0.3924
G2 X-0.0475 Y0.3932 I0.0033 J-0.0038
G1 X-0.0451 Y0.3943
G2 X-0.0445 Y0.3946 I0.0021 J-0.0045
G1 X-0.042 Y0.3954
G2 X-0.0414 Y0.3955 I0.0015 J-0.0048
G1 X-0.039 Y0.396
G2 X-0.0382 I0.0009 J-0.0049
G1 X-0.0357 Y0.3961
G2 X-0.0345 Y0.396 I0.0001 J-0.005
G1 X-0.0321 Y0.3954
G2 X-0.0304 Y0.3946 I-0.0011 J-0.0049
G1 X-0.0284 Y0.3932
G2 X-0.0271 Y0.392 I-0.0029 J-0.0041
G1 X-0.0257 Y0.39
G2 X-0.0253 Y0.3892 I-0.0041 J-0.0028
G1 X-0.0243 Y0.387
G2 X-0.0241 Y0.3865 I-0.0045 J-0.0021
G1 X-0.0218 Y0.3796
X-0.0217 Y0.3793
X-0.0198 Y0.3722
Y0.3721
X-0.0127 Y0.343
X0.0376 Y0.3552
X0.0343 Y0.3689
X0.0319 Y0.3779
X0.0291 Y0.3867
X0.0259 Y0.3952
X0.0218 Y0.4031
X0.018 Y0.4084
X0.0132 Y0.4127
X0.0075 Y0.416
X0.0012 Y0.4186
X-0.0084 Y0.421
X-0.0184 Y0.422
X-0.0285 Y0.4218
X-0.0386 Y0.4205
X-0.0487 Y0.4185
X-0.0575 Y0.4159
X-0.0661 Y0.4128
X-0.0742 Y0.4088
X-0.0818 Y0.4041
X-0.0873 Y0.3998
X-0.0922 Y0.3949
X-0.0963 Y0.3895
X-0.0995 Y0.3836
X-0.1019 Y0.3771
X-0.1031 Y0.3706
X-0.1029 Y0.3637
X-0.1019 Y0.3565
X-0.1005 Y0.3492
X-0.099 Y0.3418
X-0.0972 Y0.3344
X-0.0833 Y0.2774
X-0.0809 Y0.2682
X-0.0781 Y0.2591
X-0.0748 Y0.2503
X-0.0708 Y0.242
X-0.0679 Y0.2373
X-0.0645 Y0.2332
X-0.0605 Y0.2298
X-0.0559 Y0.227
X-0.0509 Y0.2248
X-0.0428 Y0.2225
X-0.0344 Y0.2214
X-0.0258 Y0.2212
X-0.0171 Y0.2219
X-0.0084 Y0.2232
X0.0002 Y0.225
X0.0091 Y0.2276
X0.0177 Y0.2308
X0.0259 Y0.2348
X0.0335 Y0.2398
X0.0389 Y0.2443
X0.0438 Y0.2494
X0.0481 Y0.2549
X0.0514 Y0.2608
X0.0532 Y0.2657
X0.054 Y0.2709
X0.0541 Y0.2764
X0.0537 Y0.2821
X0.0533 Y0.2857
G3 X0.0522 Y0.2865 I-0.001 J-0.0001
G1 X0.0512 Y0.2864
X0.0505 Y0.2863 Z0.0003
X0.0502 Z0.001
G0 Z0.2
X-0.1295 Y0.2306
G1 Z0.0394 F13.33
Z0.001
X-0.1293 Y0.2308 Z0.0003
X-0.1287 Y0.2313 Z0
X-0.128 Y0.2319 F40
G3 Y0.2334 I-0.0007 J0.0007
G1 X-0.1319 Y0.2375
X-0.1357 Y0.2416
X-0.1397 Y0.2455
X-0.1436 Y0.2493
X-0.1473 Y0.2525
X-0.1513 Y0.2545
X-0.1558 Y0.2555
X-0.1611 Y0.2558
X-0.1662 Y0.2549
X-0.1714 Y0.253
X-0.1766 Y0.2504
X-0.1819 Y0.2474
G2 X-0.1881 Y0.255 I-0.0025 J0.0043
G1 X-0.185 Y0.2586
X-0.1822 Y0.2623
X-0.1797 Y0.2661
X-0.1777 Y0.2699
X-0.1765 Y0.2737
X-0.1763 Y0.2773
X-0.1771 Y0.281
X-0.1789 Y0.2852
X-0.1815 Y0.2894
X-0.1845 Y0.2936
X-0.1878 Y0.2976
X-0.1913 Y0.3015
X-0.1967 Y0.3069
X-0.2024 Y0.3118
X-0.2084 Y0.316
X-0.2148 Y0.3191
X-0.2201 Y0.3206
X-0.2256 Y0.321
X-0.2312 Y0.3206
X-0.2367 Y0.3193
X-0.2418 Y0.3172
X-0.2491 Y0.3128
X-0.2561 Y0.3075
X-0.263 Y0.3018
X-0.2699 Y0.2959
X-0.2767 Y0.2899
X-0.2834 Y0.2838
X-0.2901 Y0.2776
X-0.3183 Y0.2514
X-0.1885 Y0.1118
X-0.1509 Y0.1468
X-0.209 Y0.2094
G2 X-0.2087 Y0.2165 I0.0037 J0.0034
G1 X-0.2052 Y0.2196
G2 X-0.2048 Y0.2199 I0.0033 J-0.0038
G1 X-0.201 Y0.2226
G2 X-0.2005 Y0.2229 I0.0029 J-0.0041
G1 X-0.1978 Y0.2244
G2 X-0.1966 Y0.2248 I0.0023 J-0.0044
G1 X-0.1936 Y0.2255
G2 X-0.1914 Y0.2256 I0.0012 J-0.0049
G1 X-0.1884 Y0.225
G2 X-0.1868 Y0.2243 I-0.001 J-0.0049
G1 X-0.1829 Y0.2218
G2 X-0.1823 Y0.2214 I-0.0027 J-0.0042
G1 X-0.1788 Y0.2184
X-0.1785 Y0.2182
X-0.1752 Y0.215
X-0.1751 Y0.2149
X-0.1719 Y0.2115
X-0.1718
X-0.1299 Y0.1663
X-0.0954 Y0.1983
X-0.128 Y0.2334
G3 X-0.1294 I-0.0007 J-0.0007
G1 X-0.1301 Y0.2327
X-0.1306 Y0.2323 Z0.0003
X-0.1308 Y0.2321 Z0.001
G0 Z0.2
X-0.2241 Y0.2722
G1 Z0.0394 F13.33
Z0.001
X-0.2243 Y0.272 Z0.0003
X-0.2248 Y0.2715 Z0
X-0.2256 Y0.2708 F40
G3 Y0.2694 I0.0007 J-0.0007
G1 X-0.2216 Y0.265
X-0.2215
X-0.2199 Y0.2631
X-0.2197 Y0.263
X-0.2181 Y0.261
X-0.2179 Y0.2608
X-0.2164 Y0.2587
X-0.2162 Y0.2584
X-0.2149 Y0.2563
G2 X-0.2146 Y0.2558 I-0.0042 J-0.0027
G1 X-0.2135 Y0.2535
G2 X-0.2131 Y0.2524 I-0.0045 J-0.0022
G1 X-0.2126 Y0.2499
G2 Y0.248 I-0.0049 J-0.0011
G1 X-0.213 Y0.2455
G2 X-0.2136 Y0.244 I-0.0049 J0.0009
G1 X-0.2153 Y0.2409
G2 X-0.2157 Y0.2403 I-0.0044 J0.0024
G1 X-0.2178 Y0.2376
G2 X-0.2181 Y0.2372 I-0.004 J0.0031
G1 X-0.2205 Y0.2347
X-0.2206 Y0.2345
X-0.2231 Y0.2321
G2 X-0.2303 Y0.2322 I-0.0035 J0.0036
G1 X-0.2607 Y0.2649
G2 X-0.2603 Y0.2721 I0.0037 J0.0034
G1 X-0.2569 Y0.2751
G2 X-0.2565 Y0.2754 I0.0033 J-0.0038
G1 X-0.2528 Y0.278
G2 X-0.2523 Y0.2783 I0.0029 J-0.0041
G1 X-0.2502 Y0.2794
G2 X-0.2496 Y0.2797 I0.0024 J-0.0044
G1 X-0.2474 Y0.2805
G2 X-0.2463 Y0.2808 I0.0018 J-0.0047
G1 X-0.2439 Y0.2811
G2 X-0.2422 Y0.281 I0.0006 J-0.005
G1 X-0.2391 Y0.2803
G2 X-0.2378 Y0.2798 I-0.0011 J-0.0049
G1 X-0.235 Y0.2783
G2 X-0.2343 Y0.2778 I-0.0024 J-0.0044
G1 X-0.2318 Y0.2758
G2 X-0.2314 Y0.2755 I-0.0031 J-0.0039
G1 X-0.2292 Y0.2732
X-0.2291 Y0.2731
X-0.2256 Y0.2694
G3 X-0.2242 Y0.2693 I0.0007 J0.0007
G1 X-0.2235 Y0.27
X-0.223 Y0.2705 Z0.0003
X-0.2227 Y0.2707 Z0.001
G0 Z0.2
X-0.2512 Y0.0839
G1 Z0.0394 F13.33
Z0.001
Y0.0842 Z0.0003
X-0.2511 Y0.0849 Z0
Y0.0859 F40
G3 X-0.252 Y0.087 I-0.001 J0.0001
G1 X-0.2576 Y0.0875
X-0.2633 Y0.0879
X-0.2688 Y0.0882
X-0.2743 Y0.0883
X-0.2793 Y0.0882
X-0.2836 Y0.087
X-0.2876 Y0.0846
X-0.2917 Y0.0813
X-0.2948 Y0.0772
X-0.2974 Y0.0722
X-0.2996 Y0.0667
X-0.3015 Y0.0609
G2 X-0.3113 Y0.0624 I-0.0048 J0.0016
G1 X-0.3114 Y0.0672
X-0.3117 Y0.0719
X-0.3124 Y0.0763
X-0.3136 Y0.0804
X-0.3153 Y0.0841
X-0.3175 Y0.087
X-0.3205 Y0.0891
X-0.326 Y0.0914
X-0.3321 Y0.093
X-0.3385 Y0.0941
X-0.345 Y0.0948
X-0.3527 Y0.0952
X-0.3603 Y0.095
X-0.3676 Y0.094
X-0.3745 Y0.092
X-0.3793 Y0.0895
X-0.3838 Y0.0861
X-0.3877 Y0.0821
X-0.3908 Y0.0774
X-0.3933 Y0.0724
X-0.3957 Y0.0642
X-0.3973 Y0.0555
X-0.3986 Y0.0466
X-0.3997 Y0.0376
X-0.4007 Y0.0285
X-0.4016 Y0.0194
X-0.4024 Y0.0103
X-0.4056 Y-0.0282
X-0.2147 Y-0.0442
X-0.2103 Y0.0072
X-0.296 Y0.0144
G2 X-0.3005 Y0.02 I0.0004 J0.005
G1 X-0.2999 Y0.0246
G2 Y0.025 I0.005 J-0.0006
G1 X-0.2989 Y0.0296
G2 X-0.2988 Y0.0302 I0.0049 J-0.001
G1 X-0.298 Y0.0324
G2 X-0.2977 Y0.0331 I0.0047 J-0.0016
G1 X-0.2967 Y0.0351
G2 X-0.296 Y0.0361 I0.0044 J-0.0023
G1 X-0.2944 Y0.0379
G2 X-0.2929 Y0.0391 I0.0037 J-0.0033
G1 X-0.2908 Y0.0401
G2 X-0.2895 Y0.0405 I0.0022 J-0.0045
G1 X-0.2849 Y0.0413
G2 X-0.2842 Y0.0414 I0.0009 J-0.0049
G1 X-0.2795 Y0.0415
X-0.2793
X-0.2746 Y0.0414
X-0.2744
X-0.2698 Y0.0411
X-0.2697
X-0.2079 Y0.0359
X-0.204 Y0.083
X-0.252 Y0.087
G3 X-0.253 Y0.0861 I-0.0001 J-0.001
G1 X-0.2531 Y0.0851
X-0.2532 Y0.0844 Z0.0003
Y0.0841 Z0.001
G0 Z0.2
X-0.3496 Y0.0508
G1 Z0.0394 F13.33
Z0.001
Y0.0505 Z0.0003
X-0.3497 Y0.0498 Z0
X-0.3498 Y0.0488 F40
G3 X-0.3489 Y0.0477 I0.001 J-0.0001
G1 X-0.3429 Y0.0472
X-0.3427
X-0.3378 Y0.0466
G2 X-0.3373 Y0.0465 I-0.0006 J-0.005
G1 X-0.3324 Y0.0454
G2 X-0.3317 Y0.0452 I-0.0011 J-0.0049
G1 X-0.3293 Y0.0442
G2 X-0.3283 Y0.0437 I-0.0019 J-0.0046
G1 X-0.3261 Y0.0422
G2 X-0.3247 Y0.0407 I-0.0029 J-0.0041
G1 X-0.3234 Y0.0385
G2 X-0.3227 Y0.0369 I-0.0042 J-0.0026
G1 X-0.3218 Y0.0323
G2 X-0.3217 Y0.0315 I-0.0049 J-0.001
G1 X-0.3215 Y0.0268
G2 Y0.0264 I-0.005 J-0.0002
G1 X-0.3218 Y0.0218
G2 X-0.3272 Y0.017 I-0.005 J0.0003
G1 X-0.3719 Y0.0208
G2 X-0.3764 Y0.0264 I0.0004 J0.005
G1 X-0.3759 Y0.0309
G2 X-0.3758 Y0.0313 I0.005 J-0.0006
G1 X-0.3748 Y0.0357
G2 X-0.3747 Y0.0364 I0.0049 J-0.001
G1 X-0.3739 Y0.0386
G2 X-0.3736 Y0.0392 I0.0047 J-0.0017
G1 X-0.3725 Y0.0413
G2 X-0.3719 Y0.0423 I0.0045 J-0.0023
G1 X-0.3704 Y0.0441
G2 X-0.369 Y0.0452 I0.0038 J-0.0032
G1 X-0.3663 Y0.0468
G2 X-0.3649 Y0.0473 I0.0025 J-0.0043
G1 X-0.3618 Y0.048
G2 X-0.361 Y0.0481 I0.0011 J-0.0049
G1 X-0.3578 Y0.0483
G2 X-0.3573 I0.0003 J-0.005
G1 X-0.3542 Y0.0482
X-0.3539
X-0.3489 Y0.0477
G3 X-0.3478 Y0.0486 I0.0001 J0.001
G1 X-0.3477 Y0.0496
X-0.3476 Y0.0503 Z0.0003
Y0.0506 Z0.001
G0 Z0.2
X-0.2991 Y1.1122
G1 Z0.0394 F13.33
Z0.001
X-0.2989 Y1.1124 Z0.0003
X-0.2985 Y1.113 Z0
X-0.298 Y1.1139 F40
G3 X-0.2983 Y1.1152 I-0.0008 J0.0005
G2 X-0.3005 Y1.12 I0.0027 J0.0042
G1 X-0.2999 Y1.1246
G2 Y1.125 I0.005 J-0.0006
G1 X-0.2989 Y1.1296
G2 X-0.2988 Y1.1302 I0.0049 J-0.001
G1 X-0.298 Y1.1324
G2 X-0.2977 Y1.1331 I0.0047 J-0.0016
G1 X-0.2967 Y1.1351
G2 X-0.296 Y1.1361 I0.0044 J-0.0023
G1 X-0.2944 Y1.1379
G2 X-0.2929 Y1.1391 I0.0037 J-0.0033
G1 X-0.2908 Y1.1401
G2 X-0.2895 Y1.1405 I0.0022 J-0.0045
G1 X-0.2849 Y1.1413
G2 X-0.2842 Y1.1414 I0.0009 J-0.0049
G1 X-0.2796 Y1.1415
X-0.2793
X-0.2746 Y1.1414
X-0.2744
X-0.2698 Y1.1411
X-0.2697
X-0.2079 Y1.1359
X-0.204 Y1.183
X-0.252 Y1.187
X-0.2576 Y1.1875
X-0.2633 Y1.1879
X-0.2688 Y1.1882
X-0.2743 Y1.1883
X-0.2793 Y1.1882
X-0.2836 Y1.187
X-0.2876 Y1.1846
X-0.2917 Y1.1813
X-0.2948 Y1.1772
X-0.2974 Y1.1722
X-0.2996 Y1.1667
X-0.3015 Y1.1609
G2 X-0.3113 Y1.1624 I-0.0048 J0.0016
G1 X-0.3114 Y1.1672
X-0.3117 Y1.1719
X-0.3124 Y1.1763
X-0.3136 Y1.1804
X-0.3153 Y1.1841
X-0.3175 Y1.187
X-0.3205 Y1.1891
X-0.326 Y1.1914
X-0.3321 Y1.193
X-0.3385 Y1.1941
X-0.345 Y1.1948
X-0.3527 Y1.1952
X-0.3603 Y1.195
X-0.3676 Y1.194
X-0.3745 Y1.192
X-0.3793 Y1.1895
X-0.3838 Y1.1861
X-0.3877 Y1.1821
X-0.3908 Y1.1774
X-0.3933 Y1.1724
X-0.3957 Y1.1642
X-0.3973 Y1.1555
X-0.3986 Y1.1466
X-0.3997 Y1.1376
X-0.4007 Y1.1285
X-0.4016 Y1.1194
X-0.4024 Y1.1103
X-0.4056 Y1.0718
X-0.2147 Y1.0558
X-0.2103 Y1.1072
X-0.296 Y1.1144
G2 X-0.2983 Y1.1152 I0.0004 J0.005
G3 X-0.2997 Y1.115 I-0.0005 J-0.0008
G1 X-0.3002 Y1.1141
X-0.3006 Y1.1135 Z0.0003
X-0.3008 Y1.1133 Z0.001
X-0.3226 Y1.1151
X-0.3228 Y1.1154 Z0.0003 F13.33
X-0.323 Y1.116 Z0
X-0.3234 Y1.1169 F40
G3 X-0.3248 Y1.1175 I-0.0009 J-0.0004
G2 X-0.3272 Y1.117 I-0.002 J0.0046
G1 X-0.3719 Y1.1208
G2 X-0.3764 Y1.1264 I0.0004 J0.005
G1 X-0.3759 Y1.1309
G2 X-0.3758 Y1.1313 I0.005 J-0.0006
G1 X-0.3748 Y1.1357
G2 X-0.3747 Y1.1364 I0.0049 J-0.001
G1 X-0.3739 Y1.1386
G2 X-0.3736 Y1.1392 I0.0047 J-0.0017
G1 X-0.3725 Y1.1413
G2 X-0.3719 Y1.1423 I0.0045 J-0.0023
G1 X-0.3704 Y1.1441
G2 X-0.369 Y1.1452 I0.0038 J-0.0032
G1 X-0.3663 Y1.1468
G2 X-0.3649 Y1.1473 I0.0025 J-0.0043
G1 X-0.3618 Y1.148
G2 X-0.361 Y1.1481 I0.0011 J-0.0049
G1 X-0.3578 Y1.1483
G2 X-0.3573 I0.0003 J-0.005
G1 X-0.3542 Y1.1482
X-0.3539
X-0.3429 Y1.1472
X-0.3427
X-0.3378 Y1.1466
G2 X-0.3373 Y1.1465 I-0.0006 J-0.005
G1 X-0.3324 Y1.1454
G2 X-0.3317 Y1.1452 I-0.0011 J-0.0049
G1 X-0.3293 Y1.1442
G2 X-0.3283 Y1.1437 I-0.0019 J-0.0046
G1 X-0.3261 Y1.1422
G2 X-0.3247 Y1.1407 I-0.0029 J-0.0041
G1 X-0.3234 Y1.1385
G2 X-0.3227 Y1.1369 I-0.0042 J-0.0026
G1 X-0.3218 Y1.1323
G2 X-0.3217 Y1.1315 I-0.0049 J-0.001
G1 X-0.3215 Y1.1268
G2 Y1.1264 I-0.005 J-0.0002
G1 X-0.3218 Y1.1218
G2 X-0.3248 Y1.1175 I-0.005 J0.0003
G3 X-0.3253 Y1.1161 I0.0004 J-0.0009
G1 X-0.3249 Y1.1152
X-0.3246 Y1.1146 Z0.0003
X-0.3245 Y1.1143 Z0.001
G0 Z0.2
X-0.2129 Y1.3098
G1 Z0.0394 F13.33
Z0.001
X-0.2126 Y1.3099 Z0.0003
X-0.2119 Y1.3101 Z0
X-0.2109 Y1.3103 F40
G3 X-0.2102 Y1.3115 I-0.0002 J0.001
G2 X-0.2087 Y1.3165 I0.0048 J0.0012
G1 X-0.2052 Y1.3196
G2 X-0.2048 Y1.3199 I0.0033 J-0.0038
G1 X-0.201 Y1.3226
G2 X-0.2005 Y1.3229 I0.0029 J-0.0041
G1 X-0.1978 Y1.3244
G2 X-0.1966 Y1.3248 I0.0023 J-0.0044
G1 X-0.1936 Y1.3255
G2 X-0.1914 Y1.3256 I0.0012 J-0.0049
G1 X-0.1884 Y1.325
G2 X-0.1868 Y1.3243 I-0.001 J-0.0049
G1 X-0.1829 Y1.3218
G2 X-0.1823 Y1.3214 I-0.0027 J-0.0042
G1 X-0.1788 Y1.3185
X-0.1785 Y1.3182
X-0.1752 Y1.315
X-0.1751 Y1.3149
X-0.1719 Y1.3115
X-0.1718
X-0.1299 Y1.2663
X-0.0954 Y1.2983
X-0.128 Y1.3334
X-0.1319 Y1.3375
X-0.1357 Y1.3416
X-0.1397 Y1.3455
X-0.1436 Y1.3493
X-0.1473 Y1.3525
X-0.1513 Y1.3545
X-0.1558 Y1.3555
X-0.1611 Y1.3558
X-0.1662 Y1.3549
X-0.1714 Y1.353
X-0.1766 Y1.3504
X-0.1819 Y1.3474
G2 X-0.1881 Y1.355 I-0.0025 J0.0043
G1 X-0.185 Y1.3586
X-0.1822 Y1.3623
X-0.1797 Y1.3661
X-0.1777 Y1.3699
X-0.1765 Y1.3737
X-0.1763 Y1.3773
X-0.1771 Y1.381
X-0.1789 Y1.3852
X-0.1815 Y1.3894
X-0.1845 Y1.3936
X-0.1878 Y1.3976
X-0.1913 Y1.4015
X-0.1967 Y1.4069
X-0.2024 Y1.4118
X-0.2084 Y1.416
X-0.2148 Y1.4191
X-0.2201 Y1.4206
X-0.2256 Y1.421
X-0.2312 Y1.4206
X-0.2367 Y1.4193
X-0.2418 Y1.4172
X-0.2491 Y1.4128
X-0.2561 Y1.4075
X-0.263 Y1.4018
X-0.2699 Y1.3959
X-0.2767 Y1.3899
X-0.2834 Y1.3838
X-0.2901 Y1.3776
X-0.3183 Y1.3514
X-0.1885 Y1.2118
X-0.1509 Y1.2468
X-0.209 Y1.3094
G2 X-0.2102 Y1.3115 I0.0037 J0.0034
G3 X-0.2114 Y1.3123 I-0.001 J-0.0002
G1 X-0.2124 Y1.312
X-0.2131 Y1.3118 Z0.0003
X-0.2134 Z0.001
X-0.2282 Y1.3277
X-0.2281 Y1.328 Z0.0003 F13.33
X-0.2279 Y1.3287 Z0
X-0.2276 Y1.3296 F40
G3 X-0.2282 Y1.3309 I-0.0009 J0.0003
G2 X-0.2303 Y1.3322 I0.0016 J0.0047
G1 X-0.2607 Y1.3649
G2 X-0.2603 Y1.3721 I0.0037 J0.0034
G1 X-0.2569 Y1.3751
G2 X-0.2565 Y1.3753 I0.0033 J-0.0038
G1 X-0.2528 Y1.378
G2 X-0.2523 Y1.3783 I0.0029 J-0.0041
G1 X-0.2502 Y1.3794
G2 X-0.2496 Y1.3797 I0.0024 J-0.0044
G1 X-0.2474 Y1.3805
G2 X-0.2462 Y1.3808 I0.0018 J-0.0047
G1 X-0.2439 Y1.3811
G2 X-0.2422 Y1.381 I0.0006 J-0.005
G1 X-0.2391 Y1.3803
G2 X-0.2378 Y1.3798 I-0.0011 J-0.0049
G1 X-0.235 Y1.3783
G2 X-0.2343 Y1.3778 I-0.0024 J-0.0044
G1 X-0.2318 Y1.3758
G2 X-0.2314 Y1.3755 I-0.0031 J-0.0039
G1 X-0.2292 Y1.3732
X-0.2291 Y1.3731
X-0.2216 Y1.365
X-0.2215
X-0.2199 Y1.3631
X-0.2197 Y1.363
X-0.2181 Y1.361
X-0.2179 Y1.3608
X-0.2164 Y1.3587
X-0.2162 Y1.3584
X-0.2149 Y1.3563
G2 X-0.2146 Y1.3558 I-0.0042 J-0.0027
G1 X-0.2135 Y1.3535
G2 X-0.2131 Y1.3524 I-0.0045 J-0.0022
G1 X-0.2126 Y1.3499
G2 Y1.348 I-0.0049 J-0.0011
G1 X-0.213 Y1.3455
G2 X-0.2136 Y1.344 I-0.0049 J0.0009
G1 X-0.2153 Y1.3409
G2 X-0.2157 Y1.3403 I-0.0044 J0.0024
G1 X-0.2178 Y1.3376
G2 X-0.2181 Y1.3372 I-0.004 J0.0031
G1 X-0.2205 Y1.3347
X-0.2206 Y1.3345
X-0.2231 Y1.3321
G2 X-0.2282 Y1.3309 I-0.0035 J0.0036
G3 X-0.2295 Y1.3303 I-0.0003 J-0.0009
G1 X-0.2298 Y1.3293
X-0.23 Y1.3287 Z0.0003
X-0.2301 Y1.3284 Z0.001
G0 Z0.2
X0.8009 Y2.2122
G1 Z0.0394 F13.33
Z0.001
X0.8011 Y2.2124 Z0.0003
X0.8015 Y2.213 Z0
X0.802 Y2.2139 F40
G3 X0.8017 Y2.2152 I-0.0008 J0.0005
G2 X0.7995 Y2.22 I0.0027 J0.0042
G1 X0.8001 Y2.2246
G2 Y2.225 I0.005 J-0.0006
G1 X0.8011 Y2.2296
G2 X0.8012 Y2.2302 I0.0049 J-0.001
G1 X0.802 Y2.2324
G2 X0.8023 Y2.2331 I0.0047 J-0.0016
G1 X0.8033 Y2.2351
G2 X0.804 Y2.2361 I0.0044 J-0.0023
G1 X0.8056 Y2.2379
G2 X0.8071 Y2.2391 I0.0037 J-0.0033
G1 X0.8092 Y2.2401
G2 X0.8105 Y2.2405 I0.0022 J-0.0045
G1 X0.8151 Y2.2413
G2 X0.8158 Y2.2414 I0.0009 J-0.0049
G1 X0.8205 Y2.2415
X0.8207
X0.8254 Y2.2414
X0.8256
X0.8302 Y2.2411
X0.8303
X0.8921 Y2.2359
X0.896 Y2.283
X0.848 Y2.287
X0.8424 Y2.2875
X0.8368 Y2.2879
X0.8312 Y2.2882
X0.8257 Y2.2883
X0.8207 Y2.2882
X0.8164 Y2.287
X0.8124 Y2.2846
X0.8083 Y2.2813
X0.8052 Y2.2772
X0.8026 Y2.2722
X0.8004 Y2.2667
X0.7985 Y2.2609
G2 X0.7887 Y2.2624 I-0.0048 J0.0016
G1 X0.7886 Y2.2672
X0.7883 Y2.2719
X0.7876 Y2.2763
X0.7864 Y2.2804
X0.7847 Y2.2841
X0.7825 Y2.287
X0.7795 Y2.2891
X0.774 Y2.2914
X0.7679 Y2.293
X0.7615 Y2.2941
X0.755 Y2.2948
X0.7473 Y2.2952
X0.7397 Y2.295
X0.7324 Y2.294
X0.7255 Y2.292
X0.7207 Y2.2895
X0.7162 Y2.2861
X0.7123 Y2.2821
X0.7092 Y2.2774
X0.7067 Y2.2724
X0.7043 Y2.2642
X0.7027 Y2.2555
X0.7014 Y2.2466
X0.7003 Y2.2376
X0.6993 Y2.2285
X0.6984 Y2.2194
X0.6976 Y2.2103
X0.6944 Y2.1718
X0.8853 Y2.1558
X0.8897 Y2.2072
X0.804 Y2.2144
G2 X0.8017 Y2.2152 I0.0004 J0.005
G3 X0.8003 Y2.215 I-0.0005 J-0.0008
G1 X0.7998 Y2.2141
X0.7994 Y2.2135 Z0.0003
X0.7992 Y2.2133 Z0.001
X0.7774 Y2.2151
X0.7772 Y2.2154 Z0.0003 F13.33
X0.777 Y2.216 Z0
X0.7766 Y2.2169 F40
G3 X0.7752 Y2.2175 I-0.0009 J-0.0004
G2 X0.7728 Y2.217 I-0.002 J0.0046
G1 X0.7281 Y2.2208
G2 X0.7236 Y2.2264 I0.0004 J0.005
G1 X0.7241 Y2.2309
G2 X0.7242 Y2.2313 I0.005 J-0.0006
G1 X0.7252 Y2.2357
G2 X0.7253 Y2.2364 I0.0049 J-0.001
G1 X0.7261 Y2.2386
G2 X0.7264 Y2.2392 I0.0047 J-0.0017
G1 X0.7275 Y2.2413
G2 X0.7281 Y2.2423 I0.0045 J-0.0023
G1 X0.7296 Y2.2441
G2 X0.731 Y2.2452 I0.0038 J-0.0032
G1 X0.7337 Y2.2468
G2 X0.7351 Y2.2473 I0.0025 J-0.0043
G1 X0.7382 Y2.248
G2 X0.739 Y2.2481 I0.0011 J-0.0049
G1 X0.7422 Y2.2483
G2 X0.7427 I0.0003 J-0.005
G1 X0.7458 Y2.2482
X0.7461
X0.7571 Y2.2472
X0.7573
X0.7622 Y2.2466
G2 X0.7627 Y2.2465 I-0.0006 J-0.005
G1 X0.7676 Y2.2454
G2 X0.7683 Y2.2452 I-0.0011 J-0.0049
G1 X0.7707 Y2.2442
G2 X0.7717 Y2.2437 I-0.0019 J-0.0046
G1 X0.7739 Y2.2422
G2 X0.7753 Y2.2407 I-0.0029 J-0.0041
G1 X0.7766 Y2.2385
G2 X0.7773 Y2.2369 I-0.0042 J-0.0026
G1 X0.7782 Y2.2323
G2 X0.7783 Y2.2315 I-0.0049 J-0.001
G1 X0.7785 Y2.2268
G2 Y2.2264 I-0.005 J-0.0002
G1 X0.7782 Y2.2218
G2 X0.7752 Y2.2175 I-0.005 J0.0003
G3 X0.7747 Y2.2161 I0.0004 J-0.0009
G1 X0.7751 Y2.2152
X0.7754 Y2.2146 Z0.0003
X0.7755 Y2.2143 Z0.001
G0 Z0.2
X0.8871 Y2.4098
G1 Z0.0394 F13.33
Z0.001
X0.8874 Y2.4099 Z0.0003
X0.8881 Y2.4101 Z0
X0.8891 Y2.4103 F40
G3 X0.8898 Y2.4115 I-0.0002 J0.001
G2 X0.8913 Y2.4165 I0.0048 J0.0012
G1 X0.8948 Y2.4196
G2 X0.8952 Y2.4199 I0.0033 J-0.0038
G1 X0.899 Y2.4226
G2 X0.8995 Y2.4229 I0.0029 J-0.0041
G1 X0.9022 Y2.4244
G2 X0.9034 Y2.4248 I0.0023 J-0.0044
G1 X0.9064 Y2.4255
G2 X0.9086 Y2.4256 I0.0012 J-0.0049
G1 X0.9116 Y2.425
G2 X0.9132 Y2.4243 I-0.001 J-0.0049
G1 X0.9171 Y2.4218
G2 X0.9177 Y2.4214 I-0.0027 J-0.0042
G1 X0.9212 Y2.4184
X0.9215 Y2.4182
X0.9248 Y2.415
X0.9249 Y2.4149
X0.9281 Y2.4115
X0.9282
X0.9701 Y2.3663
X1.0046 Y2.3983
X0.972 Y2.4334
X0.9681 Y2.4375
X0.9643 Y2.4416
X0.9603 Y2.4455
X0.9564 Y2.4493
X0.9527 Y2.4525
X0.9487 Y2.4545
X0.9442 Y2.4555
X0.9389 Y2.4558
X0.9338 Y2.4549
X0.9286 Y2.453
X0.9234 Y2.4504
X0.9181 Y2.4474
G2 X0.9119 Y2.455 I-0.0025 J0.0043
G1 X0.915 Y2.4586
X0.9178 Y2.4623
X0.9203 Y2.4661
X0.9223 Y2.4699
X0.9235 Y2.4737
X0.9237 Y2.4773
X0.9229 Y2.481
X0.9211 Y2.4852
X0.9185 Y2.4894
X0.9155 Y2.4936
X0.9122 Y2.4976
X0.9087 Y2.5015
X0.9033 Y2.5069
X0.8976 Y2.5118
X0.8916 Y2.516
X0.8852 Y2.5191
X0.8799 Y2.5206
X0.8744 Y2.521
X0.8688 Y2.5206
X0.8633 Y2.5193
X0.8582 Y2.5172
X0.8509 Y2.5128
X0.8439 Y2.5075
X0.837 Y2.5018
X0.8301 Y2.4959
X0.8233 Y2.4899
X0.8166 Y2.4838
X0.8099 Y2.4776
X0.7817 Y2.4514
X0.9115 Y2.3118
X0.9491 Y2.3468
X0.891 Y2.4094
G2 X0.8898 Y2.4115 I0.0037 J0.0034
G3 X0.8886 Y2.4123 I-0.001 J-0.0002
G1 X0.8876 Y2.412
X0.8869 Y2.4118 Z0.0003
X0.8866 Z0.001
X0.8718 Y2.4277
X0.8719 Y2.428 Z0.0003 F13.33
X0.8721 Y2.4287 Z0
X0.8724 Y2.4296 F40
G3 X0.8718 Y2.4309 I-0.0009 J0.0003
G2 X0.8697 Y2.4322 I0.0016 J0.0047
G1 X0.8393 Y2.4649
G2 X0.8397 Y2.4721 I0.0037 J0.0034
G1 X0.8431 Y2.4751
G2 X0.8435 Y2.4753 I0.0033 J-0.0038
G1 X0.8472 Y2.478
G2 X0.8477 Y2.4783 I0.0029 J-0.0041
G1 X0.8498 Y2.4794
G2 X0.8504 Y2.4797 I0.0024 J-0.0044
G1 X0.8526 Y2.4805
G2 X0.8538 Y2.4808 I0.0018 J-0.0047
G1 X0.8561 Y2.4811
G2 X0.8578 Y2.481 I0.0006 J-0.005
G1 X0.8609 Y2.4803
G2 X0.8622 Y2.4798 I-0.0011 J-0.0049
G1 X0.865 Y2.4783
G2 X0.8657 Y2.4778 I-0.0024 J-0.0044
G1 X0.8682 Y2.4758
G2 X0.8686 Y2.4755 I-0.0031 J-0.0039
G1 X0.8708 Y2.4732
X0.8709 Y2.4731
X0.8784 Y2.465
X0.8785
X0.8801 Y2.4631
X0.8803 Y2.463
X0.8819 Y2.461
X0.8821 Y2.4608
X0.8836 Y2.4587
X0.8838 Y2.4584
X0.8851 Y2.4563
G2 X0.8854 Y2.4558 I-0.0042 J-0.0027
G1 X0.8865 Y2.4535
G2 X0.8869 Y2.4524 I-0.0045 J-0.0022
G1 X0.8874 Y2.4499
G2 Y2.448 I-0.0049 J-0.0011
G1 X0.887 Y2.4455
G2 X0.8864 Y2.444 I-0.0049 J0.0009
G1 X0.8847 Y2.4409
G2 X0.8843 Y2.4403 I-0.0044 J0.0024
G1 X0.8822 Y2.4376
G2 X0.8819 Y2.4372 I-0.004 J0.0031
G1 X0.8795 Y2.4347
X0.8794 Y2.4345
X0.8769 Y2.4321
G2 X0.8718 Y2.4309 I-0.0035 J0.0036
G3 X0.8705 Y2.4303 I-0.0003 J-0.0009
G1 X0.8702 Y2.4293
X0.87 Y2.4287 Z0.0003
X0.8699 Y2.4284 Z0.001
G0 Z0.2
X1.0811 Y2.4745
G1 Z0.0394 F13.33
Z0.001
G18 G2 X1.0821 Z0 I0.001
G1 X1.0831 F40
G17 G3 X1.0841 Y2.4755 J0.001
G1 Y2.5513
Y2.5514
X1.0843 Y2.5594
G2 Y2.5598 I0.005 J-0.0001
G1 X1.0851 Y2.5678
G2 X1.0852 Y2.5684 I0.005 J-0.0005
G1 X1.0858 Y2.571
G2 X1.0861 Y2.572 I0.0049 J-0.0011
G1 X1.0872 Y2.5745
G2 X1.0882 Y2.5759 I0.0046 J-0.0021
G1 X1.0901 Y2.5778
G2 X1.0915 Y2.5788 I0.0035 J-0.0035
G1 X1.094 Y2.5799
G2 X1.0951 Y2.5803 I0.0021 J-0.0045
G1 X1.0977 Y2.5808
G2 X1.0984 Y2.5809 I0.001 J-0.0049
G1 X1.1011 Y2.5811
G2 X1.1016 I0.0003 J-0.005
G1 X1.1041 Y2.581
G2 X1.1047 Y2.5809 I-0.0002 J-0.005
G1 X1.1071 Y2.5804
G2 X1.1082 Y2.5801 I-0.0009 J-0.0049
G1 X1.1104 Y2.5791
G2 X1.1118 Y2.5782 I-0.002 J-0.0046
G1 X1.1136 Y2.5765
G2 X1.1147 Y2.575 I-0.0034 J-0.0036
G1 X1.1157 Y2.5728
G2 X1.116 Y2.5719 I-0.0046 J-0.0021
G1 X1.1166 Y2.5695
G2 X1.1167 Y2.5688 I-0.0049 J-0.0012
G1 X1.1174 Y2.5616
Y2.5612
X1.1176 Y2.5539
Y2.5538
Y2.5246
X1.1688
Y2.5382
X1.1687 Y2.5456
X1.1683 Y2.5529
X1.1676 Y2.5601
X1.1665 Y2.5671
X1.1647 Y2.5737
X1.1621 Y2.5796
X1.1583 Y2.5847
X1.1535 Y2.5892
X1.148 Y2.5929
X1.1392 Y2.5974
X1.1299 Y2.6005
X1.1201 Y2.6026
X1.1101 Y2.6037
X1.0999 Y2.604
X1.0907 Y2.6037
X1.0817 Y2.6027
X1.0728 Y2.6008
X1.0643 Y2.5979
X1.058 Y2.595
X1.0521 Y2.5915
X1.0468 Y2.5872
X1.0423 Y2.5822
X1.0385 Y2.5765
X1.0358 Y2.5704
X1.0343 Y2.5637
X1.0336 Y2.5565
X1.0332 Y2.549
X1.033 Y2.5415
X1.0329 Y2.5339
Y2.4753
X1.033 Y2.4657
X1.0336 Y2.4562
X1.0347 Y2.4469
X1.0366 Y2.4378
X1.0383 Y2.4326
X1.0407 Y2.4278
X1.0438 Y2.4235
X1.0476 Y2.4197
X1.052 Y2.4164
X1.0593 Y2.4124
X1.0672 Y2.4093
X1.0755 Y2.4071
X1.0841 Y2.4057
X1.0928 Y2.4049
X1.1016 Y2.4046
X1.111 Y2.405
X1.1203 Y2.4062
X1.1293 Y2.4083
X1.1379 Y2.4115
X1.1442 Y2.4147
X1.1502 Y2.4186
X1.1556 Y2.4231
X1.1601 Y2.4283
X1.1629 Y2.4328
X1.1648 Y2.4378
X1.1662 Y2.4433
X1.1672 Y2.449
X1.1678 Y2.4549
X1.1686 Y2.4667
X1.1688 Y2.4787
Y2.4817
X1.1176
Y2.4598
Y2.4597
X1.1174 Y2.4512
Y2.4509
X1.1167 Y2.4425
G2 Y2.442 I-0.005 J0.0004
G1 X1.1162 Y2.4393
G2 X1.116 Y2.4386 I-0.0049 J0.0009
G1 X1.1152 Y2.4359
G2 X1.1145 Y2.4346 I-0.0048 J0.0015
G1 X1.1129 Y2.4323
G2 X1.1115 Y2.4309 I-0.0041 J0.0029
G1 X1.1092 Y2.4294
G2 X1.1078 Y2.4288 I-0.0028 J0.0042
G1 X1.1051 Y2.428
G2 X1.1041 Y2.4278 I-0.0014 J0.0048
G1 X1.1013 Y2.4276
G2 X1.1006 I-0.0004 J0.005
G1 X1.098 Y2.4278
G2 X1.0973 Y2.4279 I0.0003 J0.005
G1 X1.0948 Y2.4284
G2 X1.0936 Y2.4288 I0.001 J0.0049
G1 X1.0913 Y2.4299
G2 X1.0899 Y2.4309 I0.0022 J0.0045
G1 X1.0881 Y2.4327
G2 X1.0871 Y2.4342 I0.0036 J0.0035
G1 X1.0861 Y2.4365
G2 X1.0857 Y2.4375 I0.0045 J0.0021
G1 X1.0852 Y2.44
G2 X1.0851 Y2.4405 I0.0049 J0.0011
G1 X1.0844 Y2.4456
Y2.446
X1.0842 Y2.4511
Y2.4513
X1.0841 Y2.4564
Y2.4565
Y2.4755
G3 X1.0831 Y2.4765 I-0.001
G1 X1.0821
G18 G3 X1.0811 Z0.001 K0.001
G0 Z0.2
X1.3179 Y2.4924
G1 Z0.0394 F13.33
Z0.001
X1.3181 Y2.4926 Z0.0003
X1.3185 Y2.4932 Z0
X1.3192 Y2.4939 F40
G17 G3 Y2.4953 I-0.0007 J0.0007
G1 X1.3006 Y2.5122
X1.1964 Y2.3976
X1.2326 Y2.3646
X1.3043 Y2.4434
X1.3098 Y2.4494
X1.31 Y2.4496
X1.3158 Y2.4553
X1.316 Y2.4555
X1.318 Y2.4573
G2 X1.3183 Y2.4575 I0.0033 J-0.0037
G1 X1.3204 Y2.4592
G2 X1.3213 Y2.4597 I0.003 J-0.004
G1 X1.3237 Y2.4609
G2 X1.3258 Y2.4614 I0.0022 J-0.0045
G1 X1.3286
G2 X1.3305 Y2.4611 I0.0001 J-0.005
G1 X1.333 Y2.46
G2 X1.3342 Y2.4594 I-0.0019 J-0.0046
G1 X1.3363 Y2.4577
G2 X1.3369 Y2.4572 I-0.003 J-0.004
G1 X1.3386 Y2.4554
G2 X1.3393 Y2.4545 I-0.0036 J-0.0034
G1 X1.3405 Y2.4524
G2 X1.3412 Y2.4505 I-0.0043 J-0.0025
G1 X1.3415 Y2.4481
G2 X1.3412 Y2.4456 I-0.005 J-0.0007
G1 X1.3404 Y2.4433
G2 X1.3399 Y2.4423 I-0.0047 J0.0018
G1 X1.3385 Y2.4403
X1.3384 Y2.44
X1.3369 Y2.4381
X1.3367 Y2.4379
X1.332 Y2.4322
X1.3319 Y2.432
X1.3269 Y2.4265
X1.2534 Y2.3457
X1.2896 Y2.3128
X1.364 Y2.3945
X1.3676 Y2.3985
X1.371 Y2.4025
X1.3743 Y2.4066
X1.3774 Y2.4107
X1.3802 Y2.4149
X1.3824 Y2.419
X1.3836 Y2.4231
X1.3839 Y2.4274
X1.3831 Y2.4332
X1.3811 Y2.4387
X1.3782 Y2.4439
X1.3744 Y2.4487
X1.37 Y2.4531
X1.3643 Y2.4576
X1.358 Y2.4611
X1.3513 Y2.4635
X1.3459 Y2.4643
X1.3403
X1.3345 Y2.4634
G2 X1.3303 Y2.472 I-0.0007 J0.0049
G1 X1.3374 Y2.4788
X1.3192 Y2.4953
G3 X1.3177 I-0.0007 J-0.0007
G1 X1.3171 Y2.4945
X1.3166 Y2.494 Z0.0003
X1.3164 Y2.4938 Z0.001
G0 Z0.2
X1.4307 Y2.2488
G1 Z0.0394 F13.33
Z0.001
Y2.2485 Z0.0003
X1.4308 Y2.2478 Z0
Y2.2468 F40
G3 X1.4319 Y2.2459 I0.001 J0.0001
G1 X1.4486 Y2.2475
X1.4487
X1.4566 Y2.2481
X1.457
X1.4648
G2 X1.4654 Y2.248 J-0.005
G1 X1.468 Y2.2477
G2 X1.4689 Y2.2475 I-0.0006 J-0.005
G1 X1.4714 Y2.2468
G2 X1.4729 Y2.246 I-0.0014 J-0.0048
G1 X1.475 Y2.2445
G2 X1.4762 Y2.2432 I-0.003 J-0.004
G1 X1.4777 Y2.241
G2 X1.4782 Y2.2398 I-0.0042 J-0.0027
G1 X1.479 Y2.2373
G2 X1.4792 Y2.2365 I-0.0048 J-0.0016
G1 X1.4796 Y2.2339
G2 X1.4797 Y2.2334 I-0.0049 J-0.0007
G1 X1.4798 Y2.2309
G2 X1.4797 Y2.2301 I-0.005 J-0.0002
G1 X1.4794 Y2.2277
G2 X1.4791 Y2.2265 I-0.005 J0.0006
G1 X1.4783 Y2.2242
G2 X1.4772 Y2.2226 I-0.0047 J0.0018
G1 X1.4756 Y2.2208
G2 X1.4741 Y2.2197 I-0.0037 J0.0034
G1 X1.4719 Y2.2187
G2 X1.4712 Y2.2184 I-0.0022 J0.0045
G1 X1.4688 Y2.2177
G2 X1.4683 Y2.2175 I-0.0014 J0.0048
G1 X1.461 Y2.2162
X1.4607
X1.4534 Y2.2154
X1.4533
X1.4233 Y2.2125
X1.4282 Y2.161
X1.4423 Y2.1624
X1.4516 Y2.1634
X1.4607 Y2.1649
X1.4696 Y2.1669
X1.4781 Y2.1698
X1.4828 Y2.1721
X1.4869 Y2.1751
X1.4905 Y2.1789
X1.4937 Y2.1832
X1.4964 Y2.1879
X1.4997 Y2.1955
X1.502 Y2.2035
X1.5035 Y2.2118
X1.5041 Y2.2202
Y2.2288
X1.5035 Y2.2373
X1.5023 Y2.2465
X1.5004 Y2.2554
X1.4977 Y2.264
X1.494 Y2.2722
X1.4905 Y2.2782
X1.4864 Y2.2838
X1.4816 Y2.2886
X1.4762 Y2.2927
X1.471 Y2.2955
X1.4654 Y2.2976
X1.4596 Y2.2986
X1.4534 Y2.2989
X1.4469 Y2.2988
X1.4404 Y2.2984
X1.4338 Y2.298
X1.4271 Y2.2974
X1.3685 Y2.2918
X1.359 Y2.2908
X1.3496 Y2.2893
X1.3404 Y2.2873
X1.3315 Y2.2846
X1.3265 Y2.2824
X1.3219 Y2.2796
X1.3179 Y2.2761
X1.3144 Y2.272
X1.3115 Y2.2674
X1.3081 Y2.2597
X1.3058 Y2.2515
X1.3044 Y2.243
X1.3037 Y2.2344
X1.3038 Y2.2256
X1.3043 Y2.2168
X1.3056 Y2.2076
X1.3076 Y2.1986
X1.3104 Y2.1899
X1.3142 Y2.1816
X1.3179 Y2.1757
X1.3222 Y2.1701
X1.3271 Y2.165
X1.3325 Y2.1609
X1.337 Y2.1585
X1.3421 Y2.157
X1.3476 Y2.1561
X1.3533 Y2.1556
X1.3591 Y2.1555
X1.3708 Y2.1558
X1.3825 Y2.1567
X1.3854 Y2.157
X1.3805 Y2.2085
X1.3603 Y2.2066
X1.3602
X1.3522 Y2.2059
X1.3519
X1.3439 Y2.2058
G2 X1.3434 Y2.2059 I-0.0001 J0.005
G1 X1.3407 Y2.2061
G2 X1.3401 Y2.2062 I0.0005 J0.005
G1 X1.3375 Y2.2068
G2 X1.336 Y2.2074 I0.0011 J0.0049
G1 X1.3338 Y2.2087
G2 X1.3324 Y2.21 I0.0026 J0.0043
G1 X1.3307 Y2.2121
G2 X1.33 Y2.2134 I0.004 J0.0031
G1 X1.3291 Y2.2159
G2 X1.3288 Y2.2168 I0.0047 J0.0017
G1 X1.3284 Y2.2194
G2 X1.3283 Y2.2201 I0.0049 J0.0009
G1 X1.3282 Y2.2226
G2 X1.3283 Y2.2235 I0.005 J0.0002
G1 X1.3286 Y2.226
G2 X1.329 Y2.2272 I0.0049 J-0.0007
G1 X1.3299 Y2.2295
G2 X1.3309 Y2.231 I0.0046 J-0.0019
G1 X1.3326 Y2.2328
G2 X1.334 Y2.2339 I0.0036 J-0.0034
G1 X1.3362 Y2.235
G2 X1.337 Y2.2353 I0.0023 J-0.0044
G1 X1.3394 Y2.2361
G2 X1.3399 Y2.2362 I0.0015 J-0.0048
G1 X1.3474 Y2.2377
X1.3477
X1.3552 Y2.2386
X1.3553 Y2.2387
X1.4319 Y2.2459
G3 X1.4328 Y2.247 I-0.0001 J0.001
G1 X1.4327 Y2.248
Y2.2487 Z0.0003
Y2.249 Z0.001
G0 Z0.2
X1.38 Y3.282
G1 Z0.0394 F13.33
Z0.001
X1.3803 Z0.0003
X1.381 Y3.2821 Z0
X1.382 Y3.2822 F40
G3 X1.3829 Y3.2833 I-0.0001 J0.001
G1 X1.3805 Y3.3085
X1.3603 Y3.3066
X1.3602
X1.3522 Y3.3059
X1.3519
X1.3439 Y3.3058
G2 X1.3434 Y3.3059 I-0.0001 J0.005
G1 X1.3407 Y3.3061
G2 X1.3401 Y3.3062 I0.0005 J0.005
G1 X1.3375 Y3.3068
G2 X1.336 Y3.3074 I0.0011 J0.0049
G1 X1.3338 Y3.3087
G2 X1.3324 Y3.31 I0.0026 J0.0043
G1 X1.3307 Y3.3121
G2 X1.33 Y3.3134 I0.004 J0.0031
G1 X1.3291 Y3.3159
G2 X1.3288 Y3.3168 I0.0047 J0.0017
G1 X1.3284 Y3.3194
G2 X1.3283 Y3.3201 I0.0049 J0.0009
G1 X1.3282 Y3.3226
G2 X1.3283 Y3.3235 I0.005 J0.0002
G1 X1.3286 Y3.326
G2 X1.329 Y3.3272 I0.0049 J-0.0007
G1 X1.3299 Y3.3295
G2 X1.3309 Y3.331 I0.0046 J-0.0019
G1 X1.3326 Y3.3328
G2 X1.334 Y3.3339 I0.0036 J-0.0034
G1 X1.3362 Y3.335
G2 X1.337 Y3.3353 I0.0023 J-0.0044
G1 X1.3394 Y3.3361
G2 X1.3399 Y3.3362 I0.0015 J-0.0048
G1 X1.3474 Y3.3377
X1.3477
X1.3552 Y3.3386
X1.3553 Y3.3387
X1.4486 Y3.3475
X1.4487
X1.4566 Y3.3481
X1.457
X1.4648
G2 X1.4654 Y3.348 J-0.005
G1 X1.468 Y3.3477
G2 X1.4689 Y3.3475 I-0.0006 J-0.005
G1 X1.4714 Y3.3468
G2 X1.4729 Y3.346 I-0.0014 J-0.0048
G1 X1.475 Y3.3445
G2 X1.4762 Y3.3432 I-0.003 J-0.004
G1 X1.4777 Y3.341
G2 X1.4782 Y3.3398 I-0.0042 J-0.0027
G1 X1.479 Y3.3373
G2 X1.4792 Y3.3365 I-0.0048 J-0.0016
G1 X1.4796 Y3.3339
G2 X1.4797 Y3.3334 I-0.0049 J-0.0007
G1 X1.4798 Y3.3309
G2 X1.4797 Y3.3301 I-0.005 J-0.0002
G1 X1.4794 Y3.3277
G2 X1.4791 Y3.3265 I-0.005 J0.0006
G1 X1.4783 Y3.3242
G2 X1.4772 Y3.3226 I-0.0047 J0.0018
G1 X1.4756 Y3.3208
G2 X1.4741 Y3.3197 I-0.0037 J0.0034
G1 X1.4719 Y3.3187
G2 X1.4712 Y3.3184 I-0.0022 J0.0045
G1 X1.4688 Y3.3177
G2 X1.4683 Y3.3175 I-0.0014 J0.0048
G1 X1.461 Y3.3162
X1.4607
X1.4534 Y3.3154
X1.4533
X1.4233 Y3.3125
X1.4282 Y3.261
X1.4423 Y3.2624
X1.4516 Y3.2634
X1.4607 Y3.2649
X1.4696 Y3.2669
X1.4781 Y3.2698
X1.4828 Y3.2721
X1.4869 Y3.2751
X1.4905 Y3.2789
X1.4937 Y3.2832
X1.4964 Y3.2879
X1.4997 Y3.2955
X1.502 Y3.3035
X1.5035 Y3.3118
X1.5041 Y3.3202
Y3.3288
X1.5035 Y3.3373
X1.5023 Y3.3465
X1.5004 Y3.3554
X1.4977 Y3.364
X1.494 Y3.3722
X1.4905 Y3.3782
X1.4864 Y3.3838
X1.4816 Y3.3886
X1.4762 Y3.3927
X1.471 Y3.3955
X1.4654 Y3.3976
X1.4596 Y3.3986
X1.4534 Y3.3989
X1.4469 Y3.3988
X1.4404 Y3.3984
X1.4338 Y3.398
X1.4271 Y3.3974
X1.3685 Y3.3918
X1.359 Y3.3908
X1.3496 Y3.3893
X1.3404 Y3.3873
X1.3315 Y3.3846
X1.3265 Y3.3824
X1.3219 Y3.3796
X1.3179 Y3.3761
X1.3144 Y3.372
X1.3115 Y3.3674
X1.3081 Y3.3597
X1.3058 Y3.3515
X1.3044 Y3.343
X1.3037 Y3.3344
X1.3038 Y3.3256
X1.3043 Y3.3168
X1.3056 Y3.3076
X1.3076 Y3.2986
X1.3104 Y3.2899
X1.3142 Y3.2816
X1.3179 Y3.2757
X1.3222 Y3.2701
X1.3271 Y3.265
X1.3325 Y3.2609
X1.337 Y3.2585
X1.3421 Y3.257
X1.3476 Y3.2561
X1.3533 Y3.2556
X1.3591 Y3.2555
X1.3708 Y3.2558
X1.3825 Y3.2567
X1.3854 Y3.257
X1.3829 Y3.2833
G3 X1.3818 Y3.2842 I-0.001 J-0.0001
G1 X1.3808 Y3.2841
X1.3801 Y3.284 Z0.0003
X1.3798 Z0.001
G0 Z0.2
X1.3648 Y3.4999
G1 Z0.0394 F13.33
Z0.001
X1.365 Y3.4997 Z0.0003
X1.3656 Y3.4992 Z0
X1.3663 Y3.4986 F40
G3 X1.3678 Y3.4987 I0.0007 J0.0008
G1 X1.371 Y3.5025
X1.3743 Y3.5066
X1.3774 Y3.5107
X1.3802 Y3.5149
X1.3824 Y3.519
X1.3836 Y3.5231
X1.3839 Y3.5274
X1.3831 Y3.5332
X1.3811 Y3.5387
X1.3782 Y3.5439
X1.3744 Y3.5487
X1.37 Y3.5531
X1.3643 Y3.5576
X1.358 Y3.5611
X1.3513 Y3.5635
X1.3459 Y3.5643
X1.3403
X1.3345 Y3.5634
G2 X1.3303 Y3.572 I-0.0007 J0.0049
G1 X1.3374 Y3.5788
X1.3006 Y3.6122
X1.1964 Y3.4976
X1.2326 Y3.4646
X1.3043 Y3.5434
X1.3098 Y3.5494
X1.31 Y3.5496
X1.3158 Y3.5553
X1.316 Y3.5555
X1.318 Y3.5573
G2 X1.3183 Y3.5575 I0.0033 J-0.0037
G1 X1.3204 Y3.5592
G2 X1.3213 Y3.5597 I0.003 J-0.004
G1 X1.3237 Y3.5609
G2 X1.3258 Y3.5614 I0.0022 J-0.0045
G1 X1.3286
G2 X1.3305 Y3.5611 I0.0001 J-0.005
G1 X1.333 Y3.56
G2 X1.3342 Y3.5594 I-0.0019 J-0.0046
G1 X1.3363 Y3.5577
G2 X1.3369 Y3.5572 I-0.003 J-0.004
G1 X1.3386 Y3.5554
G2 X1.3393 Y3.5545 I-0.0036 J-0.0034
G1 X1.3405 Y3.5524
G2 X1.3412 Y3.5505 I-0.0043 J-0.0025
G1 X1.3415 Y3.5481
G2 X1.3412 Y3.5456 I-0.005 J-0.0007
G1 X1.3404 Y3.5433
G2 X1.3399 Y3.5423 I-0.0047 J0.0018
G1 X1.3385 Y3.5403
X1.3384 Y3.54
X1.3369 Y3.5381
X1.3367 Y3.5379
X1.332 Y3.5322
X1.3319 Y3.532
X1.3269 Y3.5265
X1.2534 Y3.4457
X1.2896 Y3.4128
X1.364 Y3.4945
X1.3676 Y3.4985
X1.3678 Y3.4987
G3 X1.3676 Y3.5001 I-0.0008 J0.0007
G1 X1.3669 Y3.5008
X1.3663 Y3.5012 Z0.0003
X1.3661 Y3.5014 Z0.001
G0 Z0.2
X1.1646 Y3.5531
G1 Z0.0394 F13.33
Z0.001
X1.1649 Y3.553 Z0.0003
X1.1656 Z0
X1.1666 Y3.5528 F40
G3 X1.1677 Y3.5537 I0.0001 J0.001
G1 X1.1678 Y3.5549
X1.1686 Y3.5667
X1.1688 Y3.5787
Y3.5817
X1.1176
Y3.5598
Y3.5597
X1.1174 Y3.5512
Y3.5509
X1.1167 Y3.5425
G2 Y3.542 I-0.005 J0.0004
G1 X1.1162 Y3.5393
G2 X1.116 Y3.5386 I-0.0049 J0.0009
G1 X1.1152 Y3.5359
G2 X1.1145 Y3.5346 I-0.0048 J0.0015
G1 X1.1129 Y3.5323
G2 X1.1115 Y3.5309 I-0.0041 J0.0029
G1 X1.1092 Y3.5294
G2 X1.1078 Y3.5288 I-0.0028 J0.0042
G1 X1.1051 Y3.528
G2 X1.1041 Y3.5278 I-0.0014 J0.0048
G1 X1.1013 Y3.5276
G2 X1.1006 I-0.0004 J0.005
G1 X1.098 Y3.5278
G2 X1.0973 Y3.5279 I0.0003 J0.005
G1 X1.0948 Y3.5284
G2 X1.0936 Y3.5288 I0.001 J0.0049
G1 X1.0913 Y3.5299
G2 X1.0899 Y3.5309 I0.0022 J0.0045
G1 X1.0881 Y3.5327
G2 X1.0871 Y3.5342 I0.0036 J0.0035
G1 X1.0861 Y3.5365
G2 X1.0857 Y3.5375 I0.0045 J0.0021
G1 X1.0852 Y3.54
G2 X1.0851 Y3.5405 I0.0049 J0.0011
G1 X1.0844 Y3.5456
Y3.546
X1.0842 Y3.5511
Y3.5513
X1.0841 Y3.5564
Y3.5565
Y3.6513
Y3.6514
X1.0843 Y3.6594
G2 Y3.6598 I0.005 J-0.0001
G1 X1.0851 Y3.6678
G2 X1.0852 Y3.6684 I0.005 J-0.0005
G1 X1.0858 Y3.671
G2 X1.0861 Y3.672 I0.0049 J-0.0011
G1 X1.0872 Y3.6745
G2 X1.0882 Y3.6759 I0.0046 J-0.0021
G1 X1.0901 Y3.6778
G2 X1.0915 Y3.6788 I0.0035 J-0.0035
G1 X1.094 Y3.6799
G2 X1.0951 Y3.6803 I0.0021 J-0.0045
G1 X1.0977 Y3.6808
G2 X1.0984 Y3.6809 I0.001 J-0.0049
G1 X1.1011 Y3.6811
G2 X1.1016 I0.0003 J-0.005
G1 X1.1041 Y3.681
G2 X1.1047 Y3.6809 I-0.0002 J-0.005
G1 X1.1071 Y3.6804
G2 X1.1082 Y3.6801 I-0.0009 J-0.0049
G1 X1.1104 Y3.6791
G2 X1.1118 Y3.6782 I-0.002 J-0.0046
G1 X1.1136 Y3.6765
G2 X1.1147 Y3.675 I-0.0034 J-0.0036
G1 X1.1157 Y3.6728
G2 X1.116 Y3.6719 I-0.0046 J-0.0021
G1 X1.1166 Y3.6695
G2 X1.1167 Y3.6688 I-0.0049 J-0.0012
G1 X1.1174 Y3.6616
Y3.6612
X1.1176 Y3.6539
Y3.6538
Y3.6246
X1.1688
Y3.6382
X1.1687 Y3.6456
X1.1683 Y3.6529
X1.1676 Y3.6601
X1.1665 Y3.6671
X1.1647 Y3.6737
X1.1621 Y3.6796
X1.1583 Y3.6847
X1.1535 Y3.6892
X1.148 Y3.6929
X1.1392 Y3.6974
X1.1299 Y3.7005
X1.1201 Y3.7026
X1.1101 Y3.7037
X1.0999 Y3.704
X1.0907 Y3.7037
X1.0817 Y3.7027
X1.0728 Y3.7008
X1.0643 Y3.6979
X1.058 Y3.695
X1.0521 Y3.6915
X1.0468 Y3.6872
X1.0423 Y3.6822
X1.0385 Y3.6765
X1.0358 Y3.6704
X1.0343 Y3.6637
X1.0336 Y3.6565
X1.0332 Y3.649
X1.033 Y3.6415
X1.0329 Y3.6339
Y3.5753
X1.033 Y3.5657
X1.0336 Y3.5562
X1.0347 Y3.5469
X1.0366 Y3.5378
X1.0383 Y3.5326
X1.0407 Y3.5278
X1.0438 Y3.5235
X1.0476 Y3.5197
X1.052 Y3.5164
X1.0593 Y3.5124
X1.0672 Y3.5093
X1.0755 Y3.5071
X1.0841 Y3.5057
X1.0928 Y3.5049
X1.1016 Y3.5046
X1.111 Y3.505
X1.1203 Y3.5062
X1.1293 Y3.5083
X1.1379 Y3.5115
X1.1442 Y3.5147
X1.1502 Y3.5186
X1.1556 Y3.5231
X1.1601 Y3.5283
X1.1629 Y3.5328
X1.1648 Y3.5378
X1.1662 Y3.5433
X1.1672 Y3.549
X1.1677 Y3.5537
G3 X1.1668 Y3.5548 I-0.001 J0.0001
G1 X1.1658 Y3.5549
X1.1651 Y3.555 Z0.0003
X1.1648 Y3.5551 Z0.001
G0 Z0.2
X0.9705 Y3.5306
G1 Z0.0394 F13.33
Z0.001
X0.9707 Y3.5308 Z0.0003
X0.9713 Y3.5313 Z0
X0.972 Y3.532 F40
G3 Y3.5334 I-0.0007 J0.0007
G1 X0.9681 Y3.5375
X0.9643 Y3.5416
X0.9603 Y3.5455
X0.9564 Y3.5493
X0.9527 Y3.5525
X0.9487 Y3.5545
X0.9442 Y3.5555
X0.9389 Y3.5558
X0.9338 Y3.5549
X0.9286 Y3.553
X0.9234 Y3.5504
X0.9181 Y3.5474
G2 X0.9119 Y3.555 I-0.0025 J0.0043
G1 X0.915 Y3.5586
X0.9178 Y3.5623
X0.9203 Y3.5661
X0.9223 Y3.5699
X0.9235 Y3.5737
X0.9237 Y3.5773
X0.9229 Y3.581
X0.9211 Y3.5852
X0.9185 Y3.5894
X0.9155 Y3.5936
X0.9122 Y3.5976
X0.9087 Y3.6015
X0.9033 Y3.6069
X0.8976 Y3.6118
X0.8916 Y3.616
X0.8852 Y3.6191
X0.8799 Y3.6206
X0.8744 Y3.621
X0.8688 Y3.6206
X0.8633 Y3.6193
X0.8582 Y3.6172
X0.8509 Y3.6128
X0.8439 Y3.6075
X0.837 Y3.6018
X0.8301 Y3.5959
X0.8233 Y3.5899
X0.8166 Y3.5838
X0.8099 Y3.5776
X0.7817 Y3.5514
X0.9115 Y3.4118
X0.9491 Y3.4468
X0.891 Y3.5094
G2 X0.8913 Y3.5165 I0.0037 J0.0034
G1 X0.8948 Y3.5196
G2 X0.8952 Y3.5199 I0.0033 J-0.0038
G1 X0.899 Y3.5226
G2 X0.8995 Y3.5229 I0.0029 J-0.0041
G1 X0.9022 Y3.5244
G2 X0.9034 Y3.5248 I0.0023 J-0.0044
G1 X0.9064 Y3.5255
G2 X0.9086 Y3.5256 I0.0012 J-0.0049
G1 X0.9116 Y3.525
G2 X0.9132 Y3.5243 I-0.001 J-0.0049
G1 X0.9171 Y3.5218
G2 X0.9177 Y3.5214 I-0.0027 J-0.0042
G1 X0.9212 Y3.5184
X0.9215 Y3.5182
X0.9248 Y3.515
X0.9249 Y3.5149
X0.9281 Y3.5115
X0.9282
X0.9701 Y3.4663
X1.0046 Y3.4983
X0.972 Y3.5334
G3 X0.9706 I-0.0007 J-0.0007
G1 X0.9699 Y3.5327
X0.9694 Y3.5323 Z0.0003
X0.9692 Y3.5321 Z0.001
G0 Z0.2
X0.8759 Y3.5722
G1 Z0.0394 F13.33
Z0.001
X0.8757 Y3.572 Z0.0003
X0.8752 Y3.5715 Z0
X0.8744 Y3.5708 F40
G3 Y3.5694 I0.0007 J-0.0007
G1 X0.8784 Y3.565
X0.8785
X0.8801 Y3.5631
X0.8803 Y3.563
X0.8819 Y3.561
X0.8821 Y3.5608
X0.8836 Y3.5587
X0.8838 Y3.5584
X0.8851 Y3.5563
G2 X0.8854 Y3.5558 I-0.0042 J-0.0027
G1 X0.8865 Y3.5535
G2 X0.8869 Y3.5524 I-0.0045 J-0.0022
G1 X0.8874 Y3.5499
G2 Y3.548 I-0.0049 J-0.0011
G1 X0.887 Y3.5455
G2 X0.8864 Y3.544 I-0.0049 J0.0009
G1 X0.8847 Y3.5409
G2 X0.8843 Y3.5403 I-0.0044 J0.0024
G1 X0.8822 Y3.5376
G2 X0.8819 Y3.5372 I-0.004 J0.0031
G1 X0.8795 Y3.5347
X0.8794 Y3.5345
X0.8769 Y3.5321
G2 X0.8697 Y3.5322 I-0.0035 J0.0036
G1 X0.8393 Y3.5649
G2 X0.8397 Y3.5721 I0.0037 J0.0034
G1 X0.8431 Y3.5751
G2 X0.8435 Y3.5753 I0.0033 J-0.0038
G1 X0.8472 Y3.578
G2 X0.8477 Y3.5783 I0.0029 J-0.0041
G1 X0.8498 Y3.5794
G2 X0.8504 Y3.5797 I0.0024 J-0.0044
G1 X0.8526 Y3.5805
G2 X0.8538 Y3.5808 I0.0018 J-0.0047
G1 X0.8561 Y3.5811
G2 X0.8578 Y3.581 I0.0006 J-0.005
G1 X0.8609 Y3.5803
G2 X0.8622 Y3.5798 I-0.0011 J-0.0049
G1 X0.865 Y3.5783
G2 X0.8657 Y3.5778 I-0.0024 J-0.0044
G1 X0.8682 Y3.5758
G2 X0.8686 Y3.5755 I-0.0031 J-0.0039
G1 X0.8708 Y3.5732
X0.8709 Y3.5731
X0.8744 Y3.5694
G3 X0.8758 Y3.5693 I0.0007 J0.0007
G1 X0.8765 Y3.57
X0.877 Y3.5705 Z0.0003
X0.8773 Y3.5707 Z0.001
G0 Z0.2
X0.8488 Y3.3839
G1 Z0.0394 F13.33
Z0.001
Y3.3842 Z0.0003
X0.8489 Y3.3849 Z0
X0.849 Y3.3859 F40
G3 X0.848 Y3.387 I-0.001 J0.0001
G1 X0.8424 Y3.3875
X0.8368 Y3.3879
X0.8312 Y3.3882
X0.8257 Y3.3883
X0.8207 Y3.3882
X0.8164 Y3.387
X0.8124 Y3.3846
X0.8083 Y3.3813
X0.8052 Y3.3772
X0.8026 Y3.3722
X0.8004 Y3.3667
X0.7985 Y3.3609
G2 X0.7887 Y3.3624 I-0.0048 J0.0015
G1 X0.7886 Y3.3672
X0.7883 Y3.3719
X0.7876 Y3.3763
X0.7864 Y3.3804
X0.7847 Y3.3841
X0.7825 Y3.387
X0.7795 Y3.3891
X0.774 Y3.3914
X0.7679 Y3.393
X0.7615 Y3.3941
X0.755 Y3.3948
X0.7473 Y3.3952
X0.7397 Y3.395
X0.7324 Y3.394
X0.7255 Y3.392
X0.7207 Y3.3895
X0.7162 Y3.3861
X0.7123 Y3.3821
X0.7092 Y3.3774
X0.7067 Y3.3724
X0.7043 Y3.3642
X0.7027 Y3.3555
X0.7014 Y3.3466
X0.7003 Y3.3376
X0.6993 Y3.3285
X0.6984 Y3.3194
X0.6976 Y3.3103
X0.6944 Y3.2718
X0.8853 Y3.2558
X0.8897 Y3.3072
X0.804 Y3.3144
G2 X0.7995 Y3.32 I0.0004 J0.005
G1 X0.8001 Y3.3246
G2 Y3.325 I0.005 J-0.0006
G1 X0.8011 Y3.3296
G2 X0.8012 Y3.3302 I0.0049 J-0.001
G1 X0.802 Y3.3324
G2 X0.8023 Y3.3331 I0.0047 J-0.0016
G1 X0.8033 Y3.3351
G2 X0.804 Y3.3361 I0.0044 J-0.0023
G1 X0.8056 Y3.3379
G2 X0.8071 Y3.3391 I0.0037 J-0.0033
G1 X0.8092 Y3.3401
G2 X0.8105 Y3.3405 I0.0022 J-0.0045
G1 X0.8151 Y3.3413
G2 X0.8158 Y3.3414 I0.0009 J-0.0049
G1 X0.8205 Y3.3415
X0.8207
X0.8254 Y3.3414
X0.8256
X0.8302 Y3.3411
X0.8303
X0.8921 Y3.3359
X0.896 Y3.383
X0.848 Y3.387
G3 X0.847 Y3.3861 I-0.0001 J-0.001
G1 X0.8469 Y3.3851
X0.8468 Y3.3844 Z0.0003
Y3.3841 Z0.001
G0 Z0.2
X0.7504 Y3.3508
G1 Z0.0394 F13.33
Z0.001
Y3.3505 Z0.0003
X0.7503 Y3.3498 Z0
X0.7502 Y3.3488 F40
G3 X0.7511 Y3.3477 I0.001 J-0.0001
G1 X0.7571 Y3.3472
X0.7573
X0.7622 Y3.3466
G2 X0.7627 Y3.3465 I-0.0006 J-0.005
G1 X0.7676 Y3.3454
G2 X0.7683 Y3.3452 I-0.0011 J-0.0049
G1 X0.7707 Y3.3442
G2 X0.7717 Y3.3437 I-0.0019 J-0.0046
G1 X0.7739 Y3.3422
G2 X0.7753 Y3.3407 I-0.0029 J-0.0041
G1 X0.7766 Y3.3385
G2 X0.7773 Y3.3369 I-0.0042 J-0.0026
G1 X0.7782 Y3.3323
G2 X0.7783 Y3.3315 I-0.0049 J-0.001
G1 X0.7785 Y3.3268
G2 Y3.3264 I-0.005 J-0.0002
G1 X0.7782 Y3.3218
G2 X0.7728 Y3.317 I-0.005 J0.0003
G1 X0.7281 Y3.3208
G2 X0.7236 Y3.3264 I0.0004 J0.005
G1 X0.7241 Y3.3309
G2 X0.7242 Y3.3313 I0.005 J-0.0006
G1 X0.7252 Y3.3357
G2 X0.7253 Y3.3364 I0.0049 J-0.001
G1 X0.7261 Y3.3386
G2 X0.7264 Y3.3392 I0.0047 J-0.0017
G1 X0.7275 Y3.3413
G2 X0.7281 Y3.3423 I0.0045 J-0.0023
G1 X0.7296 Y3.3441
G2 X0.731 Y3.3452 I0.0038 J-0.0032
G1 X0.7337 Y3.3468
G2 X0.7351 Y3.3473 I0.0025 J-0.0043
G1 X0.7382 Y3.348
G2 X0.739 Y3.3481 I0.0011 J-0.0049
G1 X0.7422 Y3.3483
G2 X0.7427 I0.0003 J-0.005
G1 X0.7458 Y3.3482
X0.7461
X0.7511 Y3.3477
G3 X0.7522 Y3.3486 I0.0001 J0.001
G1 X0.7523 Y3.3496
X0.7524 Y3.3503 Z0.0003
Y3.3506 Z0.001
G0 Z0.2
X0.3539 Y3.2668
G1 Z0.0394 F13.33
Z0.001
Y3.2665 Z0.0003
X0.354 Y3.2659 Z0
X0.3542 Y3.2649 F40
G3 X0.3554 Y3.264 I0.001 J0.0002
G1 X0.3607 Y3.2649
X0.3696 Y3.2669
X0.3781 Y3.2698
X0.3828 Y3.2721
X0.3869 Y3.2751
X0.3905 Y3.2789
X0.3937 Y3.2832
X0.3964 Y3.2879
X0.3997 Y3.2955
X0.402 Y3.3035
X0.4035 Y3.3118
X0.4041 Y3.3202
Y3.3288
X0.4035 Y3.3373
X0.4023 Y3.3465
X0.4004 Y3.3554
X0.3977 Y3.364
X0.394 Y3.3722
X0.3905 Y3.3782
X0.3864 Y3.3838
X0.3816 Y3.3886
X0.3762 Y3.3927
X0.371 Y3.3955
X0.3654 Y3.3976
X0.3596 Y3.3986
X0.3534 Y3.3989
X0.3469 Y3.3988
X0.3404 Y3.3984
X0.3338 Y3.398
X0.3271 Y3.3974
X0.2685 Y3.3918
X0.259 Y3.3908
X0.2496 Y3.3893
X0.2404 Y3.3873
X0.2315 Y3.3846
X0.2265 Y3.3824
X0.2219 Y3.3796
X0.2179 Y3.3761
X0.2144 Y3.372
X0.2115 Y3.3674
X0.2081 Y3.3597
X0.2058 Y3.3515
X0.2044 Y3.343
X0.2037 Y3.3344
X0.2038 Y3.3256
X0.2043 Y3.3168
X0.2056 Y3.3076
X0.2076 Y3.2986
X0.2104 Y3.2899
X0.2142 Y3.2816
X0.2179 Y3.2757
X0.2222 Y3.2701
X0.2271 Y3.265
X0.2325 Y3.2609
X0.237 Y3.2585
X0.2421 Y3.257
X0.2476 Y3.2561
X0.2533 Y3.2556
X0.2591 Y3.2555
X0.2708 Y3.2558
X0.2825 Y3.2567
X0.2854 Y3.257
X0.2805 Y3.3085
X0.2603 Y3.3066
X0.2602
X0.2522 Y3.3059
X0.2519
X0.2439 Y3.3058
G2 X0.2434 Y3.3059 I-0.0001 J0.005
G1 X0.2407 Y3.3061
G2 X0.2401 Y3.3062 I0.0005 J0.005
G1 X0.2375 Y3.3068
G2 X0.236 Y3.3074 I0.0011 J0.0049
G1 X0.2338 Y3.3087
G2 X0.2324 Y3.31 I0.0026 J0.0043
G1 X0.2307 Y3.3121
G2 X0.23 Y3.3134 I0.004 J0.003
G1 X0.2291 Y3.3159
G2 X0.2288 Y3.3168 I0.0047 J0.0017
G1 X0.2284 Y3.3194
G2 X0.2283 Y3.3201 I0.0049 J0.0009
G1 X0.2282 Y3.3226
G2 X0.2283 Y3.3235 I0.005 J0.0002
G1 X0.2286 Y3.326
G2 X0.229 Y3.3272 I0.0049 J-0.0007
G1 X0.2299 Y3.3295
G2 X0.2309 Y3.331 I0.0046 J-0.0019
G1 X0.2326 Y3.3328
G2 X0.234 Y3.3339 I0.0036 J-0.0034
G1 X0.2362 Y3.335
G2 X0.237 Y3.3353 I0.0023 J-0.0044
G1 X0.2394 Y3.3361
G2 X0.2399 Y3.3362 I0.0015 J-0.0048
G1 X0.2474 Y3.3377
X0.2477
X0.2552 Y3.3386
X0.2553 Y3.3387
X0.3486 Y3.3475
X0.3488
X0.3566 Y3.3481
X0.357
X0.3648
G2 X0.3654 Y3.348 J-0.005
G1 X0.368 Y3.3477
G2 X0.3689 Y3.3475 I-0.0006 J-0.005
G1 X0.3714 Y3.3468
G2 X0.3729 Y3.346 I-0.0014 J-0.0048
G1 X0.375 Y3.3445
G2 X0.3762 Y3.3432 I-0.003 J-0.004
G1 X0.3777 Y3.341
G2 X0.3782 Y3.3398 I-0.0042 J-0.0027
G1 X0.379 Y3.3373
G2 X0.3792 Y3.3365 I-0.0048 J-0.0016
G1 X0.3796 Y3.3339
G2 X0.3797 Y3.3334 I-0.0049 J-0.0007
G1 X0.3798 Y3.3309
G2 X0.3797 Y3.3301 I-0.005 J-0.0002
G1 X0.3794 Y3.3277
G2 X0.3791 Y3.3265 I-0.005 J0.0006
G1 X0.3783 Y3.3242
G2 X0.3772 Y3.3226 I-0.0047 J0.0018
G1 X0.3756 Y3.3208
G2 X0.3741 Y3.3197 I-0.0037 J0.0034
G1 X0.3719 Y3.3187
G2 X0.3712 Y3.3184 I-0.0022 J0.0045
G1 X0.3688 Y3.3177
G2 X0.3683 Y3.3175 I-0.0014 J0.0048
G1 X0.361 Y3.3162
X0.3607
X0.3534 Y3.3154
X0.3533
X0.3233 Y3.3125
X0.3282 Y3.261
X0.3423 Y3.2624
X0.3516 Y3.2634
X0.3554 Y3.264
G3 X0.3562 Y3.2652 I-0.0002 J0.001
G1 X0.356 Y3.2662
X0.3559 Y3.2669 Z0.0003
Y3.2672 Z0.001
G0 Z0.2
X0.2648 Y3.4999
G1 Z0.0394 F13.33
Z0.001
X0.265 Y3.4997 Z0.0003
X0.2656 Y3.4992 Z0
X0.2663 Y3.4986 F40
G3 X0.2678 Y3.4987 I0.0007 J0.0008
G1 X0.271 Y3.5025
X0.2743 Y3.5066
X0.2774 Y3.5107
X0.2802 Y3.5149
X0.2824 Y3.519
X0.2836 Y3.5231
X0.2839 Y3.5274
X0.2831 Y3.5332
X0.2811 Y3.5387
X0.2782 Y3.5439
X0.2744 Y3.5487
X0.27 Y3.5531
X0.2643 Y3.5576
X0.258 Y3.5611
X0.2513 Y3.5635
X0.2459 Y3.5643
X0.2403
X0.2345 Y3.5634
G2 X0.2303 Y3.572 I-0.0007 J0.0049
G1 X0.2374 Y3.5788
X0.2006 Y3.6122
X0.0964 Y3.4976
X0.1326 Y3.4646
X0.2043 Y3.5434
X0.2098 Y3.5494
X0.21 Y3.5496
X0.2158 Y3.5553
X0.216 Y3.5555
X0.218 Y3.5573
G2 X0.2183 Y3.5575 I0.0033 J-0.0037
G1 X0.2204 Y3.5592
G2 X0.2213 Y3.5597 I0.003 J-0.004
G1 X0.2237 Y3.5609
G2 X0.2258 Y3.5614 I0.0022 J-0.0045
G1 X0.2286
G2 X0.2305 Y3.5611 I0.0001 J-0.005
G1 X0.233 Y3.56
G2 X0.2342 Y3.5594 I-0.0019 J-0.0046
G1 X0.2363 Y3.5577
G2 X0.2369 Y3.5572 I-0.003 J-0.004
G1 X0.2386 Y3.5554
G2 X0.2393 Y3.5545 I-0.0036 J-0.0034
G1 X0.2405 Y3.5524
G2 X0.2412 Y3.5505 I-0.0043 J-0.0025
G1 X0.2415 Y3.5481
G2 X0.2412 Y3.5456 I-0.005 J-0.0007
G1 X0.2404 Y3.5433
G2 X0.2399 Y3.5424 I-0.0047 J0.0018
G1 X0.2385 Y3.5403
X0.2384 Y3.54
X0.2369 Y3.5381
X0.2367 Y3.5379
X0.232 Y3.5322
X0.2319 Y3.532
X0.2269 Y3.5265
X0.1534 Y3.4457
X0.1896 Y3.4128
X0.264 Y3.4945
X0.2676 Y3.4985
X0.2678 Y3.4987
G3 X0.2676 Y3.5001 I-0.0008 J0.0007
G1 X0.2669 Y3.5008
X0.2663 Y3.5012 Z0.0003
X0.2661 Y3.5014 Z0.001
G0 Z0.2
X0.0646 Y3.5531
G1 Z0.0394 F13.33
Z0.001
X0.0649 Y3.553 Z0.0003
X0.0656 Z0
X0.0666 Y3.5528 F40
G3 X0.0677 Y3.5537 I0.0001 J0.001
G1 X0.0678 Y3.5549
X0.0686 Y3.5667
X0.0688 Y3.5787
Y3.5817
X0.0176
Y3.5598
Y3.5597
X0.0174 Y3.5512
Y3.5509
X0.0167 Y3.5425
G2 Y3.542 I-0.005 J0.0004
G1 X0.0162 Y3.5393
G2 X0.016 Y3.5386 I-0.0049 J0.0009
G1 X0.0152 Y3.5359
G2 X0.0145 Y3.5346 I-0.0048 J0.0015
G1 X0.0129 Y3.5323
G2 X0.0115 Y3.5309 I-0.0041 J0.0029
G1 X0.0092 Y3.5294
G2 X0.0078 Y3.5288 I-0.0028 J0.0042
G1 X0.0051 Y3.528
G2 X0.0041 Y3.5278 I-0.0014 J0.0048
G1 X0.0013 Y3.5276
G2 X0.0006 I-0.0004 J0.005
G1 X-0.002 Y3.5278
G2 X-0.0027 Y3.5279 I0.0003 J0.005
G1 X-0.0052 Y3.5284
G2 X-0.0064 Y3.5288 I0.001 J0.0049
G1 X-0.0087 Y3.5299
G2 X-0.0101 Y3.5309 I0.0022 J0.0045
G1 X-0.0119 Y3.5327
G2 X-0.0129 Y3.5342 I0.0036 J0.0035
G1 X-0.0139 Y3.5365
G2 X-0.0143 Y3.5375 I0.0045 J0.0021
G1 X-0.0148 Y3.54
G2 X-0.0149 Y3.5405 I0.0049 J0.0011
G1 X-0.0155 Y3.5456
X-0.0156 Y3.546
X-0.0158 Y3.5511
Y3.5513
X-0.0159 Y3.5564
Y3.5565
Y3.6513
Y3.6514
X-0.0157 Y3.6594
G2 Y3.6598 I0.005 J-0.0001
G1 X-0.0149 Y3.6678
G2 X-0.0148 Y3.6684 I0.005 J-0.0005
G1 X-0.0142 Y3.671
G2 X-0.0139 Y3.672 I0.0049 J-0.0011
G1 X-0.0128 Y3.6745
G2 X-0.0118 Y3.6759 I0.0046 J-0.0021
G1 X-0.0099 Y3.6778
G2 X-0.0085 Y3.6788 I0.0035 J-0.0035
G1 X-0.006 Y3.6799
G2 X-0.0049 Y3.6803 I0.0021 J-0.0045
G1 X-0.0023 Y3.6808
G2 X-0.0016 Y3.6809 I0.001 J-0.0049
G1 X0.0011 Y3.6811
G2 X0.0016 I0.0003 J-0.005
G1 X0.0041 Y3.681
G2 X0.0047 Y3.6809 I-0.0002 J-0.005
G1 X0.0071 Y3.6804
G2 X0.0082 Y3.6801 I-0.0009 J-0.0049
G1 X0.0104 Y3.6791
G2 X0.0118 Y3.6782 I-0.002 J-0.0046
G1 X0.0136 Y3.6766
G2 X0.0147 Y3.675 I-0.0034 J-0.0036
G1 X0.0157 Y3.6728
G2 X0.016 Y3.6719 I-0.0046 J-0.0021
G1 X0.0166 Y3.6695
G2 X0.0167 Y3.6688 I-0.0049 J-0.0012
G1 X0.0174 Y3.6616
Y3.6612
X0.0176 Y3.6539
Y3.6538
Y3.6246
X0.0688
Y3.6382
X0.0687 Y3.6456
X0.0683 Y3.6529
X0.0676 Y3.6601
X0.0665 Y3.6671
X0.0647 Y3.6737
X0.0621 Y3.6796
X0.0583 Y3.6847
X0.0535 Y3.6892
X0.048 Y3.6929
X0.0392 Y3.6974
X0.0299 Y3.7005
X0.0201 Y3.7026
X0.0101 Y3.7037
X-0.0001 Y3.704
X-0.0093 Y3.7037
X-0.0183 Y3.7027
X-0.0271 Y3.7008
X-0.0357 Y3.6979
X-0.042 Y3.695
X-0.0479 Y3.6915
X-0.0531 Y3.6872
X-0.0577 Y3.6822
X-0.0615 Y3.6765
X-0.0642 Y3.6704
X-0.0657 Y3.6637
X-0.0664 Y3.6565
X-0.0668 Y3.649
X-0.067 Y3.6415
X-0.0671 Y3.6339
Y3.5753
X-0.0669 Y3.5657
X-0.0664 Y3.5562
X-0.0653 Y3.5469
X-0.0634 Y3.5378
X-0.0617 Y3.5326
X-0.0593 Y3.5278
X-0.0562 Y3.5235
X-0.0524 Y3.5197
X-0.048 Y3.5164
X-0.0407 Y3.5124
X-0.0328 Y3.5093
X-0.0245 Y3.5071
X-0.0159 Y3.5057
X-0.0072 Y3.5049
X0.0016 Y3.5046
X0.011 Y3.505
X0.0203 Y3.5062
X0.0293 Y3.5083
X0.0379 Y3.5115
X0.0442 Y3.5147
X0.0502 Y3.5186
X0.0556 Y3.5231
X0.0601 Y3.5283
X0.0629 Y3.5328
X0.0648 Y3.5378
X0.0662 Y3.5433
X0.0672 Y3.549
X0.0677 Y3.5537
G3 X0.0668 Y3.5548 I-0.001 J0.0001
G1 X0.0658 Y3.5549
X0.0651 Y3.555 Z0.0003
X0.0648 Y3.5551 Z0.001
G0 Z0.2
X-0.1295 Y3.5306
G1 Z0.0394 F13.33
Z0.001
X-0.1293 Y3.5308 Z0.0003
X-0.1287 Y3.5313 Z0
X-0.128 Y3.5319 F40
G3 Y3.5334 I-0.0007 J0.0007
G1 X-0.1319 Y3.5375
X-0.1357 Y3.5416
X-0.1397 Y3.5455
X-0.1428 Y3.5486
X-0.1436 Y3.5493
X-0.1473 Y3.5525
X-0.1513 Y3.5545
X-0.1558 Y3.5555
X-0.1611 Y3.5558
X-0.1662 Y3.5549
X-0.1714 Y3.553
X-0.1766 Y3.5504
X-0.1819 Y3.5474
G2 X-0.1881 Y3.555 I-0.0025 J0.0043
G1 X-0.185 Y3.5586
X-0.1822 Y3.5623
X-0.1797 Y3.5661
X-0.1777 Y3.5699
X-0.1765 Y3.5737
X-0.1763 Y3.5773
X-0.1771 Y3.581
X-0.1789 Y3.5852
X-0.1815 Y3.5894
X-0.1845 Y3.5936
X-0.1878 Y3.5976
X-0.1913 Y3.6015
X-0.1967 Y3.6069
X-0.2024 Y3.6118
X-0.2084 Y3.616
X-0.2148 Y3.6191
X-0.2201 Y3.6206
X-0.2256 Y3.621
X-0.2312 Y3.6206
X-0.2367 Y3.6193
X-0.2418 Y3.6172
X-0.2491 Y3.6128
X-0.2561 Y3.6075
X-0.263 Y3.6018
X-0.2699 Y3.5959
X-0.2767 Y3.5899
X-0.2834 Y3.5838
X-0.2901 Y3.5776
X-0.3183 Y3.5514
X-0.1885 Y3.4118
X-0.1509 Y3.4468
X-0.209 Y3.5094
G2 X-0.2087 Y3.5165 I0.0037 J0.0034
G1 X-0.2052 Y3.5196
G2 X-0.2048 Y3.5199 I0.0033 J-0.0038
G1 X-0.201 Y3.5226
G2 X-0.2005 Y3.5229 I0.0029 J-0.0041
G1 X-0.1978 Y3.5244
G2 X-0.1966 Y3.5248 I0.0023 J-0.0044
G1 X-0.1936 Y3.5255
G2 X-0.1914 Y3.5256 I0.0012 J-0.0049
G1 X-0.1884 Y3.525
G2 X-0.1868 Y3.5243 I-0.001 J-0.0049
G1 X-0.1829 Y3.5218
G2 X-0.1823 Y3.5214 I-0.0027 J-0.0042
G1 X-0.1788 Y3.5185
X-0.1785 Y3.5182
X-0.1752 Y3.515
X-0.1751 Y3.5149
X-0.1719 Y3.5115
X-0.1718
X-0.1299 Y3.4663
X-0.0954 Y3.4983
X-0.128 Y3.5334
G3 X-0.1294 I-0.0007 J-0.0007
G1 X-0.1301 Y3.5327
X-0.1306 Y3.5323 Z0.0003
X-0.1308 Y3.5321 Z0.001
G0 Z0.2
X-0.2241 Y3.5722
G1 Z0.0394 F13.33
Z0.001
X-0.2243 Y3.572 Z0.0003
X-0.2248 Y3.5715 Z0
X-0.2256 Y3.5708 F40
G3 Y3.5694 I0.0007 J-0.0007
G1 X-0.2216 Y3.565
X-0.2215
X-0.2199 Y3.5631
X-0.2197 Y3.563
X-0.2181 Y3.561
X-0.2179 Y3.5608
X-0.2164 Y3.5587
X-0.2162 Y3.5584
X-0.2149 Y3.5563
G2 X-0.2146 Y3.5558 I-0.0042 J-0.0027
G1 X-0.2135 Y3.5535
G2 X-0.2131 Y3.5524 I-0.0045 J-0.0022
G1 X-0.2126 Y3.5499
G2 Y3.548 I-0.0049 J-0.0011
G1 X-0.213 Y3.5455
G2 X-0.2136 Y3.544 I-0.0049 J0.0009
G1 X-0.2153 Y3.5409
G2 X-0.2157 Y3.5403 I-0.0044 J0.0024
G1 X-0.2178 Y3.5376
G2 X-0.2181 Y3.5372 I-0.004 J0.0031
G1 X-0.2205 Y3.5347
X-0.2206 Y3.5345
X-0.2231 Y3.5321
G2 X-0.2303 Y3.5322 I-0.0035 J0.0036
G1 X-0.2607 Y3.5649
G2 X-0.2603 Y3.5721 I0.0037 J0.0034
G1 X-0.2569 Y3.5751
G2 X-0.2565 Y3.5753 I0.0033 J-0.0038
G1 X-0.2528 Y3.578
G2 X-0.2523 Y3.5783 I0.0029 J-0.0041
G1 X-0.2502 Y3.5794
G2 X-0.2496 Y3.5797 I0.0024 J-0.0044
G1 X-0.2474 Y3.5805
G2 X-0.2462 Y3.5808 I0.0018 J-0.0047
G1 X-0.2439 Y3.5811
G2 X-0.2422 Y3.581 I0.0006 J-0.005
G1 X-0.2391 Y3.5803
G2 X-0.2378 Y3.5798 I-0.0011 J-0.0049
G1 X-0.235 Y3.5783
G2 X-0.2343 Y3.5778 I-0.0024 J-0.0044
G1 X-0.2318 Y3.5758
G2 X-0.2314 Y3.5755 I-0.0031 J-0.0039
G1 X-0.2292 Y3.5732
X-0.2291 Y3.5731
X-0.2256 Y3.5694
G3 X-0.2242 Y3.5693 I0.0007 J0.0007
G1 X-0.2235 Y3.57
X-0.223 Y3.5705 Z0.0003
X-0.2228 Y3.5707 Z0.001
G0 Z0.2
X-0.2512 Y3.3839
G1 Z0.0394 F13.33
Z0.001
Y3.3842 Z0.0003
X-0.2511 Y3.3849 Z0
X-0.251 Y3.3859 F40
G3 X-0.252 Y3.387 I-0.001 J0.0001
G1 X-0.2576 Y3.3875
X-0.2633 Y3.3879
X-0.2688 Y3.3882
X-0.2743 Y3.3883
X-0.2793 Y3.3882
