%
(Sheet metal computer case)
(Holly Sheet!)
(T1  D=0.0787 CR=0 - ZMIN=-0.06 - bullnose end mill)
G90 G94
G17
G20
G28 G91 Z0
G90

(2D Contour1)
M9
T1 M6
S5000 M3
G54
M8
G0 X7.563 Y12.0079
Z0.6
Z0.2
G1 Z0.0494 F13.33
Z-0.0021
G18 G3 X7.5551 Z-0.01 I-0.0079
G1 X7.5472 F40
G17 G3 X7.5394 Y12 J-0.0079
G1 Y10.9 F20
G3 X7.5472 Y10.8921 I0.0079 F40
G1 X7.5551
G18 G2 X7.563 Z-0.0021 K0.0079
G1 Y12.0079
Z-0.0121 F13.33
G3 X7.5551 Z-0.02 I-0.0079
G1 X7.5472 F40
G17 G3 X7.5394 Y12 J-0.0079
G1 Y10.9 F20
G3 X7.5472 Y10.8921 I0.0079 F40
G1 X7.5551
G18 G2 X7.563 Z-0.0121 K0.0079
G1 Y12.0079
Z-0.0221 F13.33
G3 X7.5551 Z-0.03 I-0.0079
G1 X7.5472 F40
G17 G3 X7.5394 Y12 J-0.0079
G1 Y10.9 F20
G3 X7.5472 Y10.8921 I0.0079 F40
G1 X7.5551
G18 G2 X7.563 Z-0.0221 K0.0079
G1 Y12.0079
Z-0.0321 F13.33
G3 X7.5551 Z-0.04 I-0.0079
G1 X7.5472 F40
G17 G3 X7.5394 Y12 J-0.0079
G1 Y10.9 F20
G3 X7.5472 Y10.8921 I0.0079 F40
G1 X7.5551
G18 G2 X7.563 Z-0.0321 K0.0079
G1 Y12.0079
Z-0.0421 F13.33
G3 X7.5551 Z-0.05 I-0.0079
G1 X7.5472 F40
G17 G3 X7.5394 Y12 J-0.0079
G1 Y10.9 F20
G3 X7.5472 Y10.8921 I0.0079 F40
G1 X7.5551
G18 G2 X7.563 Z-0.0421 K0.0079
G1 Y12.0079
Z-0.0521 F13.33
G3 X7.5551 Z-0.06 I-0.0079
G1 X7.5472 F40
G17 G3 X7.5394 Y12 J-0.0079
G1 Y10.9 F20
G3 X7.5472 Y10.8921 I0.0079 F40
G1 X7.5551
G18 G2 X7.563 Z-0.0521 K0.0079
G0 Z0.2
X11.5079 Y10.837
G1 Z0.0494 F13.33
Z-0.0021
G19 G3 Y10.8449 Z-0.01 J0.0079
G1 Y10.8528 F40
G17 G3 X11.5 Y10.8606 I-0.0079
G1 X11 F20
G2 X10.9606 Y10.9 J0.0394
G1 Y12
G3 X10.9528 Y12.0079 I-0.0079 F40
G1 X10.9449
G18 G3 X10.937 Z-0.0021 K0.0079
G0 Z0.2
X11.5079 Y10.837
G1 Z0.0394 F13.33
Z-0.0121
G19 G3 Y10.8449 Z-0.02 J0.0079
G1 Y10.8528 F40
G17 G3 X11.5 Y10.8606 I-0.0079
G1 X11 F20
G2 X10.9606 Y10.9 J0.0394
G1 Y12
G3 X10.9528 Y12.0079 I-0.0079 F40
G1 X10.9449
G18 G3 X10.937 Z-0.0121 K0.0079
G0 Z0.2
X11.5079 Y10.837
G1 Z0.0294 F13.33
Z-0.0221
G19 G3 Y10.8449 Z-0.03 J0.0079
G1 Y10.8528 F40
G17 G3 X11.5 Y10.8606 I-0.0079
G1 X11 F20
G2 X10.9606 Y10.9 J0.0394
G1 Y12
G3 X10.9528 Y12.0079 I-0.0079 F40
G1 X10.9449
G18 G3 X10.937 Z-0.0221 K0.0079
G0 Z0.2
X11.5079 Y10.837
G1 Z0.0194 F13.33
Z-0.0321
G19 G3 Y10.8449 Z-0.04 J0.0079
G1 Y10.8528 F40
G17 G3 X11.5 Y10.8606 I-0.0079
G1 X11 F20
G2 X10.9606 Y10.9 J0.0394
G1 Y12
G3 X10.9528 Y12.0079 I-0.0079 F40
G1 X10.9449
G18 G3 X10.937 Z-0.0321 K0.0079
G0 Z0.2
X11.5079 Y10.837
G1 Z0.0094 F13.33
Z-0.0421
G19 G3 Y10.8449 Z-0.05 J0.0079
G1 Y10.8528 F40
G17 G3 X11.5 Y10.8606 I-0.0079
G1 X11 F20
G2 X10.9606 Y10.9 J0.0394
G1 Y12
G3 X10.9528 Y12.0079 I-0.0079 F40
G1 X10.9449
G18 G3 X10.937 Z-0.0421 K0.0079
G0 Z0.2
X11.5079 Y10.837
G1 Z-0.0006 F13.33
Z-0.0521
G19 G3 Y10.8449 Z-0.06 J0.0079
G1 Y10.8528 F40
G17 G3 X11.5 Y10.8606 I-0.0079
G1 X11 F20
G2 X10.9606 Y10.9 J0.0394
G1 Y12
G3 X10.9528 Y12.0079 I-0.0079 F40
G1 X10.9449
G18 G3 X10.937 Z-0.0521 K0.0079
G0 Z0.6
G17

(2D Contour4)
M8
G0 X6.637 Y4.9921
Z0.6
Z0.2
G1 Z0.0494 F13.33
Z-0.0021
G18 G2 X6.6449 Z-0.01 I0.0079
G1 X6.6528 F40
G17 G3 X6.6606 Y5 J0.0079
G1 Y5.0927 F20
X6.5 Y5.1855
X6.3394 Y5.0927
Y4.9073
X6.5 Y4.8145
X6.6606 Y4.9073
Y5
G3 X6.6528 Y5.0079 I-0.0079 F40
G1 X6.6449
G18 G3 X6.637 Z-0.0021 K0.0079
G1 Y4.9921
Z-0.0121 F13.33
G2 X6.6449 Z-0.02 I0.0079
G1 X6.6528 F40
G17 G3 X6.6606 Y5 J0.0079
G1 Y5.0927 F20
X6.5 Y5.1855
X6.3394 Y5.0927
Y4.9073
X6.5 Y4.8145
X6.6606 Y4.9073
Y5
G3 X6.6528 Y5.0079 I-0.0079 F40
G1 X6.6449
G18 G3 X6.637 Z-0.0121 K0.0079
G1 Y4.9921
Z-0.0221 F13.33
G2 X6.6449 Z-0.03 I0.0079
G1 X6.6528 F40
G17 G3 X6.6606 Y5 J0.0079
G1 Y5.0927 F20
X6.5 Y5.1855
X6.3394 Y5.0927
Y4.9073
X6.5 Y4.8145
X6.6606 Y4.9073
Y5
G3 X6.6528 Y5.0079 I-0.0079 F40
G1 X6.6449
G18 G3 X6.637 Z-0.0221 K0.0079
G1 Y4.9921
Z-0.0321 F13.33
G2 X6.6449 Z-0.04 I0.0079
G1 X6.6528 F40
G17 G3 X6.6606 Y5 J0.0079
G1 Y5.0927 F20
X6.5 Y5.1855
X6.3394 Y5.0927
Y4.9073
X6.5 Y4.8145
X6.6606 Y4.9073
Y5
G3 X6.6528 Y5.0079 I-0.0079 F40
G1 X6.6449
G18 G3 X6.637 Z-0.0321 K0.0079
G1 Y4.9921
Z-0.0421 F13.33
G2 X6.6449 Z-0.05 I0.0079
G1 X6.6528 F40
G17 G3 X6.6606 Y5 J0.0079
G1 Y5.0927 F20
X6.5 Y5.1855
X6.3394 Y5.0927
Y4.9073
X6.5 Y4.8145
X6.6606 Y4.9073
Y5
G3 X6.6528 Y5.0079 I-0.0079 F40
G1 X6.6449
G18 G3 X6.637 Z-0.0421 K0.0079
G1 Y4.9921
Z-0.0521 F13.33
G2 X6.6449 Z-0.06 I0.0079
G1 X6.6528 F40
G17 G3 X6.6606 Y5 J0.0079
G1 Y5.0927 F20
X6.5 Y5.1855
X6.3394 Y5.0927
Y4.9073
X6.5 Y4.8145
X6.6606 Y4.9073
Y5
G3 X6.6528 Y5.0079 I-0.0079 F40
G1 X6.6449
G18 G3 X6.637 Z-0.0521 K0.0079
G0 Z0.2
X7.237 Y4.9921
G1 Z0.0494 F13.33
Z-0.0021
G2 X7.2449 Z-0.01 I0.0079
G1 X7.2528 F40
G17 G3 X7.2606 Y5 J0.0079
G1 Y5.0927 F20
X7.1 Y5.1855
X6.9394 Y5.0927
Y4.9073
X7.1 Y4.8145
X7.2606 Y4.9073
Y5
G3 X7.2528 Y5.0079 I-0.0079 F40
G1 X7.2449
G18 G3 X7.237 Z-0.0021 K0.0079
G1 Y4.9921
Z-0.0121 F13.33
G2 X7.2449 Z-0.02 I0.0079
G1 X7.2528 F40
G17 G3 X7.2606 Y5 J0.0079
G1 Y5.0927 F20
X7.1 Y5.1855
X6.9394 Y5.0927
Y4.9073
X7.1 Y4.8145
X7.2606 Y4.9073
Y5
G3 X7.2528 Y5.0079 I-0.0079 F40
G1 X7.2449
G18 G3 X7.237 Z-0.0121 K0.0079
G1 Y4.9921
Z-0.0221 F13.33
G2 X7.2449 Z-0.03 I0.0079
G1 X7.2528 F40
G17 G3 X7.2606 Y5 J0.0079
G1 Y5.0927 F20
X7.1 Y5.1855
X6.9394 Y5.0927
Y4.9073
X7.1 Y4.8145
X7.2606 Y4.9073
Y5
G3 X7.2528 Y5.0079 I-0.0079 F40
G1 X7.2449
G18 G3 X7.237 Z-0.0221 K0.0079
G1 Y4.9921
Z-0.0321 F13.33
G2 X7.2449 Z-0.04 I0.0079
G1 X7.2528 F40
G17 G3 X7.2606 Y5 J0.0079
G1 Y5.0927 F20
X7.1 Y5.1855
X6.9394 Y5.0927
Y4.9073
X7.1 Y4.8145
X7.2606 Y4.9073
Y5
G3 X7.2528 Y5.0079 I-0.0079 F40
G1 X7.2449
G18 G3 X7.237 Z-0.0321 K0.0079
G1 Y4.9921
Z-0.0421 F13.33
G2 X7.2449 Z-0.05 I0.0079
G1 X7.2528 F40
G17 G3 X7.2606 Y5 J0.0079
G1 Y5.0927 F20
X7.1 Y5.1855
X6.9394 Y5.0927
Y4.9073
X7.1 Y4.8145
X7.2606 Y4.9073
Y5
G3 X7.2528 Y5.0079 I-0.0079 F40
G1 X7.2449
G18 G3 X7.237 Z-0.0421 K0.0079
G1 Y4.9921
Z-0.0521 F13.33
G2 X7.2449 Z-0.06 I0.0079
G1 X7.2528 F40
G17 G3 X7.2606 Y5 J0.0079
G1 Y5.0927 F20
X7.1 Y5.1855
X6.9394 Y5.0927
Y4.9073
X7.1 Y4.8145
X7.2606 Y4.9073
Y5
G3 X7.2528 Y5.0079 I-0.0079 F40
G1 X7.2449
G18 G3 X7.237 Z-0.0521 K0.0079
G0 Z0.2
Y5.5921
G1 Z0.0494 F13.33
Z-0.0021
G2 X7.2449 Z-0.01 I0.0079
G1 X7.2528 F40
G17 G3 X7.2606 Y5.6 J0.0079
G1 Y5.6927 F20
X7.1 Y5.7855
X6.9394 Y5.6927
Y5.5073
X7.1 Y5.4145
X7.2606 Y5.5073
Y5.6
G3 X7.2528 Y5.6079 I-0.0079 F40
G1 X7.2449
G18 G3 X7.237 Z-0.0021 K0.0079
G1 Y5.5921
Z-0.0121 F13.33
G2 X7.2449 Z-0.02 I0.0079
G1 X7.2528 F40
G17 G3 X7.2606 Y5.6 J0.0079
G1 Y5.6927 F20
X7.1 Y5.7855
X6.9394 Y5.6927
Y5.5073
X7.1 Y5.4145
X7.2606 Y5.5073
Y5.6
G3 X7.2528 Y5.6079 I-0.0079 F40
G1 X7.2449
G18 G3 X7.237 Z-0.0121 K0.0079
G1 Y5.5921
Z-0.0221 F13.33
G2 X7.2449 Z-0.03 I0.0079
G1 X7.2528 F40
G17 G3 X7.2606 Y5.6 J0.0079
G1 Y5.6927 F20
X7.1 Y5.7855
X6.9394 Y5.6927
Y5.5073
X7.1 Y5.4145
X7.2606 Y5.5073
Y5.6
G3 X7.2528 Y5.6079 I-0.0079 F40
G1 X7.2449
G18 G3 X7.237 Z-0.0221 K0.0079
G1 Y5.5921
Z-0.0321 F13.33
G2 X7.2449 Z-0.04 I0.0079
G1 X7.2528 F40
G17 G3 X7.2606 Y5.6 J0.0079
G1 Y5.6927 F20
X7.1 Y5.7855
X6.9394 Y5.6927
Y5.5073
X7.1 Y5.4145
X7.2606 Y5.5073
Y5.6
G3 X7.2528 Y5.6079 I-0.0079 F40
G1 X7.2449
G18 G3 X7.237 Z-0.0321 K0.0079
G1 Y5.5921
Z-0.0421 F13.33
G2 X7.2449 Z-0.05 I0.0079
G1 X7.2528 F40
G17 G3 X7.2606 Y5.6 J0.0079
G1 Y5.6927 F20
X7.1 Y5.7855
X6.9394 Y5.6927
Y5.5073
X7.1 Y5.4145
X7.2606 Y5.5073
Y5.6
G3 X7.2528 Y5.6079 I-0.0079 F40
G1 X7.2449
G18 G3 X7.237 Z-0.0421 K0.0079
G1 Y5.5921
Z-0.0521 F13.33
G2 X7.2449 Z-0.06 I0.0079
G1 X7.2528 F40
G17 G3 X7.2606 Y5.6 J0.0079
G1 Y5.6927 F20
X7.1 Y5.7855
X6.9394 Y5.6927
Y5.5073
X7.1 Y5.4145
X7.2606 Y5.5073
Y5.6
G3 X7.2528 Y5.6079 I-0.0079 F40
G1 X7.2449
G18 G3 X7.237 Z-0.0521 K0.0079
G0 Z0.2
Y6.1921
G1 Z0.0494 F13.33
Z-0.0021
G2 X7.2449 Z-0.01 I0.0079
G1 X7.2528 F40
G17 G3 X7.2606 Y6.2 J0.0079
G1 Y6.2927 F20
X7.1 Y6.3855
X6.9394 Y6.2927
Y6.1073
X7.1 Y6.0145
X7.2606 Y6.1073
Y6.2
G3 X7.2528 Y6.2079 I-0.0079 F40
G1 X7.2449
G18 G3 X7.237 Z-0.0021 K0.0079
G1 Y6.1921
Z-0.0121 F13.33
G2 X7.2449 Z-0.02 I0.0079
G1 X7.2528 F40
G17 G3 X7.2606 Y6.2 J0.0079
G1 Y6.2927 F20
X7.1 Y6.3855
X6.9394 Y6.2927
Y6.1073
X7.1 Y6.0145
X7.2606 Y6.1073
Y6.2
G3 X7.2528 Y6.2079 I-0.0079 F40
G1 X7.2449
G18 G3 X7.237 Z-0.0121 K0.0079
G1 Y6.1921
Z-0.0221 F13.33
G2 X7.2449 Z-0.03 I0.0079
G1 X7.2528 F40
G17 G3 X7.2606 Y6.2 J0.0079
G1 Y6.2927 F20
X7.1 Y6.3855
X6.9394 Y6.2927
Y6.1073
X7.1 Y6.0145
X7.2606 Y6.1073
Y6.2
G3 X7.2528 Y6.2079 I-0.0079 F40
G1 X7.2449
G18 G3 X7.237 Z-0.0221 K0.0079
G1 Y6.1921
Z-0.0321 F13.33
G2 X7.2449 Z-0.04 I0.0079
G1 X7.2528 F40
G17 G3 X7.2606 Y6.2 J0.0079
G1 Y6.2927 F20
X7.1 Y6.3855
X6.9394 Y6.2927
Y6.1073
X7.1 Y6.0145
X7.2606 Y6.1073
Y6.2
G3 X7.2528 Y6.2079 I-0.0079 F40
G1 X7.2449
G18 G3 X7.237 Z-0.0321 K0.0079
G1 Y6.1921
Z-0.0421 F13.33
G2 X7.2449 Z-0.05 I0.0079
G1 X7.2528 F40
G17 G3 X7.2606 Y6.2 J0.0079
G1 Y6.2927 F20
X7.1 Y6.3855
X6.9394 Y6.2927
Y6.1073
X7.1 Y6.0145
X7.2606 Y6.1073
Y6.2
G3 X7.2528 Y6.2079 I-0.0079 F40
G1 X7.2449
G18 G3 X7.237 Z-0.0421 K0.0079
G1 Y6.1921
Z-0.0521 F13.33
G2 X7.2449 Z-0.06 I0.0079
G1 X7.2528 F40
G17 G3 X7.2606 Y6.2 J0.0079
G1 Y6.2927 F20
X7.1 Y6.3855
X6.9394 Y6.2927
Y6.1073
X7.1 Y6.0145
X7.2606 Y6.1073
Y6.2
G3 X7.2528 Y6.2079 I-0.0079 F40
G1 X7.2449
G18 G3 X7.237 Z-0.0521 K0.0079
G0 Z0.2
Y6.7921
G1 Z0.0494 F13.33
Z-0.0021
G2 X7.2449 Z-0.01 I0.0079
G1 X7.2528 F40
G17 G3 X7.2606 Y6.8 J0.0079
G1 Y6.8927 F20
X7.1 Y6.9855
X6.9394 Y6.8927
Y6.7073
X7.1 Y6.6145
X7.2606 Y6.7073
Y6.8
G3 X7.2528 Y6.8079 I-0.0079 F40
G1 X7.2449
G18 G3 X7.237 Z-0.0021 K0.0079
G1 Y6.7921
Z-0.0121 F13.33
G2 X7.2449 Z-0.02 I0.0079
G1 X7.2528 F40
G17 G3 X7.2606 Y6.8 J0.0079
G1 Y6.8927 F20
X7.1 Y6.9855
X6.9394 Y6.8927
Y6.7073
X7.1 Y6.6145
X7.2606 Y6.7073
Y6.8
G3 X7.2528 Y6.8079 I-0.0079 F40
G1 X7.2449
G18 G3 X7.237 Z-0.0121 K0.0079
G1 Y6.7921
Z-0.0221 F13.33
G2 X7.2449 Z-0.03 I0.0079
G1 X7.2528 F40
G17 G3 X7.2606 Y6.8 J0.0079
G1 Y6.8927 F20
X7.1 Y6.9855
X6.9394 Y6.8927
Y6.7073
X7.1 Y6.6145
X7.2606 Y6.7073
Y6.8
G3 X7.2528 Y6.8079 I-0.0079 F40
G1 X7.2449
G18 G3 X7.237 Z-0.0221 K0.0079
G1 Y6.7921
Z-0.0321 F13.33
G2 X7.2449 Z-0.04 I0.0079
G1 X7.2528 F40
G17 G3 X7.2606 Y6.8 J0.0079
G1 Y6.8927 F20
X7.1 Y6.9855
X6.9394 Y6.8927
Y6.7073
X7.1 Y6.6145
X7.2606 Y6.7073
Y6.8
G3 X7.2528 Y6.8079 I-0.0079 F40
G1 X7.2449
G18 G3 X7.237 Z-0.0321 K0.0079
G1 Y6.7921
Z-0.0421 F13.33
G2 X7.2449 Z-0.05 I0.0079
G1 X7.2528 F40
G17 G3 X7.2606 Y6.8 J0.0079
G1 Y6.8927 F20
X7.1 Y6.9855
X6.9394 Y6.8927
Y6.7073
X7.1 Y6.6145
X7.2606 Y6.7073
Y6.8
G3 X7.2528 Y6.8079 I-0.0079 F40
G1 X7.2449
G18 G3 X7.237 Z-0.0421 K0.0079
G1 Y6.7921
Z-0.0521 F13.33
G2 X7.2449 Z-0.06 I0.0079
G1 X7.2528 F40
G17 G3 X7.2606 Y6.8 J0.0079
G1 Y6.8927 F20
X7.1 Y6.9855
X6.9394 Y6.8927
Y6.7073
X7.1 Y6.6145
X7.2606 Y6.7073
Y6.8
G3 X7.2528 Y6.8079 I-0.0079 F40
G1 X7.2449
G18 G3 X7.237 Z-0.0521 K0.0079
G0 Z0.2
X6.637 Y6.7921
G1 Z0.0494 F13.33
Z-0.0021
G2 X6.6449 Z-0.01 I0.0079
G1 X6.6528 F40
G17 G3 X6.6606 Y6.8 J0.0079
G1 Y6.8927 F20
X6.5 Y6.9855
X6.3394 Y6.8927
Y6.7073
X6.5 Y6.6145
X6.6606 Y6.7073
Y6.8
G3 X6.6528 Y6.8079 I-0.0079 F40
G1 X6.6449
G18 G3 X6.637 Z-0.0021 K0.0079
G1 Y6.7921
Z-0.0121 F13.33
G2 X6.6449 Z-0.02 I0.0079
G1 X6.6528 F40
G17 G3 X6.6606 Y6.8 J0.0079
G1 Y6.8927 F20
X6.5 Y6.9855
X6.3394 Y6.8927
Y6.7073
X6.5 Y6.6145
X6.6606 Y6.7073
Y6.8
G3 X6.6528 Y6.8079 I-0.0079 F40
G1 X6.6449
G18 G3 X6.637 Z-0.0121 K0.0079
G1 Y6.7921
Z-0.0221 F13.33
G2 X6.6449 Z-0.03 I0.0079
G1 X6.6528 F40
G17 G3 X6.6606 Y6.8 J0.0079
G1 Y6.8927 F20
X6.5 Y6.9855
X6.3394 Y6.8927
Y6.7073
X6.5 Y6.6145
X6.6606 Y6.7073
Y6.8
G3 X6.6528 Y6.8079 I-0.0079 F40
G1 X6.6449
G18 G3 X6.637 Z-0.0221 K0.0079
G1 Y6.7921
Z-0.0321 F13.33
G2 X6.6449 Z-0.04 I0.0079
G1 X6.6528 F40
G17 G3 X6.6606 Y6.8 J0.0079
G1 Y6.8927 F20
X6.5 Y6.9855
X6.3394 Y6.8927
Y6.7073
X6.5 Y6.6145
X6.6606 Y6.7073
Y6.8
G3 X6.6528 Y6.8079 I-0.0079 F40
G1 X6.6449
G18 G3 X6.637 Z-0.0321 K0.0079
G1 Y6.7921
Z-0.0421 F13.33
G2 X6.6449 Z-0.05 I0.0079
G1 X6.6528 F40
G17 G3 X6.6606 Y6.8 J0.0079
G1 Y6.8927 F20
X6.5 Y6.9855
X6.3394 Y6.8927
Y6.7073
X6.5 Y6.6145
X6.6606 Y6.7073
Y6.8
G3 X6.6528 Y6.8079 I-0.0079 F40
G1 X6.6449
G18 G3 X6.637 Z-0.0421 K0.0079
G1 Y6.7921
Z-0.0521 F13.33
G2 X6.6449 Z-0.06 I0.0079
G1 X6.6528 F40
G17 G3 X6.6606 Y6.8 J0.0079
G1 Y6.8927 F20
X6.5 Y6.9855
X6.3394 Y6.8927
Y6.7073
X6.5 Y6.6145
X6.6606 Y6.7073
Y6.8
G3 X6.6528 Y6.8079 I-0.0079 F40
G1 X6.6449
G18 G3 X6.637 Z-0.0521 K0.0079
G0 Z0.2
Y7.3921
G1 Z0.0494 F13.33
Z-0.0021
G2 X6.6449 Z-0.01 I0.0079
G1 X6.6528 F40
G17 G3 X6.6606 Y7.4 J0.0079
G1 Y7.4927 F20
X6.5 Y7.5855
X6.3394 Y7.4927
Y7.3073
X6.5 Y7.2145
X6.6606 Y7.3073
Y7.4
G3 X6.6528 Y7.4079 I-0.0079 F40
G1 X6.6449
G18 G3 X6.637 Z-0.0021 K0.0079
G1 Y7.3921
Z-0.0121 F13.33
G2 X6.6449 Z-0.02 I0.0079
G1 X6.6528 F40
G17 G3 X6.6606 Y7.4 J0.0079
G1 Y7.4927 F20
X6.5 Y7.5855
X6.3394 Y7.4927
Y7.3073
X6.5 Y7.2145
X6.6606 Y7.3073
Y7.4
G3 X6.6528 Y7.4079 I-0.0079 F40
G1 X6.6449
G18 G3 X6.637 Z-0.0121 K0.0079
G1 Y7.3921
Z-0.0221 F13.33
G2 X6.6449 Z-0.03 I0.0079
G1 X6.6528 F40
G17 G3 X6.6606 Y7.4 J0.0079
G1 Y7.4927 F20
X6.5 Y7.5855
X6.3394 Y7.4927
Y7.3073
X6.5 Y7.2145
X6.6606 Y7.3073
Y7.4
G3 X6.6528 Y7.4079 I-0.0079 F40
G1 X6.6449
G18 G3 X6.637 Z-0.0221 K0.0079
G1 Y7.3921
Z-0.0321 F13.33
G2 X6.6449 Z-0.04 I0.0079
G1 X6.6528 F40
G17 G3 X6.6606 Y7.4 J0.0079
G1 Y7.4927 F20
X6.5 Y7.5855
X6.3394 Y7.4927
Y7.3073
X6.5 Y7.2145
X6.6606 Y7.3073
Y7.4
G3 X6.6528 Y7.4079 I-0.0079 F40
G1 X6.6449
G18 G3 X6.637 Z-0.0321 K0.0079
G1 Y7.3921
Z-0.0421 F13.33
G2 X6.6449 Z-0.05 I0.0079
G1 X6.6528 F40
G17 G3 X6.6606 Y7.4 J0.0079
G1 Y7.4927 F20
X6.5 Y7.5855
X6.3394 Y7.4927
Y7.3073
X6.5 Y7.2145
X6.6606 Y7.3073
Y7.4
G3 X6.6528 Y7.4079 I-0.0079 F40
G1 X6.6449
G18 G3 X6.637 Z-0.0421 K0.0079
G1 Y7.3921
Z-0.0521 F13.33
G2 X6.6449 Z-0.06 I0.0079
G1 X6.6528 F40
G17 G3 X6.6606 Y7.4 J0.0079
G1 Y7.4927 F20
X6.5 Y7.5855
X6.3394 Y7.4927
Y7.3073
X6.5 Y7.2145
X6.6606 Y7.3073
Y7.4
G3 X6.6528 Y7.4079 I-0.0079 F40
G1 X6.6449
G18 G3 X6.637 Z-0.0521 K0.0079
G0 Z0.2
X6.037 Y7.3921
G1 Z0.0494 F13.33
Z-0.0021
G2 X6.0449 Z-0.01 I0.0079
G1 X6.0528 F40
G17 G3 X6.0606 Y7.4 J0.0079
G1 Y7.4927 F20
X5.9 Y7.5855
X5.7394 Y7.4927
Y7.3073
X5.9 Y7.2145
X6.0606 Y7.3073
Y7.4
G3 X6.0528 Y7.4079 I-0.0079 F40
G1 X6.0449
G18 G3 X6.037 Z-0.0021 K0.0079
G1 Y7.3921
Z-0.0121 F13.33
G2 X6.0449 Z-0.02 I0.0079
G1 X6.0528 F40
G17 G3 X6.0606 Y7.4 J0.0079
G1 Y7.4927 F20
X5.9 Y7.5855
X5.7394 Y7.4927
Y7.3073
X5.9 Y7.2145
X6.0606 Y7.3073
Y7.4
G3 X6.0528 Y7.4079 I-0.0079 F40
G1 X6.0449
G18 G3 X6.037 Z-0.0121 K0.0079
G1 Y7.3921
Z-0.0221 F13.33
G2 X6.0449 Z-0.03 I0.0079
G1 X6.0528 F40
G17 G3 X6.0606 Y7.4 J0.0079
G1 Y7.4927 F20
X5.9 Y7.5855
X5.7394 Y7.4927
Y7.3073
X5.9 Y7.2145
X6.0606 Y7.3073
Y7.4
G3 X6.0528 Y7.4079 I-0.0079 F40
G1 X6.0449
G18 G3 X6.037 Z-0.0221 K0.0079
G1 Y7.3921
Z-0.0321 F13.33
G2 X6.0449 Z-0.04 I0.0079
G1 X6.0528 F40
G17 G3 X6.0606 Y7.4 J0.0079
G1 Y7.4927 F20
X5.9 Y7.5855
X5.7394 Y7.4927
Y7.3073
X5.9 Y7.2145
X6.0606 Y7.3073
Y7.4
G3 X6.0528 Y7.4079 I-0.0079 F40
G1 X6.0449
G18 G3 X6.037 Z-0.0321 K0.0079
G1 Y7.3921
Z-0.0421 F13.33
G2 X6.0449 Z-0.05 I0.0079
G1 X6.0528 F40
G17 G3 X6.0606 Y7.4 J0.0079
G1 Y7.4927 F20
X5.9 Y7.5855
X5.7394 Y7.4927
Y7.3073
X5.9 Y7.2145
X6.0606 Y7.3073
Y7.4
G3 X6.0528 Y7.4079 I-0.0079 F40
G1 X6.0449
G18 G3 X6.037 Z-0.0421 K0.0079
G1 Y7.3921
Z-0.0521 F13.33
G2 X6.0449 Z-0.06 I0.0079
G1 X6.0528 F40
G17 G3 X6.0606 Y7.4 J0.0079
G1 Y7.4927 F20
X5.9 Y7.5855
X5.7394 Y7.4927
Y7.3073
X5.9 Y7.2145
X6.0606 Y7.3073
Y7.4
G3 X6.0528 Y7.4079 I-0.0079 F40
G1 X6.0449
G18 G3 X6.037 Z-0.0521 K0.0079
G0 Z0.2
Y7.9921
G1 Z0.0494 F13.33
Z-0.0021
G2 X6.0449 Z-0.01 I0.0079
G1 X6.0528 F40
G17 G3 X6.0606 Y8 J0.0079
G1 Y8.0927 F20
X5.9 Y8.1855
X5.7394 Y8.0927
Y7.9073
X5.9 Y7.8145
X6.0606 Y7.9073
Y8
G3 X6.0528 Y8.0079 I-0.0079 F40
G1 X6.0449
G18 G3 X6.037 Z-0.0021 K0.0079
G1 Y7.9921
Z-0.0121 F13.33
G2 X6.0449 Z-0.02 I0.0079
G1 X6.0528 F40
G17 G3 X6.0606 Y8 J0.0079
G1 Y8.0927 F20
X5.9 Y8.1855
X5.7394 Y8.0927
Y7.9073
X5.9 Y7.8145
X6.0606 Y7.9073
Y8
G3 X6.0528 Y8.0079 I-0.0079 F40
G1 X6.0449
G18 G3 X6.037 Z-0.0121 K0.0079
G1 Y7.9921
Z-0.0221 F13.33
G2 X6.0449 Z-0.03 I0.0079
G1 X6.0528 F40
G17 G3 X6.0606 Y8 J0.0079
G1 Y8.0927 F20
X5.9 Y8.1855
X5.7394 Y8.0927
Y7.9073
X5.9 Y7.8145
X6.0606 Y7.9073
Y8
G3 X6.0528 Y8.0079 I-0.0079 F40
G1 X6.0449
G18 G3 X6.037 Z-0.0221 K0.0079
G1 Y7.9921
Z-0.0321 F13.33
G2 X6.0449 Z-0.04 I0.0079
G1 X6.0528 F40
G17 G3 X6.0606 Y8 J0.0079
G1 Y8.0927 F20
X5.9 Y8.1855
X5.7394 Y8.0927
Y7.9073
X5.9 Y7.8145
X6.0606 Y7.9073
Y8
G3 X6.0528 Y8.0079 I-0.0079 F40
G1 X6.0449
G18 G3 X6.037 Z-0.0321 K0.0079
G1 Y7.9921
Z-0.0421 F13.33
G2 X6.0449 Z-0.05 I0.0079
G1 X6.0528 F40
G17 G3 X6.0606 Y8 J0.0079
G1 Y8.0927 F20
X5.9 Y8.1855
X5.7394 Y8.0927
Y7.9073
X5.9 Y7.8145
X6.0606 Y7.9073
Y8
G3 X6.0528 Y8.0079 I-0.0079 F40
G1 X6.0449
G18 G3 X6.037 Z-0.0421 K0.0079
G1 Y7.9921
Z-0.0521 F13.33
G2 X6.0449 Z-0.06 I0.0079
G1 X6.0528 F40
G17 G3 X6.0606 Y8 J0.0079
G1 Y8.0927 F20
X5.9 Y8.1855
X5.7394 Y8.0927
Y7.9073
X5.9 Y7.8145
X6.0606 Y7.9073
Y8
G3 X6.0528 Y8.0079 I-0.0079 F40
G1 X6.0449
G18 G3 X6.037 Z-0.0521 K0.0079
G0 Z0.2
Y6.7921
G1 Z0.0494 F13.33
Z-0.0021
G2 X6.0449 Z-0.01 I0.0079
G1 X6.0528 F40
G17 G3 X6.0606 Y6.8 J0.0079
G1 Y6.8927 F20
X5.9 Y6.9855
X5.7394 Y6.8927
Y6.7073
X5.9 Y6.6145
X6.0606 Y6.7073
Y6.8
G3 X6.0528 Y6.8079 I-0.0079 F40
G1 X6.0449
G18 G3 X6.037 Z-0.0021 K0.0079
G1 Y6.7921
Z-0.0121 F13.33
G2 X6.0449 Z-0.02 I0.0079
G1 X6.0528 F40
G17 G3 X6.0606 Y6.8 J0.0079
G1 Y6.8927 F20
X5.9 Y6.9855
X5.7394 Y6.8927
Y6.7073
X5.9 Y6.6145
X6.0606 Y6.7073
Y6.8
G3 X6.0528 Y6.8079 I-0.0079 F40
G1 X6.0449
G18 G3 X6.037 Z-0.0121 K0.0079
G1 Y6.7921
Z-0.0221 F13.33
G2 X6.0449 Z-0.03 I0.0079
G1 X6.0528 F40
G17 G3 X6.0606 Y6.8 J0.0079
G1 Y6.8927 F20
X5.9 Y6.9855
X5.7394 Y6.8927
Y6.7073
X5.9 Y6.6145
X6.0606 Y6.7073
Y6.8
G3 X6.0528 Y6.8079 I-0.0079 F40
G1 X6.0449
G18 G3 X6.037 Z-0.0221 K0.0079
G1 Y6.7921
Z-0.0321 F13.33
G2 X6.0449 Z-0.04 I0.0079
G1 X6.0528 F40
G17 G3 X6.0606 Y6.8 J0.0079
G1 Y6.8927 F20
X5.9 Y6.9855
X5.7394 Y6.8927
Y6.7073
X5.9 Y6.6145
X6.0606 Y6.7073
Y6.8
G3 X6.0528 Y6.8079 I-0.0079 F40
G1 X6.0449
G18 G3 X6.037 Z-0.0321 K0.0079
G1 Y6.7921
Z-0.0421 F13.33
G2 X6.0449 Z-0.05 I0.0079
G1 X6.0528 F40
G17 G3 X6.0606 Y6.8 J0.0079
G1 Y6.8927 F20
X5.9 Y6.9855
X5.7394 Y6.8927
Y6.7073
X5.9 Y6.6145
X6.0606 Y6.7073
Y6.8
G3 X6.0528 Y6.8079 I-0.0079 F40
G1 X6.0449
G18 G3 X6.037 Z-0.0421 K0.0079
G1 Y6.7921
Z-0.0521 F13.33
G2 X6.0449 Z-0.06 I0.0079
G1 X6.0528 F40
G17 G3 X6.0606 Y6.8 J0.0079
G1 Y6.8927 F20
X5.9 Y6.9855
X5.7394 Y6.8927
Y6.7073
X5.9 Y6.6145
X6.0606 Y6.7073
Y6.8
G3 X6.0528 Y6.8079 I-0.0079 F40
G1 X6.0449
G18 G3 X6.037 Z-0.0521 K0.0079
G0 Z0.2
Y6.1921
G1 Z0.0494 F13.33
Z-0.0021
G2 X6.0449 Z-0.01 I0.0079
G1 X6.0528 F40
G17 G3 X6.0606 Y6.2 J0.0079
G1 Y6.2927 F20
X5.9 Y6.3855
X5.7394 Y6.2927
Y6.1073
X5.9 Y6.0145
X6.0606 Y6.1073
Y6.2
G3 X6.0528 Y6.2079 I-0.0079 F40
G1 X6.0449
G18 G3 X6.037 Z-0.0021 K0.0079
G1 Y6.1921
Z-0.0121 F13.33
G2 X6.0449 Z-0.02 I0.0079
G1 X6.0528 F40
G17 G3 X6.0606 Y6.2 J0.0079
G1 Y6.2927 F20
X5.9 Y6.3855
X5.7394 Y6.2927
Y6.1073
X5.9 Y6.0145
X6.0606 Y6.1073
Y6.2
G3 X6.0528 Y6.2079 I-0.0079 F40
G1 X6.0449
G18 G3 X6.037 Z-0.0121 K0.0079
G1 Y6.1921
Z-0.0221 F13.33
G2 X6.0449 Z-0.03 I0.0079
G1 X6.0528 F40
G17 G3 X6.0606 Y6.2 J0.0079
G1 Y6.2927 F20
X5.9 Y6.3855
X5.7394 Y6.2927
Y6.1073
X5.9 Y6.0145
X6.0606 Y6.1073
Y6.2
G3 X6.0528 Y6.2079 I-0.0079 F40
G1 X6.0449
G18 G3 X6.037 Z-0.0221 K0.0079
G1 Y6.1921
Z-0.0321 F13.33
G2 X6.0449 Z-0.04 I0.0079
G1 X6.0528 F40
G17 G3 X6.0606 Y6.2 J0.0079
G1 Y6.2927 F20
X5.9 Y6.3855
X5.7394 Y6.2927
Y6.1073
X5.9 Y6.0145
X6.0606 Y6.1073
Y6.2
G3 X6.0528 Y6.2079 I-0.0079 F40
G1 X6.0449
G18 G3 X6.037 Z-0.0321 K0.0079
G1 Y6.1921
Z-0.0421 F13.33
G2 X6.0449 Z-0.05 I0.0079
G1 X6.0528 F40
G17 G3 X6.0606 Y6.2 J0.0079
G1 Y6.2927 F20
X5.9 Y6.3855
X5.7394 Y6.2927
Y6.1073
X5.9 Y6.0145
X6.0606 Y6.1073
Y6.2
G3 X6.0528 Y6.2079 I-0.0079 F40
G1 X6.0449
G18 G3 X6.037 Z-0.0421 K0.0079
G1 Y6.1921
Z-0.0521 F13.33
G2 X6.0449 Z-0.06 I0.0079
G1 X6.0528 F40
G17 G3 X6.0606 Y6.2 J0.0079
G1 Y6.2927 F20
X5.9 Y6.3855
X5.7394 Y6.2927
Y6.1073
X5.9 Y6.0145
X6.0606 Y6.1073
Y6.2
G3 X6.0528 Y6.2079 I-0.0079 F40
G1 X6.0449
G18 G3 X6.037 Z-0.0521 K0.0079
G0 Z0.2
X6.637 Y6.1921
G1 Z0.0494 F13.33
Z-0.0021
G2 X6.6449 Z-0.01 I0.0079
G1 X6.6528 F40
G17 G3 X6.6606 Y6.2 J0.0079
G1 Y6.2927 F20
X6.5 Y6.3855
X6.3394 Y6.2927
Y6.1073
X6.5 Y6.0145
X6.6606 Y6.1073
Y6.2
G3 X6.6528 Y6.2079 I-0.0079 F40
G1 X6.6449
G18 G3 X6.637 Z-0.0021 K0.0079
G1 Y6.1921
Z-0.0121 F13.33
G2 X6.6449 Z-0.02 I0.0079
G1 X6.6528 F40
G17 G3 X6.6606 Y6.2 J0.0079
G1 Y6.2927 F20
X6.5 Y6.3855
X6.3394 Y6.2927
Y6.1073
X6.5 Y6.0145
X6.6606 Y6.1073
Y6.2
G3 X6.6528 Y6.2079 I-0.0079 F40
G1 X6.6449
G18 G3 X6.637 Z-0.0121 K0.0079
G1 Y6.1921
Z-0.0221 F13.33
G2 X6.6449 Z-0.03 I0.0079
G1 X6.6528 F40
G17 G3 X6.6606 Y6.2 J0.0079
G1 Y6.2927 F20
X6.5 Y6.3855
X6.3394 Y6.2927
Y6.1073
X6.5 Y6.0145
X6.6606 Y6.1073
Y6.2
G3 X6.6528 Y6.2079 I-0.0079 F40
G1 X6.6449
G18 G3 X6.637 Z-0.0221 K0.0079
G1 Y6.1921
Z-0.0321 F13.33
G2 X6.6449 Z-0.04 I0.0079
G1 X6.6528 F40
G17 G3 X6.6606 Y6.2 J0.0079
G1 Y6.2927 F20
X6.5 Y6.3855
X6.3394 Y6.2927
Y6.1073
X6.5 Y6.0145
X6.6606 Y6.1073
Y6.2
G3 X6.6528 Y6.2079 I-0.0079 F40
G1 X6.6449
G18 G3 X6.637 Z-0.0321 K0.0079
G1 Y6.1921
Z-0.0421 F13.33
G2 X6.6449 Z-0.05 I0.0079
G1 X6.6528 F40
G17 G3 X6.6606 Y6.2 J0.0079
G1 Y6.2927 F20
X6.5 Y6.3855
X6.3394 Y6.2927
Y6.1073
X6.5 Y6.0145
X6.6606 Y6.1073
Y6.2
G3 X6.6528 Y6.2079 I-0.0079 F40
G1 X6.6449
G18 G3 X6.637 Z-0.0421 K0.0079
G1 Y6.1921
Z-0.0521 F13.33
G2 X6.6449 Z-0.06 I0.0079
G1 X6.6528 F40
G17 G3 X6.6606 Y6.2 J0.0079
G1 Y6.2927 F20
X6.5 Y6.3855
X6.3394 Y6.2927
Y6.1073
X6.5 Y6.0145
X6.6606 Y6.1073
Y6.2
G3 X6.6528 Y6.2079 I-0.0079 F40
G1 X6.6449
G18 G3 X6.637 Z-0.0521 K0.0079
G0 Z0.2
Y5.5921
G1 Z0.0494 F13.33
Z-0.0021
G2 X6.6449 Z-0.01 I0.0079
G1 X6.6528 F40
G17 G3 X6.6606 Y5.6 J0.0079
G1 Y5.6927 F20
X6.5 Y5.7855
X6.3394 Y5.6927
Y5.5073
X6.5 Y5.4145
X6.6606 Y5.5073
Y5.6
G3 X6.6528 Y5.6079 I-0.0079 F40
G1 X6.6449
G18 G3 X6.637 Z-0.0021 K0.0079
G1 Y5.5921
Z-0.0121 F13.33
G2 X6.6449 Z-0.02 I0.0079
G1 X6.6528 F40
G17 G3 X6.6606 Y5.6 J0.0079
G1 Y5.6927 F20
X6.5 Y5.7855
X6.3394 Y5.6927
Y5.5073
X6.5 Y5.4145
X6.6606 Y5.5073
Y5.6
G3 X6.6528 Y5.6079 I-0.0079 F40
G1 X6.6449
G18 G3 X6.637 Z-0.0121 K0.0079
G1 Y5.5921
Z-0.0221 F13.33
G2 X6.6449 Z-0.03 I0.0079
G1 X6.6528 F40
G17 G3 X6.6606 Y5.6 J0.0079
G1 Y5.6927 F20
X6.5 Y5.7855
X6.3394 Y5.6927
Y5.5073
X6.5 Y5.4145
X6.6606 Y5.5073
Y5.6
G3 X6.6528 Y5.6079 I-0.0079 F40
G1 X6.6449
G18 G3 X6.637 Z-0.0221 K0.0079
G1 Y5.5921
Z-0.0321 F13.33
G2 X6.6449 Z-0.04 I0.0079
G1 X6.6528 F40
G17 G3 X6.6606 Y5.6 J0.0079
G1 Y5.6927 F20
X6.5 Y5.7855
X6.3394 Y5.6927
Y5.5073
X6.5 Y5.4145
X6.6606 Y5.5073
Y5.6
G3 X6.6528 Y5.6079 I-0.0079 F40
G1 X6.6449
G18 G3 X6.637 Z-0.0321 K0.0079
G1 Y5.5921
Z-0.0421 F13.33
G2 X6.6449 Z-0.05 I0.0079
G1 X6.6528 F40
G17 G3 X6.6606 Y5.6 J0.0079
G1 Y5.6927 F20
X6.5 Y5.7855
X6.3394 Y5.6927
Y5.5073
X6.5 Y5.4145
X6.6606 Y5.5073
Y5.6
G3 X6.6528 Y5.6079 I-0.0079 F40
G1 X6.6449
G18 G3 X6.637 Z-0.0421 K0.0079
G1 Y5.5921
Z-0.0521 F13.33
G2 X6.6449 Z-0.06 I0.0079
G1 X6.6528 F40
G17 G3 X6.6606 Y5.6 J0.0079
G1 Y5.6927 F20
X6.5 Y5.7855
X6.3394 Y5.6927
Y5.5073
X6.5 Y5.4145
X6.6606 Y5.5073
Y5.6
G3 X6.6528 Y5.6079 I-0.0079 F40
G1 X6.6449
G18 G3 X6.637 Z-0.0521 K0.0079
G0 Z0.2
X6.037 Y5.5921
G1 Z0.0494 F13.33
Z-0.0021
G2 X6.0449 Z-0.01 I0.0079
G1 X6.0528 F40
G17 G3 X6.0606 Y5.6 J0.0079
G1 Y5.6927 F20
X5.9 Y5.7855
X5.7394 Y5.6927
Y5.5073
X5.9 Y5.4145
X6.0606 Y5.5073
Y5.6
G3 X6.0528 Y5.6079 I-0.0079 F40
G1 X6.0449
G18 G3 X6.037 Z-0.0021 K0.0079
G1 Y5.5921
Z-0.0121 F13.33
G2 X6.0449 Z-0.02 I0.0079
G1 X6.0528 F40
G17 G3 X6.0606 Y5.6 J0.0079
G1 Y5.6927 F20
X5.9 Y5.7855
X5.7394 Y5.6927
Y5.5073
X5.9 Y5.4145
X6.0606 Y5.5073
Y5.6
G3 X6.0528 Y5.6079 I-0.0079 F40
G1 X6.0449
G18 G3 X6.037 Z-0.0121 K0.0079
G1 Y5.5921
Z-0.0221 F13.33
G2 X6.0449 Z-0.03 I0.0079
G1 X6.0528 F40
G17 G3 X6.0606 Y5.6 J0.0079
G1 Y5.6927 F20
X5.9 Y5.7855
X5.7394 Y5.6927
Y5.5073
X5.9 Y5.4145
X6.0606 Y5.5073
Y5.6
G3 X6.0528 Y5.6079 I-0.0079 F40
G1 X6.0449
G18 G3 X6.037 Z-0.0221 K0.0079
G1 Y5.5921
Z-0.0321 F13.33
G2 X6.0449 Z-0.04 I0.0079
G1 X6.0528 F40
G17 G3 X6.0606 Y5.6 J0.0079
G1 Y5.6927 F20
X5.9 Y5.7855
X5.7394 Y5.6927
Y5.5073
X5.9 Y5.4145
X6.0606 Y5.5073
Y5.6
G3 X6.0528 Y5.6079 I-0.0079 F40
G1 X6.0449
G18 G3 X6.037 Z-0.0321 K0.0079
G1 Y5.5921
Z-0.0421 F13.33
G2 X6.0449 Z-0.05 I0.0079
G1 X6.0528 F40
G17 G3 X6.0606 Y5.6 J0.0079
G1 Y5.6927 F20
X5.9 Y5.7855
X5.7394 Y5.6927
Y5.5073
X5.9 Y5.4145
X6.0606 Y5.5073
Y5.6
G3 X6.0528 Y5.6079 I-0.0079 F40
G1 X6.0449
G18 G3 X6.037 Z-0.0421 K0.0079
G1 Y5.5921
Z-0.0521 F13.33
G2 X6.0449 Z-0.06 I0.0079
G1 X6.0528 F40
G17 G3 X6.0606 Y5.6 J0.0079
G1 Y5.6927 F20
X5.9 Y5.7855
X5.7394 Y5.6927
Y5.5073
X5.9 Y5.4145
X6.0606 Y5.5073
Y5.6
G3 X6.0528 Y5.6079 I-0.0079 F40
G1 X6.0449
G18 G3 X6.037 Z-0.0521 K0.0079
G0 Z0.2
Y4.9921
G1 Z0.0494 F13.33
Z-0.0021
G2 X6.0449 Z-0.01 I0.0079
G1 X6.0528 F40
G17 G3 X6.0606 Y5 J0.0079
G1 Y5.0927 F20
X5.9 Y5.1855
X5.7394 Y5.0927
Y4.9073
X5.9 Y4.8145
X6.0606 Y4.9073
Y5
G3 X6.0528 Y5.0079 I-0.0079 F40
G1 X6.0449
G18 G3 X6.037 Z-0.0021 K0.0079
G1 Y4.9921
Z-0.0121 F13.33
G2 X6.0449 Z-0.02 I0.0079
G1 X6.0528 F40
G17 G3 X6.0606 Y5 J0.0079
G1 Y5.0927 F20
X5.9 Y5.1855
X5.7394 Y5.0927
Y4.9073
X5.9 Y4.8145
X6.0606 Y4.9073
Y5
G3 X6.0528 Y5.0079 I-0.0079 F40
G1 X6.0449
G18 G3 X6.037 Z-0.0121 K0.0079
G1 Y4.9921
Z-0.0221 F13.33
G2 X6.0449 Z-0.03 I0.0079
G1 X6.0528 F40
G17 G3 X6.0606 Y5 J0.0079
G1 Y5.0927 F20
X5.9 Y5.1855
X5.7394 Y5.0927
Y4.9073
X5.9 Y4.8145
X6.0606 Y4.9073
Y5
G3 X6.0528 Y5.0079 I-0.0079 F40
G1 X6.0449
G18 G3 X6.037 Z-0.0221 K0.0079
G1 Y4.9921
Z-0.0321 F13.33
G2 X6.0449 Z-0.04 I0.0079
G1 X6.0528 F40
G17 G3 X6.0606 Y5 J0.0079
G1 Y5.0927 F20
X5.9 Y5.1855
X5.7394 Y5.0927
Y4.9073
X5.9 Y4.8145
X6.0606 Y4.9073
Y5
G3 X6.0528 Y5.0079 I-0.0079 F40
G1 X6.0449
G18 G3 X6.037 Z-0.0321 K0.0079
G1 Y4.9921
Z-0.0421 F13.33
G2 X6.0449 Z-0.05 I0.0079
G1 X6.0528 F40
G17 G3 X6.0606 Y5 J0.0079
G1 Y5.0927 F20
X5.9 Y5.1855
X5.7394 Y5.0927
Y4.9073
X5.9 Y4.8145
X6.0606 Y4.9073
Y5
G3 X6.0528 Y5.0079 I-0.0079 F40
G1 X6.0449
G18 G3 X6.037 Z-0.0421 K0.0079
G1 Y4.9921
Z-0.0521 F13.33
G2 X6.0449 Z-0.06 I0.0079
G1 X6.0528 F40
G17 G3 X6.0606 Y5 J0.0079
G1 Y5.0927 F20
X5.9 Y5.1855
X5.7394 Y5.0927
Y4.9073
X5.9 Y4.8145
X6.0606 Y4.9073
Y5
G3 X6.0528 Y5.0079 I-0.0079 F40
G1 X6.0449
G18 G3 X6.037 Z-0.0521 K0.0079
G0 Z0.2
Y4.3921
G1 Z0.0494 F13.33
Z-0.0021
G2 X6.0449 Z-0.01 I0.0079
G1 X6.0528 F40
G17 G3 X6.0606 Y4.4 J0.0079
G1 Y4.4927 F20
X5.9 Y4.5855
X5.7394 Y4.4927
Y4.3073
X5.9 Y4.2145
X6.0606 Y4.3073
Y4.4
G3 X6.0528 Y4.4079 I-0.0079 F40
G1 X6.0449
G18 G3 X6.037 Z-0.0021 K0.0079
G1 Y4.3921
Z-0.0121 F13.33
G2 X6.0449 Z-0.02 I0.0079
G1 X6.0528 F40
G17 G3 X6.0606 Y4.4 J0.0079
G1 Y4.4927 F20
X5.9 Y4.5855
X5.7394 Y4.4927
Y4.3073
X5.9 Y4.2145
X6.0606 Y4.3073
Y4.4
G3 X6.0528 Y4.4079 I-0.0079 F40
G1 X6.0449
G18 G3 X6.037 Z-0.0121 K0.0079
G1 Y4.3921
Z-0.0221 F13.33
G2 X6.0449 Z-0.03 I0.0079
G1 X6.0528 F40
G17 G3 X6.0606 Y4.4 J0.0079
G1 Y4.4927 F20
X5.9 Y4.5855
X5.7394 Y4.4927
Y4.3073
X5.9 Y4.2145
X6.0606 Y4.3073
Y4.4
G3 X6.0528 Y4.4079 I-0.0079 F40
G1 X6.0449
G18 G3 X6.037 Z-0.0221 K0.0079
G1 Y4.3921
Z-0.0321 F13.33
G2 X6.0449 Z-0.04 I0.0079
G1 X6.0528 F40
G17 G3 X6.0606 Y4.4 J0.0079
G1 Y4.4927 F20
X5.9 Y4.5855
X5.7394 Y4.4927
Y4.3073
X5.9 Y4.2145
X6.0606 Y4.3073
Y4.4
G3 X6.0528 Y4.4079 I-0.0079 F40
G1 X6.0449
G18 G3 X6.037 Z-0.0321 K0.0079
G1 Y4.3921
Z-0.0421 F13.33
G2 X6.0449 Z-0.05 I0.0079
G1 X6.0528 F40
G17 G3 X6.0606 Y4.4 J0.0079
G1 Y4.4927 F20
X5.9 Y4.5855
X5.7394 Y4.4927
Y4.3073
X5.9 Y4.2145
X6.0606 Y4.3073
Y4.4
G3 X6.0528 Y4.4079 I-0.0079 F40
G1 X6.0449
G18 G3 X6.037 Z-0.0421 K0.0079
G1 Y4.3921
Z-0.0521 F13.33
G2 X6.0449 Z-0.06 I0.0079
G1 X6.0528 F40
G17 G3 X6.0606 Y4.4 J0.0079
G1 Y4.4927 F20
X5.9 Y4.5855
X5.7394 Y4.4927
Y4.3073
X5.9 Y4.2145
X6.0606 Y4.3073
Y4.4
G3 X6.0528 Y4.4079 I-0.0079 F40
G1 X6.0449
G18 G3 X6.037 Z-0.0521 K0.0079
G0 Z0.2
X6.637 Y4.3921
G1 Z0.0494 F13.33
Z-0.0021
G2 X6.6449 Z-0.01 I0.0079
G1 X6.6528 F40
G17 G3 X6.6606 Y4.4 J0.0079
G1 Y4.4927 F20
X6.5 Y4.5855
X6.3394 Y4.4927
Y4.3073
X6.5 Y4.2145
X6.6606 Y4.3073
Y4.4
G3 X6.6528 Y4.4079 I-0.0079 F40
G1 X6.6449
G18 G3 X6.637 Z-0.0021 K0.0079
G1 Y4.3921
Z-0.0121 F13.33
G2 X6.6449 Z-0.02 I0.0079
G1 X6.6528 F40
G17 G3 X6.6606 Y4.4 J0.0079
G1 Y4.4927 F20
X6.5 Y4.5855
X6.3394 Y4.4927
Y4.3073
X6.5 Y4.2145
X6.6606 Y4.3073
Y4.4
G3 X6.6528 Y4.4079 I-0.0079 F40
G1 X6.6449
G18 G3 X6.637 Z-0.0121 K0.0079
G1 Y4.3921
Z-0.0221 F13.33
G2 X6.6449 Z-0.03 I0.0079
G1 X6.6528 F40
G17 G3 X6.6606 Y4.4 J0.0079
G1 Y4.4927 F20
X6.5 Y4.5855
X6.3394 Y4.4927
Y4.3073
X6.5 Y4.2145
X6.6606 Y4.3073
Y4.4
G3 X6.6528 Y4.4079 I-0.0079 F40
G1 X6.6449
G18 G3 X6.637 Z-0.0221 K0.0079
G1 Y4.3921
Z-0.0321 F13.33
G2 X6.6449 Z-0.04 I0.0079
G1 X6.6528 F40
G17 G3 X6.6606 Y4.4 J0.0079
G1 Y4.4927 F20
X6.5 Y4.5855
X6.3394 Y4.4927
Y4.3073
X6.5 Y4.2145
X6.6606 Y4.3073
Y4.4
G3 X6.6528 Y4.4079 I-0.0079 F40
G1 X6.6449
G18 G3 X6.637 Z-0.0321 K0.0079
G1 Y4.3921
Z-0.0421 F13.33
G2 X6.6449 Z-0.05 I0.0079
G1 X6.6528 F40
G17 G3 X6.6606 Y4.4 J0.0079
G1 Y4.4927 F20
X6.5 Y4.5855
X6.3394 Y4.4927
Y4.3073
X6.5 Y4.2145
X6.6606 Y4.3073
Y4.4
G3 X6.6528 Y4.4079 I-0.0079 F40
G1 X6.6449
G18 G3 X6.637 Z-0.0421 K0.0079
G1 Y4.3921
Z-0.0521 F13.33
G2 X6.6449 Z-0.06 I0.0079
G1 X6.6528 F40
G17 G3 X6.6606 Y4.4 J0.0079
G1 Y4.4927 F20
X6.5 Y4.5855
X6.3394 Y4.4927
Y4.3073
X6.5 Y4.2145
X6.6606 Y4.3073
Y4.4
G3 X6.6528 Y4.4079 I-0.0079 F40
G1 X6.6449
G18 G3 X6.637 Z-0.0521 K0.0079
G0 Z0.2
X7.237 Y4.3921
G1 Z0.0494 F13.33
Z-0.0021
G2 X7.2449 Z-0.01 I0.0079
G1 X7.2528 F40
G17 G3 X7.2606 Y4.4 J0.0079
G1 Y4.4927 F20
X7.1 Y4.5855
X6.9394 Y4.4927
Y4.3073
X7.1 Y4.2145
X7.2606 Y4.3073
Y4.4
G3 X7.2528 Y4.4079 I-0.0079 F40
G1 X7.2449
G18 G3 X7.237 Z-0.0021 K0.0079
G1 Y4.3921
Z-0.0121 F13.33
G2 X7.2449 Z-0.02 I0.0079
G1 X7.2528 F40
G17 G3 X7.2606 Y4.4 J0.0079
G1 Y4.4927 F20
X7.1 Y4.5855
X6.9394 Y4.4927
Y4.3073
X7.1 Y4.2145
X7.2606 Y4.3073
Y4.4
G3 X7.2528 Y4.4079 I-0.0079 F40
G1 X7.2449
G18 G3 X7.237 Z-0.0121 K0.0079
G1 Y4.3921
Z-0.0221 F13.33
G2 X7.2449 Z-0.03 I0.0079
G1 X7.2528 F40
G17 G3 X7.2606 Y4.4 J0.0079
G1 Y4.4927 F20
X7.1 Y4.5855
X6.9394 Y4.4927
Y4.3073
X7.1 Y4.2145
X7.2606 Y4.3073
Y4.4
G3 X7.2528 Y4.4079 I-0.0079 F40
G1 X7.2449
G18 G3 X7.237 Z-0.0221 K0.0079
G1 Y4.3921
Z-0.0321 F13.33
G2 X7.2449 Z-0.04 I0.0079
G1 X7.2528 F40
G17 G3 X7.2606 Y4.4 J0.0079
G1 Y4.4927 F20
X7.1 Y4.5855
X6.9394 Y4.4927
Y4.3073
X7.1 Y4.2145
X7.2606 Y4.3073
Y4.4
G3 X7.2528 Y4.4079 I-0.0079 F40
G1 X7.2449
G18 G3 X7.237 Z-0.0321 K0.0079
G1 Y4.3921
Z-0.0421 F13.33
G2 X7.2449 Z-0.05 I0.0079
G1 X7.2528 F40
G17 G3 X7.2606 Y4.4 J0.0079
G1 Y4.4927 F20
X7.1 Y4.5855
X6.9394 Y4.4927
Y4.3073
X7.1 Y4.2145
X7.2606 Y4.3073
Y4.4
G3 X7.2528 Y4.4079 I-0.0079 F40
G1 X7.2449
G18 G3 X7.237 Z-0.0421 K0.0079
G1 Y4.3921
Z-0.0521 F13.33
G2 X7.2449 Z-0.06 I0.0079
G1 X7.2528 F40
G17 G3 X7.2606 Y4.4 J0.0079
G1 Y4.4927 F20
X7.1 Y4.5855
X6.9394 Y4.4927
Y4.3073
X7.1 Y4.2145
X7.2606 Y4.3073
Y4.4
G3 X7.2528 Y4.4079 I-0.0079 F40
G1 X7.2449
G18 G3 X7.237 Z-0.0521 K0.0079
G0 Z0.2
Y3.7921
G1 Z0.0494 F13.33
Z-0.0021
G2 X7.2449 Z-0.01 I0.0079
G1 X7.2528 F40
G17 G3 X7.2606 Y3.8 J0.0079
G1 Y3.8927 F20
X7.1 Y3.9855
X6.9394 Y3.8927
Y3.7073
X7.1 Y3.6145
X7.2606 Y3.7073
Y3.8
G3 X7.2528 Y3.8079 I-0.0079 F40
G1 X7.2449
G18 G3 X7.237 Z-0.0021 K0.0079
G1 Y3.7921
Z-0.0121 F13.33
G2 X7.2449 Z-0.02 I0.0079
G1 X7.2528 F40
G17 G3 X7.2606 Y3.8 J0.0079
G1 Y3.8927 F20
X7.1 Y3.9855
X6.9394 Y3.8927
Y3.7073
X7.1 Y3.6145
X7.2606 Y3.7073
Y3.8
G3 X7.2528 Y3.8079 I-0.0079 F40
G1 X7.2449
G18 G3 X7.237 Z-0.0121 K0.0079
G1 Y3.7921
Z-0.0221 F13.33
G2 X7.2449 Z-0.03 I0.0079
G1 X7.2528 F40
G17 G3 X7.2606 Y3.8 J0.0079
G1 Y3.8927 F20
X7.1 Y3.9855
X6.9394 Y3.8927
Y3.7073
X7.1 Y3.6145
X7.2606 Y3.7073
Y3.8
G3 X7.2528 Y3.8079 I-0.0079 F40
G1 X7.2449
G18 G3 X7.237 Z-0.0221 K0.0079
G1 Y3.7921
Z-0.0321 F13.33
G2 X7.2449 Z-0.04 I0.0079
G1 X7.2528 F40
G17 G3 X7.2606 Y3.8 J0.0079
G1 Y3.8927 F20
X7.1 Y3.9855
X6.9394 Y3.8927
Y3.7073
X7.1 Y3.6145
X7.2606 Y3.7073
Y3.8
G3 X7.2528 Y3.8079 I-0.0079 F40
G1 X7.2449
G18 G3 X7.237 Z-0.0321 K0.0079
G1 Y3.7921
Z-0.0421 F13.33
G2 X7.2449 Z-0.05 I0.0079
G1 X7.2528 F40
G17 G3 X7.2606 Y3.8 J0.0079
G1 Y3.8927 F20
X7.1 Y3.9855
X6.9394 Y3.8927
Y3.7073
X7.1 Y3.6145
X7.2606 Y3.7073
Y3.8
G3 X7.2528 Y3.8079 I-0.0079 F40
G1 X7.2449
G18 G3 X7.237 Z-0.0421 K0.0079
G1 Y3.7921
Z-0.0521 F13.33
G2 X7.2449 Z-0.06 I0.0079
G1 X7.2528 F40
G17 G3 X7.2606 Y3.8 J0.0079
G1 Y3.8927 F20
X7.1 Y3.9855
X6.9394 Y3.8927
Y3.7073
X7.1 Y3.6145
X7.2606 Y3.7073
Y3.8
G3 X7.2528 Y3.8079 I-0.0079 F40
G1 X7.2449
G18 G3 X7.237 Z-0.0521 K0.0079
G0 Z0.2
X7.1617 Y3.0774
G1 Z0.0494 F13.33
Z-0.0021
X7.1618 Y3.0772 Z-0.0042
X7.1622 Y3.0765 Z-0.0061
X7.1628 Y3.0754 Z-0.0077
X7.1637 Y3.074 Z-0.0089
X7.1646 Y3.0724 Z-0.0097
X7.1656 Y3.0706 Z-0.01
X7.1696 Y3.0638 F40
G17 G3 X7.1803 Y3.0609 I0.0068 J0.0039
G1 X7.2606 Y3.1073 F20
Y3.2927
X7.1 Y3.3855
X6.9394 Y3.2927
Y3.1073
X7.1 Y3.0145
X7.1803 Y3.0609
G3 X7.1832 Y3.0716 I-0.0039 J0.0068 F40
G1 X7.1793 Y3.0785
X7.1782 Y3.0802 Z-0.0097
X7.1773 Y3.0819 Z-0.0089
X7.1765 Y3.0833 Z-0.0077
X7.1759 Y3.0844 Z-0.0061
X7.1755 Y3.0851 Z-0.0042
X7.1753 Y3.0853 Z-0.0021
X7.1617 Y3.0774
Z-0.0121 F13.33
X7.1618 Y3.0772 Z-0.0142
X7.1622 Y3.0765 Z-0.0161
X7.1628 Y3.0754 Z-0.0177
X7.1637 Y3.074 Z-0.0189
X7.1646 Y3.0724 Z-0.0197
X7.1656 Y3.0706 Z-0.02
X7.1696 Y3.0638 F40
G3 X7.1803 Y3.0609 I0.0068 J0.0039
G1 X7.2606 Y3.1073 F20
Y3.2927
X7.1 Y3.3855
X6.9394 Y3.2927
Y3.1073
X7.1 Y3.0145
X7.1803 Y3.0609
G3 X7.1832 Y3.0716 I-0.0039 J0.0068 F40
G1 X7.1793 Y3.0785
X7.1782 Y3.0802 Z-0.0197
X7.1773 Y3.0819 Z-0.0189
X7.1765 Y3.0833 Z-0.0177
X7.1759 Y3.0844 Z-0.0161
X7.1755 Y3.0851 Z-0.0142
X7.1753 Y3.0853 Z-0.0121
X7.1617 Y3.0774
Z-0.0221 F13.33
X7.1618 Y3.0772 Z-0.0242
X7.1622 Y3.0765 Z-0.0261
X7.1628 Y3.0754 Z-0.0277
X7.1637 Y3.074 Z-0.0289
X7.1646 Y3.0724 Z-0.0297
X7.1656 Y3.0706 Z-0.03
X7.1696 Y3.0638 F40
G3 X7.1803 Y3.0609 I0.0068 J0.0039
G1 X7.2606 Y3.1073 F20
Y3.2927
X7.1 Y3.3855
X6.9394 Y3.2927
Y3.1073
X7.1 Y3.0145
X7.1803 Y3.0609
G3 X7.1832 Y3.0716 I-0.0039 J0.0068 F40
G1 X7.1793 Y3.0785
X7.1782 Y3.0802 Z-0.0297
X7.1773 Y3.0819 Z-0.0289
X7.1765 Y3.0833 Z-0.0277
X7.1759 Y3.0844 Z-0.0261
X7.1755 Y3.0851 Z-0.0242
X7.1753 Y3.0853 Z-0.0221
X7.1617 Y3.0774
Z-0.0321 F13.33
X7.1618 Y3.0772 Z-0.0342
X7.1622 Y3.0765 Z-0.0361
X7.1628 Y3.0754 Z-0.0377
X7.1637 Y3.074 Z-0.0389
X7.1646 Y3.0724 Z-0.0397
X7.1656 Y3.0706 Z-0.04
X7.1696 Y3.0638 F40
G3 X7.1803 Y3.0609 I0.0068 J0.0039
G1 X7.2606 Y3.1073 F20
Y3.2927
X7.1 Y3.3855
X6.9394 Y3.2927
Y3.1073
X7.1 Y3.0145
X7.1803 Y3.0609
G3 X7.1832 Y3.0716 I-0.0039 J0.0068 F40
G1 X7.1793 Y3.0785
X7.1782 Y3.0802 Z-0.0397
X7.1773 Y3.0819 Z-0.0389
X7.1765 Y3.0833 Z-0.0377
X7.1759 Y3.0844 Z-0.0361
X7.1755 Y3.0851 Z-0.0342
X7.1753 Y3.0853 Z-0.0321
X7.1617 Y3.0774
Z-0.0421 F13.33
X7.1618 Y3.0772 Z-0.0442
X7.1622 Y3.0765 Z-0.0461
X7.1628 Y3.0754 Z-0.0477
X7.1637 Y3.074 Z-0.0489
X7.1646 Y3.0724 Z-0.0497
X7.1656 Y3.0706 Z-0.05
X7.1696 Y3.0638 F40
G3 X7.1803 Y3.0609 I0.0068 J0.0039
G1 X7.2606 Y3.1073 F20
Y3.2927
X7.1 Y3.3855
X6.9394 Y3.2927
Y3.1073
X7.1 Y3.0145
X7.1803 Y3.0609
G3 X7.1832 Y3.0716 I-0.0039 J0.0068 F40
G1 X7.1793 Y3.0785
X7.1782 Y3.0802 Z-0.0497
X7.1773 Y3.0819 Z-0.0489
X7.1765 Y3.0833 Z-0.0477
X7.1759 Y3.0844 Z-0.0461
X7.1755 Y3.0851 Z-0.0442
X7.1753 Y3.0853 Z-0.0421
X7.1617 Y3.0774
Z-0.0521 F13.33
X7.1618 Y3.0772 Z-0.0542
X7.1622 Y3.0765 Z-0.0561
X7.1628 Y3.0754 Z-0.0577
X7.1637 Y3.074 Z-0.0589
X7.1646 Y3.0724 Z-0.0597
X7.1656 Y3.0706 Z-0.06
X7.1696 Y3.0638 F40
G3 X7.1803 Y3.0609 I0.0068 J0.0039
G1 X7.2606 Y3.1073 F20
Y3.2927
X7.1 Y3.3855
X6.9394 Y3.2927
Y3.1073
X7.1 Y3.0145
X7.1803 Y3.0609
G3 X7.1832 Y3.0716 I-0.0039 J0.0068 F40
G1 X7.1793 Y3.0785
X7.1782 Y3.0802 Z-0.0597
X7.1773 Y3.0819 Z-0.0589
X7.1765 Y3.0833 Z-0.0577
X7.1759 Y3.0844 Z-0.0561
X7.1755 Y3.0851 Z-0.0542
X7.1753 Y3.0853 Z-0.0521
G0 Z0.2
Y2.7147
G1 Z0.0494 F13.33
Z-0.0021
X7.1755 Y2.7149 Z-0.0042
X7.1759 Y2.7156 Z-0.0061
X7.1765 Y2.7167 Z-0.0077
X7.1773 Y2.7181 Z-0.0089
X7.1782 Y2.7198 Z-0.0097
X7.1793 Y2.7215 Z-0.01
X7.1832 Y2.7284 F40
G3 X7.1803 Y2.7391 I-0.0068 J0.0039
G1 X7.1 Y2.7855 F20
X6.9394 Y2.6927
Y2.5073
X7.1 Y2.4145
X7.2606 Y2.5073
Y2.6927
X7.1803 Y2.7391
G3 X7.1696 Y2.7362 I-0.0039 J-0.0068 F40
G1 X7.1656 Y2.7294
X7.1646 Y2.7276 Z-0.0097
X7.1637 Y2.726 Z-0.0089
X7.1628 Y2.7246 Z-0.0077
X7.1622 Y2.7235 Z-0.0061
X7.1618 Y2.7228 Z-0.0042
X7.1617 Y2.7226 Z-0.0021
X7.1753 Y2.7147
Z-0.0121 F13.33
X7.1755 Y2.7149 Z-0.0142
X7.1759 Y2.7156 Z-0.0161
X7.1765 Y2.7167 Z-0.0177
X7.1773 Y2.7181 Z-0.0189
X7.1782 Y2.7198 Z-0.0197
X7.1793 Y2.7215 Z-0.02
X7.1832 Y2.7284 F40
G3 X7.1803 Y2.7391 I-0.0068 J0.0039
G1 X7.1 Y2.7855 F20
X6.9394 Y2.6927
Y2.5073
X7.1 Y2.4145
X7.2606 Y2.5073
Y2.6927
X7.1803 Y2.7391
G3 X7.1696 Y2.7362 I-0.0039 J-0.0068 F40
G1 X7.1656 Y2.7294
X7.1646 Y2.7276 Z-0.0197
X7.1637 Y2.726 Z-0.0189
X7.1628 Y2.7246 Z-0.0177
X7.1622 Y2.7235 Z-0.0161
X7.1618 Y2.7228 Z-0.0142
X7.1617 Y2.7226 Z-0.0121
X7.1753 Y2.7147
Z-0.0221 F13.33
X7.1755 Y2.7149 Z-0.0242
X7.1759 Y2.7156 Z-0.0261
X7.1765 Y2.7167 Z-0.0277
X7.1773 Y2.7181 Z-0.0289
X7.1782 Y2.7198 Z-0.0297
X7.1793 Y2.7215 Z-0.03
X7.1832 Y2.7284 F40
G3 X7.1803 Y2.7391 I-0.0068 J0.0039
G1 X7.1 Y2.7855 F20
X6.9394 Y2.6927
Y2.5073
X7.1 Y2.4145
X7.2606 Y2.5073
Y2.6927
X7.1803 Y2.7391
G3 X7.1696 Y2.7362 I-0.0039 J-0.0068 F40
G1 X7.1656 Y2.7294
X7.1646 Y2.7276 Z-0.0297
X7.1637 Y2.726 Z-0.0289
X7.1628 Y2.7246 Z-0.0277
X7.1622 Y2.7235 Z-0.0261
X7.1618 Y2.7228 Z-0.0242
X7.1617 Y2.7226 Z-0.0221
X7.1753 Y2.7147
Z-0.0321 F13.33
X7.1755 Y2.7149 Z-0.0342
X7.1759 Y2.7156 Z-0.0361
X7.1765 Y2.7167 Z-0.0377
X7.1773 Y2.7181 Z-0.0389
X7.1782 Y2.7198 Z-0.0397
X7.1793 Y2.7215 Z-0.04
X7.1832 Y2.7284 F40
G3 X7.1803 Y2.7391 I-0.0068 J0.0039
G1 X7.1 Y2.7855 F20
X6.9394 Y2.6927
Y2.5073
X7.1 Y2.4145
X7.2606 Y2.5073
Y2.6927
X7.1803 Y2.7391
G3 X7.1696 Y2.7362 I-0.0039 J-0.0068 F40
G1 X7.1656 Y2.7294
X7.1646 Y2.7276 Z-0.0397
X7.1637 Y2.726 Z-0.0389
X7.1628 Y2.7246 Z-0.0377
X7.1622 Y2.7235 Z-0.0361
X7.1618 Y2.7228 Z-0.0342
X7.1617 Y2.7226 Z-0.0321
X7.1753 Y2.7147
Z-0.0421 F13.33
X7.1755 Y2.7149 Z-0.0442
X7.1759 Y2.7156 Z-0.0461
X7.1765 Y2.7167 Z-0.0477
X7.1773 Y2.7181 Z-0.0489
X7.1782 Y2.7198 Z-0.0497
X7.1793 Y2.7215 Z-0.05
X7.1832 Y2.7284 F40
G3 X7.1803 Y2.7391 I-0.0068 J0.0039
G1 X7.1 Y2.7855 F20
X6.9394 Y2.6927
Y2.5073
X7.1 Y2.4145
X7.2606 Y2.5073
Y2.6927
X7.1803 Y2.7391
G3 X7.1696 Y2.7362 I-0.0039 J-0.0068 F40
G1 X7.1656 Y2.7294
X7.1646 Y2.7276 Z-0.0497
X7.1637 Y2.726 Z-0.0489
X7.1628 Y2.7246 Z-0.0477
X7.1622 Y2.7235 Z-0.0461
X7.1618 Y2.7228 Z-0.0442
X7.1617 Y2.7226 Z-0.0421
X7.1753 Y2.7147
Z-0.0521 F13.33
X7.1755 Y2.7149 Z-0.0542
X7.1759 Y2.7156 Z-0.0561
X7.1765 Y2.7167 Z-0.0577
X7.1773 Y2.7181 Z-0.0589
X7.1782 Y2.7198 Z-0.0597
X7.1793 Y2.7215 Z-0.06
X7.1832 Y2.7284 F40
G3 X7.1803 Y2.7391 I-0.0068 J0.0039
G1 X7.1 Y2.7855 F20
X6.9394 Y2.6927
Y2.5073
X7.1 Y2.4145
X7.2606 Y2.5073
Y2.6927
X7.1803 Y2.7391
G3 X7.1696 Y2.7362 I-0.0039 J-0.0068 F40
G1 X7.1656 Y2.7294
X7.1646 Y2.7276 Z-0.0597
X7.1637 Y2.726 Z-0.0589
X7.1628 Y2.7246 Z-0.0577
X7.1622 Y2.7235 Z-0.0561
X7.1618 Y2.7228 Z-0.0542
X7.1617 Y2.7226 Z-0.0521
G0 Z0.2
X6.5617 Y2.4774
G1 Z0.0494 F13.33
Z-0.0021
X6.5618 Y2.4772 Z-0.0042
X6.5622 Y2.4765 Z-0.0061
X6.5628 Y2.4754 Z-0.0077
X6.5637 Y2.474 Z-0.0089
X6.5646 Y2.4724 Z-0.0097
X6.5656 Y2.4706 Z-0.01
X6.5696 Y2.4638 F40
G3 X6.5803 Y2.4609 I0.0068 J0.0039
G1 X6.6606 Y2.5073 F20
Y2.6927
X6.5 Y2.7855
X6.3394 Y2.6927
Y2.5073
X6.5 Y2.4145
X6.5803 Y2.4609
G3 X6.5832 Y2.4716 I-0.0039 J0.0068 F40
G1 X6.5793 Y2.4785
X6.5782 Y2.4802 Z-0.0097
X6.5773 Y2.4819 Z-0.0089
X6.5765 Y2.4833 Z-0.0077
X6.5759 Y2.4844 Z-0.0061
X6.5755 Y2.4851 Z-0.0042
X6.5753 Y2.4853 Z-0.0021
X6.5617 Y2.4774
Z-0.0121 F13.33
X6.5618 Y2.4772 Z-0.0142
X6.5622 Y2.4765 Z-0.0161
X6.5628 Y2.4754 Z-0.0177
X6.5637 Y2.474 Z-0.0189
X6.5646 Y2.4724 Z-0.0197
X6.5656 Y2.4706 Z-0.02
X6.5696 Y2.4638 F40
G3 X6.5803 Y2.4609 I0.0068 J0.0039
G1 X6.6606 Y2.5073 F20
Y2.6927
X6.5 Y2.7855
X6.3394 Y2.6927
Y2.5073
X6.5 Y2.4145
X6.5803 Y2.4609
G3 X6.5832 Y2.4716 I-0.0039 J0.0068 F40
G1 X6.5793 Y2.4785
X6.5782 Y2.4802 Z-0.0197
X6.5773 Y2.4819 Z-0.0189
X6.5765 Y2.4833 Z-0.0177
X6.5759 Y2.4844 Z-0.0161
X6.5755 Y2.4851 Z-0.0142
X6.5753 Y2.4853 Z-0.0121
X6.5617 Y2.4774
Z-0.0221 F13.33
X6.5618 Y2.4772 Z-0.0242
X6.5622 Y2.4765 Z-0.0261
X6.5628 Y2.4754 Z-0.0277
X6.5637 Y2.474 Z-0.0289
X6.5646 Y2.4724 Z-0.0297
X6.5656 Y2.4706 Z-0.03
X6.5696 Y2.4638 F40
G3 X6.5803 Y2.4609 I0.0068 J0.0039
G1 X6.6606 Y2.5073 F20
Y2.6927
X6.5 Y2.7855
X6.3394 Y2.6927
Y2.5073
X6.5 Y2.4145
X6.5803 Y2.4609
G3 X6.5832 Y2.4716 I-0.0039 J0.0068 F40
G1 X6.5793 Y2.4785
X6.5782 Y2.4802 Z-0.0297
X6.5773 Y2.4819 Z-0.0289
X6.5765 Y2.4833 Z-0.0277
X6.5759 Y2.4844 Z-0.0261
X6.5755 Y2.4851 Z-0.0242
X6.5753 Y2.4853 Z-0.0221
X6.5617 Y2.4774
Z-0.0321 F13.33
X6.5618 Y2.4772 Z-0.0342
X6.5622 Y2.4765 Z-0.0361
X6.5628 Y2.4754 Z-0.0377
X6.5637 Y2.474 Z-0.0389
X6.5646 Y2.4724 Z-0.0397
X6.5656 Y2.4706 Z-0.04
X6.5696 Y2.4638 F40
G3 X6.5803 Y2.4609 I0.0068 J0.0039
G1 X6.6606 Y2.5073 F20
Y2.6927
X6.5 Y2.7855
X6.3394 Y2.6927
Y2.5073
X6.5 Y2.4145
X6.5803 Y2.4609
G3 X6.5832 Y2.4716 I-0.0039 J0.0068 F40
G1 X6.5793 Y2.4785
X6.5782 Y2.4802 Z-0.0397
X6.5773 Y2.4819 Z-0.0389
X6.5765 Y2.4833 Z-0.0377
X6.5759 Y2.4844 Z-0.0361
X6.5755 Y2.4851 Z-0.0342
X6.5753 Y2.4853 Z-0.0321
X6.5617 Y2.4774
Z-0.0421 F13.33
X6.5618 Y2.4772 Z-0.0442
X6.5622 Y2.4765 Z-0.0461
X6.5628 Y2.4754 Z-0.0477
X6.5637 Y2.474 Z-0.0489
X6.5646 Y2.4724 Z-0.0497
X6.5656 Y2.4706 Z-0.05
X6.5696 Y2.4638 F40
G3 X6.5803 Y2.4609 I0.0068 J0.0039
G1 X6.6606 Y2.5073 F20
Y2.6927
X6.5 Y2.7855
X6.3394 Y2.6927
Y2.5073
X6.5 Y2.4145
X6.5803 Y2.4609
G3 X6.5832 Y2.4716 I-0.0039 J0.0068 F40
G1 X6.5793 Y2.4785
X6.5782 Y2.4802 Z-0.0497
X6.5773 Y2.4819 Z-0.0489
X6.5765 Y2.4833 Z-0.0477
X6.5759 Y2.4844 Z-0.0461
X6.5755 Y2.4851 Z-0.0442
X6.5753 Y2.4853 Z-0.0421
X6.5617 Y2.4774
Z-0.0521 F13.33
X6.5618 Y2.4772 Z-0.0542
X6.5622 Y2.4765 Z-0.0561
X6.5628 Y2.4754 Z-0.0577
X6.5637 Y2.474 Z-0.0589
X6.5646 Y2.4724 Z-0.0597
X6.5656 Y2.4706 Z-0.06
X6.5696 Y2.4638 F40
G3 X6.5803 Y2.4609 I0.0068 J0.0039
G1 X6.6606 Y2.5073 F20
Y2.6927
X6.5 Y2.7855
X6.3394 Y2.6927
Y2.5073
X6.5 Y2.4145
X6.5803 Y2.4609
G3 X6.5832 Y2.4716 I-0.0039 J0.0068 F40
G1 X6.5793 Y2.4785
X6.5782 Y2.4802 Z-0.0597
X6.5773 Y2.4819 Z-0.0589
X6.5765 Y2.4833 Z-0.0577
X6.5759 Y2.4844 Z-0.0561
X6.5755 Y2.4851 Z-0.0542
X6.5753 Y2.4853 Z-0.0521
G0 Z0.2
X6.5617 Y1.8774
G1 Z0.0494 F13.33
Z-0.0021
X6.5618 Y1.8772 Z-0.0042
X6.5622 Y1.8765 Z-0.0061
X6.5628 Y1.8754 Z-0.0077
X6.5637 Y1.874 Z-0.0089
X6.5646 Y1.8724 Z-0.0097
X6.5656 Y1.8706 Z-0.01
X6.5696 Y1.8638 F40
G3 X6.5803 Y1.8609 I0.0068 J0.0039
G1 X6.6606 Y1.9073 F20
Y2.0927
X6.5 Y2.1855
X6.3394 Y2.0927
Y1.9073
X6.5 Y1.8145
X6.5803 Y1.8609
G3 X6.5832 Y1.8716 I-0.0039 J0.0068 F40
G1 X6.5793 Y1.8785
X6.5782 Y1.8802 Z-0.0097
X6.5773 Y1.8819 Z-0.0089
X6.5765 Y1.8833 Z-0.0077
X6.5759 Y1.8844 Z-0.0061
X6.5755 Y1.8851 Z-0.0042
X6.5753 Y1.8853 Z-0.0021
X6.5617 Y1.8774
Z-0.0121 F13.33
X6.5618 Y1.8772 Z-0.0142
X6.5622 Y1.8765 Z-0.0161
X6.5628 Y1.8754 Z-0.0177
X6.5637 Y1.874 Z-0.0189
X6.5646 Y1.8724 Z-0.0197
X6.5656 Y1.8706 Z-0.02
X6.5696 Y1.8638 F40
G3 X6.5803 Y1.8609 I0.0068 J0.0039
G1 X6.6606 Y1.9073 F20
Y2.0927
X6.5 Y2.1855
X6.3394 Y2.0927
Y1.9073
X6.5 Y1.8145
X6.5803 Y1.8609
G3 X6.5832 Y1.8716 I-0.0039 J0.0068 F40
G1 X6.5793 Y1.8785
X6.5782 Y1.8802 Z-0.0197
X6.5773 Y1.8819 Z-0.0189
X6.5765 Y1.8833 Z-0.0177
X6.5759 Y1.8844 Z-0.0161
X6.5755 Y1.8851 Z-0.0142
X6.5753 Y1.8853 Z-0.0121
X6.5617 Y1.8774
Z-0.0221 F13.33
X6.5618 Y1.8772 Z-0.0242
X6.5622 Y1.8765 Z-0.0261
X6.5628 Y1.8754 Z-0.0277
X6.5637 Y1.874 Z-0.0289
X6.5646 Y1.8724 Z-0.0297
X6.5656 Y1.8706 Z-0.03
X6.5696 Y1.8638 F40
G3 X6.5803 Y1.8609 I0.0068 J0.0039
G1 X6.6606 Y1.9073 F20
Y2.0927
X6.5 Y2.1855
X6.3394 Y2.0927
Y1.9073
X6.5 Y1.8145
X6.5803 Y1.8609
G3 X6.5832 Y1.8716 I-0.0039 J0.0068 F40
G1 X6.5793 Y1.8785
X6.5782 Y1.8802 Z-0.0297
X6.5773 Y1.8819 Z-0.0289
X6.5765 Y1.8833 Z-0.0277
X6.5759 Y1.8844 Z-0.0261
X6.5755 Y1.8851 Z-0.0242
X6.5753 Y1.8853 Z-0.0221
X6.5617 Y1.8774
Z-0.0321 F13.33
X6.5618 Y1.8772 Z-0.0342
X6.5622 Y1.8765 Z-0.0361
X6.5628 Y1.8754 Z-0.0377
X6.5637 Y1.874 Z-0.0389
X6.5646 Y1.8724 Z-0.0397
X6.5656 Y1.8706 Z-0.04
X6.5696 Y1.8638 F40
G3 X6.5803 Y1.8609 I0.0068 J0.0039
G1 X6.6606 Y1.9073 F20
Y2.0927
X6.5 Y2.1855
X6.3394 Y2.0927
Y1.9073
X6.5 Y1.8145
X6.5803 Y1.8609
G3 X6.5832 Y1.8716 I-0.0039 J0.0068 F40
G1 X6.5793 Y1.8785
X6.5782 Y1.8802 Z-0.0397
X6.5773 Y1.8819 Z-0.0389
X6.5765 Y1.8833 Z-0.0377
X6.5759 Y1.8844 Z-0.0361
X6.5755 Y1.8851 Z-0.0342
X6.5753 Y1.8853 Z-0.0321
X6.5617 Y1.8774
Z-0.0421 F13.33
X6.5618 Y1.8772 Z-0.0442
X6.5622 Y1.8765 Z-0.0461
X6.5628 Y1.8754 Z-0.0477
X6.5637 Y1.874 Z-0.0489
X6.5646 Y1.8724 Z-0.0497
X6.5656 Y1.8706 Z-0.05
X6.5696 Y1.8638 F40
G3 X6.5803 Y1.8609 I0.0068 J0.0039
G1 X6.6606 Y1.9073 F20
Y2.0927
X6.5 Y2.1855
X6.3394 Y2.0927
Y1.9073
X6.5 Y1.8145
X6.5803 Y1.8609
G3 X6.5832 Y1.8716 I-0.0039 J0.0068 F40
G1 X6.5793 Y1.8785
X6.5782 Y1.8802 Z-0.0497
X6.5773 Y1.8819 Z-0.0489
X6.5765 Y1.8833 Z-0.0477
X6.5759 Y1.8844 Z-0.0461
X6.5755 Y1.8851 Z-0.0442
X6.5753 Y1.8853 Z-0.0421
X6.5617 Y1.8774
Z-0.0521 F13.33
X6.5618 Y1.8772 Z-0.0542
X6.5622 Y1.8765 Z-0.0561
X6.5628 Y1.8754 Z-0.0577
X6.5637 Y1.874 Z-0.0589
X6.5646 Y1.8724 Z-0.0597
X6.5656 Y1.8706 Z-0.06
X6.5696 Y1.8638 F40
G3 X6.5803 Y1.8609 I0.0068 J0.0039
G1 X6.6606 Y1.9073 F20
Y2.0927
X6.5 Y2.1855
X6.3394 Y2.0927
Y1.9073
X6.5 Y1.8145
X6.5803 Y1.8609
G3 X6.5832 Y1.8716 I-0.0039 J0.0068 F40
G1 X6.5793 Y1.8785
X6.5782 Y1.8802 Z-0.0597
X6.5773 Y1.8819 Z-0.0589
X6.5765 Y1.8833 Z-0.0577
X6.5759 Y1.8844 Z-0.0561
X6.5755 Y1.8851 Z-0.0542
X6.5753 Y1.8853 Z-0.0521
G0 Z0.2
X7.1753 Y2.1147
G1 Z0.0494 F13.33
Z-0.0021
X7.1755 Y2.1149 Z-0.0042
X7.1759 Y2.1156 Z-0.0061
X7.1765 Y2.1167 Z-0.0077
X7.1773 Y2.1181 Z-0.0089
X7.1782 Y2.1198 Z-0.0097
X7.1793 Y2.1215 Z-0.01
X7.1832 Y2.1284 F40
G3 X7.1803 Y2.1391 I-0.0068 J0.0039
G1 X7.1 Y2.1855 F20
X6.9394 Y2.0927
Y1.9073
X7.1 Y1.8145
X7.2606 Y1.9073
Y2.0927
X7.1803 Y2.1391
G3 X7.1696 Y2.1362 I-0.0039 J-0.0068 F40
G1 X7.1656 Y2.1294
X7.1646 Y2.1276 Z-0.0097
X7.1637 Y2.126 Z-0.0089
X7.1628 Y2.1246 Z-0.0077
X7.1622 Y2.1235 Z-0.0061
X7.1618 Y2.1228 Z-0.0042
X7.1617 Y2.1226 Z-0.0021
X7.1753 Y2.1147
Z-0.0121 F13.33
X7.1755 Y2.1149 Z-0.0142
X7.1759 Y2.1156 Z-0.0161
X7.1765 Y2.1167 Z-0.0177
X7.1773 Y2.1181 Z-0.0189
X7.1782 Y2.1198 Z-0.0197
X7.1793 Y2.1215 Z-0.02
X7.1832 Y2.1284 F40
G3 X7.1803 Y2.1391 I-0.0068 J0.0039
G1 X7.1 Y2.1855 F20
X6.9394 Y2.0927
Y1.9073
X7.1 Y1.8145
X7.2606 Y1.9073
Y2.0927
X7.1803 Y2.1391
G3 X7.1696 Y2.1362 I-0.0039 J-0.0068 F40
G1 X7.1656 Y2.1294
X7.1646 Y2.1276 Z-0.0197
X7.1637 Y2.126 Z-0.0189
X7.1628 Y2.1246 Z-0.0177
X7.1622 Y2.1235 Z-0.0161
X7.1618 Y2.1228 Z-0.0142
X7.1617 Y2.1226 Z-0.0121
X7.1753 Y2.1147
Z-0.0221 F13.33
X7.1755 Y2.1149 Z-0.0242
X7.1759 Y2.1156 Z-0.0261
X7.1765 Y2.1167 Z-0.0277
X7.1773 Y2.1181 Z-0.0289
X7.1782 Y2.1198 Z-0.0297
X7.1793 Y2.1215 Z-0.03
X7.1832 Y2.1284 F40
G3 X7.1803 Y2.1391 I-0.0068 J0.0039
G1 X7.1 Y2.1855 F20
X6.9394 Y2.0927
Y1.9073
X7.1 Y1.8145
X7.2606 Y1.9073
Y2.0927
X7.1803 Y2.1391
G3 X7.1696 Y2.1362 I-0.0039 J-0.0068 F40
G1 X7.1656 Y2.1294
X7.1646 Y2.1276 Z-0.0297
X7.1637 Y2.126 Z-0.0289
X7.1628 Y2.1246 Z-0.0277
X7.1622 Y2.1235 Z-0.0261
X7.1618 Y2.1228 Z-0.0242
X7.1617 Y2.1226 Z-0.0221
X7.1753 Y2.1147
Z-0.0321 F13.33
X7.1755 Y2.1149 Z-0.0342
X7.1759 Y2.1156 Z-0.0361
X7.1765 Y2.1167 Z-0.0377
X7.1773 Y2.1181 Z-0.0389
X7.1782 Y2.1198 Z-0.0397
X7.1793 Y2.1215 Z-0.04
X7.1832 Y2.1284 F40
G3 X7.1803 Y2.1391 I-0.0068 J0.0039
G1 X7.1 Y2.1855 F20
X6.9394 Y2.0927
Y1.9073
X7.1 Y1.8145
X7.2606 Y1.9073
Y2.0927
X7.1803 Y2.1391
G3 X7.1696 Y2.1362 I-0.0039 J-0.0068 F40
G1 X7.1656 Y2.1294
X7.1646 Y2.1276 Z-0.0397
X7.1637 Y2.126 Z-0.0389
X7.1628 Y2.1246 Z-0.0377
X7.1622 Y2.1235 Z-0.0361
X7.1618 Y2.1228 Z-0.0342
X7.1617 Y2.1226 Z-0.0321
X7.1753 Y2.1147
Z-0.0421 F13.33
X7.1755 Y2.1149 Z-0.0442
X7.1759 Y2.1156 Z-0.0461
X7.1765 Y2.1167 Z-0.0477
X7.1773 Y2.1181 Z-0.0489
X7.1782 Y2.1198 Z-0.0497
X7.1793 Y2.1215 Z-0.05
X7.1832 Y2.1284 F40
G3 X7.1803 Y2.1391 I-0.0068 J0.0039
G1 X7.1 Y2.1855 F20
X6.9394 Y2.0927
Y1.9073
X7.1 Y1.8145
X7.2606 Y1.9073
Y2.0927
X7.1803 Y2.1391
G3 X7.1696 Y2.1362 I-0.0039 J-0.0068 F40
G1 X7.1656 Y2.1294
X7.1646 Y2.1276 Z-0.0497
X7.1637 Y2.126 Z-0.0489
X7.1628 Y2.1246 Z-0.0477
X7.1622 Y2.1235 Z-0.0461
X7.1618 Y2.1228 Z-0.0442
X7.1617 Y2.1226 Z-0.0421
X7.1753 Y2.1147
Z-0.0521 F13.33
X7.1755 Y2.1149 Z-0.0542
X7.1759 Y2.1156 Z-0.0561
X7.1765 Y2.1167 Z-0.0577
X7.1773 Y2.1181 Z-0.0589
X7.1782 Y2.1198 Z-0.0597
X7.1793 Y2.1215 Z-0.06
X7.1832 Y2.1284 F40
G3 X7.1803 Y2.1391 I-0.0068 J0.0039
G1 X7.1 Y2.1855 F20
X6.9394 Y2.0927
Y1.9073
X7.1 Y1.8145
X7.2606 Y1.9073
Y2.0927
X7.1803 Y2.1391
G3 X7.1696 Y2.1362 I-0.0039 J-0.0068 F40
G1 X7.1656 Y2.1294
X7.1646 Y2.1276 Z-0.0597
X7.1637 Y2.126 Z-0.0589
X7.1628 Y2.1246 Z-0.0577
X7.1622 Y2.1235 Z-0.0561
X7.1618 Y2.1228 Z-0.0542
X7.1617 Y2.1226 Z-0.0521
G0 Z0.2
X5.9753 Y2.1147
G1 Z0.0494 F13.33
Z-0.0021
X5.9755 Y2.1149 Z-0.0042
X5.9759 Y2.1156 Z-0.0061
X5.9765 Y2.1167 Z-0.0077
X5.9773 Y2.1181 Z-0.0089
X5.9782 Y2.1198 Z-0.0097
X5.9793 Y2.1215 Z-0.01
X5.9832 Y2.1284 F40
G3 X5.9803 Y2.1391 I-0.0068 J0.0039
G1 X5.9 Y2.1855 F20
X5.7394 Y2.0927
Y1.9073
X5.9 Y1.8145
X6.0606 Y1.9073
Y2.0927
X5.9803 Y2.1391
G3 X5.9696 Y2.1362 I-0.0039 J-0.0068 F40
G1 X5.9656 Y2.1294
X5.9646 Y2.1276 Z-0.0097
X5.9637 Y2.126 Z-0.0089
X5.9628 Y2.1246 Z-0.0077
X5.9622 Y2.1235 Z-0.0061
X5.9618 Y2.1228 Z-0.0042
X5.9617 Y2.1226 Z-0.0021
X5.9753 Y2.1147
Z-0.0121 F13.33
X5.9755 Y2.1149 Z-0.0142
X5.9759 Y2.1156 Z-0.0161
X5.9765 Y2.1167 Z-0.0177
X5.9773 Y2.1181 Z-0.0189
X5.9782 Y2.1198 Z-0.0197
X5.9793 Y2.1215 Z-0.02
X5.9832 Y2.1284 F40
G3 X5.9803 Y2.1391 I-0.0068 J0.0039
G1 X5.9 Y2.1855 F20
X5.7394 Y2.0927
Y1.9073
X5.9 Y1.8145
X6.0606 Y1.9073
Y2.0927
X5.9803 Y2.1391
G3 X5.9696 Y2.1362 I-0.0039 J-0.0068 F40
G1 X5.9656 Y2.1294
X5.9646 Y2.1276 Z-0.0197
X5.9637 Y2.126 Z-0.0189
X5.9628 Y2.1246 Z-0.0177
X5.9622 Y2.1235 Z-0.0161
X5.9618 Y2.1228 Z-0.0142
X5.9617 Y2.1226 Z-0.0121
X5.9753 Y2.1147
Z-0.0221 F13.33
X5.9755 Y2.1149 Z-0.0242
X5.9759 Y2.1156 Z-0.0261
X5.9765 Y2.1167 Z-0.0277
X5.9773 Y2.1181 Z-0.0289
X5.9782 Y2.1198 Z-0.0297
X5.9793 Y2.1215 Z-0.03
X5.9832 Y2.1284 F40
G3 X5.9803 Y2.1391 I-0.0068 J0.0039
G1 X5.9 Y2.1855 F20
X5.7394 Y2.0927
Y1.9073
X5.9 Y1.8145
X6.0606 Y1.9073
Y2.0927
X5.9803 Y2.1391
G3 X5.9696 Y2.1362 I-0.0039 J-0.0068 F40
G1 X5.9656 Y2.1294
X5.9646 Y2.1276 Z-0.0297
X5.9637 Y2.126 Z-0.0289
X5.9628 Y2.1246 Z-0.0277
X5.9622 Y2.1235 Z-0.0261
X5.9618 Y2.1228 Z-0.0242
X5.9617 Y2.1226 Z-0.0221
X5.9753 Y2.1147
Z-0.0321 F13.33
X5.9755 Y2.1149 Z-0.0342
X5.9759 Y2.1156 Z-0.0361
X5.9765 Y2.1167 Z-0.0377
X5.9773 Y2.1181 Z-0.0389
X5.9782 Y2.1198 Z-0.0397
X5.9793 Y2.1215 Z-0.04
X5.9832 Y2.1284 F40
G3 X5.9803 Y2.1391 I-0.0068 J0.0039
G1 X5.9 Y2.1855 F20
X5.7394 Y2.0927
Y1.9073
X5.9 Y1.8145
X6.0606 Y1.9073
Y2.0927
X5.9803 Y2.1391
G3 X5.9696 Y2.1362 I-0.0039 J-0.0068 F40
G1 X5.9656 Y2.1294
X5.9646 Y2.1276 Z-0.0397
X5.9637 Y2.126 Z-0.0389
X5.9628 Y2.1246 Z-0.0377
X5.9622 Y2.1235 Z-0.0361
X5.9618 Y2.1228 Z-0.0342
X5.9617 Y2.1226 Z-0.0321
X5.9753 Y2.1147
Z-0.0421 F13.33
X5.9755 Y2.1149 Z-0.0442
X5.9759 Y2.1156 Z-0.0461
X5.9765 Y2.1167 Z-0.0477
X5.9773 Y2.1181 Z-0.0489
X5.9782 Y2.1198 Z-0.0497
X5.9793 Y2.1215 Z-0.05
X5.9832 Y2.1284 F40
G3 X5.9803 Y2.1391 I-0.0068 J0.0039
G1 X5.9 Y2.1855 F20
X5.7394 Y2.0927
Y1.9073
X5.9 Y1.8145
X6.0606 Y1.9073
Y2.0927
X5.9803 Y2.1391
G3 X5.9696 Y2.1362 I-0.0039 J-0.0068 F40
G1 X5.9656 Y2.1294
X5.9646 Y2.1276 Z-0.0497
X5.9637 Y2.126 Z-0.0489
X5.9628 Y2.1246 Z-0.0477
X5.9622 Y2.1235 Z-0.0461
X5.9618 Y2.1228 Z-0.0442
X5.9617 Y2.1226 Z-0.0421
X5.9753 Y2.1147
Z-0.0521 F13.33
X5.9755 Y2.1149 Z-0.0542
X5.9759 Y2.1156 Z-0.0561
X5.9765 Y2.1167 Z-0.0577
X5.9773 Y2.1181 Z-0.0589
X5.9782 Y2.1198 Z-0.0597
X5.9793 Y2.1215 Z-0.06
X5.9832 Y2.1284 F40
G3 X5.9803 Y2.1391 I-0.0068 J0.0039
G1 X5.9 Y2.1855 F20
X5.7394 Y2.0927
Y1.9073
X5.9 Y1.8145
X6.0606 Y1.9073
Y2.0927
X5.9803 Y2.1391
G3 X5.9696 Y2.1362 I-0.0039 J-0.0068 F40
G1 X5.9656 Y2.1294
X5.9646 Y2.1276 Z-0.0597
X5.9637 Y2.126 Z-0.0589
X5.9628 Y2.1246 Z-0.0577
X5.9622 Y2.1235 Z-0.0561
X5.9618 Y2.1228 Z-0.0542
X5.9617 Y2.1226 Z-0.0521
G0 Z0.2
Y2.4774
G1 Z0.0494 F13.33
Z-0.0021
X5.9618 Y2.4772 Z-0.0042
X5.9622 Y2.4765 Z-0.0061
X5.9628 Y2.4754 Z-0.0077
X5.9637 Y2.474 Z-0.0089
X5.9646 Y2.4724 Z-0.0097
X5.9656 Y2.4706 Z-0.01
X5.9696 Y2.4638 F40
G3 X5.9803 Y2.4609 I0.0068 J0.0039
G1 X6.0606 Y2.5073 F20
Y2.6927
X5.9 Y2.7855
X5.7394 Y2.6927
Y2.5073
X5.9 Y2.4145
X5.9803 Y2.4609
G3 X5.9832 Y2.4716 I-0.0039 J0.0068 F40
G1 X5.9793 Y2.4785
X5.9782 Y2.4802 Z-0.0097
X5.9773 Y2.4819 Z-0.0089
X5.9765 Y2.4833 Z-0.0077
X5.9759 Y2.4844 Z-0.0061
X5.9755 Y2.4851 Z-0.0042
X5.9753 Y2.4853 Z-0.0021
X5.9617 Y2.4774
Z-0.0121 F13.33
X5.9618 Y2.4772 Z-0.0142
X5.9622 Y2.4765 Z-0.0161
X5.9628 Y2.4754 Z-0.0177
X5.9637 Y2.474 Z-0.0189
X5.9646 Y2.4724 Z-0.0197
X5.9656 Y2.4706 Z-0.02
X5.9696 Y2.4638 F40
G3 X5.9803 Y2.4609 I0.0068 J0.0039
G1 X6.0606 Y2.5073 F20
Y2.6927
X5.9 Y2.7855
X5.7394 Y2.6927
Y2.5073
X5.9 Y2.4145
X5.9803 Y2.4609
G3 X5.9832 Y2.4716 I-0.0039 J0.0068 F40
G1 X5.9793 Y2.4785
X5.9782 Y2.4802 Z-0.0197
X5.9773 Y2.4819 Z-0.0189
X5.9765 Y2.4833 Z-0.0177
X5.9759 Y2.4844 Z-0.0161
X5.9755 Y2.4851 Z-0.0142
X5.9753 Y2.4853 Z-0.0121
X5.9617 Y2.4774
Z-0.0221 F13.33
X5.9618 Y2.4772 Z-0.0242
X5.9622 Y2.4765 Z-0.0261
X5.9628 Y2.4754 Z-0.0277
X5.9637 Y2.474 Z-0.0289
X5.9646 Y2.4724 Z-0.0297
X5.9656 Y2.4706 Z-0.03
X5.9696 Y2.4638 F40
G3 X5.9803 Y2.4609 I0.0068 J0.0039
G1 X6.0606 Y2.5073 F20
Y2.6927
X5.9 Y2.7855
X5.7394 Y2.6927
Y2.5073
X5.9 Y2.4145
X5.9803 Y2.4609
G3 X5.9832 Y2.4716 I-0.0039 J0.0068 F40
G1 X5.9793 Y2.4785
X5.9782 Y2.4802 Z-0.0297
X5.9773 Y2.4819 Z-0.0289
X5.9765 Y2.4833 Z-0.0277
X5.9759 Y2.4844 Z-0.0261
X5.9755 Y2.4851 Z-0.0242
X5.9753 Y2.4853 Z-0.0221
X5.9617 Y2.4774
Z-0.0321 F13.33
X5.9618 Y2.4772 Z-0.0342
X5.9622 Y2.4765 Z-0.0361
X5.9628 Y2.4754 Z-0.0377
X5.9637 Y2.474 Z-0.0389
X5.9646 Y2.4724 Z-0.0397
X5.9656 Y2.4706 Z-0.04
X5.9696 Y2.4638 F40
G3 X5.9803 Y2.4609 I0.0068 J0.0039
G1 X6.0606 Y2.5073 F20
Y2.6927
X5.9 Y2.7855
X5.7394 Y2.6927
Y2.5073
X5.9 Y2.4145
X5.9803 Y2.4609
G3 X5.9832 Y2.4716 I-0.0039 J0.0068 F40
G1 X5.9793 Y2.4785
X5.9782 Y2.4802 Z-0.0397
X5.9773 Y2.4819 Z-0.0389
X5.9765 Y2.4833 Z-0.0377
X5.9759 Y2.4844 Z-0.0361
X5.9755 Y2.4851 Z-0.0342
X5.9753 Y2.4853 Z-0.0321
X5.9617 Y2.4774
Z-0.0421 F13.33
X5.9618 Y2.4772 Z-0.0442
X5.9622 Y2.4765 Z-0.0461
X5.9628 Y2.4754 Z-0.0477
X5.9637 Y2.474 Z-0.0489
X5.9646 Y2.4724 Z-0.0497
X5.9656 Y2.4706 Z-0.05
X5.9696 Y2.4638 F40
G3 X5.9803 Y2.4609 I0.0068 J0.0039
G1 X6.0606 Y2.5073 F20
Y2.6927
X5.9 Y2.7855
X5.7394 Y2.6927
Y2.5073
X5.9 Y2.4145
X5.9803 Y2.4609
G3 X5.9832 Y2.4716 I-0.0039 J0.0068 F40
G1 X5.9793 Y2.4785
X5.9782 Y2.4802 Z-0.0497
X5.9773 Y2.4819 Z-0.0489
X5.9765 Y2.4833 Z-0.0477
X5.9759 Y2.4844 Z-0.0461
X5.9755 Y2.4851 Z-0.0442
X5.9753 Y2.4853 Z-0.0421
X5.9617 Y2.4774
Z-0.0521 F13.33
X5.9618 Y2.4772 Z-0.0542
X5.9622 Y2.4765 Z-0.0561
X5.9628 Y2.4754 Z-0.0577
X5.9637 Y2.474 Z-0.0589
X5.9646 Y2.4724 Z-0.0597
X5.9656 Y2.4706 Z-0.06
X5.9696 Y2.4638 F40
G3 X5.9803 Y2.4609 I0.0068 J0.0039
G1 X6.0606 Y2.5073 F20
Y2.6927
X5.9 Y2.7855
X5.7394 Y2.6927
Y2.5073
X5.9 Y2.4145
X5.9803 Y2.4609
G3 X5.9832 Y2.4716 I-0.0039 J0.0068 F40
G1 X5.9793 Y2.4785
X5.9782 Y2.4802 Z-0.0597
X5.9773 Y2.4819 Z-0.0589
X5.9765 Y2.4833 Z-0.0577
X5.9759 Y2.4844 Z-0.0561
X5.9755 Y2.4851 Z-0.0542
X5.9753 Y2.4853 Z-0.0521
G0 Z0.2
X5.9617 Y3.0774
G1 Z0.0494 F13.33
Z-0.0021
X5.9618 Y3.0772 Z-0.0042
X5.9622 Y3.0765 Z-0.0061
X5.9628 Y3.0754 Z-0.0077
X5.9637 Y3.074 Z-0.0089
X5.9646 Y3.0724 Z-0.0097
X5.9656 Y3.0706 Z-0.01
X5.9696 Y3.0638 F40
G3 X5.9803 Y3.0609 I0.0068 J0.0039
G1 X6.0606 Y3.1073 F20
Y3.2927
X5.9 Y3.3855
X5.7394 Y3.2927
Y3.1073
X5.9 Y3.0145
X5.9803 Y3.0609
G3 X5.9832 Y3.0716 I-0.0039 J0.0068 F40
G1 X5.9793 Y3.0785
X5.9782 Y3.0802 Z-0.0097
X5.9773 Y3.0819 Z-0.0089
X5.9765 Y3.0833 Z-0.0077
X5.9759 Y3.0844 Z-0.0061
X5.9755 Y3.0851 Z-0.0042
X5.9753 Y3.0853 Z-0.0021
X5.9617 Y3.0774
Z-0.0121 F13.33
X5.9618 Y3.0772 Z-0.0142
X5.9622 Y3.0765 Z-0.0161
X5.9628 Y3.0754 Z-0.0177
X5.9637 Y3.074 Z-0.0189
X5.9646 Y3.0724 Z-0.0197
X5.9656 Y3.0706 Z-0.02
X5.9696 Y3.0638 F40
G3 X5.9803 Y3.0609 I0.0068 J0.0039
G1 X6.0606 Y3.1073 F20
Y3.2927
X5.9 Y3.3855
X5.7394 Y3.2927
Y3.1073
X5.9 Y3.0145
X5.9803 Y3.0609
G3 X5.9832 Y3.0716 I-0.0039 J0.0068 F40
G1 X5.9793 Y3.0785
X5.9782 Y3.0802 Z-0.0197
X5.9773 Y3.0819 Z-0.0189
X5.9765 Y3.0833 Z-0.0177
X5.9759 Y3.0844 Z-0.0161
X5.9755 Y3.0851 Z-0.0142
X5.9753 Y3.0853 Z-0.0121
X5.9617 Y3.0774
Z-0.0221 F13.33
X5.9618 Y3.0772 Z-0.0242
X5.9622 Y3.0765 Z-0.0261
X5.9628 Y3.0754 Z-0.0277
X5.9637 Y3.074 Z-0.0289
X5.9646 Y3.0724 Z-0.0297
X5.9656 Y3.0706 Z-0.03
X5.9696 Y3.0638 F40
G3 X5.9803 Y3.0609 I0.0068 J0.0039
G1 X6.0606 Y3.1073 F20
Y3.2927
X5.9 Y3.3855
X5.7394 Y3.2927
Y3.1073
X5.9 Y3.0145
X5.9803 Y3.0609
G3 X5.9832 Y3.0716 I-0.0039 J0.0068 F40
G1 X5.9793 Y3.0785
X5.9782 Y3.0802 Z-0.0297
X5.9773 Y3.0819 Z-0.0289
X5.9765 Y3.0833 Z-0.0277
X5.9759 Y3.0844 Z-0.0261
X5.9755 Y3.0851 Z-0.0242
X5.9753 Y3.0853 Z-0.0221
X5.9617 Y3.0774
Z-0.0321 F13.33
X5.9618 Y3.0772 Z-0.0342
X5.9622 Y3.0765 Z-0.0361
X5.9628 Y3.0754 Z-0.0377
X5.9637 Y3.074 Z-0.0389
X5.9646 Y3.0724 Z-0.0397
X5.9656 Y3.0706 Z-0.04
X5.9696 Y3.0638 F40
G3 X5.9803 Y3.0609 I0.0068 J0.0039
G1 X6.0606 Y3.1073 F20
Y3.2927
X5.9 Y3.3855
X5.7394 Y3.2927
Y3.1073
X5.9 Y3.0145
X5.9803 Y3.0609
G3 X5.9832 Y3.0716 I-0.0039 J0.0068 F40
G1 X5.9793 Y3.0785
X5.9782 Y3.0802 Z-0.0397
X5.9773 Y3.0819 Z-0.0389
X5.9765 Y3.0833 Z-0.0377
X5.9759 Y3.0844 Z-0.0361
X5.9755 Y3.0851 Z-0.0342
X5.9753 Y3.0853 Z-0.0321
X5.9617 Y3.0774
Z-0.0421 F13.33
X5.9618 Y3.0772 Z-0.0442
X5.9622 Y3.0765 Z-0.0461
X5.9628 Y3.0754 Z-0.0477
X5.9637 Y3.074 Z-0.0489
X5.9646 Y3.0724 Z-0.0497
X5.9656 Y3.0706 Z-0.05
X5.9696 Y3.0638 F40
G3 X5.9803 Y3.0609 I0.0068 J0.0039
G1 X6.0606 Y3.1073 F20
Y3.2927
X5.9 Y3.3855
X5.7394 Y3.2927
Y3.1073
X5.9 Y3.0145
X5.9803 Y3.0609
G3 X5.9832 Y3.0716 I-0.0039 J0.0068 F40
G1 X5.9793 Y3.0785
X5.9782 Y3.0802 Z-0.0497
X5.9773 Y3.0819 Z-0.0489
X5.9765 Y3.0833 Z-0.0477
X5.9759 Y3.0844 Z-0.0461
X5.9755 Y3.0851 Z-0.0442
X5.9753 Y3.0853 Z-0.0421
X5.9617 Y3.0774
Z-0.0521 F13.33
X5.9618 Y3.0772 Z-0.0542
X5.9622 Y3.0765 Z-0.0561
X5.9628 Y3.0754 Z-0.0577
X5.9637 Y3.074 Z-0.0589
X5.9646 Y3.0724 Z-0.0597
X5.9656 Y3.0706 Z-0.06
X5.9696 Y3.0638 F40
G3 X5.9803 Y3.0609 I0.0068 J0.0039
G1 X6.0606 Y3.1073 F20
Y3.2927
X5.9 Y3.3855
X5.7394 Y3.2927
Y3.1073
X5.9 Y3.0145
X5.9803 Y3.0609
G3 X5.9832 Y3.0716 I-0.0039 J0.0068 F40
G1 X5.9793 Y3.0785
X5.9782 Y3.0802 Z-0.0597
X5.9773 Y3.0819 Z-0.0589
X5.9765 Y3.0833 Z-0.0577
X5.9759 Y3.0844 Z-0.0561
X5.9755 Y3.0851 Z-0.0542
X5.9753 Y3.0853 Z-0.0521
G0 Z0.2
X6.5617 Y3.0774
G1 Z0.0494 F13.33
Z-0.0021
X6.5618 Y3.0772 Z-0.0042
X6.5622 Y3.0765 Z-0.0061
X6.5628 Y3.0754 Z-0.0077
X6.5637 Y3.074 Z-0.0089
X6.5646 Y3.0724 Z-0.0097
X6.5656 Y3.0706 Z-0.01
X6.5696 Y3.0638 F40
G3 X6.5803 Y3.0609 I0.0068 J0.0039
G1 X6.6606 Y3.1073 F20
Y3.2927
X6.5 Y3.3855
X6.3394 Y3.2927
Y3.1073
X6.5 Y3.0145
X6.5803 Y3.0609
G3 X6.5832 Y3.0716 I-0.0039 J0.0068 F40
G1 X6.5793 Y3.0785
X6.5782 Y3.0802 Z-0.0097
X6.5773 Y3.0819 Z-0.0089
X6.5765 Y3.0833 Z-0.0077
X6.5759 Y3.0844 Z-0.0061
X6.5755 Y3.0851 Z-0.0042
X6.5753 Y3.0853 Z-0.0021
X6.5617 Y3.0774
Z-0.0121 F13.33
X6.5618 Y3.0772 Z-0.0142
X6.5622 Y3.0765 Z-0.0161
X6.5628 Y3.0754 Z-0.0177
X6.5637 Y3.074 Z-0.0189
X6.5646 Y3.0724 Z-0.0197
X6.5656 Y3.0706 Z-0.02
X6.5696 Y3.0638 F40
G3 X6.5803 Y3.0609 I0.0068 J0.0039
G1 X6.6606 Y3.1073 F20
Y3.2927
X6.5 Y3.3855
X6.3394 Y3.2927
Y3.1073
X6.5 Y3.0145
X6.5803 Y3.0609
G3 X6.5832 Y3.0716 I-0.0039 J0.0068 F40
G1 X6.5793 Y3.0785
X6.5782 Y3.0802 Z-0.0197
X6.5773 Y3.0819 Z-0.0189
X6.5765 Y3.0833 Z-0.0177
X6.5759 Y3.0844 Z-0.0161
X6.5755 Y3.0851 Z-0.0142
X6.5753 Y3.0853 Z-0.0121
X6.5617 Y3.0774
Z-0.0221 F13.33
X6.5618 Y3.0772 Z-0.0242
X6.5622 Y3.0765 Z-0.0261
X6.5628 Y3.0754 Z-0.0277
X6.5637 Y3.074 Z-0.0289
X6.5646 Y3.0724 Z-0.0297
X6.5656 Y3.0706 Z-0.03
X6.5696 Y3.0638 F40
G3 X6.5803 Y3.0609 I0.0068 J0.0039
G1 X6.6606 Y3.1073 F20
Y3.2927
X6.5 Y3.3855
X6.3394 Y3.2927
Y3.1073
X6.5 Y3.0145
X6.5803 Y3.0609
G3 X6.5832 Y3.0716 I-0.0039 J0.0068 F40
G1 X6.5793 Y3.0785
X6.5782 Y3.0802 Z-0.0297
X6.5773 Y3.0819 Z-0.0289
X6.5765 Y3.0833 Z-0.0277
X6.5759 Y3.0844 Z-0.0261
X6.5755 Y3.0851 Z-0.0242
X6.5753 Y3.0853 Z-0.0221
X6.5617 Y3.0774
Z-0.0321 F13.33
X6.5618 Y3.0772 Z-0.0342
X6.5622 Y3.0765 Z-0.0361
X6.5628 Y3.0754 Z-0.0377
X6.5637 Y3.074 Z-0.0389
X6.5646 Y3.0724 Z-0.0397
X6.5656 Y3.0706 Z-0.04
X6.5696 Y3.0638 F40
G3 X6.5803 Y3.0609 I0.0068 J0.0039
G1 X6.6606 Y3.1073 F20
Y3.2927
X6.5 Y3.3855
X6.3394 Y3.2927
Y3.1073
X6.5 Y3.0145
X6.5803 Y3.0609
G3 X6.5832 Y3.0716 I-0.0039 J0.0068 F40
G1 X6.5793 Y3.0785
X6.5782 Y3.0802 Z-0.0397
X6.5773 Y3.0819 Z-0.0389
X6.5765 Y3.0833 Z-0.0377
X6.5759 Y3.0844 Z-0.0361
X6.5755 Y3.0851 Z-0.0342
X6.5753 Y3.0853 Z-0.0321
X6.5617 Y3.0774
Z-0.0421 F13.33
X6.5618 Y3.0772 Z-0.0442
X6.5622 Y3.0765 Z-0.0461
X6.5628 Y3.0754 Z-0.0477
X6.5637 Y3.074 Z-0.0489
X6.5646 Y3.0724 Z-0.0497
X6.5656 Y3.0706 Z-0.05
X6.5696 Y3.0638 F40
G3 X6.5803 Y3.0609 I0.0068 J0.0039
G1 X6.6606 Y3.1073 F20
Y3.2927
X6.5 Y3.3855
X6.3394 Y3.2927
Y3.1073
X6.5 Y3.0145
X6.5803 Y3.0609
G3 X6.5832 Y3.0716 I-0.0039 J0.0068 F40
G1 X6.5793 Y3.0785
X6.5782 Y3.0802 Z-0.0497
X6.5773 Y3.0819 Z-0.0489
X6.5765 Y3.0833 Z-0.0477
X6.5759 Y3.0844 Z-0.0461
X6.5755 Y3.0851 Z-0.0442
X6.5753 Y3.0853 Z-0.0421
X6.5617 Y3.0774
Z-0.0521 F13.33
X6.5618 Y3.0772 Z-0.0542
X6.5622 Y3.0765 Z-0.0561
X6.5628 Y3.0754 Z-0.0577
X6.5637 Y3.074 Z-0.0589
X6.5646 Y3.0724 Z-0.0597
X6.5656 Y3.0706 Z-0.06
X6.5696 Y3.0638 F40
G3 X6.5803 Y3.0609 I0.0068 J0.0039
G1 X6.6606 Y3.1073 F20
Y3.2927
X6.5 Y3.3855
X6.3394 Y3.2927
Y3.1073
X6.5 Y3.0145
X6.5803 Y3.0609
G3 X6.5832 Y3.0716 I-0.0039 J0.0068 F40
G1 X6.5793 Y3.0785
X6.5782 Y3.0802 Z-0.0597
X6.5773 Y3.0819 Z-0.0589
X6.5765 Y3.0833 Z-0.0577
X6.5759 Y3.0844 Z-0.0561
X6.5755 Y3.0851 Z-0.0542
X6.5753 Y3.0853 Z-0.0521
G0 Z0.2
X6.637 Y3.7921
G1 Z0.0494 F13.33
Z-0.0021
G18 G2 X6.6449 Z-0.01 I0.0079
G1 X6.6528 F40
G17 G3 X6.6606 Y3.8 J0.0079
G1 Y3.8927 F20
X6.5 Y3.9855
X6.3394 Y3.8927
Y3.7073
X6.5 Y3.6145
X6.6606 Y3.7073
Y3.8
G3 X6.6528 Y3.8079 I-0.0079 F40
G1 X6.6449
G18 G3 X6.637 Z-0.0021 K0.0079
G1 Y3.7921
Z-0.0121 F13.33
G2 X6.6449 Z-0.02 I0.0079
G1 X6.6528 F40
G17 G3 X6.6606 Y3.8 J0.0079
G1 Y3.8927 F20
X6.5 Y3.9855
X6.3394 Y3.8927
Y3.7073
X6.5 Y3.6145
X6.6606 Y3.7073
Y3.8
G3 X6.6528 Y3.8079 I-0.0079 F40
G1 X6.6449
G18 G3 X6.637 Z-0.0121 K0.0079
G1 Y3.7921
Z-0.0221 F13.33
G2 X6.6449 Z-0.03 I0.0079
G1 X6.6528 F40
G17 G3 X6.6606 Y3.8 J0.0079
G1 Y3.8927 F20
X6.5 Y3.9855
X6.3394 Y3.8927
Y3.7073
X6.5 Y3.6145
X6.6606 Y3.7073
Y3.8
G3 X6.6528 Y3.8079 I-0.0079 F40
G1 X6.6449
G18 G3 X6.637 Z-0.0221 K0.0079
G1 Y3.7921
Z-0.0321 F13.33
G2 X6.6449 Z-0.04 I0.0079
G1 X6.6528 F40
G17 G3 X6.6606 Y3.8 J0.0079
G1 Y3.8927 F20
X6.5 Y3.9855
X6.3394 Y3.8927
Y3.7073
X6.5 Y3.6145
X6.6606 Y3.7073
Y3.8
G3 X6.6528 Y3.8079 I-0.0079 F40
G1 X6.6449
G18 G3 X6.637 Z-0.0321 K0.0079
G1 Y3.7921
Z-0.0421 F13.33
G2 X6.6449 Z-0.05 I0.0079
G1 X6.6528 F40
G17 G3 X6.6606 Y3.8 J0.0079
G1 Y3.8927 F20
X6.5 Y3.9855
X6.3394 Y3.8927
Y3.7073
X6.5 Y3.6145
X6.6606 Y3.7073
Y3.8
G3 X6.6528 Y3.8079 I-0.0079 F40
G1 X6.6449
G18 G3 X6.637 Z-0.0421 K0.0079
G1 Y3.7921
Z-0.0521 F13.33
G2 X6.6449 Z-0.06 I0.0079
G1 X6.6528 F40
G17 G3 X6.6606 Y3.8 J0.0079
G1 Y3.8927 F20
X6.5 Y3.9855
X6.3394 Y3.8927
Y3.7073
X6.5 Y3.6145
X6.6606 Y3.7073
Y3.8
G3 X6.6528 Y3.8079 I-0.0079 F40
G1 X6.6449
G18 G3 X6.637 Z-0.0521 K0.0079
G0 Z0.2
X6.037 Y3.7921
G1 Z0.0494 F13.33
Z-0.0021
G2 X6.0449 Z-0.01 I0.0079
G1 X6.0528 F40
G17 G3 X6.0606 Y3.8 J0.0079
G1 Y3.8927 F20
X5.9 Y3.9855
X5.7394 Y3.8927
Y3.7073
X5.9 Y3.6145
X6.0606 Y3.7073
Y3.8
G3 X6.0528 Y3.8079 I-0.0079 F40
G1 X6.0449
G18 G3 X6.037 Z-0.0021 K0.0079
G1 Y3.7921
Z-0.0121 F13.33
G2 X6.0449 Z-0.02 I0.0079
G1 X6.0528 F40
G17 G3 X6.0606 Y3.8 J0.0079
G1 Y3.8927 F20
X5.9 Y3.9855
X5.7394 Y3.8927
Y3.7073
X5.9 Y3.6145
X6.0606 Y3.7073
Y3.8
G3 X6.0528 Y3.8079 I-0.0079 F40
G1 X6.0449
G18 G3 X6.037 Z-0.0121 K0.0079
G1 Y3.7921
Z-0.0221 F13.33
G2 X6.0449 Z-0.03 I0.0079
G1 X6.0528 F40
G17 G3 X6.0606 Y3.8 J0.0079
G1 Y3.8927 F20
X5.9 Y3.9855
X5.7394 Y3.8927
Y3.7073
X5.9 Y3.6145
X6.0606 Y3.7073
Y3.8
G3 X6.0528 Y3.8079 I-0.0079 F40
G1 X6.0449
G18 G3 X6.037 Z-0.0221 K0.0079
G1 Y3.7921
Z-0.0321 F13.33
G2 X6.0449 Z-0.04 I0.0079
G1 X6.0528 F40
G17 G3 X6.0606 Y3.8 J0.0079
G1 Y3.8927 F20
X5.9 Y3.9855
X5.7394 Y3.8927
Y3.7073
X5.9 Y3.6145
X6.0606 Y3.7073
Y3.8
G3 X6.0528 Y3.8079 I-0.0079 F40
G1 X6.0449
G18 G3 X6.037 Z-0.0321 K0.0079
G1 Y3.7921
Z-0.0421 F13.33
G2 X6.0449 Z-0.05 I0.0079
G1 X6.0528 F40
G17 G3 X6.0606 Y3.8 J0.0079
G1 Y3.8927 F20
X5.9 Y3.9855
X5.7394 Y3.8927
Y3.7073
X5.9 Y3.6145
X6.0606 Y3.7073
Y3.8
G3 X6.0528 Y3.8079 I-0.0079 F40
G1 X6.0449
G18 G3 X6.037 Z-0.0421 K0.0079
G1 Y3.7921
Z-0.0521 F13.33
G2 X6.0449 Z-0.06 I0.0079
G1 X6.0528 F40
G17 G3 X6.0606 Y3.8 J0.0079
G1 Y3.8927 F20
X5.9 Y3.9855
X5.7394 Y3.8927
Y3.7073
X5.9 Y3.6145
X6.0606 Y3.7073
Y3.8
G3 X6.0528 Y3.8079 I-0.0079 F40
G1 X6.0449
G18 G3 X6.037 Z-0.0521 K0.0079
G0 Z0.6
G17

(2D Contour5)
M8
G0 X3.5753 Y2.7147
Z0.6
Z0.2
G1 Z0.0494 F13.33
Z-0.0021
X3.5755 Y2.7149 Z-0.0042
X3.5759 Y2.7156 Z-0.0061
X3.5765 Y2.7167 Z-0.0077
X3.5773 Y2.7181 Z-0.0089
X3.5782 Y2.7198 Z-0.0097
X3.5793 Y2.7215 Z-0.01
X3.5832 Y2.7284 F40
G3 X3.5803 Y2.7391 I-0.0068 J0.0039
G1 X3.5 Y2.7855 F20
X3.3394 Y2.6927
Y2.5073
X3.5 Y2.4145
X3.6606 Y2.5073
Y2.6927
X3.5803 Y2.7391
G3 X3.5696 Y2.7362 I-0.0039 J-0.0068 F40
G1 X3.5656 Y2.7294
X3.5646 Y2.7276 Z-0.0097
X3.5637 Y2.726 Z-0.0089
X3.5628 Y2.7246 Z-0.0077
X3.5622 Y2.7235 Z-0.0061
X3.5618 Y2.7228 Z-0.0042
X3.5617 Y2.7226 Z-0.0021
X3.5753 Y2.7147
Z-0.0121 F13.33
X3.5755 Y2.7149 Z-0.0142
X3.5759 Y2.7156 Z-0.0161
X3.5765 Y2.7167 Z-0.0177
X3.5773 Y2.7181 Z-0.0189
X3.5782 Y2.7198 Z-0.0197
X3.5793 Y2.7215 Z-0.02
X3.5832 Y2.7284 F40
G3 X3.5803 Y2.7391 I-0.0068 J0.0039
G1 X3.5 Y2.7855 F20
X3.3394 Y2.6927
Y2.5073
X3.5 Y2.4145
X3.6606 Y2.5073
Y2.6927
X3.5803 Y2.7391
G3 X3.5696 Y2.7362 I-0.0039 J-0.0068 F40
G1 X3.5656 Y2.7294
X3.5646 Y2.7276 Z-0.0197
X3.5637 Y2.726 Z-0.0189
X3.5628 Y2.7246 Z-0.0177
X3.5622 Y2.7235 Z-0.0161
X3.5618 Y2.7228 Z-0.0142
X3.5617 Y2.7226 Z-0.0121
X3.5753 Y2.7147
Z-0.0221 F13.33
X3.5755 Y2.7149 Z-0.0242
X3.5759 Y2.7156 Z-0.0261
X3.5765 Y2.7167 Z-0.0277
X3.5773 Y2.7181 Z-0.0289
X3.5782 Y2.7198 Z-0.0297
X3.5793 Y2.7215 Z-0.03
X3.5832 Y2.7284 F40
G3 X3.5803 Y2.7391 I-0.0068 J0.0039
G1 X3.5 Y2.7855 F20
X3.3394 Y2.6927
Y2.5073
X3.5 Y2.4145
X3.6606 Y2.5073
Y2.6927
X3.5803 Y2.7391
G3 X3.5696 Y2.7362 I-0.0039 J-0.0068 F40
G1 X3.5656 Y2.7294
X3.5646 Y2.7276 Z-0.0297
X3.5637 Y2.726 Z-0.0289
X3.5628 Y2.7246 Z-0.0277
X3.5622 Y2.7235 Z-0.0261
X3.5618 Y2.7228 Z-0.0242
X3.5617 Y2.7226 Z-0.0221
X3.5753 Y2.7147
Z-0.0321 F13.33
X3.5755 Y2.7149 Z-0.0342
X3.5759 Y2.7156 Z-0.0361
X3.5765 Y2.7167 Z-0.0377
X3.5773 Y2.7181 Z-0.0389
X3.5782 Y2.7198 Z-0.0397
X3.5793 Y2.7215 Z-0.04
X3.5832 Y2.7284 F40
G3 X3.5803 Y2.7391 I-0.0068 J0.0039
G1 X3.5 Y2.7855 F20
X3.3394 Y2.6927
Y2.5073
X3.5 Y2.4145
X3.6606 Y2.5073
Y2.6927
X3.5803 Y2.7391
G3 X3.5696 Y2.7362 I-0.0039 J-0.0068 F40
G1 X3.5656 Y2.7294
X3.5646 Y2.7276 Z-0.0397
X3.5637 Y2.726 Z-0.0389
X3.5628 Y2.7246 Z-0.0377
X3.5622 Y2.7235 Z-0.0361
X3.5618 Y2.7228 Z-0.0342
X3.5617 Y2.7226 Z-0.0321
X3.5753 Y2.7147
Z-0.0421 F13.33
X3.5755 Y2.7149 Z-0.0442
X3.5759 Y2.7156 Z-0.0461
X3.5765 Y2.7167 Z-0.0477
X3.5773 Y2.7181 Z-0.0489
X3.5782 Y2.7198 Z-0.0497
X3.5793 Y2.7215 Z-0.05
X3.5832 Y2.7284 F40
G3 X3.5803 Y2.7391 I-0.0068 J0.0039
G1 X3.5 Y2.7855 F20
X3.3394 Y2.6927
Y2.5073
X3.5 Y2.4145
X3.6606 Y2.5073
Y2.6927
X3.5803 Y2.7391
G3 X3.5696 Y2.7362 I-0.0039 J-0.0068 F40
G1 X3.5656 Y2.7294
X3.5646 Y2.7276 Z-0.0497
X3.5637 Y2.726 Z-0.0489
X3.5628 Y2.7246 Z-0.0477
X3.5622 Y2.7235 Z-0.0461
X3.5618 Y2.7228 Z-0.0442
X3.5617 Y2.7226 Z-0.0421
X3.5753 Y2.7147
Z-0.0521 F13.33
X3.5755 Y2.7149 Z-0.0542
X3.5759 Y2.7156 Z-0.0561
X3.5765 Y2.7167 Z-0.0577
X3.5773 Y2.7181 Z-0.0589
X3.5782 Y2.7198 Z-0.0597
X3.5793 Y2.7215 Z-0.06
X3.5832 Y2.7284 F40
G3 X3.5803 Y2.7391 I-0.0068 J0.0039
G1 X3.5 Y2.7855 F20
X3.3394 Y2.6927
Y2.5073
X3.5 Y2.4145
X3.6606 Y2.5073
Y2.6927
X3.5803 Y2.7391
G3 X3.5696 Y2.7362 I-0.0039 J-0.0068 F40
G1 X3.5656 Y2.7294
X3.5646 Y2.7276 Z-0.0597
X3.5637 Y2.726 Z-0.0589
X3.5628 Y2.7246 Z-0.0577
X3.5622 Y2.7235 Z-0.0561
X3.5618 Y2.7228 Z-0.0542
X3.5617 Y2.7226 Z-0.0521
G0 Z0.2
Y3.0774
G1 Z0.0494 F13.33
Z-0.0021
X3.5618 Y3.0772 Z-0.0042
X3.5622 Y3.0765 Z-0.0061
X3.5628 Y3.0754 Z-0.0077
X3.5637 Y3.074 Z-0.0089
X3.5646 Y3.0724 Z-0.0097
X3.5656 Y3.0706 Z-0.01
X3.5696 Y3.0638 F40
G3 X3.5803 Y3.0609 I0.0068 J0.0039
G1 X3.6606 Y3.1073 F20
Y3.2927
X3.5 Y3.3855
X3.3394 Y3.2927
Y3.1073
X3.5 Y3.0145
X3.5803 Y3.0609
G3 X3.5832 Y3.0716 I-0.0039 J0.0068 F40
G1 X3.5793 Y3.0785
X3.5782 Y3.0802 Z-0.0097
X3.5773 Y3.0819 Z-0.0089
X3.5765 Y3.0833 Z-0.0077
X3.5759 Y3.0844 Z-0.0061
X3.5755 Y3.0851 Z-0.0042
X3.5753 Y3.0853 Z-0.0021
X3.5617 Y3.0774
Z-0.0121 F13.33
X3.5618 Y3.0772 Z-0.0142
X3.5622 Y3.0765 Z-0.0161
X3.5628 Y3.0754 Z-0.0177
X3.5637 Y3.074 Z-0.0189
X3.5646 Y3.0724 Z-0.0197
X3.5656 Y3.0706 Z-0.02
X3.5696 Y3.0638 F40
G3 X3.5803 Y3.0609 I0.0068 J0.0039
G1 X3.6606 Y3.1073 F20
Y3.2927
X3.5 Y3.3855
X3.3394 Y3.2927
Y3.1073
X3.5 Y3.0145
X3.5803 Y3.0609
G3 X3.5832 Y3.0716 I-0.0039 J0.0068 F40
G1 X3.5793 Y3.0785
X3.5782 Y3.0802 Z-0.0197
X3.5773 Y3.0819 Z-0.0189
X3.5765 Y3.0833 Z-0.0177
X3.5759 Y3.0844 Z-0.0161
X3.5755 Y3.0851 Z-0.0142
X3.5753 Y3.0853 Z-0.0121
X3.5617 Y3.0774
Z-0.0221 F13.33
X3.5618 Y3.0772 Z-0.0242
X3.5622 Y3.0765 Z-0.0261
X3.5628 Y3.0754 Z-0.0277
X3.5637 Y3.074 Z-0.0289
X3.5646 Y3.0724 Z-0.0297
X3.5656 Y3.0706 Z-0.03
X3.5696 Y3.0638 F40
G3 X3.5803 Y3.0609 I0.0068 J0.0039
G1 X3.6606 Y3.1073 F20
Y3.2927
X3.5 Y3.3855
X3.3394 Y3.2927
Y3.1073
X3.5 Y3.0145
X3.5803 Y3.0609
G3 X3.5832 Y3.0716 I-0.0039 J0.0068 F40
G1 X3.5793 Y3.0785
X3.5782 Y3.0802 Z-0.0297
X3.5773 Y3.0819 Z-0.0289
X3.5765 Y3.0833 Z-0.0277
X3.5759 Y3.0844 Z-0.0261
X3.5755 Y3.0851 Z-0.0242
X3.5753 Y3.0853 Z-0.0221
X3.5617 Y3.0774
Z-0.0321 F13.33
X3.5618 Y3.0772 Z-0.0342
X3.5622 Y3.0765 Z-0.0361
X3.5628 Y3.0754 Z-0.0377
X3.5637 Y3.074 Z-0.0389
X3.5646 Y3.0724 Z-0.0397
X3.5656 Y3.0706 Z-0.04
X3.5696 Y3.0638 F40
G3 X3.5803 Y3.0609 I0.0068 J0.0039
G1 X3.6606 Y3.1073 F20
Y3.2927
X3.5 Y3.3855
X3.3394 Y3.2927
Y3.1073
X3.5 Y3.0145
X3.5803 Y3.0609
G3 X3.5832 Y3.0716 I-0.0039 J0.0068 F40
G1 X3.5793 Y3.0785
X3.5782 Y3.0802 Z-0.0397
X3.5773 Y3.0819 Z-0.0389
X3.5765 Y3.0833 Z-0.0377
X3.5759 Y3.0844 Z-0.0361
X3.5755 Y3.0851 Z-0.0342
X3.5753 Y3.0853 Z-0.0321
X3.5617 Y3.0774
Z-0.0421 F13.33
X3.5618 Y3.0772 Z-0.0442
X3.5622 Y3.0765 Z-0.0461
X3.5628 Y3.0754 Z-0.0477
X3.5637 Y3.074 Z-0.0489
X3.5646 Y3.0724 Z-0.0497
X3.5656 Y3.0706 Z-0.05
X3.5696 Y3.0638 F40
G3 X3.5803 Y3.0609 I0.0068 J0.0039
G1 X3.6606 Y3.1073 F20
Y3.2927
X3.5 Y3.3855
X3.3394 Y3.2927
Y3.1073
X3.5 Y3.0145
X3.5803 Y3.0609
G3 X3.5832 Y3.0716 I-0.0039 J0.0068 F40
G1 X3.5793 Y3.0785
X3.5782 Y3.0802 Z-0.0497
X3.5773 Y3.0819 Z-0.0489
X3.5765 Y3.0833 Z-0.0477
X3.5759 Y3.0844 Z-0.0461
X3.5755 Y3.0851 Z-0.0442
X3.5753 Y3.0853 Z-0.0421
X3.5617 Y3.0774
Z-0.0521 F13.33
X3.5618 Y3.0772 Z-0.0542
X3.5622 Y3.0765 Z-0.0561
X3.5628 Y3.0754 Z-0.0577
X3.5637 Y3.074 Z-0.0589
X3.5646 Y3.0724 Z-0.0597
X3.5656 Y3.0706 Z-0.06
X3.5696 Y3.0638 F40
G3 X3.5803 Y3.0609 I0.0068 J0.0039
G1 X3.6606 Y3.1073 F20
Y3.2927
X3.5 Y3.3855
X3.3394 Y3.2927
Y3.1073
X3.5 Y3.0145
X3.5803 Y3.0609
G3 X3.5832 Y3.0716 I-0.0039 J0.0068 F40
G1 X3.5793 Y3.0785
X3.5782 Y3.0802 Z-0.0597
X3.5773 Y3.0819 Z-0.0589
X3.5765 Y3.0833 Z-0.0577
X3.5759 Y3.0844 Z-0.0561
X3.5755 Y3.0851 Z-0.0542
X3.5753 Y3.0853 Z-0.0521
G0 Z0.2
X4.1617 Y3.0774
G1 Z0.0494 F13.33
Z-0.0021
X4.1618 Y3.0772 Z-0.0042
X4.1622 Y3.0765 Z-0.0061
X4.1628 Y3.0754 Z-0.0077
X4.1637 Y3.074 Z-0.0089
X4.1646 Y3.0724 Z-0.0097
X4.1656 Y3.0706 Z-0.01
X4.1696 Y3.0638 F40
G3 X4.1803 Y3.0609 I0.0068 J0.0039
G1 X4.2606 Y3.1073 F20
Y3.2927
X4.1 Y3.3855
X3.9394 Y3.2927
Y3.1073
X4.1 Y3.0145
X4.1803 Y3.0609
G3 X4.1832 Y3.0716 I-0.0039 J0.0068 F40
G1 X4.1793 Y3.0785
X4.1782 Y3.0802 Z-0.0097
X4.1773 Y3.0819 Z-0.0089
X4.1765 Y3.0833 Z-0.0077
X4.1759 Y3.0844 Z-0.0061
X4.1755 Y3.0851 Z-0.0042
X4.1753 Y3.0853 Z-0.0021
X4.1617 Y3.0774
Z-0.0121 F13.33
X4.1618 Y3.0772 Z-0.0142
X4.1622 Y3.0765 Z-0.0161
X4.1628 Y3.0754 Z-0.0177
X4.1637 Y3.074 Z-0.0189
X4.1646 Y3.0724 Z-0.0197
X4.1656 Y3.0706 Z-0.02
X4.1696 Y3.0638 F40
G3 X4.1803 Y3.0609 I0.0068 J0.0039
G1 X4.2606 Y3.1073 F20
Y3.2927
X4.1 Y3.3855
X3.9394 Y3.2927
Y3.1073
X4.1 Y3.0145
X4.1803 Y3.0609
G3 X4.1832 Y3.0716 I-0.0039 J0.0068 F40
G1 X4.1793 Y3.0785
X4.1782 Y3.0802 Z-0.0197
X4.1773 Y3.0819 Z-0.0189
X4.1765 Y3.0833 Z-0.0177
X4.1759 Y3.0844 Z-0.0161
X4.1755 Y3.0851 Z-0.0142
X4.1753 Y3.0853 Z-0.0121
X4.1617 Y3.0774
Z-0.0221 F13.33
X4.1618 Y3.0772 Z-0.0242
X4.1622 Y3.0765 Z-0.0261
X4.1628 Y3.0754 Z-0.0277
X4.1637 Y3.074 Z-0.0289
X4.1646 Y3.0724 Z-0.0297
X4.1656 Y3.0706 Z-0.03
X4.1696 Y3.0638 F40
G3 X4.1803 Y3.0609 I0.0068 J0.0039
G1 X4.2606 Y3.1073 F20
Y3.2927
X4.1 Y3.3855
X3.9394 Y3.2927
Y3.1073
X4.1 Y3.0145
X4.1803 Y3.0609
G3 X4.1832 Y3.0716 I-0.0039 J0.0068 F40
G1 X4.1793 Y3.0785
X4.1782 Y3.0802 Z-0.0297
X4.1773 Y3.0819 Z-0.0289
X4.1765 Y3.0833 Z-0.0277
X4.1759 Y3.0844 Z-0.0261
X4.1755 Y3.0851 Z-0.0242
X4.1753 Y3.0853 Z-0.0221
X4.1617 Y3.0774
Z-0.0321 F13.33
X4.1618 Y3.0772 Z-0.0342
X4.1622 Y3.0765 Z-0.0361
X4.1628 Y3.0754 Z-0.0377
X4.1637 Y3.074 Z-0.0389
X4.1646 Y3.0724 Z-0.0397
X4.1656 Y3.0706 Z-0.04
X4.1696 Y3.0638 F40
G3 X4.1803 Y3.0609 I0.0068 J0.0039
G1 X4.2606 Y3.1073 F20
Y3.2927
X4.1 Y3.3855
X3.9394 Y3.2927
Y3.1073
X4.1 Y3.0145
X4.1803 Y3.0609
G3 X4.1832 Y3.0716 I-0.0039 J0.0068 F40
G1 X4.1793 Y3.0785
X4.1782 Y3.0802 Z-0.0397
X4.1773 Y3.0819 Z-0.0389
X4.1765 Y3.0833 Z-0.0377
X4.1759 Y3.0844 Z-0.0361
X4.1755 Y3.0851 Z-0.0342
X4.1753 Y3.0853 Z-0.0321
X4.1617 Y3.0774
Z-0.0421 F13.33
X4.1618 Y3.0772 Z-0.0442
X4.1622 Y3.0765 Z-0.0461
X4.1628 Y3.0754 Z-0.0477
X4.1637 Y3.074 Z-0.0489
X4.1646 Y3.0724 Z-0.0497
X4.1656 Y3.0706 Z-0.05
X4.1696 Y3.0638 F40
G3 X4.1803 Y3.0609 I0.0068 J0.0039
G1 X4.2606 Y3.1073 F20
Y3.2927
X4.1 Y3.3855
X3.9394 Y3.2927
Y3.1073
X4.1 Y3.0145
X4.1803 Y3.0609
G3 X4.1832 Y3.0716 I-0.0039 J0.0068 F40
G1 X4.1793 Y3.0785
X4.1782 Y3.0802 Z-0.0497
X4.1773 Y3.0819 Z-0.0489
X4.1765 Y3.0833 Z-0.0477
X4.1759 Y3.0844 Z-0.0461
X4.1755 Y3.0851 Z-0.0442
X4.1753 Y3.0853 Z-0.0421
X4.1617 Y3.0774
Z-0.0521 F13.33
X4.1618 Y3.0772 Z-0.0542
X4.1622 Y3.0765 Z-0.0561
X4.1628 Y3.0754 Z-0.0577
X4.1637 Y3.074 Z-0.0589
X4.1646 Y3.0724 Z-0.0597
X4.1656 Y3.0706 Z-0.06
X4.1696 Y3.0638 F40
G3 X4.1803 Y3.0609 I0.0068 J0.0039
G1 X4.2606 Y3.1073 F20
Y3.2927
X4.1 Y3.3855
X3.9394 Y3.2927
Y3.1073
X4.1 Y3.0145
X4.1803 Y3.0609
G3 X4.1832 Y3.0716 I-0.0039 J0.0068 F40
G1 X4.1793 Y3.0785
X4.1782 Y3.0802 Z-0.0597
X4.1773 Y3.0819 Z-0.0589
X4.1765 Y3.0833 Z-0.0577
X4.1759 Y3.0844 Z-0.0561
X4.1755 Y3.0851 Z-0.0542
X4.1753 Y3.0853 Z-0.0521
G0 Z0.2
Y2.7147
G1 Z0.0494 F13.33
Z-0.0021
X4.1755 Y2.7149 Z-0.0042
X4.1759 Y2.7156 Z-0.0061
X4.1765 Y2.7167 Z-0.0077
X4.1773 Y2.7181 Z-0.0089
X4.1782 Y2.7198 Z-0.0097
X4.1793 Y2.7215 Z-0.01
X4.1832 Y2.7284 F40
G3 X4.1803 Y2.7391 I-0.0068 J0.0039
G1 X4.1 Y2.7855 F20
X3.9394 Y2.6927
Y2.5073
X4.1 Y2.4145
X4.2606 Y2.5073
Y2.6927
X4.1803 Y2.7391
G3 X4.1696 Y2.7362 I-0.0039 J-0.0068 F40
G1 X4.1656 Y2.7294
X4.1646 Y2.7276 Z-0.0097
X4.1637 Y2.726 Z-0.0089
X4.1628 Y2.7246 Z-0.0077
X4.1622 Y2.7235 Z-0.0061
X4.1618 Y2.7228 Z-0.0042
X4.1617 Y2.7226 Z-0.0021
X4.1753 Y2.7147
Z-0.0121 F13.33
X4.1755 Y2.7149 Z-0.0142
X4.1759 Y2.7156 Z-0.0161
X4.1765 Y2.7167 Z-0.0177
X4.1773 Y2.7181 Z-0.0189
X4.1782 Y2.7198 Z-0.0197
X4.1793 Y2.7215 Z-0.02
X4.1832 Y2.7284 F40
G3 X4.1803 Y2.7391 I-0.0068 J0.0039
G1 X4.1 Y2.7855 F20
X3.9394 Y2.6927
Y2.5073
X4.1 Y2.4145
X4.2606 Y2.5073
Y2.6927
X4.1803 Y2.7391
G3 X4.1696 Y2.7362 I-0.0039 J-0.0068 F40
G1 X4.1656 Y2.7294
X4.1646 Y2.7276 Z-0.0197
X4.1637 Y2.726 Z-0.0189
X4.1628 Y2.7246 Z-0.0177
X4.1622 Y2.7235 Z-0.0161
X4.1618 Y2.7228 Z-0.0142
X4.1617 Y2.7226 Z-0.0121
X4.1753 Y2.7147
Z-0.0221 F13.33
X4.1755 Y2.7149 Z-0.0242
X4.1759 Y2.7156 Z-0.0261
X4.1765 Y2.7167 Z-0.0277
X4.1773 Y2.7181 Z-0.0289
X4.1782 Y2.7198 Z-0.0297
X4.1793 Y2.7215 Z-0.03
X4.1832 Y2.7284 F40
G3 X4.1803 Y2.7391 I-0.0068 J0.0039
G1 X4.1 Y2.7855 F20
X3.9394 Y2.6927
Y2.5073
X4.1 Y2.4145
X4.2606 Y2.5073
Y2.6927
X4.1803 Y2.7391
G3 X4.1696 Y2.7362 I-0.0039 J-0.0068 F40
G1 X4.1656 Y2.7294
X4.1646 Y2.7276 Z-0.0297
X4.1637 Y2.726 Z-0.0289
X4.1628 Y2.7246 Z-0.0277
X4.1622 Y2.7235 Z-0.0261
X4.1618 Y2.7228 Z-0.0242
X4.1617 Y2.7226 Z-0.0221
X4.1753 Y2.7147
Z-0.0321 F13.33
X4.1755 Y2.7149 Z-0.0342
X4.1759 Y2.7156 Z-0.0361
X4.1765 Y2.7167 Z-0.0377
X4.1773 Y2.7181 Z-0.0389
X4.1782 Y2.7198 Z-0.0397
X4.1793 Y2.7215 Z-0.04
X4.1832 Y2.7284 F40
G3 X4.1803 Y2.7391 I-0.0068 J0.0039
G1 X4.1 Y2.7855 F20
X3.9394 Y2.6927
Y2.5073
X4.1 Y2.4145
X4.2606 Y2.5073
Y2.6927
X4.1803 Y2.7391
G3 X4.1696 Y2.7362 I-0.0039 J-0.0068 F40
G1 X4.1656 Y2.7294
X4.1646 Y2.7276 Z-0.0397
X4.1637 Y2.726 Z-0.0389
X4.1628 Y2.7246 Z-0.0377
X4.1622 Y2.7235 Z-0.0361
X4.1618 Y2.7228 Z-0.0342
X4.1617 Y2.7226 Z-0.0321
X4.1753 Y2.7147
Z-0.0421 F13.33
X4.1755 Y2.7149 Z-0.0442
X4.1759 Y2.7156 Z-0.0461
X4.1765 Y2.7167 Z-0.0477
X4.1773 Y2.7181 Z-0.0489
X4.1782 Y2.7198 Z-0.0497
X4.1793 Y2.7215 Z-0.05
X4.1832 Y2.7284 F40
G3 X4.1803 Y2.7391 I-0.0068 J0.0039
G1 X4.1 Y2.7855 F20
X3.9394 Y2.6927
Y2.5073
X4.1 Y2.4145
X4.2606 Y2.5073
Y2.6927
X4.1803 Y2.7391
G3 X4.1696 Y2.7362 I-0.0039 J-0.0068 F40
G1 X4.1656 Y2.7294
X4.1646 Y2.7276 Z-0.0497
X4.1637 Y2.726 Z-0.0489
X4.1628 Y2.7246 Z-0.0477
X4.1622 Y2.7235 Z-0.0461
X4.1618 Y2.7228 Z-0.0442
X4.1617 Y2.7226 Z-0.0421
X4.1753 Y2.7147
Z-0.0521 F13.33
X4.1755 Y2.7149 Z-0.0542
X4.1759 Y2.7156 Z-0.0561
X4.1765 Y2.7167 Z-0.0577
X4.1773 Y2.7181 Z-0.0589
X4.1782 Y2.7198 Z-0.0597
X4.1793 Y2.7215 Z-0.06
X4.1832 Y2.7284 F40
G3 X4.1803 Y2.7391 I-0.0068 J0.0039
G1 X4.1 Y2.7855 F20
X3.9394 Y2.6927
Y2.5073
X4.1 Y2.4145
X4.2606 Y2.5073
Y2.6927
X4.1803 Y2.7391
G3 X4.1696 Y2.7362 I-0.0039 J-0.0068 F40
G1 X4.1656 Y2.7294
X4.1646 Y2.7276 Z-0.0597
X4.1637 Y2.726 Z-0.0589
X4.1628 Y2.7246 Z-0.0577
X4.1622 Y2.7235 Z-0.0561
X4.1618 Y2.7228 Z-0.0542
X4.1617 Y2.7226 Z-0.0521
G0 Z0.2
X4.7753 Y2.7147
G1 Z0.0494 F13.33
Z-0.0021
X4.7755 Y2.7149 Z-0.0042
X4.7759 Y2.7156 Z-0.0061
X4.7765 Y2.7167 Z-0.0077
X4.7773 Y2.7181 Z-0.0089
X4.7782 Y2.7198 Z-0.0097
X4.7793 Y2.7215 Z-0.01
X4.7832 Y2.7284 F40
G3 X4.7803 Y2.7391 I-0.0068 J0.0039
G1 X4.7 Y2.7855 F20
X4.5394 Y2.6927
Y2.5073
X4.7 Y2.4145
X4.8606 Y2.5073
Y2.6927
X4.7803 Y2.7391
G3 X4.7696 Y2.7362 I-0.0039 J-0.0068 F40
G1 X4.7656 Y2.7294
X4.7646 Y2.7276 Z-0.0097
X4.7637 Y2.726 Z-0.0089
X4.7628 Y2.7246 Z-0.0077
X4.7622 Y2.7235 Z-0.0061
X4.7618 Y2.7228 Z-0.0042
X4.7617 Y2.7226 Z-0.0021
X4.7753 Y2.7147
Z-0.0121 F13.33
X4.7755 Y2.7149 Z-0.0142
X4.7759 Y2.7156 Z-0.0161
X4.7765 Y2.7167 Z-0.0177
X4.7773 Y2.7181 Z-0.0189
X4.7782 Y2.7198 Z-0.0197
X4.7793 Y2.7215 Z-0.02
X4.7832 Y2.7284 F40
G3 X4.7803 Y2.7391 I-0.0068 J0.0039
G1 X4.7 Y2.7855 F20
X4.5394 Y2.6927
Y2.5073
X4.7 Y2.4145
X4.8606 Y2.5073
Y2.6927
X4.7803 Y2.7391
G3 X4.7696 Y2.7362 I-0.0039 J-0.0068 F40
G1 X4.7656 Y2.7294
X4.7646 Y2.7276 Z-0.0197
X4.7637 Y2.726 Z-0.0189
X4.7628 Y2.7246 Z-0.0177
X4.7622 Y2.7235 Z-0.0161
X4.7618 Y2.7228 Z-0.0142
X4.7617 Y2.7226 Z-0.0121
X4.7753 Y2.7147
Z-0.0221 F13.33
X4.7755 Y2.7149 Z-0.0242
X4.7759 Y2.7156 Z-0.0261
X4.7765 Y2.7167 Z-0.0277
X4.7773 Y2.7181 Z-0.0289
X4.7782 Y2.7198 Z-0.0297
X4.7793 Y2.7215 Z-0.03
X4.7832 Y2.7284 F40
G3 X4.7803 Y2.7391 I-0.0068 J0.0039
G1 X4.7 Y2.7855 F20
X4.5394 Y2.6927
Y2.5073
X4.7 Y2.4145
X4.8606 Y2.5073
Y2.6927
X4.7803 Y2.7391
G3 X4.7696 Y2.7362 I-0.0039 J-0.0068 F40
G1 X4.7656 Y2.7294
X4.7646 Y2.7276 Z-0.0297
X4.7637 Y2.726 Z-0.0289
X4.7628 Y2.7246 Z-0.0277
X4.7622 Y2.7235 Z-0.0261
X4.7618 Y2.7228 Z-0.0242
X4.7617 Y2.7226 Z-0.0221
X4.7753 Y2.7147
Z-0.0321 F13.33
X4.7755 Y2.7149 Z-0.0342
X4.7759 Y2.7156 Z-0.0361
X4.7765 Y2.7167 Z-0.0377
X4.7773 Y2.7181 Z-0.0389
X4.7782 Y2.7198 Z-0.0397
X4.7793 Y2.7215 Z-0.04
X4.7832 Y2.7284 F40
G3 X4.7803 Y2.7391 I-0.0068 J0.0039
G1 X4.7 Y2.7855 F20
X4.5394 Y2.6927
Y2.5073
X4.7 Y2.4145
X4.8606 Y2.5073
Y2.6927
X4.7803 Y2.7391
G3 X4.7696 Y2.7362 I-0.0039 J-0.0068 F40
G1 X4.7656 Y2.7294
X4.7646 Y2.7276 Z-0.0397
X4.7637 Y2.726 Z-0.0389
X4.7628 Y2.7246 Z-0.0377
X4.7622 Y2.7235 Z-0.0361
X4.7618 Y2.7228 Z-0.0342
X4.7617 Y2.7226 Z-0.0321
X4.7753 Y2.7147
Z-0.0421 F13.33
X4.7755 Y2.7149 Z-0.0442
X4.7759 Y2.7156 Z-0.0461
X4.7765 Y2.7167 Z-0.0477
X4.7773 Y2.7181 Z-0.0489
X4.7782 Y2.7198 Z-0.0497
X4.7793 Y2.7215 Z-0.05
X4.7832 Y2.7284 F40
G3 X4.7803 Y2.7391 I-0.0068 J0.0039
G1 X4.7 Y2.7855 F20
X4.5394 Y2.6927
Y2.5073
X4.7 Y2.4145
X4.8606 Y2.5073
Y2.6927
X4.7803 Y2.7391
G3 X4.7696 Y2.7362 I-0.0039 J-0.0068 F40
G1 X4.7656 Y2.7294
X4.7646 Y2.7276 Z-0.0497
X4.7637 Y2.726 Z-0.0489
X4.7628 Y2.7246 Z-0.0477
X4.7622 Y2.7235 Z-0.0461
X4.7618 Y2.7228 Z-0.0442
X4.7617 Y2.7226 Z-0.0421
X4.7753 Y2.7147
Z-0.0521 F13.33
X4.7755 Y2.7149 Z-0.0542
X4.7759 Y2.7156 Z-0.0561
X4.7765 Y2.7167 Z-0.0577
X4.7773 Y2.7181 Z-0.0589
X4.7782 Y2.7198 Z-0.0597
X4.7793 Y2.7215 Z-0.06
X4.7832 Y2.7284 F40
G3 X4.7803 Y2.7391 I-0.0068 J0.0039
G1 X4.7 Y2.7855 F20
X4.5394 Y2.6927
Y2.5073
X4.7 Y2.4145
X4.8606 Y2.5073
Y2.6927
X4.7803 Y2.7391
G3 X4.7696 Y2.7362 I-0.0039 J-0.0068 F40
G1 X4.7656 Y2.7294
X4.7646 Y2.7276 Z-0.0597
X4.7637 Y2.726 Z-0.0589
X4.7628 Y2.7246 Z-0.0577
X4.7622 Y2.7235 Z-0.0561
X4.7618 Y2.7228 Z-0.0542
X4.7617 Y2.7226 Z-0.0521
G0 Z0.2
X4.7753 Y3.3147
G1 Z0.0494 F13.33
Z-0.0021
X4.7755 Y3.3149 Z-0.0042
X4.7759 Y3.3156 Z-0.0061
X4.7765 Y3.3167 Z-0.0077
X4.7773 Y3.3181 Z-0.0089
X4.7782 Y3.3198 Z-0.0097
X4.7793 Y3.3215 Z-0.01
X4.7832 Y3.3284 F40
G3 X4.7803 Y3.3391 I-0.0068 J0.0039
G1 X4.7 Y3.3855 F20
X4.5394 Y3.2927
Y3.1073
X4.7 Y3.0145
X4.8606 Y3.1073
Y3.2927
X4.7803 Y3.3391
G3 X4.7696 Y3.3362 I-0.0039 J-0.0068 F40
G1 X4.7656 Y3.3294
X4.7646 Y3.3276 Z-0.0097
X4.7637 Y3.326 Z-0.0089
X4.7628 Y3.3246 Z-0.0077
X4.7622 Y3.3235 Z-0.0061
X4.7618 Y3.3228 Z-0.0042
X4.7617 Y3.3226 Z-0.0021
X4.7753 Y3.3147
Z-0.0121 F13.33
X4.7755 Y3.3149 Z-0.0142
X4.7759 Y3.3156 Z-0.0161
X4.7765 Y3.3167 Z-0.0177
X4.7773 Y3.3181 Z-0.0189
X4.7782 Y3.3198 Z-0.0197
X4.7793 Y3.3215 Z-0.02
X4.7832 Y3.3284 F40
G3 X4.7803 Y3.3391 I-0.0068 J0.0039
G1 X4.7 Y3.3855 F20
X4.5394 Y3.2927
Y3.1073
X4.7 Y3.0145
X4.8606 Y3.1073
Y3.2927
X4.7803 Y3.3391
G3 X4.7696 Y3.3362 I-0.0039 J-0.0068 F40
G1 X4.7656 Y3.3294
X4.7646 Y3.3276 Z-0.0197
X4.7637 Y3.326 Z-0.0189
X4.7628 Y3.3246 Z-0.0177
X4.7622 Y3.3235 Z-0.0161
X4.7618 Y3.3228 Z-0.0142
X4.7617 Y3.3226 Z-0.0121
X4.7753 Y3.3147
Z-0.0221 F13.33
X4.7755 Y3.3149 Z-0.0242
X4.7759 Y3.3156 Z-0.0261
X4.7765 Y3.3167 Z-0.0277
X4.7773 Y3.3181 Z-0.0289
X4.7782 Y3.3198 Z-0.0297
X4.7793 Y3.3215 Z-0.03
X4.7832 Y3.3284 F40
G3 X4.7803 Y3.3391 I-0.0068 J0.0039
G1 X4.7 Y3.3855 F20
X4.5394 Y3.2927
Y3.1073
X4.7 Y3.0145
X4.8606 Y3.1073
Y3.2927
X4.7803 Y3.3391
G3 X4.7696 Y3.3362 I-0.0039 J-0.0068 F40
G1 X4.7656 Y3.3294
X4.7646 Y3.3276 Z-0.0297
X4.7637 Y3.326 Z-0.0289
X4.7628 Y3.3246 Z-0.0277
X4.7622 Y3.3235 Z-0.0261
X4.7618 Y3.3228 Z-0.0242
X4.7617 Y3.3226 Z-0.0221
X4.7753 Y3.3147
Z-0.0321 F13.33
X4.7755 Y3.3149 Z-0.0342
X4.7759 Y3.3156 Z-0.0361
X4.7765 Y3.3167 Z-0.0377
X4.7773 Y3.3181 Z-0.0389
X4.7782 Y3.3198 Z-0.0397
X4.7793 Y3.3215 Z-0.04
X4.7832 Y3.3284 F40
G3 X4.7803 Y3.3391 I-0.0068 J0.0039
G1 X4.7 Y3.3855 F20
X4.5394 Y3.2927
Y3.1073
X4.7 Y3.0145
X4.8606 Y3.1073
Y3.2927
X4.7803 Y3.3391
G3 X4.7696 Y3.3362 I-0.0039 J-0.0068 F40
G1 X4.7656 Y3.3294
X4.7646 Y3.3276 Z-0.0397
X4.7637 Y3.326 Z-0.0389
X4.7628 Y3.3246 Z-0.0377
X4.7622 Y3.3235 Z-0.0361
X4.7618 Y3.3228 Z-0.0342
X4.7617 Y3.3226 Z-0.0321
X4.7753 Y3.3147
Z-0.0421 F13.33
X4.7755 Y3.3149 Z-0.0442
X4.7759 Y3.3156 Z-0.0461
X4.7765 Y3.3167 Z-0.0477
X4.7773 Y3.3181 Z-0.0489
X4.7782 Y3.3198 Z-0.0497
X4.7793 Y3.3215 Z-0.05
X4.7832 Y3.3284 F40
G3 X4.7803 Y3.3391 I-0.0068 J0.0039
G1 X4.7 Y3.3855 F20
X4.5394 Y3.2927
Y3.1073
X4.7 Y3.0145
X4.8606 Y3.1073
Y3.2927
X4.7803 Y3.3391
G3 X4.7696 Y3.3362 I-0.0039 J-0.0068 F40
G1 X4.7656 Y3.3294
X4.7646 Y3.3276 Z-0.0497
X4.7637 Y3.326 Z-0.0489
X4.7628 Y3.3246 Z-0.0477
X4.7622 Y3.3235 Z-0.0461
X4.7618 Y3.3228 Z-0.0442
X4.7617 Y3.3226 Z-0.0421
X4.7753 Y3.3147
Z-0.0521 F13.33
X4.7755 Y3.3149 Z-0.0542
X4.7759 Y3.3156 Z-0.0561
X4.7765 Y3.3167 Z-0.0577
X4.7773 Y3.3181 Z-0.0589
X4.7782 Y3.3198 Z-0.0597
X4.7793 Y3.3215 Z-0.06
X4.7832 Y3.3284 F40
G3 X4.7803 Y3.3391 I-0.0068 J0.0039
G1 X4.7 Y3.3855 F20
X4.5394 Y3.2927
Y3.1073
X4.7 Y3.0145
X4.8606 Y3.1073
Y3.2927
X4.7803 Y3.3391
G3 X4.7696 Y3.3362 I-0.0039 J-0.0068 F40
G1 X4.7656 Y3.3294
X4.7646 Y3.3276 Z-0.0597
X4.7637 Y3.326 Z-0.0589
X4.7628 Y3.3246 Z-0.0577
X4.7622 Y3.3235 Z-0.0561
X4.7618 Y3.3228 Z-0.0542
X4.7617 Y3.3226 Z-0.0521
G0 Z0.2
X5.3617 Y3.0774
G1 Z0.0494 F13.33
Z-0.0021
X5.3618 Y3.0772 Z-0.0042
X5.3622 Y3.0765 Z-0.0061
X5.3628 Y3.0754 Z-0.0077
X5.3637 Y3.074 Z-0.0089
X5.3646 Y3.0724 Z-0.0097
X5.3656 Y3.0706 Z-0.01
X5.3696 Y3.0638 F40
G3 X5.3803 Y3.0609 I0.0068 J0.0039
G1 X5.4606 Y3.1073 F20
Y3.2927
X5.3 Y3.3855
X5.1394 Y3.2927
Y3.1073
X5.3 Y3.0145
X5.3803 Y3.0609
G3 X5.3832 Y3.0716 I-0.0039 J0.0068 F40
G1 X5.3793 Y3.0785
X5.3782 Y3.0802 Z-0.0097
X5.3773 Y3.0819 Z-0.0089
X5.3765 Y3.0833 Z-0.0077
X5.3759 Y3.0844 Z-0.0061
X5.3755 Y3.0851 Z-0.0042
X5.3753 Y3.0853 Z-0.0021
X5.3617 Y3.0774
Z-0.0121 F13.33
X5.3618 Y3.0772 Z-0.0142
X5.3622 Y3.0765 Z-0.0161
X5.3628 Y3.0754 Z-0.0177
X5.3637 Y3.074 Z-0.0189
X5.3646 Y3.0724 Z-0.0197
X5.3656 Y3.0706 Z-0.02
X5.3696 Y3.0638 F40
G3 X5.3803 Y3.0609 I0.0068 J0.0039
G1 X5.4606 Y3.1073 F20
Y3.2927
X5.3 Y3.3855
X5.1394 Y3.2927
Y3.1073
X5.3 Y3.0145
X5.3803 Y3.0609
G3 X5.3832 Y3.0716 I-0.0039 J0.0068 F40
G1 X5.3793 Y3.0785
X5.3782 Y3.0802 Z-0.0197
X5.3773 Y3.0819 Z-0.0189
X5.3765 Y3.0833 Z-0.0177
X5.3759 Y3.0844 Z-0.0161
X5.3755 Y3.0851 Z-0.0142
X5.3753 Y3.0853 Z-0.0121
X5.3617 Y3.0774
Z-0.0221 F13.33
X5.3618 Y3.0772 Z-0.0242
X5.3622 Y3.0765 Z-0.0261
X5.3628 Y3.0754 Z-0.0277
X5.3637 Y3.074 Z-0.0289
X5.3646 Y3.0724 Z-0.0297
X5.3656 Y3.0706 Z-0.03
X5.3696 Y3.0638 F40
G3 X5.3803 Y3.0609 I0.0068 J0.0039
G1 X5.4606 Y3.1073 F20
Y3.2927
X5.3 Y3.3855
X5.1394 Y3.2927
Y3.1073
X5.3 Y3.0145
X5.3803 Y3.0609
G3 X5.3832 Y3.0716 I-0.0039 J0.0068 F40
G1 X5.3793 Y3.0785
X5.3782 Y3.0802 Z-0.0297
X5.3773 Y3.0819 Z-0.0289
X5.3765 Y3.0833 Z-0.0277
X5.3759 Y3.0844 Z-0.0261
X5.3755 Y3.0851 Z-0.0242
X5.3753 Y3.0853 Z-0.0221
X5.3617 Y3.0774
Z-0.0321 F13.33
X5.3618 Y3.0772 Z-0.0342
X5.3622 Y3.0765 Z-0.0361
X5.3628 Y3.0754 Z-0.0377
X5.3637 Y3.074 Z-0.0389
X5.3646 Y3.0724 Z-0.0397
X5.3656 Y3.0706 Z-0.04
X5.3696 Y3.0638 F40
G3 X5.3803 Y3.0609 I0.0068 J0.0039
G1 X5.4606 Y3.1073 F20
Y3.2927
X5.3 Y3.3855
X5.1394 Y3.2927
Y3.1073
X5.3 Y3.0145
X5.3803 Y3.0609
G3 X5.3832 Y3.0716 I-0.0039 J0.0068 F40
G1 X5.3793 Y3.0785
X5.3782 Y3.0802 Z-0.0397
X5.3773 Y3.0819 Z-0.0389
X5.3765 Y3.0833 Z-0.0377
X5.3759 Y3.0844 Z-0.0361
X5.3755 Y3.0851 Z-0.0342
X5.3753 Y3.0853 Z-0.0321
X5.3617 Y3.0774
Z-0.0421 F13.33
X5.3618 Y3.0772 Z-0.0442
X5.3622 Y3.0765 Z-0.0461
X5.3628 Y3.0754 Z-0.0477
X5.3637 Y3.074 Z-0.0489
X5.3646 Y3.0724 Z-0.0497
X5.3656 Y3.0706 Z-0.05
X5.3696 Y3.0638 F40
G3 X5.3803 Y3.0609 I0.0068 J0.0039
G1 X5.4606 Y3.1073 F20
Y3.2927
X5.3 Y3.3855
X5.1394 Y3.2927
Y3.1073
X5.3 Y3.0145
X5.3803 Y3.0609
G3 X5.3832 Y3.0716 I-0.0039 J0.0068 F40
G1 X5.3793 Y3.0785
X5.3782 Y3.0802 Z-0.0497
X5.3773 Y3.0819 Z-0.0489
X5.3765 Y3.0833 Z-0.0477
X5.3759 Y3.0844 Z-0.0461
X5.3755 Y3.0851 Z-0.0442
X5.3753 Y3.0853 Z-0.0421
X5.3617 Y3.0774
Z-0.0521 F13.33
X5.3618 Y3.0772 Z-0.0542
X5.3622 Y3.0765 Z-0.0561
X5.3628 Y3.0754 Z-0.0577
X5.3637 Y3.074 Z-0.0589
X5.3646 Y3.0724 Z-0.0597
X5.3656 Y3.0706 Z-0.06
X5.3696 Y3.0638 F40
G3 X5.3803 Y3.0609 I0.0068 J0.0039
G1 X5.4606 Y3.1073 F20
Y3.2927
X5.3 Y3.3855
X5.1394 Y3.2927
Y3.1073
X5.3 Y3.0145
X5.3803 Y3.0609
G3 X5.3832 Y3.0716 I-0.0039 J0.0068 F40
G1 X5.3793 Y3.0785
X5.3782 Y3.0802 Z-0.0597
X5.3773 Y3.0819 Z-0.0589
X5.3765 Y3.0833 Z-0.0577
X5.3759 Y3.0844 Z-0.0561
X5.3755 Y3.0851 Z-0.0542
X5.3753 Y3.0853 Z-0.0521
G0 Z0.2
X5.3617 Y2.4774
G1 Z0.0494 F13.33
Z-0.0021
X5.3618 Y2.4772 Z-0.0042
X5.3622 Y2.4765 Z-0.0061
X5.3628 Y2.4754 Z-0.0077
X5.3637 Y2.474 Z-0.0089
X5.3646 Y2.4724 Z-0.0097
X5.3656 Y2.4706 Z-0.01
X5.3696 Y2.4638 F40
G3 X5.3803 Y2.4609 I0.0068 J0.0039
G1 X5.4606 Y2.5073 F20
Y2.6927
X5.3 Y2.7855
X5.1394 Y2.6927
Y2.5073
X5.3 Y2.4145
X5.3803 Y2.4609
G3 X5.3832 Y2.4716 I-0.0039 J0.0068 F40
G1 X5.3793 Y2.4785
X5.3782 Y2.4802 Z-0.0097
X5.3773 Y2.4819 Z-0.0089
X5.3765 Y2.4833 Z-0.0077
X5.3759 Y2.4844 Z-0.0061
X5.3755 Y2.4851 Z-0.0042
X5.3753 Y2.4853 Z-0.0021
X5.3617 Y2.4774
Z-0.0121 F13.33
X5.3618 Y2.4772 Z-0.0142
X5.3622 Y2.4765 Z-0.0161
X5.3628 Y2.4754 Z-0.0177
X5.3637 Y2.474 Z-0.0189
X5.3646 Y2.4724 Z-0.0197
X5.3656 Y2.4706 Z-0.02
X5.3696 Y2.4638 F40
G3 X5.3803 Y2.4609 I0.0068 J0.0039
G1 X5.4606 Y2.5073 F20
Y2.6927
X5.3 Y2.7855
X5.1394 Y2.6927
Y2.5073
X5.3 Y2.4145
X5.3803 Y2.4609
G3 X5.3832 Y2.4716 I-0.0039 J0.0068 F40
G1 X5.3793 Y2.4785
X5.3782 Y2.4802 Z-0.0197
X5.3773 Y2.4819 Z-0.0189
X5.3765 Y2.4833 Z-0.0177
X5.3759 Y2.4844 Z-0.0161
X5.3755 Y2.4851 Z-0.0142
X5.3753 Y2.4853 Z-0.0121
X5.3617 Y2.4774
Z-0.0221 F13.33
X5.3618 Y2.4772 Z-0.0242
X5.3622 Y2.4765 Z-0.0261
X5.3628 Y2.4754 Z-0.0277
X5.3637 Y2.474 Z-0.0289
X5.3646 Y2.4724 Z-0.0297
X5.3656 Y2.4706 Z-0.03
X5.3696 Y2.4638 F40
G3 X5.3803 Y2.4609 I0.0068 J0.0039
G1 X5.4606 Y2.5073 F20
Y2.6927
X5.3 Y2.7855
X5.1394 Y2.6927
Y2.5073
X5.3 Y2.4145
X5.3803 Y2.4609
G3 X5.3832 Y2.4716 I-0.0039 J0.0068 F40
G1 X5.3793 Y2.4785
X5.3782 Y2.4802 Z-0.0297
X5.3773 Y2.4819 Z-0.0289
X5.3765 Y2.4833 Z-0.0277
X5.3759 Y2.4844 Z-0.0261
X5.3755 Y2.4851 Z-0.0242
X5.3753 Y2.4853 Z-0.0221
X5.3617 Y2.4774
Z-0.0321 F13.33
X5.3618 Y2.4772 Z-0.0342
X5.3622 Y2.4765 Z-0.0361
X5.3628 Y2.4754 Z-0.0377
X5.3637 Y2.474 Z-0.0389
X5.3646 Y2.4724 Z-0.0397
X5.3656 Y2.4706 Z-0.04
X5.3696 Y2.4638 F40
G3 X5.3803 Y2.4609 I0.0068 J0.0039
G1 X5.4606 Y2.5073 F20
Y2.6927
X5.3 Y2.7855
X5.1394 Y2.6927
Y2.5073
X5.3 Y2.4145
X5.3803 Y2.4609
G3 X5.3832 Y2.4716 I-0.0039 J0.0068 F40
G1 X5.3793 Y2.4785
X5.3782 Y2.4802 Z-0.0397
X5.3773 Y2.4819 Z-0.0389
X5.3765 Y2.4833 Z-0.0377
X5.3759 Y2.4844 Z-0.0361
X5.3755 Y2.4851 Z-0.0342
X5.3753 Y2.4853 Z-0.0321
X5.3617 Y2.4774
Z-0.0421 F13.33
X5.3618 Y2.4772 Z-0.0442
X5.3622 Y2.4765 Z-0.0461
X5.3628 Y2.4754 Z-0.0477
X5.3637 Y2.474 Z-0.0489
X5.3646 Y2.4724 Z-0.0497
X5.3656 Y2.4706 Z-0.05
X5.3696 Y2.4638 F40
G3 X5.3803 Y2.4609 I0.0068 J0.0039
G1 X5.4606 Y2.5073 F20
Y2.6927
X5.3 Y2.7855
X5.1394 Y2.6927
Y2.5073
X5.3 Y2.4145
X5.3803 Y2.4609
G3 X5.3832 Y2.4716 I-0.0039 J0.0068 F40
G1 X5.3793 Y2.4785
X5.3782 Y2.4802 Z-0.0497
X5.3773 Y2.4819 Z-0.0489
X5.3765 Y2.4833 Z-0.0477
X5.3759 Y2.4844 Z-0.0461
X5.3755 Y2.4851 Z-0.0442
X5.3753 Y2.4853 Z-0.0421
X5.3617 Y2.4774
Z-0.0521 F13.33
X5.3618 Y2.4772 Z-0.0542
X5.3622 Y2.4765 Z-0.0561
X5.3628 Y2.4754 Z-0.0577
X5.3637 Y2.474 Z-0.0589
X5.3646 Y2.4724 Z-0.0597
X5.3656 Y2.4706 Z-0.06
X5.3696 Y2.4638 F40
G3 X5.3803 Y2.4609 I0.0068 J0.0039
G1 X5.4606 Y2.5073 F20
Y2.6927
X5.3 Y2.7855
X5.1394 Y2.6927
Y2.5073
X5.3 Y2.4145
X5.3803 Y2.4609
G3 X5.3832 Y2.4716 I-0.0039 J0.0068 F40
G1 X5.3793 Y2.4785
X5.3782 Y2.4802 Z-0.0597
X5.3773 Y2.4819 Z-0.0589
X5.3765 Y2.4833 Z-0.0577
X5.3759 Y2.4844 Z-0.0561
X5.3755 Y2.4851 Z-0.0542
X5.3753 Y2.4853 Z-0.0521
G0 Z0.2
Y2.1147
G1 Z0.0494 F13.33
Z-0.0021
X5.3755 Y2.1149 Z-0.0042
X5.3759 Y2.1156 Z-0.0061
X5.3765 Y2.1167 Z-0.0077
X5.3773 Y2.1181 Z-0.0089
X5.3782 Y2.1198 Z-0.0097
X5.3793 Y2.1215 Z-0.01
X5.3832 Y2.1284 F40
G3 X5.3803 Y2.1391 I-0.0068 J0.0039
G1 X5.3 Y2.1855 F20
X5.1394 Y2.0927
Y1.9073
X5.3 Y1.8145
X5.4606 Y1.9073
Y2.0927
X5.3803 Y2.1391
G3 X5.3696 Y2.1362 I-0.0039 J-0.0068 F40
G1 X5.3656 Y2.1294
X5.3646 Y2.1276 Z-0.0097
X5.3637 Y2.126 Z-0.0089
X5.3628 Y2.1246 Z-0.0077
X5.3622 Y2.1235 Z-0.0061
X5.3618 Y2.1228 Z-0.0042
X5.3617 Y2.1226 Z-0.0021
X5.3753 Y2.1147
Z-0.0121 F13.33
X5.3755 Y2.1149 Z-0.0142
X5.3759 Y2.1156 Z-0.0161
X5.3765 Y2.1167 Z-0.0177
X5.3773 Y2.1181 Z-0.0189
X5.3782 Y2.1198 Z-0.0197
X5.3793 Y2.1215 Z-0.02
X5.3832 Y2.1284 F40
G3 X5.3803 Y2.1391 I-0.0068 J0.0039
G1 X5.3 Y2.1855 F20
X5.1394 Y2.0927
Y1.9073
X5.3 Y1.8145
X5.4606 Y1.9073
Y2.0927
X5.3803 Y2.1391
G3 X5.3696 Y2.1362 I-0.0039 J-0.0068 F40
G1 X5.3656 Y2.1294
X5.3646 Y2.1276 Z-0.0197
X5.3637 Y2.126 Z-0.0189
X5.3628 Y2.1246 Z-0.0177
X5.3622 Y2.1235 Z-0.0161
X5.3618 Y2.1228 Z-0.0142
X5.3617 Y2.1226 Z-0.0121
X5.3753 Y2.1147
Z-0.0221 F13.33
X5.3755 Y2.1149 Z-0.0242
X5.3759 Y2.1156 Z-0.0261
X5.3765 Y2.1167 Z-0.0277
X5.3773 Y2.1181 Z-0.0289
X5.3782 Y2.1198 Z-0.0297
X5.3793 Y2.1215 Z-0.03
X5.3832 Y2.1284 F40
G3 X5.3803 Y2.1391 I-0.0068 J0.0039
G1 X5.3 Y2.1855 F20
X5.1394 Y2.0927
Y1.9073
X5.3 Y1.8145
X5.4606 Y1.9073
Y2.0927
X5.3803 Y2.1391
G3 X5.3696 Y2.1362 I-0.0039 J-0.0068 F40
G1 X5.3656 Y2.1294
X5.3646 Y2.1276 Z-0.0297
X5.3637 Y2.126 Z-0.0289
X5.3628 Y2.1246 Z-0.0277
X5.3622 Y2.1235 Z-0.0261
X5.3618 Y2.1228 Z-0.0242
X5.3617 Y2.1226 Z-0.0221
X5.3753 Y2.1147
Z-0.0321 F13.33
X5.3755 Y2.1149 Z-0.0342
X5.3759 Y2.1156 Z-0.0361
X5.3765 Y2.1167 Z-0.0377
X5.3773 Y2.1181 Z-0.0389
X5.3782 Y2.1198 Z-0.0397
X5.3793 Y2.1215 Z-0.04
X5.3832 Y2.1284 F40
G3 X5.3803 Y2.1391 I-0.0068 J0.0039
G1 X5.3 Y2.1855 F20
X5.1394 Y2.0927
Y1.9073
X5.3 Y1.8145
X5.4606 Y1.9073
Y2.0927
X5.3803 Y2.1391
G3 X5.3696 Y2.1362 I-0.0039 J-0.0068 F40
G1 X5.3656 Y2.1294
X5.3646 Y2.1276 Z-0.0397
X5.3637 Y2.126 Z-0.0389
X5.3628 Y2.1246 Z-0.0377
X5.3622 Y2.1235 Z-0.0361
X5.3618 Y2.1228 Z-0.0342
X5.3617 Y2.1226 Z-0.0321
X5.3753 Y2.1147
Z-0.0421 F13.33
X5.3755 Y2.1149 Z-0.0442
X5.3759 Y2.1156 Z-0.0461
X5.3765 Y2.1167 Z-0.0477
X5.3773 Y2.1181 Z-0.0489
X5.3782 Y2.1198 Z-0.0497
X5.3793 Y2.1215 Z-0.05
X5.3832 Y2.1284 F40
G3 X5.3803 Y2.1391 I-0.0068 J0.0039
G1 X5.3 Y2.1855 F20
X5.1394 Y2.0927
Y1.9073
X5.3 Y1.8145
X5.4606 Y1.9073
Y2.0927
X5.3803 Y2.1391
G3 X5.3696 Y2.1362 I-0.0039 J-0.0068 F40
G1 X5.3656 Y2.1294
X5.3646 Y2.1276 Z-0.0497
X5.3637 Y2.126 Z-0.0489
X5.3628 Y2.1246 Z-0.0477
X5.3622 Y2.1235 Z-0.0461
X5.3618 Y2.1228 Z-0.0442
X5.3617 Y2.1226 Z-0.0421
X5.3753 Y2.1147
Z-0.0521 F13.33
X5.3755 Y2.1149 Z-0.0542
X5.3759 Y2.1156 Z-0.0561
X5.3765 Y2.1167 Z-0.0577
X5.3773 Y2.1181 Z-0.0589
X5.3782 Y2.1198 Z-0.0597
X5.3793 Y2.1215 Z-0.06
X5.3832 Y2.1284 F40
G3 X5.3803 Y2.1391 I-0.0068 J0.0039
G1 X5.3 Y2.1855 F20
X5.1394 Y2.0927
Y1.9073
X5.3 Y1.8145
X5.4606 Y1.9073
Y2.0927
X5.3803 Y2.1391
G3 X5.3696 Y2.1362 I-0.0039 J-0.0068 F40
G1 X5.3656 Y2.1294
X5.3646 Y2.1276 Z-0.0597
X5.3637 Y2.126 Z-0.0589
X5.3628 Y2.1246 Z-0.0577
X5.3622 Y2.1235 Z-0.0561
X5.3618 Y2.1228 Z-0.0542
X5.3617 Y2.1226 Z-0.0521
G0 Z0.2
X4.7753 Y2.1147
G1 Z0.0494 F13.33
Z-0.0021
X4.7755 Y2.1149 Z-0.0042
X4.7759 Y2.1156 Z-0.0061
X4.7765 Y2.1167 Z-0.0077
X4.7773 Y2.1181 Z-0.0089
X4.7782 Y2.1198 Z-0.0097
X4.7793 Y2.1215 Z-0.01
X4.7832 Y2.1284 F40
G3 X4.7803 Y2.1391 I-0.0068 J0.0039
G1 X4.7 Y2.1855 F20
X4.5394 Y2.0927
Y1.9073
X4.7 Y1.8145
X4.8606 Y1.9073
Y2.0927
X4.7803 Y2.1391
G3 X4.7696 Y2.1362 I-0.0039 J-0.0068 F40
G1 X4.7656 Y2.1294
X4.7646 Y2.1276 Z-0.0097
X4.7637 Y2.126 Z-0.0089
X4.7628 Y2.1246 Z-0.0077
X4.7622 Y2.1235 Z-0.0061
X4.7618 Y2.1228 Z-0.0042
X4.7617 Y2.1226 Z-0.0021
X4.7753 Y2.1147
Z-0.0121 F13.33
X4.7755 Y2.1149 Z-0.0142
X4.7759 Y2.1156 Z-0.0161
X4.7765 Y2.1167 Z-0.0177
X4.7773 Y2.1181 Z-0.0189
X4.7782 Y2.1198 Z-0.0197
X4.7793 Y2.1215 Z-0.02
X4.7832 Y2.1284 F40
G3 X4.7803 Y2.1391 I-0.0068 J0.0039
G1 X4.7 Y2.1855 F20
X4.5394 Y2.0927
Y1.9073
X4.7 Y1.8145
X4.8606 Y1.9073
Y2.0927
X4.7803 Y2.1391
G3 X4.7696 Y2.1362 I-0.0039 J-0.0068 F40
G1 X4.7656 Y2.1294
X4.7646 Y2.1276 Z-0.0197
X4.7637 Y2.126 Z-0.0189
X4.7628 Y2.1246 Z-0.0177
X4.7622 Y2.1235 Z-0.0161
X4.7618 Y2.1228 Z-0.0142
X4.7617 Y2.1226 Z-0.0121
X4.7753 Y2.1147
Z-0.0221 F13.33
X4.7755 Y2.1149 Z-0.0242
X4.7759 Y2.1156 Z-0.0261
X4.7765 Y2.1167 Z-0.0277
X4.7773 Y2.1181 Z-0.0289
X4.7782 Y2.1198 Z-0.0297
X4.7793 Y2.1215 Z-0.03
X4.7832 Y2.1284 F40
G3 X4.7803 Y2.1391 I-0.0068 J0.0039
G1 X4.7 Y2.1855 F20
X4.5394 Y2.0927
Y1.9073
X4.7 Y1.8145
X4.8606 Y1.9073
Y2.0927
X4.7803 Y2.1391
G3 X4.7696 Y2.1362 I-0.0039 J-0.0068 F40
G1 X4.7656 Y2.1294
X4.7646 Y2.1276 Z-0.0297
X4.7637 Y2.126 Z-0.0289
X4.7628 Y2.1246 Z-0.0277
X4.7622 Y2.1235 Z-0.0261
X4.7618 Y2.1228 Z-0.0242
X4.7617 Y2.1226 Z-0.0221
X4.7753 Y2.1147
Z-0.0321 F13.33
X4.7755 Y2.1149 Z-0.0342
X4.7759 Y2.1156 Z-0.0361
X4.7765 Y2.1167 Z-0.0377
X4.7773 Y2.1181 Z-0.0389
X4.7782 Y2.1198 Z-0.0397
X4.7793 Y2.1215 Z-0.04
X4.7832 Y2.1284 F40
G3 X4.7803 Y2.1391 I-0.0068 J0.0039
G1 X4.7 Y2.1855 F20
X4.5394 Y2.0927
Y1.9073
X4.7 Y1.8145
X4.8606 Y1.9073
Y2.0927
X4.7803 Y2.1391
G3 X4.7696 Y2.1362 I-0.0039 J-0.0068 F40
G1 X4.7656 Y2.1294
X4.7646 Y2.1276 Z-0.0397
X4.7637 Y2.126 Z-0.0389
X4.7628 Y2.1246 Z-0.0377
X4.7622 Y2.1235 Z-0.0361
X4.7618 Y2.1228 Z-0.0342
X4.7617 Y2.1226 Z-0.0321
X4.7753 Y2.1147
Z-0.0421 F13.33
X4.7755 Y2.1149 Z-0.0442
X4.7759 Y2.1156 Z-0.0461
X4.7765 Y2.1167 Z-0.0477
X4.7773 Y2.1181 Z-0.0489
X4.7782 Y2.1198 Z-0.0497
X4.7793 Y2.1215 Z-0.05
X4.7832 Y2.1284 F40
G3 X4.7803 Y2.1391 I-0.0068 J0.0039
G1 X4.7 Y2.1855 F20
X4.5394 Y2.0927
Y1.9073
X4.7 Y1.8145
X4.8606 Y1.9073
Y2.0927
X4.7803 Y2.1391
G3 X4.7696 Y2.1362 I-0.0039 J-0.0068 F40
G1 X4.7656 Y2.1294
X4.7646 Y2.1276 Z-0.0497
X4.7637 Y2.126 Z-0.0489
X4.7628 Y2.1246 Z-0.0477
X4.7622 Y2.1235 Z-0.0461
X4.7618 Y2.1228 Z-0.0442
X4.7617 Y2.1226 Z-0.0421
X4.7753 Y2.1147
Z-0.0521 F13.33
X4.7755 Y2.1149 Z-0.0542
X4.7759 Y2.1156 Z-0.0561
X4.7765 Y2.1167 Z-0.0577
X4.7773 Y2.1181 Z-0.0589
X4.7782 Y2.1198 Z-0.0597
X4.7793 Y2.1215 Z-0.06
X4.7832 Y2.1284 F40
G3 X4.7803 Y2.1391 I-0.0068 J0.0039
G1 X4.7 Y2.1855 F20
X4.5394 Y2.0927
Y1.9073
X4.7 Y1.8145
X4.8606 Y1.9073
Y2.0927
X4.7803 Y2.1391
G3 X4.7696 Y2.1362 I-0.0039 J-0.0068 F40
G1 X4.7656 Y2.1294
X4.7646 Y2.1276 Z-0.0597
X4.7637 Y2.126 Z-0.0589
X4.7628 Y2.1246 Z-0.0577
X4.7622 Y2.1235 Z-0.0561
X4.7618 Y2.1228 Z-0.0542
X4.7617 Y2.1226 Z-0.0521
G0 Z0.2
X4.1617 Y1.8774
G1 Z0.0494 F13.33
Z-0.0021
X4.1618 Y1.8772 Z-0.0042
X4.1622 Y1.8765 Z-0.0061
X4.1628 Y1.8754 Z-0.0077
X4.1637 Y1.874 Z-0.0089
X4.1646 Y1.8724 Z-0.0097
X4.1656 Y1.8706 Z-0.01
X4.1696 Y1.8638 F40
G3 X4.1803 Y1.8609 I0.0068 J0.0039
G1 X4.2606 Y1.9073 F20
Y2.0927
X4.1 Y2.1855
X3.9394 Y2.0927
Y1.9073
X4.1 Y1.8145
X4.1803 Y1.8609
G3 X4.1832 Y1.8716 I-0.0039 J0.0068 F40
G1 X4.1793 Y1.8785
X4.1782 Y1.8802 Z-0.0097
X4.1773 Y1.8819 Z-0.0089
X4.1765 Y1.8833 Z-0.0077
X4.1759 Y1.8844 Z-0.0061
X4.1755 Y1.8851 Z-0.0042
X4.1753 Y1.8853 Z-0.0021
X4.1617 Y1.8774
Z-0.0121 F13.33
X4.1618 Y1.8772 Z-0.0142
X4.1622 Y1.8765 Z-0.0161
X4.1628 Y1.8754 Z-0.0177
X4.1637 Y1.874 Z-0.0189
X4.1646 Y1.8724 Z-0.0197
X4.1656 Y1.8706 Z-0.02
X4.1696 Y1.8638 F40
G3 X4.1803 Y1.8609 I0.0068 J0.0039
G1 X4.2606 Y1.9073 F20
Y2.0927
X4.1 Y2.1855
X3.9394 Y2.0927
Y1.9073
X4.1 Y1.8145
X4.1803 Y1.8609
G3 X4.1832 Y1.8716 I-0.0039 J0.0068 F40
G1 X4.1793 Y1.8785
X4.1782 Y1.8802 Z-0.0197
X4.1773 Y1.8819 Z-0.0189
X4.1765 Y1.8833 Z-0.0177
X4.1759 Y1.8844 Z-0.0161
X4.1755 Y1.8851 Z-0.0142
X4.1753 Y1.8853 Z-0.0121
X4.1617 Y1.8774
Z-0.0221 F13.33
X4.1618 Y1.8772 Z-0.0242
X4.1622 Y1.8765 Z-0.0261
X4.1628 Y1.8754 Z-0.0277
X4.1637 Y1.874 Z-0.0289
X4.1646 Y1.8724 Z-0.0297
X4.1656 Y1.8706 Z-0.03
X4.1696 Y1.8638 F40
G3 X4.1803 Y1.8609 I0.0068 J0.0039
G1 X4.2606 Y1.9073 F20
Y2.0927
X4.1 Y2.1855
X3.9394 Y2.0927
Y1.9073
X4.1 Y1.8145
X4.1803 Y1.8609
G3 X4.1832 Y1.8716 I-0.0039 J0.0068 F40
G1 X4.1793 Y1.8785
X4.1782 Y1.8802 Z-0.0297
X4.1773 Y1.8819 Z-0.0289
X4.1765 Y1.8833 Z-0.0277
X4.1759 Y1.8844 Z-0.0261
X4.1755 Y1.8851 Z-0.0242
X4.1753 Y1.8853 Z-0.0221
X4.1617 Y1.8774
Z-0.0321 F13.33
X4.1618 Y1.8772 Z-0.0342
X4.1622 Y1.8765 Z-0.0361
X4.1628 Y1.8754 Z-0.0377
X4.1637 Y1.874 Z-0.0389
X4.1646 Y1.8724 Z-0.0397
X4.1656 Y1.8706 Z-0.04
X4.1696 Y1.8638 F40
G3 X4.1803 Y1.8609 I0.0068 J0.0039
G1 X4.2606 Y1.9073 F20
Y2.0927
X4.1 Y2.1855
X3.9394 Y2.0927
Y1.9073
X4.1 Y1.8145
X4.1803 Y1.8609
G3 X4.1832 Y1.8716 I-0.0039 J0.0068 F40
G1 X4.1793 Y1.8785
X4.1782 Y1.8802 Z-0.0397
X4.1773 Y1.8819 Z-0.0389
X4.1765 Y1.8833 Z-0.0377
X4.1759 Y1.8844 Z-0.0361
X4.1755 Y1.8851 Z-0.0342
X4.1753 Y1.8853 Z-0.0321
X4.1617 Y1.8774
Z-0.0421 F13.33
X4.1618 Y1.8772 Z-0.0442
X4.1622 Y1.8765 Z-0.0461
X4.1628 Y1.8754 Z-0.0477
X4.1637 Y1.874 Z-0.0489
X4.1646 Y1.8724 Z-0.0497
X4.1656 Y1.8706 Z-0.05
X4.1696 Y1.8638 F40
G3 X4.1803 Y1.8609 I0.0068 J0.0039
G1 X4.2606 Y1.9073 F20
Y2.0927
X4.1 Y2.1855
X3.9394 Y2.0927
Y1.9073
X4.1 Y1.8145
X4.1803 Y1.8609
