%
(Shelby Nametag engrave)
(Ahhhhh!)
(T5  D=0.12 CR=0 - ZMIN=-0.34 - flat end mill)
G90 G94
G17
G20
G28 G91 Z0
G90

(2D Contour2)
M9
T5 M6
S5000 M3
G54
M8
G0 X0.4592 Y0.8943
Z0.6
Z0.2
G1 Z0.0794 F13.33
Z-0.028
X0.4595 Z-0.0307
X0.4603 Z-0.0332
X0.4618 Z-0.0355
X0.4637 Y0.8944 Z-0.0374
X0.4659 Z-0.0388
X0.4685 Y0.8945 Z-0.0397
X0.4712 Y0.8946 Z-0.04
X0.4831 Y0.8949 F40
G3 X0.4949 Y0.9071 I-0.0003 J0.012
X-0.4949 Y0.8829 I-0.4949 J-0.0121
X0.4949 Y0.9071 I0.4949 J0.0121
X0.4826 Y0.9188 I-0.012 J-0.0003
G1 X0.4706 Y0.9186
X0.4679 Y0.9185 Z-0.0397
X0.4654 Y0.9184 Z-0.0388
X0.4631 Z-0.0374
X0.4612 Y0.9183 Z-0.0355
X0.4598 Z-0.0332
X0.4589 Z-0.0307
X0.4586 Z-0.028
X0.4592 Y0.8943
Z-0.068 F13.33
X0.4595 Z-0.0707
X0.4603 Z-0.0732
X0.4618 Z-0.0755
X0.4637 Y0.8944 Z-0.0774
X0.4659 Z-0.0788
X0.4685 Y0.8945 Z-0.0797
X0.4712 Y0.8946 Z-0.08
X0.4831 Y0.8949 F40
G3 X0.4949 Y0.9071 I-0.0003 J0.012
X-0.4949 Y0.8829 I-0.4949 J-0.0121
X0.4949 Y0.9071 I0.4949 J0.0121
X0.4826 Y0.9188 I-0.012 J-0.0003
G1 X0.4706 Y0.9186
X0.4679 Y0.9185 Z-0.0797
X0.4654 Y0.9184 Z-0.0788
X0.4631 Z-0.0774
X0.4612 Y0.9183 Z-0.0755
X0.4598 Z-0.0732
X0.4589 Z-0.0707
X0.4586 Z-0.068
X0.4592 Y0.8943
Z-0.108 F13.33
X0.4595 Z-0.1107
X0.4603 Z-0.1132
X0.4618 Z-0.1155
X0.4637 Y0.8944 Z-0.1174
X0.4659 Z-0.1188
X0.4685 Y0.8945 Z-0.1197
X0.4712 Y0.8946 Z-0.12
X0.4831 Y0.8949 F40
G3 X0.4949 Y0.9071 I-0.0003 J0.012
X-0.4949 Y0.8829 I-0.4949 J-0.0121
X0.4949 Y0.9071 I0.4949 J0.0121
X0.4826 Y0.9188 I-0.012 J-0.0003
G1 X0.4706 Y0.9186
X0.4679 Y0.9185 Z-0.1197
X0.4654 Y0.9184 Z-0.1188
X0.4631 Z-0.1174
X0.4612 Y0.9183 Z-0.1155
X0.4598 Z-0.1132
X0.4589 Z-0.1107
X0.4586 Z-0.108
X0.4592 Y0.8943
Z-0.148 F13.33
X0.4595 Z-0.1507
X0.4603 Z-0.1532
X0.4618 Z-0.1555
X0.4637 Y0.8944 Z-0.1574
X0.4659 Z-0.1588
X0.4685 Y0.8945 Z-0.1597
X0.4712 Y0.8946 Z-0.16
X0.4831 Y0.8949 F40
G3 X0.4949 Y0.9071 I-0.0003 J0.012
X-0.4949 Y0.8829 I-0.4949 J-0.0121
X0.4949 Y0.9071 I0.4949 J0.0121
X0.4826 Y0.9188 I-0.012 J-0.0003
G1 X0.4706 Y0.9186
X0.4679 Y0.9185 Z-0.1597
X0.4654 Y0.9184 Z-0.1588
X0.4631 Z-0.1574
X0.4612 Y0.9183 Z-0.1555
X0.4598 Z-0.1532
X0.4589 Z-0.1507
X0.4586 Z-0.148
X0.4592 Y0.8943
Z-0.188 F13.33
X0.4595 Z-0.1907
X0.4603 Z-0.1932
X0.4618 Z-0.1955
X0.4637 Y0.8944 Z-0.1974
X0.4659 Z-0.1988
X0.4685 Y0.8945 Z-0.1997
X0.4712 Y0.8946 Z-0.2
X0.4831 Y0.8949 F40
G3 X0.4949 Y0.9071 I-0.0003 J0.012
X-0.4949 Y0.8829 I-0.4949 J-0.0121
X0.4949 Y0.9071 I0.4949 J0.0121
X0.4826 Y0.9188 I-0.012 J-0.0003
G1 X0.4706 Y0.9186
X0.4679 Y0.9185 Z-0.1997
X0.4654 Y0.9184 Z-0.1988
X0.4631 Z-0.1974
X0.4612 Y0.9183 Z-0.1955
X0.4598 Z-0.1932
X0.4589 Z-0.1907
X0.4586 Z-0.188
X0.4592 Y0.8943
Z-0.228 F13.33
X0.4595 Z-0.2307
X0.4603 Z-0.2332
X0.4618 Z-0.2355
X0.4637 Y0.8944 Z-0.2374
X0.4659 Z-0.2388
X0.4685 Y0.8945 Z-0.2397
X0.4712 Y0.8946 Z-0.24
X0.4831 Y0.8949 F40
G3 X0.4949 Y0.9071 I-0.0003 J0.012
X-0.4949 Y0.8829 I-0.4949 J-0.0121
X0.4949 Y0.9071 I0.4949 J0.0121
X0.4826 Y0.9188 I-0.012 J-0.0003
G1 X0.4706 Y0.9186
X0.4679 Y0.9185 Z-0.2397
X0.4654 Y0.9184 Z-0.2388
X0.4631 Z-0.2374
X0.4612 Y0.9183 Z-0.2355
X0.4598 Z-0.2332
X0.4589 Z-0.2307
X0.4586 Z-0.228
X0.4592 Y0.8943
Z-0.268 F13.33
X0.4595 Z-0.2707
X0.4603 Z-0.2732
X0.4618 Z-0.2755
X0.4637 Y0.8944 Z-0.2774
X0.4659 Z-0.2788
X0.4685 Y0.8945 Z-0.2797
X0.4712 Y0.8946 Z-0.28
X0.4831 Y0.8949 F40
G3 X0.4949 Y0.9071 I-0.0003 J0.012
X-0.4949 Y0.8829 I-0.4949 J-0.0121
X0.4949 Y0.9071 I0.4949 J0.0121
X0.4826 Y0.9188 I-0.012 J-0.0003
G1 X0.4706 Y0.9186
X0.4679 Y0.9185 Z-0.2797
X0.4654 Y0.9184 Z-0.2788
X0.4631 Z-0.2774
X0.4612 Y0.9183 Z-0.2755
X0.4598 Z-0.2732
X0.4589 Z-0.2707
X0.4586 Z-0.268
X0.4592 Y0.8943
Z-0.308 F13.33
X0.4595 Z-0.3107
X0.4603 Z-0.3132
X0.4618 Z-0.3155
X0.4637 Y0.8944 Z-0.3174
X0.4659 Z-0.3188
X0.4685 Y0.8945 Z-0.3197
X0.4712 Y0.8946 Z-0.32
X0.4831 Y0.8949 F40
G3 X0.4949 Y0.9071 I-0.0003 J0.012
X-0.4949 Y0.8829 I-0.4949 J-0.0121
X0.4949 Y0.9071 I0.4949 J0.0121
X0.4826 Y0.9188 I-0.012 J-0.0003
G1 X0.4706 Y0.9186
X0.4679 Y0.9185 Z-0.3197
X0.4654 Y0.9184 Z-0.3188
X0.4631 Z-0.3174
X0.4612 Y0.9183 Z-0.3155
X0.4598 Z-0.3132
X0.4589 Z-0.3107
X0.4586 Z-0.308
X0.4592 Y0.8943
Z-0.328 F13.33
X0.4595 Z-0.3307
X0.4603 Z-0.3332
X0.4618 Z-0.3355
X0.4637 Y0.8944 Z-0.3374
X0.4659 Z-0.3388
X0.4685 Y0.8945 Z-0.3397
X0.4712 Y0.8946 Z-0.34
X0.4831 Y0.8949 F40
G3 X0.4949 Y0.9071 I-0.0003 J0.012
X-0.4949 Y0.8829 I-0.4949 J-0.0121
X0.4949 Y0.9071 I0.4949 J0.0121
X0.4826 Y0.9188 I-0.012 J-0.0003
G1 X0.4706 Y0.9186
X0.4679 Y0.9185 Z-0.3397
X0.4654 Y0.9184 Z-0.3388
X0.4631 Z-0.3374
X0.4612 Y0.9183 Z-0.3355
X0.4598 Z-0.3332
X0.4589 Z-0.3307
X0.4586 Z-0.328
G0 Z0.2
X0.049 Y-0.152
G1 Z0.0794 F13.33
Z-0.028
G18 G2 X0.061 Z-0.04 I0.012
G1 X0.073 F40
G17 G3 X0.085 Y-0.14 J0.012
G1 Y0.005
X-0.085
Y-0.225
X0.085
Y-0.14
G3 X0.073 Y-0.128 I-0.012
G1 X0.061
G18 G3 X0.049 Z-0.028 K0.012
G1 Y-0.152
Z-0.068 F13.33
G2 X0.061 Z-0.08 I0.012
G1 X0.073 F40
G17 G3 X0.085 Y-0.14 J0.012
G1 Y0.005
X-0.085
Y-0.225
X0.085
Y-0.14
G3 X0.073 Y-0.128 I-0.012
G1 X0.061
G18 G3 X0.049 Z-0.068 K0.012
G1 Y-0.152
Z-0.108 F13.33
G2 X0.061 Z-0.12 I0.012
G1 X0.073 F40
G17 G3 X0.085 Y-0.14 J0.012
G1 Y0.005
X-0.085
Y-0.225
X0.085
Y-0.14
G3 X0.073 Y-0.128 I-0.012
G1 X0.061
G18 G3 X0.049 Z-0.108 K0.012
G1 Y-0.152
Z-0.148 F13.33
G2 X0.061 Z-0.16 I0.012
G1 X0.073 F40
G17 G3 X0.085 Y-0.14 J0.012
G1 Y0.005
X-0.085
Y-0.225
X0.085
Y-0.14
G3 X0.073 Y-0.128 I-0.012
G1 X0.061
G18 G3 X0.049 Z-0.148 K0.012
G1 Y-0.152
Z-0.188 F13.33
G2 X0.061 Z-0.2 I0.012
G1 X0.073 F40
G17 G3 X0.085 Y-0.14 J0.012
G1 Y0.005
X-0.085
Y-0.225
X0.085
Y-0.14
G3 X0.073 Y-0.128 I-0.012
G1 X0.061
G18 G3 X0.049 Z-0.188 K0.012
G1 Y-0.152
Z-0.228 F13.33
G2 X0.061 Z-0.24 I0.012
G1 X0.073 F40
G17 G3 X0.085 Y-0.14 J0.012
G1 Y0.005
X-0.085
Y-0.225
X0.085
Y-0.14
G3 X0.073 Y-0.128 I-0.012
G1 X0.061
G18 G3 X0.049 Z-0.228 K0.012
G1 Y-0.152
Z-0.268 F13.33
G2 X0.061 Z-0.28 I0.012
G1 X0.073 F40
G17 G3 X0.085 Y-0.14 J0.012
G1 Y0.005
X-0.085
Y-0.225
X0.085
Y-0.14
G3 X0.073 Y-0.128 I-0.012
G1 X0.061
G18 G3 X0.049 Z-0.268 K0.012
G1 Y-0.152
Z-0.308 F13.33
G2 X0.061 Z-0.32 I0.012
G1 X0.073 F40
G17 G3 X0.085 Y-0.14 J0.012
G1 Y0.005
X-0.085
Y-0.225
X0.085
Y-0.14
G3 X0.073 Y-0.128 I-0.012
G1 X0.061
G18 G3 X0.049 Z-0.308 K0.012
G1 Y-0.152
Z-0.328 F13.33
G2 X0.061 Z-0.34 I0.012
G1 X0.073 F40
G17 G3 X0.085 Y-0.14 J0.012
G1 Y0.005
X-0.085
Y-0.225
X0.085
Y-0.14
G3 X0.073 Y-0.128 I-0.012
G1 X0.061
G18 G3 X0.049 Z-0.328 K0.012
G0 Z0.2
Y-0.902
G1 Z0.0794 F13.33
Z-0.028
G2 X0.061 Z-0.04 I0.012
G1 X0.073 F40
G17 G3 X0.085 Y-0.89 J0.012
G1 Y-0.745
X-0.085
Y-0.975
X0.085
Y-0.89
G3 X0.073 Y-0.878 I-0.012
G1 X0.061
G18 G3 X0.049 Z-0.028 K0.012
G1 Y-0.902
Z-0.068 F13.33
G2 X0.061 Z-0.08 I0.012
G1 X0.073 F40
G17 G3 X0.085 Y-0.89 J0.012
G1 Y-0.745
X-0.085
Y-0.975
X0.085
Y-0.89
G3 X0.073 Y-0.878 I-0.012
G1 X0.061
G18 G3 X0.049 Z-0.068 K0.012
G1 Y-0.902
Z-0.108 F13.33
G2 X0.061 Z-0.12 I0.012
G1 X0.073 F40
G17 G3 X0.085 Y-0.89 J0.012
G1 Y-0.745
X-0.085
Y-0.975
X0.085
Y-0.89
G3 X0.073 Y-0.878 I-0.012
G1 X0.061
G18 G3 X0.049 Z-0.108 K0.012
G1 Y-0.902
Z-0.148 F13.33
G2 X0.061 Z-0.16 I0.012
G1 X0.073 F40
G17 G3 X0.085 Y-0.89 J0.012
G1 Y-0.745
X-0.085
Y-0.975
X0.085
Y-0.89
G3 X0.073 Y-0.878 I-0.012
G1 X0.061
G18 G3 X0.049 Z-0.148 K0.012
G1 Y-0.902
Z-0.188 F13.33
G2 X0.061 Z-0.2 I0.012
G1 X0.073 F40
G17 G3 X0.085 Y-0.89 J0.012
G1 Y-0.745
X-0.085
Y-0.975
X0.085
Y-0.89
G3 X0.073 Y-0.878 I-0.012
G1 X0.061
G18 G3 X0.049 Z-0.188 K0.012
G1 Y-0.902
Z-0.228 F13.33
G2 X0.061 Z-0.24 I0.012
G1 X0.073 F40
G17 G3 X0.085 Y-0.89 J0.012
G1 Y-0.745
X-0.085
Y-0.975
X0.085
Y-0.89
G3 X0.073 Y-0.878 I-0.012
G1 X0.061
G18 G3 X0.049 Z-0.228 K0.012
G1 Y-0.902
Z-0.268 F13.33
G2 X0.061 Z-0.28 I0.012
G1 X0.073 F40
G17 G3 X0.085 Y-0.89 J0.012
G1 Y-0.745
X-0.085
Y-0.975
X0.085
Y-0.89
G3 X0.073 Y-0.878 I-0.012
G1 X0.061
G18 G3 X0.049 Z-0.268 K0.012
G1 Y-0.902
Z-0.308 F13.33
G2 X0.061 Z-0.32 I0.012
G1 X0.073 F40
G17 G3 X0.085 Y-0.89 J0.012
G1 Y-0.745
X-0.085
Y-0.975
X0.085
Y-0.89
G3 X0.073 Y-0.878 I-0.012
G1 X0.061
G18 G3 X0.049 Z-0.308 K0.012
G1 Y-0.902
Z-0.328 F13.33
G2 X0.061 Z-0.34 I0.012
G1 X0.073 F40
G17 G3 X0.085 Y-0.89 J0.012
G1 Y-0.745
X-0.085
Y-0.975
X0.085
Y-0.89
G3 X0.073 Y-0.878 I-0.012
G1 X0.061
G18 G3 X0.049 Z-0.328 K0.012
G0 Z0.6
G17

(2D Contour3)
M8
G0 X0.012 Y-1.846
Z0.6
Z0.2
G1 Z0.0794 F13.33
Z-0.028
G19 G3 Y-1.834 Z-0.04 J0.012
G1 Y-1.822 F40
G17 G3 X0 Y-1.81 I-0.012
G1 X-0.175
G2 X-0.235 Y-1.75 J0.06
G1 Y-1.52
X-0.4
G2 X-0.4595 Y-1.4525 J0.06
G3 X-0.8091 Y0.4676 I-3.2147 J0.4067
G2 X0.8091 Y1.3224 I0.8091 J0.4274
Y0.4676 I-0.8091 J-0.4274
G3 X0.4595 Y-1.4525 I2.8652 J-1.5134
G2 X0.4 Y-1.52 I-0.0595 J-0.0075
G1 X0.235
Y-1.75
G2 X0.175 Y-1.81 I-0.06
G1 X0
G3 X-0.012 Y-1.822 J-0.012
G1 Y-1.834
G19 G2 Y-1.846 Z-0.028 K0.012
G1 X0.012
Z-0.068 F13.33
G3 Y-1.834 Z-0.08 J0.012
G1 Y-1.822 F40
G17 G3 X0 Y-1.81 I-0.012
G1 X-0.175
G2 X-0.235 Y-1.75 J0.06
G1 Y-1.52
X-0.4
G2 X-0.4595 Y-1.4525 J0.06
G3 X-0.8091 Y0.4676 I-3.2147 J0.4067
G2 X0.8091 Y1.3224 I0.8091 J0.4274
Y0.4676 I-0.8091 J-0.4274
G3 X0.4595 Y-1.4525 I2.8652 J-1.5134
G2 X0.4 Y-1.52 I-0.0595 J-0.0075
G1 X0.235
Y-1.75
G2 X0.175 Y-1.81 I-0.06
G1 X0
G3 X-0.012 Y-1.822 J-0.012
G1 Y-1.834
G19 G2 Y-1.846 Z-0.068 K0.012
G1 X0.012
Z-0.108 F13.33
G3 Y-1.834 Z-0.12 J0.012
G1 Y-1.822 F40
G17 G3 X0 Y-1.81 I-0.012
G1 X-0.175
G2 X-0.235 Y-1.75 J0.06
G1 Y-1.52
X-0.4
G2 X-0.4595 Y-1.4525 J0.06
G3 X-0.8091 Y0.4676 I-3.2147 J0.4067
G2 X0.8091 Y1.3224 I0.8091 J0.4274
Y0.4676 I-0.8091 J-0.4274
G3 X0.4595 Y-1.4525 I2.8652 J-1.5134
G2 X0.4 Y-1.52 I-0.0595 J-0.0075
G1 X0.235
Y-1.75
G2 X0.175 Y-1.81 I-0.06
G1 X0
G3 X-0.012 Y-1.822 J-0.012
G1 Y-1.834
G19 G2 Y-1.846 Z-0.108 K0.012
G1 X0.012
Z-0.148 F13.33
G3 Y-1.834 Z-0.16 J0.012
G1 Y-1.822 F40
G17 G3 X0 Y-1.81 I-0.012
G1 X-0.175
G2 X-0.235 Y-1.75 J0.06
G1 Y-1.52
X-0.4
G2 X-0.4595 Y-1.4525 J0.06
G3 X-0.8091 Y0.4676 I-3.2147 J0.4067
G2 X0.8091 Y1.3224 I0.8091 J0.4274
Y0.4676 I-0.8091 J-0.4274
G3 X0.4595 Y-1.4525 I2.8652 J-1.5134
G2 X0.4 Y-1.52 I-0.0595 J-0.0075
G1 X0.235
Y-1.75
G2 X0.175 Y-1.81 I-0.06
G1 X0
G3 X-0.012 Y-1.822 J-0.012
G1 Y-1.834
G19 G2 Y-1.846 Z-0.148 K0.012
G1 X0.012
Z-0.188 F13.33
G3 Y-1.834 Z-0.2 J0.012
G1 Y-1.822 F40
G17 G3 X0 Y-1.81 I-0.012
G1 X-0.175
G2 X-0.235 Y-1.75 J0.06
G1 Y-1.52
X-0.4
G2 X-0.4595 Y-1.4525 J0.06
G3 X-0.8091 Y0.4676 I-3.2147 J0.4067
G2 X0.8091 Y1.3224 I0.8091 J0.4274
Y0.4676 I-0.8091 J-0.4274
G3 X0.4595 Y-1.4525 I2.8652 J-1.5134
G2 X0.4 Y-1.52 I-0.0595 J-0.0075
G1 X0.235
Y-1.75
G2 X0.175 Y-1.81 I-0.06
G1 X0
G3 X-0.012 Y-1.822 J-0.012
G1 Y-1.834
G19 G2 Y-1.846 Z-0.188 K0.012
G1 X0.012
Z-0.228 F13.33
G3 Y-1.834 Z-0.24 J0.012
G1 Y-1.822 F40
G17 G3 X0 Y-1.81 I-0.012
G1 X-0.175
G2 X-0.235 Y-1.75 J0.06
G1 Y-1.52
X-0.4
G2 X-0.4595 Y-1.4525 J0.06
G3 X-0.8091 Y0.4676 I-3.2147 J0.4067
G2 X0.8091 Y1.3224 I0.8091 J0.4274
Y0.4676 I-0.8091 J-0.4274
G3 X0.4595 Y-1.4525 I2.8652 J-1.5134
G2 X0.4 Y-1.52 I-0.0595 J-0.0075
G1 X0.235
Y-1.75
G2 X0.175 Y-1.81 I-0.06
G1 X0
G3 X-0.012 Y-1.822 J-0.012
G1 Y-1.834
G19 G2 Y-1.846 Z-0.228 K0.012
G1 X0.012
Z-0.268 F13.33
G3 Y-1.834 Z-0.28 J0.012
G1 Y-1.822 F40
G17 G3 X0 Y-1.81 I-0.012
G1 X-0.175
G2 X-0.235 Y-1.75 J0.06
G1 Y-1.52
X-0.4
G2 X-0.4595 Y-1.4525 J0.06
G3 X-0.8091 Y0.4676 I-3.2147 J0.4067
G2 X0.8091 Y1.3224 I0.8091 J0.4274
Y0.4676 I-0.8091 J-0.4274
G3 X0.4595 Y-1.4525 I2.8652 J-1.5134
G2 X0.4 Y-1.52 I-0.0595 J-0.0075
G1 X0.235
Y-1.75
G2 X0.175 Y-1.81 I-0.06
G1 X0
G3 X-0.012 Y-1.822 J-0.012
G1 Y-1.834
G19 G2 Y-1.846 Z-0.268 K0.012
G1 X0.012
Z-0.308 F13.33
G3 Y-1.834 Z-0.32 J0.012
G1 Y-1.822 F40
G17 G3 X0 Y-1.81 I-0.012
G1 X-0.175
G2 X-0.235 Y-1.75 J0.06
G1 Y-1.52
X-0.4
G2 X-0.4595 Y-1.4525 J0.06
G3 X-0.8091 Y0.4676 I-3.2147 J0.4067
G2 X0.8091 Y1.3224 I0.8091 J0.4274
Y0.4676 I-0.8091 J-0.4274
G3 X0.4595 Y-1.4525 I2.8652 J-1.5134
G2 X0.4 Y-1.52 I-0.0595 J-0.0075
G1 X0.235
Y-1.75
G2 X0.175 Y-1.81 I-0.06
G1 X0
G3 X-0.012 Y-1.822 J-0.012
G1 Y-1.834
G19 G2 Y-1.846 Z-0.308 K0.012
G1 X0.012
Z-0.328 F13.33
G3 Y-1.834 Z-0.34 J0.012
G1 Y-1.822 F40
G17 G3 X0 Y-1.81 I-0.012
G1 X-0.175
G2 X-0.235 Y-1.75 J0.06
G1 Y-1.52
X-0.4
G2 X-0.4595 Y-1.4525 J0.06
G3 X-0.8091 Y0.4676 I-3.2147 J0.4067
G2 X0.8091 Y1.3224 I0.8091 J0.4274
Y0.4676 I-0.8091 J-0.4274
G3 X0.4595 Y-1.4525 I2.8652 J-1.5134
G2 X0.4 Y-1.52 I-0.0595 J-0.0075
G1 X0.235
Y-1.75
G2 X0.175 Y-1.81 I-0.06
G1 X0
G3 X-0.012 Y-1.822 J-0.012
G1 Y-1.834
G19 G2 Y-1.846 Z-0.328 K0.012
G0 Z0.6
G17
M9
G28 G91 Z0
G28 X0 Y0
M30
%
