%
(test5)
(ahhhh!!!)
(T2  D=0.0669 CR=0.0167 - ZMIN=-0.0787 - bullnose end mill)
G90 G94
G17
G20
G28 G91 Z0
G90

(2D Contour1)
M9
T2 M6
S5000 M3
G54
M8
G0 X1.1194 Y-1.0585
Z0.5906
Z0.1969
G1 Z0.0492 F39.37
Z-0.0031 F13.12
X1.1196 Z-0.0049
X1.1203 Z-0.0065
X1.1214 Z-0.0079
X1.1228 Z-0.0089
X1.1244 Y-1.0586 Z-0.0096
X1.1261 Z-0.0098
X1.1328 Y-1.0587 F39.37
G3 X1.1396 Y-1.052 I0.0001 J0.0067
G1 X1.1425 Y-0.7827
X0.6789 Y-0.5083
X0.2095 Y-0.7725
X0.2036 Y-1.3112
X0.6672 Y-1.5856
X1.1366 Y-1.3214
X1.1396 Y-1.052
G3 X1.1329 Y-1.0453 I-0.0067 J0.0001
G1 X1.1262 Y-1.0452
X1.1245 Z-0.0096
X1.1229 Z-0.0089
X1.1215 Y-1.0451 Z-0.0079
X1.1205 Z-0.0065
X1.1198 Z-0.0049
X1.1196 Z-0.0031
G0 Z0.1969
X1.1194 Y-1.0585
G1 Z0.0509 F39.37
Z-0.013 F13.12
X1.1196 Z-0.0147
X1.1203 Z-0.0163
X1.1214 Z-0.0177
X1.1228 Z-0.0188
X1.1244 Y-1.0586 Z-0.0195
X1.1261 Z-0.0197
X1.1328 Y-1.0587 F39.37
G3 X1.1396 Y-1.052 I0.0001 J0.0067
G1 X1.1425 Y-0.7827
X0.6789 Y-0.5083
X0.2095 Y-0.7725
X0.2036 Y-1.3112
X0.6672 Y-1.5856
X1.1366 Y-1.3214
X1.1396 Y-1.052
G3 X1.1329 Y-1.0453 I-0.0067 J0.0001
G1 X1.1262 Y-1.0452
X1.1245 Z-0.0195
X1.1229 Z-0.0188
X1.1215 Y-1.0451 Z-0.0177
X1.1205 Z-0.0163
X1.1198 Z-0.0147
X1.1196 Z-0.013
G0 Z0.1969
X1.1194 Y-1.0585
G1 Z0.041 F39.37
Z-0.0228 F13.12
X1.1196 Z-0.0246
X1.1203 Z-0.0262
X1.1214 Z-0.0276
X1.1228 Z-0.0286
X1.1244 Y-1.0586 Z-0.0293
X1.1261 Z-0.0295
X1.1328 Y-1.0587 F39.37
G3 X1.1396 Y-1.052 I0.0001 J0.0067
G1 X1.1425 Y-0.7827
X0.6789 Y-0.5083
X0.2095 Y-0.7725
X0.2036 Y-1.3112
X0.6672 Y-1.5856
X1.1366 Y-1.3214
X1.1396 Y-1.052
G3 X1.1329 Y-1.0453 I-0.0067 J0.0001
G1 X1.1262 Y-1.0452
X1.1245 Z-0.0293
X1.1229 Z-0.0286
X1.1215 Y-1.0451 Z-0.0276
X1.1205 Z-0.0262
X1.1198 Z-0.0246
X1.1196 Z-0.0228
G0 Z0.1969
X1.1194 Y-1.0585
G1 Z0.0312 F39.37
Z-0.0327 F13.12
X1.1196 Z-0.0344
X1.1203 Z-0.036
X1.1214 Z-0.0374
X1.1228 Z-0.0385
X1.1244 Y-1.0586 Z-0.0391
X1.1261 Z-0.0394
X1.1328 Y-1.0587 F39.37
G3 X1.1396 Y-1.052 I0.0001 J0.0067
G1 X1.1425 Y-0.7827
X0.6789 Y-0.5083
X0.2095 Y-0.7725
X0.2036 Y-1.3112
X0.6672 Y-1.5856
X1.1366 Y-1.3214
X1.1396 Y-1.052
G3 X1.1329 Y-1.0453 I-0.0067 J0.0001
G1 X1.1262 Y-1.0452
X1.1245 Z-0.0391
X1.1229 Z-0.0385
X1.1215 Y-1.0451 Z-0.0374
X1.1205 Z-0.036
X1.1198 Z-0.0344
X1.1196 Z-0.0327
G0 Z0.1969
X1.1194 Y-1.0585
G1 Z0.0214 F39.37
Z-0.0425 F13.12
X1.1196 Z-0.0443
X1.1203 Z-0.0459
X1.1214 Z-0.0473
X1.1228 Z-0.0483
X1.1244 Y-1.0586 Z-0.049
X1.1261 Z-0.0492
X1.1328 Y-1.0587 F39.37
G3 X1.1396 Y-1.052 I0.0001 J0.0067
G1 X1.1425 Y-0.7827
X0.6789 Y-0.5083
X0.2095 Y-0.7725
X0.2036 Y-1.3112
X0.6672 Y-1.5856
X1.1366 Y-1.3214
X1.1396 Y-1.052
G3 X1.1329 Y-1.0453 I-0.0067 J0.0001
G1 X1.1262 Y-1.0452
X1.1245 Z-0.049
X1.1229 Z-0.0483
X1.1215 Y-1.0451 Z-0.0473
X1.1205 Z-0.0459
X1.1198 Z-0.0443
X1.1196 Z-0.0425
G0 Z0.1969
X1.1194 Y-1.0585
G1 Z0.0115 F39.37
Z-0.0524 F13.12
X1.1196 Z-0.0541
X1.1203 Z-0.0557
X1.1214 Z-0.0571
X1.1228 Z-0.0582
X1.1244 Y-1.0586 Z-0.0588
X1.1261 Z-0.0591
X1.1328 Y-1.0587 F39.37
G3 X1.1396 Y-1.052 I0.0001 J0.0067
G1 X1.1425 Y-0.7827
X0.6789 Y-0.5083
X0.2095 Y-0.7725
X0.2036 Y-1.3112
X0.6672 Y-1.5856
X1.1366 Y-1.3214
X1.1396 Y-1.052
G3 X1.1329 Y-1.0453 I-0.0067 J0.0001
G1 X1.1262 Y-1.0452
X1.1245 Z-0.0588
X1.1229 Z-0.0582
X1.1215 Y-1.0451 Z-0.0571
X1.1205 Z-0.0557
X1.1198 Z-0.0541
X1.1196 Z-0.0524
G0 Z0.1969
X1.1194 Y-1.0585
G1 Z0.0017 F39.37
Z-0.0622 F13.12
X1.1196 Z-0.0639
X1.1203 Z-0.0656
X1.1214 Z-0.0669
X1.1228 Z-0.068
X1.1244 Y-1.0586 Z-0.0687
X1.1261 Z-0.0689
X1.1328 Y-1.0587 F39.37
G3 X1.1396 Y-1.052 I0.0001 J0.0067
G1 X1.1425 Y-0.7827
X0.6789 Y-0.5083
X0.2095 Y-0.7725
X0.2036 Y-1.3112
X0.6672 Y-1.5856
X1.1366 Y-1.3214
X1.1396 Y-1.052
G3 X1.1329 Y-1.0453 I-0.0067 J0.0001
G1 X1.1262 Y-1.0452
X1.1245 Z-0.0687
X1.1229 Z-0.068
X1.1215 Y-1.0451 Z-0.0669
X1.1205 Z-0.0656
X1.1198 Z-0.0639
X1.1196 Z-0.0622
G0 Z0.1969
X1.1194 Y-1.0585
G1 Z-0.0082 F39.37
Z-0.072 F13.12
X1.1196 Z-0.0738
X1.1203 Z-0.0754
X1.1214 Z-0.0768
X1.1228 Z-0.0778
X1.1244 Y-1.0586 Z-0.0785
X1.1261 Z-0.0787
X1.1328 Y-1.0587 F39.37
G3 X1.1396 Y-1.052 I0.0001 J0.0067
G1 X1.1425 Y-0.7827
X0.6789 Y-0.5083
X0.2095 Y-0.7725
X0.2036 Y-1.3112
X0.6672 Y-1.5856
X1.1366 Y-1.3214
X1.1396 Y-1.052
G3 X1.1329 Y-1.0453 I-0.0067 J0.0001
G1 X1.1262 Y-1.0452
X1.1245 Z-0.0785
X1.1229 Z-0.0778
X1.1215 Y-1.0451 Z-0.0768
X1.1205 Z-0.0754
X1.1198 Z-0.0738
X1.1196 Z-0.072
G0 Z0.1969
X1.7592 Y0.0153
G1 Z0.0492 F39.37
Z-0.0031 F13.12
X1.7595 Z-0.0049
X1.7601 Z-0.0065
X1.7612 Z-0.0079
X1.7626 Z-0.0089
X1.7642 Z-0.0096
X1.7659 Z-0.0098
X1.7726 Y0.0152 F39.37
G3 X1.7794 Y0.0218 I0.0001 J0.0067
G1 X1.7823 Y0.2911
X1.3188 Y0.5656
X0.8493 Y0.3013
X0.8434 Y-0.2374
X1.307 Y-0.5118
X1.7764 Y-0.2475
X1.7794 Y0.0218
G3 X1.7728 Y0.0286 I-0.0067 J0.0001
G1 X1.7661
X1.7643 Y0.0287 Z-0.0096
X1.7627 Z-0.0089
X1.7613 Z-0.0079
X1.7603 Z-0.0065
X1.7596 Z-0.0049
X1.7594 Z-0.0031
G0 Z0.1969
X1.7592 Y0.0153
G1 Z0.0509 F39.37
Z-0.013 F13.12
X1.7595 Z-0.0147
X1.7601 Z-0.0163
X1.7612 Z-0.0177
X1.7626 Z-0.0188
X1.7642 Z-0.0195
X1.7659 Z-0.0197
X1.7726 Y0.0152 F39.37
G3 X1.7794 Y0.0218 I0.0001 J0.0067
G1 X1.7823 Y0.2911
X1.3188 Y0.5656
X0.8493 Y0.3013
X0.8434 Y-0.2374
X1.307 Y-0.5118
X1.7764 Y-0.2475
X1.7794 Y0.0218
G3 X1.7728 Y0.0286 I-0.0067 J0.0001
G1 X1.7661
X1.7643 Y0.0287 Z-0.0195
X1.7627 Z-0.0188
X1.7613 Z-0.0177
X1.7603 Z-0.0163
X1.7596 Z-0.0147
X1.7594 Z-0.013
G0 Z0.1969
X1.7592 Y0.0153
G1 Z0.041 F39.37
Z-0.0228 F13.12
X1.7595 Z-0.0246
X1.7601 Z-0.0262
X1.7612 Z-0.0276
X1.7626 Z-0.0286
X1.7642 Z-0.0293
X1.7659 Z-0.0295
X1.7726 Y0.0152 F39.37
G3 X1.7794 Y0.0218 I0.0001 J0.0067
G1 X1.7823 Y0.2911
X1.3188 Y0.5656
X0.8493 Y0.3013
X0.8434 Y-0.2374
X1.307 Y-0.5118
X1.7764 Y-0.2475
X1.7794 Y0.0218
G3 X1.7728 Y0.0286 I-0.0067 J0.0001
G1 X1.7661
X1.7643 Y0.0287 Z-0.0293
X1.7627 Z-0.0286
X1.7613 Z-0.0276
X1.7603 Z-0.0262
X1.7596 Z-0.0246
X1.7594 Z-0.0228
G0 Z0.1969
X1.7592 Y0.0153
G1 Z0.0312 F39.37
Z-0.0327 F13.12
X1.7595 Z-0.0344
X1.7601 Z-0.036
X1.7612 Z-0.0374
X1.7626 Z-0.0385
X1.7642 Z-0.0391
X1.7659 Z-0.0394
X1.7726 Y0.0152 F39.37
G3 X1.7794 Y0.0218 I0.0001 J0.0067
G1 X1.7823 Y0.2911
X1.3188 Y0.5656
X0.8493 Y0.3013
X0.8434 Y-0.2374
X1.307 Y-0.5118
X1.7764 Y-0.2475
X1.7794 Y0.0218
G3 X1.7728 Y0.0286 I-0.0067 J0.0001
G1 X1.7661
X1.7643 Y0.0287 Z-0.0391
X1.7627 Z-0.0385
X1.7613 Z-0.0374
X1.7603 Z-0.036
X1.7596 Z-0.0344
X1.7594 Z-0.0327
G0 Z0.1969
X1.7592 Y0.0153
G1 Z0.0214 F39.37
Z-0.0425 F13.12
X1.7595 Z-0.0443
X1.7601 Z-0.0459
X1.7612 Z-0.0473
X1.7626 Z-0.0483
X1.7642 Z-0.049
X1.7659 Z-0.0492
X1.7726 Y0.0152 F39.37
G3 X1.7794 Y0.0218 I0.0001 J0.0067
G1 X1.7823 Y0.2911
X1.3188 Y0.5656
X0.8493 Y0.3013
X0.8434 Y-0.2374
X1.307 Y-0.5118
X1.7764 Y-0.2475
X1.7794 Y0.0218
G3 X1.7728 Y0.0286 I-0.0067 J0.0001
G1 X1.7661
X1.7643 Y0.0287 Z-0.049
X1.7627 Z-0.0483
X1.7613 Z-0.0473
X1.7603 Z-0.0459
X1.7596 Z-0.0443
X1.7594 Z-0.0425
G0 Z0.1969
X1.7592 Y0.0153
G1 Z0.0115 F39.37
Z-0.0524 F13.12
X1.7595 Z-0.0541
X1.7601 Z-0.0557
X1.7612 Z-0.0571
X1.7626 Z-0.0582
X1.7642 Z-0.0588
X1.7659 Z-0.0591
X1.7726 Y0.0152 F39.37
G3 X1.7794 Y0.0218 I0.0001 J0.0067
G1 X1.7823 Y0.2911
X1.3188 Y0.5656
X0.8493 Y0.3013
X0.8434 Y-0.2374
X1.307 Y-0.5118
X1.7764 Y-0.2475
X1.7794 Y0.0218
G3 X1.7728 Y0.0286 I-0.0067 J0.0001
G1 X1.7661
X1.7643 Y0.0287 Z-0.0588
X1.7627 Z-0.0582
X1.7613 Z-0.0571
X1.7603 Z-0.0557
X1.7596 Z-0.0541
X1.7594 Z-0.0524
G0 Z0.1969
X1.7592 Y0.0153
G1 Z0.0017 F39.37
Z-0.0622 F13.12
X1.7595 Z-0.0639
X1.7601 Z-0.0656
X1.7612 Z-0.0669
X1.7626 Z-0.068
X1.7642 Z-0.0687
X1.7659 Z-0.0689
X1.7726 Y0.0152 F39.37
G3 X1.7794 Y0.0218 I0.0001 J0.0067
G1 X1.7823 Y0.2911
X1.3188 Y0.5656
X0.8493 Y0.3013
X0.8434 Y-0.2374
X1.307 Y-0.5118
X1.7764 Y-0.2475
X1.7794 Y0.0218
G3 X1.7728 Y0.0286 I-0.0067 J0.0001
G1 X1.7661
X1.7643 Y0.0287 Z-0.0687
X1.7627 Z-0.068
X1.7613 Z-0.0669
X1.7603 Z-0.0656
X1.7596 Z-0.0639
X1.7594 Z-0.0622
G0 Z0.1969
X1.7592 Y0.0153
G1 Z-0.0082 F39.37
Z-0.072 F13.12
X1.7595 Z-0.0738
X1.7601 Z-0.0754
X1.7612 Z-0.0768
X1.7626 Z-0.0778
X1.7642 Z-0.0785
X1.7659 Z-0.0787
X1.7726 Y0.0152 F39.37
G3 X1.7794 Y0.0218 I0.0001 J0.0067
G1 X1.7823 Y0.2911
X1.3188 Y0.5656
X0.8493 Y0.3013
X0.8434 Y-0.2374
X1.307 Y-0.5118
X1.7764 Y-0.2475
X1.7794 Y0.0218
G3 X1.7728 Y0.0286 I-0.0067 J0.0001
G1 X1.7661
X1.7643 Y0.0287 Z-0.0785
X1.7627 Z-0.0778
X1.7613 Z-0.0768
X1.7603 Z-0.0754
X1.7596 Z-0.0738
X1.7594 Z-0.072
G0 Z0.1969
X0.2424 Y0.4067
G1 Z0.0492 F39.37
Z-0.0031 F13.12
X0.2425 Y0.4069 Z-0.0049
X0.2428 Y0.4075 Z-0.0065
X0.2433 Y0.4084 Z-0.0079
X0.244 Y0.4096 Z-0.0089
X0.2448 Y0.411 Z-0.0096
X0.2456 Y0.4126 Z-0.0098
X0.2489 Y0.4184 F39.37
G3 X0.2463 Y0.4275 I-0.0059 J0.0033
G1 X0.0108 Y0.5583
X-0.4512 Y0.2813
X-0.4423 Y-0.2573
X0.0286 Y-0.519
X0.4906 Y-0.2419
X0.4817 Y0.2967
X0.2463 Y0.4275
G3 X0.2372 Y0.4249 I-0.0033 J-0.0059
G1 X0.2339 Y0.4191
X0.2331 Y0.4175 Z-0.0096
X0.2323 Y0.4161 Z-0.0089
X0.2316 Y0.4149 Z-0.0079
X0.2311 Y0.414 Z-0.0065
X0.2308 Y0.4134 Z-0.0049
X0.2307 Y0.4132 Z-0.0031
G0 Z0.1969
X0.2424 Y0.4067
G1 Z0.0509 F39.37
Z-0.013 F13.12
X0.2425 Y0.4069 Z-0.0147
X0.2428 Y0.4075 Z-0.0163
X0.2433 Y0.4084 Z-0.0177
X0.244 Y0.4096 Z-0.0188
X0.2448 Y0.411 Z-0.0195
X0.2456 Y0.4126 Z-0.0197
X0.2489 Y0.4184 F39.37
G3 X0.2463 Y0.4275 I-0.0059 J0.0033
G1 X0.0108 Y0.5583
X-0.4512 Y0.2813
X-0.4423 Y-0.2573
X0.0286 Y-0.519
X0.4906 Y-0.2419
X0.4817 Y0.2967
X0.2463 Y0.4275
G3 X0.2372 Y0.4249 I-0.0033 J-0.0059
G1 X0.2339 Y0.4191
X0.2331 Y0.4175 Z-0.0195
X0.2323 Y0.4161 Z-0.0188
X0.2316 Y0.4149 Z-0.0177
X0.2311 Y0.414 Z-0.0163
X0.2308 Y0.4134 Z-0.0147
X0.2307 Y0.4132 Z-0.013
G0 Z0.1969
X0.2424 Y0.4067
G1 Z0.041 F39.37
Z-0.0228 F13.12
X0.2425 Y0.4069 Z-0.0246
X0.2428 Y0.4075 Z-0.0262
X0.2433 Y0.4084 Z-0.0276
X0.244 Y0.4096 Z-0.0286
X0.2448 Y0.411 Z-0.0293
X0.2456 Y0.4126 Z-0.0295
X0.2489 Y0.4184 F39.37
G3 X0.2463 Y0.4275 I-0.0059 J0.0033
G1 X0.0108 Y0.5583
X-0.4512 Y0.2813
X-0.4423 Y-0.2573
X0.0286 Y-0.519
X0.4906 Y-0.2419
X0.4817 Y0.2967
X0.2463 Y0.4275
G3 X0.2372 Y0.4249 I-0.0033 J-0.0059
G1 X0.2339 Y0.4191
X0.2331 Y0.4175 Z-0.0293
X0.2323 Y0.4161 Z-0.0286
X0.2316 Y0.4149 Z-0.0276
X0.2311 Y0.414 Z-0.0262
X0.2308 Y0.4134 Z-0.0246
X0.2307 Y0.4132 Z-0.0228
G0 Z0.1969
X0.2424 Y0.4067
G1 Z0.0312 F39.37
Z-0.0327 F13.12
X0.2425 Y0.4069 Z-0.0344
X0.2428 Y0.4075 Z-0.036
X0.2433 Y0.4084 Z-0.0374
X0.244 Y0.4096 Z-0.0385
X0.2448 Y0.411 Z-0.0391
X0.2456 Y0.4126 Z-0.0394
X0.2489 Y0.4184 F39.37
G3 X0.2463 Y0.4275 I-0.0059 J0.0033
G1 X0.0108 Y0.5583
X-0.4512 Y0.2813
X-0.4423 Y-0.2573
X0.0286 Y-0.519
X0.4906 Y-0.2419
X0.4817 Y0.2967
X0.2463 Y0.4275
G3 X0.2372 Y0.4249 I-0.0033 J-0.0059
G1 X0.2339 Y0.4191
X0.2331 Y0.4175 Z-0.0391
X0.2323 Y0.4161 Z-0.0385
X0.2316 Y0.4149 Z-0.0374
X0.2311 Y0.414 Z-0.036
X0.2308 Y0.4134 Z-0.0344
X0.2307 Y0.4132 Z-0.0327
G0 Z0.1969
X0.2424 Y0.4067
G1 Z0.0214 F39.37
Z-0.0425 F13.12
X0.2425 Y0.4069 Z-0.0443
X0.2428 Y0.4075 Z-0.0459
X0.2433 Y0.4084 Z-0.0473
X0.244 Y0.4096 Z-0.0483
X0.2448 Y0.411 Z-0.049
X0.2456 Y0.4126 Z-0.0492
X0.2489 Y0.4184 F39.37
G3 X0.2463 Y0.4275 I-0.0059 J0.0033
G1 X0.0108 Y0.5583
X-0.4512 Y0.2813
X-0.4423 Y-0.2573
X0.0286 Y-0.519
X0.4906 Y-0.2419
X0.4817 Y0.2967
X0.2463 Y0.4275
G3 X0.2372 Y0.4249 I-0.0033 J-0.0059
G1 X0.2339 Y0.4191
X0.2331 Y0.4175 Z-0.049
X0.2323 Y0.4161 Z-0.0483
X0.2316 Y0.4149 Z-0.0473
X0.2311 Y0.414 Z-0.0459
X0.2308 Y0.4134 Z-0.0443
X0.2307 Y0.4132 Z-0.0425
G0 Z0.1969
X0.2424 Y0.4067
G1 Z0.0115 F39.37
Z-0.0524 F13.12
X0.2425 Y0.4069 Z-0.0541
X0.2428 Y0.4075 Z-0.0557
X0.2433 Y0.4084 Z-0.0571
X0.244 Y0.4096 Z-0.0582
X0.2448 Y0.411 Z-0.0588
X0.2456 Y0.4126 Z-0.0591
X0.2489 Y0.4184 F39.37
G3 X0.2463 Y0.4275 I-0.0059 J0.0033
G1 X0.0108 Y0.5583
X-0.4512 Y0.2813
X-0.4423 Y-0.2573
X0.0286 Y-0.519
X0.4906 Y-0.2419
X0.4817 Y0.2967
X0.2463 Y0.4275
G3 X0.2372 Y0.4249 I-0.0033 J-0.0059
G1 X0.2339 Y0.4191
X0.2331 Y0.4175 Z-0.0588
X0.2323 Y0.4161 Z-0.0582
X0.2316 Y0.4149 Z-0.0571
X0.2311 Y0.414 Z-0.0557
X0.2308 Y0.4134 Z-0.0541
X0.2307 Y0.4132 Z-0.0524
G0 Z0.1969
X0.2424 Y0.4067
G1 Z0.0017 F39.37
Z-0.0622 F13.12
X0.2425 Y0.4069 Z-0.0639
X0.2428 Y0.4075 Z-0.0656
X0.2433 Y0.4084 Z-0.0669
X0.244 Y0.4096 Z-0.068
X0.2448 Y0.411 Z-0.0687
X0.2456 Y0.4126 Z-0.0689
X0.2489 Y0.4184 F39.37
G3 X0.2463 Y0.4275 I-0.0059 J0.0033
G1 X0.0108 Y0.5583
X-0.4512 Y0.2813
X-0.4423 Y-0.2573
X0.0286 Y-0.519
X0.4906 Y-0.2419
X0.4817 Y0.2967
X0.2463 Y0.4275
G3 X0.2372 Y0.4249 I-0.0033 J-0.0059
G1 X0.2339 Y0.4191
X0.2331 Y0.4175 Z-0.0687
X0.2323 Y0.4161 Z-0.068
X0.2316 Y0.4149 Z-0.0669
X0.2311 Y0.414 Z-0.0656
X0.2308 Y0.4134 Z-0.0639
X0.2307 Y0.4132 Z-0.0622
G0 Z0.1969
X0.2424 Y0.4067
G1 Z-0.0082 F39.37
Z-0.072 F13.12
X0.2425 Y0.4069 Z-0.0738
X0.2428 Y0.4075 Z-0.0754
X0.2433 Y0.4084 Z-0.0768
X0.244 Y0.4096 Z-0.0778
X0.2448 Y0.411 Z-0.0785
X0.2456 Y0.4126 Z-0.0787
X0.2489 Y0.4184 F39.37
G3 X0.2463 Y0.4275 I-0.0059 J0.0033
G1 X0.0108 Y0.5583
X-0.4512 Y0.2813
X-0.4423 Y-0.2573
X0.0286 Y-0.519
X0.4906 Y-0.2419
X0.4817 Y0.2967
X0.2463 Y0.4275
G3 X0.2372 Y0.4249 I-0.0033 J-0.0059
G1 X0.2339 Y0.4191
X0.2331 Y0.4175 Z-0.0785
X0.2323 Y0.4161 Z-0.0778
X0.2316 Y0.4149 Z-0.0768
X0.2311 Y0.414 Z-0.0754
X0.2308 Y0.4134 Z-0.0738
X0.2307 Y0.4132 Z-0.072
G0 Z0.5906
M9
G28 G91 Z0
G28 X0 Y0
M30
%
