%
(test4)
(ahhhh!!!)
(T2  D=0.0669 CR=0.0167 - ZMIN=-0.0463 - bullnose end mill)
G90 G94
G17
G20
G28 G91 Z0
G90

(2D Contour1)
M9
T2 M6
S5000 M3
G54
M8
G0 X0.2435 Y-0.3667
Z0.5906
Z0.1969
G1 Z0.0492 F39.37
Z-0.0031 F13.12
X0.2436 Y-0.3669 Z-0.0049
X0.244 Y-0.3674 Z-0.0065
X0.2445 Y-0.3683 Z-0.0079
X0.2452 Y-0.3695 Z-0.0089
X0.2461 Y-0.3709 Z-0.0096
X0.247 Y-0.3724 Z-0.0098
X0.2504 Y-0.3781 F39.37
G3 X0.2596 Y-0.3804 I0.0057 J0.0034
G1 X0.4906 Y-0.2419
X0.4817 Y0.2967
X0.0108 Y0.5583
X-0.4512 Y0.2813
X-0.4423 Y-0.2573
X0.0286 Y-0.519
X0.2596 Y-0.3804
G3 X0.2619 Y-0.3713 I-0.0034 J0.0057
G1 X0.2584 Y-0.3655
X0.2576 Y-0.364 Z-0.0096
X0.2567 Y-0.3627 Z-0.0089
X0.256 Y-0.3615 Z-0.0079
X0.2555 Y-0.3606 Z-0.0065
X0.2551 Y-0.36 Z-0.0049
X0.255 Y-0.3598 Z-0.0031
G0 Z0.1969
X0.2435 Y-0.3667
G1 Z0.0509 F39.37
Z-0.013 F13.12
X0.2436 Y-0.3669 Z-0.0147
X0.244 Y-0.3674 Z-0.0163
X0.2445 Y-0.3683 Z-0.0177
X0.2452 Y-0.3695 Z-0.0188
X0.2461 Y-0.3709 Z-0.0195
X0.247 Y-0.3724 Z-0.0197
X0.2504 Y-0.3781 F39.37
G3 X0.2596 Y-0.3804 I0.0057 J0.0034
G1 X0.4906 Y-0.2419
X0.4817 Y0.2967
X0.0108 Y0.5583
X-0.4512 Y0.2813
X-0.4423 Y-0.2573
X0.0286 Y-0.519
X0.2596 Y-0.3804
G3 X0.2619 Y-0.3713 I-0.0034 J0.0057
G1 X0.2584 Y-0.3655
X0.2576 Y-0.364 Z-0.0195
X0.2567 Y-0.3627 Z-0.0188
X0.256 Y-0.3615 Z-0.0177
X0.2555 Y-0.3606 Z-0.0163
X0.2551 Y-0.36 Z-0.0147
X0.255 Y-0.3598 Z-0.013
G0 Z0.1969
X0.2435 Y-0.3667
G1 Z0.041 F39.37
Z-0.0228 F13.12
X0.2436 Y-0.3669 Z-0.0246
X0.244 Y-0.3674 Z-0.0262
X0.2445 Y-0.3683 Z-0.0276
X0.2452 Y-0.3695 Z-0.0286
X0.2461 Y-0.3709 Z-0.0293
X0.247 Y-0.3724 Z-0.0295
X0.2504 Y-0.3781 F39.37
G3 X0.2596 Y-0.3804 I0.0057 J0.0034
G1 X0.4906 Y-0.2419
X0.4817 Y0.2967
X0.0108 Y0.5583
X-0.4512 Y0.2813
X-0.4423 Y-0.2573
X0.0286 Y-0.519
X0.2596 Y-0.3804
G3 X0.2619 Y-0.3713 I-0.0034 J0.0057
G1 X0.2584 Y-0.3655
X0.2576 Y-0.364 Z-0.0293
X0.2567 Y-0.3627 Z-0.0286
X0.256 Y-0.3615 Z-0.0276
X0.2555 Y-0.3606 Z-0.0262
X0.2551 Y-0.36 Z-0.0246
X0.255 Y-0.3598 Z-0.0228
G0 Z0.1969
X0.2435 Y-0.3667
G1 Z0.0312 F39.37
Z-0.0327 F13.12
X0.2436 Y-0.3669 Z-0.0344
X0.244 Y-0.3674 Z-0.036
X0.2445 Y-0.3683 Z-0.0374
X0.2452 Y-0.3695 Z-0.0385
X0.2461 Y-0.3709 Z-0.0391
X0.247 Y-0.3724 Z-0.0394
X0.2504 Y-0.3781 F39.37
G3 X0.2596 Y-0.3804 I0.0057 J0.0034
G1 X0.4906 Y-0.2419
X0.4817 Y0.2967
X0.0108 Y0.5583
X-0.4512 Y0.2813
X-0.4423 Y-0.2573
X0.0286 Y-0.519
X0.2596 Y-0.3804
G3 X0.2619 Y-0.3713 I-0.0034 J0.0057
G1 X0.2584 Y-0.3655
X0.2576 Y-0.364 Z-0.0391
X0.2567 Y-0.3627 Z-0.0385
X0.256 Y-0.3615 Z-0.0374
X0.2555 Y-0.3606 Z-0.036
X0.2551 Y-0.36 Z-0.0344
X0.255 Y-0.3598 Z-0.0327
G0 Z0.1969
X0.2435 Y-0.3667
G1 Z0.0214 F39.37
Z-0.0396 F13.12
X0.2436 Y-0.3669 Z-0.0413
X0.244 Y-0.3674 Z-0.0429
X0.2445 Y-0.3683 Z-0.0443
X0.2452 Y-0.3695 Z-0.0454
X0.2461 Y-0.3709 Z-0.046
X0.247 Y-0.3724 Z-0.0463
X0.2504 Y-0.3781 F39.37
G3 X0.2596 Y-0.3804 I0.0057 J0.0034
G1 X0.4906 Y-0.2419
X0.4817 Y0.2967
X0.0108 Y0.5583
X-0.4512 Y0.2813
X-0.4423 Y-0.2573
X0.0286 Y-0.519
X0.2596 Y-0.3804
G3 X0.2619 Y-0.3713 I-0.0034 J0.0057
G1 X0.2584 Y-0.3655
X0.2576 Y-0.364 Z-0.046
X0.2567 Y-0.3627 Z-0.0454
X0.256 Y-0.3615 Z-0.0443
X0.2555 Y-0.3606 Z-0.0429
X0.2551 Y-0.36 Z-0.0413
X0.255 Y-0.3598 Z-0.0396
G0 Z0.5906
M9
G28 G91 Z0
G28 X0 Y0
M30
%
