%
(test)
(ahhhh!)
(T2  D=0.0669 CR=0.0167 - ZMIN=-0.315 - bullnose end mill)
G90 G94
G17
G20
G28 G91 Z0
G90

(Face1)
M9
T2 M6
S5000 M3
G54
M8
G0 X0.2941 Y-0.9819
Z0.5906
Z0.1969
G1 Z-0.3083 F39.37
G18 G3 X0.2874 Z-0.315 I-0.0067
G1 X0.2692
X-0.2299
X-0.3304
G17 G2 Y-0.9504 J0.0158
G1 X0.3697
X0.4445
G3 Y-0.9189 J0.0158
G1 X-0.4052
X-0.4668
G2 Y-0.8874 J0.0158
G1 X0.5062
X0.5586
G3 Y-0.8559 J0.0158
G1 X-0.5193
X-0.5658
G2 Y-0.8244 J0.0158
G1 X0.6052
X0.6464
G3 Y-0.7929 J0.0158
G1 X-0.607
X-0.6442
G2 Y-0.7613 J0.0158
G1 X0.6836
X0.7175
G3 Y-0.7298 J0.0158
G1 X-0.6781
X-0.7091
G2 Y-0.6983 J0.0158
G1 X0.7485
X0.7769
G3 Y-0.6668 J0.0158
G1 X-0.7375
X-0.7637
G2 Y-0.6353 J0.0158
G1 X0.803
X0.827
G3 Y-0.6038 J0.0158
G1 X-0.7877
X-0.8098
G2 Y-0.5723 J0.0158
G1 X0.8491
X0.8695
G3 Y-0.5407 J0.0158
G1 X-0.8301
X-0.8488
G2 Y-0.5092 J0.0158
G1 X0.8882
X0.9054
G3 Y-0.4777 J0.0158
G1 X-0.866
X-0.8818
G2 Y-0.4462 J0.0158
G1 X0.9212
X0.9356
G3 Y-0.4147 J0.0158
G1 X-0.8962
X-0.9094
G2 Y-0.3832 J0.0158
G1 X0.9488
X0.9607
G3 Y-0.3517 J0.0158
G1 X-0.9214
X-0.9322
G2 Y-0.3201 J0.0158
G1 X0.9715
X0.9811
G3 Y-0.2886 J0.0158
G1 X-0.9417
X-0.9501
G2 Y-0.2571 J0.0158
G1 X0.9895
X0.9968
G3 Y-0.2256 J0.0158
G1 X-0.9574
X-0.9637
G2 Y-0.1941 J0.0158
G1 X1.0031
X1.0084
G3 Y-0.1626 J0.0158
G1 X-0.9691
X-0.9734
G2 Y-0.1311 J0.0158
G1 X1.0128
X1.0159
G3 Y-0.0995 J0.0158
G1 X-0.9765
X-0.9787
G2 Y-0.068 J0.0158
G1 X1.018
X1.0192
G3 Y-0.0365 J0.0158
G1 X-0.9799
X-0.9803
G2 Y-0.005 J0.0158
G1 X1.0197
G3 Y0.0265 J0.0158
G1 X-0.9803
G2 Y0.058 J0.0158
G1 X-0.9802
X1.0196
G3 Y0.0895 J0.0158
G1 X1.019
X-0.9796
G2 Y0.1211 J0.0158
G1 X-0.9779
X1.0172
G3 Y0.1526 J0.0158
G1 X1.0145
X-0.9752
G2 Y0.1841 J0.0158
G1 X-0.9715
X1.0109
G3 Y0.2156 J0.0158
G1 X1.0063
X-0.9669
G2 Y0.2471 J0.0158
G1 X-0.9613
X1.0007
G3 Y0.2786 J0.0158
G1 X0.9938
X-0.9544
G2 Y0.3102 J0.0158
G1 X-0.9465
X0.9859
G3 Y0.3417 J0.0158
G1 X0.977
X-0.9376
G2 Y0.3732 J0.0158
G1 X-0.9276
X0.9669
G3 Y0.4047 J0.0158
G1 X0.9558
X-0.9164
G2 Y0.4362 J0.0158
G1 X-0.904
X0.9434
G3 Y0.4677 J0.0158
G1 X0.9296
X-0.8902
G2 Y0.4992 J0.0158
G1 X-0.8752
X0.9145
G3 Y0.5308 J0.0158
G1 X0.8981
X-0.8587
G2 Y0.5623 J0.0158
G1 X-0.8408
X0.8802
G3 Y0.5938 J0.0158
G1 X0.8607
X-0.8213
G2 Y0.6253 J0.0158
G1 X-0.8002
X0.8396
G3 Y0.6568 J0.0158
G1 X0.8167
X-0.7773
G2 Y0.6883 J0.0158
G1 X-0.7524
X0.7918
G3 Y0.7198 J0.0158
G1 X0.7648
X-0.7254
G2 Y0.7514 J0.0158
G1 X-0.696
X0.7354
G3 Y0.7829 J0.0158
G1 X0.7033
X-0.6639
G2 Y0.8144 J0.0158
G1 X-0.6288
X0.6681
G3 Y0.8459 J0.0158
G1 X0.629
X-0.5896
G2 Y0.8774 J0.0158
G1 X-0.5462
X0.5856
G3 Y0.9089 J0.0158
G1 X0.5368
X-0.4975
G2 Y0.9404 J0.0158
G1 X-0.4413
X0.4806
G3 Y0.972 J0.0158
G1 X0.414
X-0.3746
G2 Y1.0035 J0.0158
G1 X-0.2915
X0.3308
G18 G2 X0.3375 Z-0.3083 K0.0067
G0 Z0.5906
G17
M9
G28 G91 Z0
G28 X0 Y0
M30
%
