%
(test3)
(ahhhh!!)
(T2  D=0.0669 CR=0.0167 - ZMIN=-0.374 - bullnose end mill)
G90 G94
G17
G20
G28 G91 Z0
G90

(2D Contour1)
M9
T2 M6
S5000 M3
G54
M8
G0 X0.9661 Y0.013
Z0.5906
Z0.1969
G1 Z0.0492 F39.37
Z-0.0031 F13.12
G18 G2 X0.9728 Z-0.0098 I0.0067
G1 X0.9795 F39.37
G17 G3 X0.9862 Y0.0197 J0.0067
X-0.9469 I-0.9665
X0.9862 I0.9665
X0.9795 Y0.0264 I-0.0067
G1 X0.9728
G18 G3 X0.9661 Z-0.0031 K0.0067
G0 Z0.1969
Y0.013
G1 Z0.0509 F39.37
Z-0.013 F13.12
G2 X0.9728 Z-0.0197 I0.0067
G1 X0.9795 F39.37
G17 G3 X0.9862 Y0.0197 J0.0067
X-0.9469 I-0.9665
X0.9862 I0.9665
X0.9795 Y0.0264 I-0.0067
G1 X0.9728
G18 G3 X0.9661 Z-0.013 K0.0067
G0 Z0.1969
Y0.013
G1 Z0.041 F39.37
Z-0.0228 F13.12
G2 X0.9728 Z-0.0295 I0.0067
G1 X0.9795 F39.37
G17 G3 X0.9862 Y0.0197 J0.0067
X-0.9469 I-0.9665
X0.9862 I0.9665
X0.9795 Y0.0264 I-0.0067
G1 X0.9728
G18 G3 X0.9661 Z-0.0228 K0.0067
G0 Z0.1969
Y0.013
G1 Z0.0312 F39.37
Z-0.0327 F13.12
G2 X0.9728 Z-0.0394 I0.0067
G1 X0.9795 F39.37
G17 G3 X0.9862 Y0.0197 J0.0067
X-0.9469 I-0.9665
X0.9862 I0.9665
X0.9795 Y0.0264 I-0.0067
G1 X0.9728
G18 G3 X0.9661 Z-0.0327 K0.0067
G0 Z0.1969
Y0.013
G1 Z0.0214 F39.37
Z-0.0425 F13.12
G2 X0.9728 Z-0.0492 I0.0067
G1 X0.9795 F39.37
G17 G3 X0.9862 Y0.0197 J0.0067
X-0.9469 I-0.9665
X0.9862 I0.9665
X0.9795 Y0.0264 I-0.0067
G1 X0.9728
G18 G3 X0.9661 Z-0.0425 K0.0067
G0 Z0.1969
Y0.013
G1 Z0.0115 F39.37
Z-0.0524 F13.12
G2 X0.9728 Z-0.0591 I0.0067
G1 X0.9795 F39.37
G17 G3 X0.9862 Y0.0197 J0.0067
X-0.9469 I-0.9665
X0.9862 I0.9665
X0.9795 Y0.0264 I-0.0067
G1 X0.9728
G18 G3 X0.9661 Z-0.0524 K0.0067
G0 Z0.1969
Y0.013
G1 Z0.0017 F39.37
Z-0.0622 F13.12
G2 X0.9728 Z-0.0689 I0.0067
G1 X0.9795 F39.37
G17 G3 X0.9862 Y0.0197 J0.0067
X-0.9469 I-0.9665
X0.9862 I0.9665
X0.9795 Y0.0264 I-0.0067
G1 X0.9728
G18 G3 X0.9661 Z-0.0622 K0.0067
G0 Z0.1969
Y0.013
G1 Z-0.0082 F39.37
Z-0.072 F13.12
G2 X0.9728 Z-0.0787 I0.0067
G1 X0.9795 F39.37
G17 G3 X0.9862 Y0.0197 J0.0067
X-0.9469 I-0.9665
X0.9862 I0.9665
X0.9795 Y0.0264 I-0.0067
G1 X0.9728
G18 G3 X0.9661 Z-0.072 K0.0067
G0 Z0.1969
Y0.013
G1 Z-0.018 F39.37
Z-0.0819 F13.12
G2 X0.9728 Z-0.0886 I0.0067
G1 X0.9795 F39.37
G17 G3 X0.9862 Y0.0197 J0.0067
X-0.9469 I-0.9665
X0.9862 I0.9665
X0.9795 Y0.0264 I-0.0067
G1 X0.9728
G18 G3 X0.9661 Z-0.0819 K0.0067
G0 Z0.1969
Y0.013
G1 Z-0.0279 F39.37
Z-0.0917 F13.12
G2 X0.9728 Z-0.0984 I0.0067
G1 X0.9795 F39.37
G17 G3 X0.9862 Y0.0197 J0.0067
X-0.9469 I-0.9665
X0.9862 I0.9665
X0.9795 Y0.0264 I-0.0067
G1 X0.9728
G18 G3 X0.9661 Z-0.0917 K0.0067
G0 Z0.1969
Y0.013
G1 Z-0.0377 F39.37
Z-0.1016 F13.12
G2 X0.9728 Z-0.1083 I0.0067
G1 X0.9795 F39.37
G17 G3 X0.9862 Y0.0197 J0.0067
X-0.9469 I-0.9665
X0.9862 I0.9665
X0.9795 Y0.0264 I-0.0067
G1 X0.9728
G18 G3 X0.9661 Z-0.1016 K0.0067
G0 Z0.1969
Y0.013
G1 Z-0.0475 F39.37
Z-0.1114 F13.12
G2 X0.9728 Z-0.1181 I0.0067
G1 X0.9795 F39.37
G17 G3 X0.9862 Y0.0197 J0.0067
X-0.9469 I-0.9665
X0.9862 I0.9665
X0.9795 Y0.0264 I-0.0067
G1 X0.9728
G18 G3 X0.9661 Z-0.1114 K0.0067
G0 Z0.1969
Y0.013
G1 Z-0.0574 F39.37
Z-0.1213 F13.12
G2 X0.9728 Z-0.128 I0.0067
G1 X0.9795 F39.37
G17 G3 X0.9862 Y0.0197 J0.0067
X-0.9469 I-0.9665
X0.9862 I0.9665
X0.9795 Y0.0264 I-0.0067
G1 X0.9728
G18 G3 X0.9661 Z-0.1213 K0.0067
G0 Z0.1969
Y0.013
G1 Z-0.0672 F39.37
Z-0.1311 F13.12
G2 X0.9728 Z-0.1378 I0.0067
G1 X0.9795 F39.37
G17 G3 X0.9862 Y0.0197 J0.0067
X-0.9469 I-0.9665
X0.9862 I0.9665
X0.9795 Y0.0264 I-0.0067
G1 X0.9728
G18 G3 X0.9661 Z-0.1311 K0.0067
G0 Z0.1969
Y0.013
G1 Z-0.0771 F39.37
Z-0.1409 F13.12
G2 X0.9728 Z-0.1476 I0.0067
G1 X0.9795 F39.37
G17 G3 X0.9862 Y0.0197 J0.0067
X-0.9469 I-0.9665
X0.9862 I0.9665
X0.9795 Y0.0264 I-0.0067
G1 X0.9728
G18 G3 X0.9661 Z-0.1409 K0.0067
G0 Z0.1969
Y0.013
G1 Z-0.0869 F39.37
Z-0.1508 F13.12
G2 X0.9728 Z-0.1575 I0.0067
G1 X0.9795 F39.37
G17 G3 X0.9862 Y0.0197 J0.0067
X-0.9469 I-0.9665
X0.9862 I0.9665
X0.9795 Y0.0264 I-0.0067
G1 X0.9728
G18 G3 X0.9661 Z-0.1508 K0.0067
G0 Z0.1969
Y0.013
G1 Z-0.0968 F39.37
Z-0.1606 F13.12
G2 X0.9728 Z-0.1673 I0.0067
G1 X0.9795 F39.37
G17 G3 X0.9862 Y0.0197 J0.0067
X-0.9469 I-0.9665
X0.9862 I0.9665
X0.9795 Y0.0264 I-0.0067
G1 X0.9728
G18 G3 X0.9661 Z-0.1606 K0.0067
G0 Z0.1969
Y0.013
G1 Z-0.1066 F39.37
Z-0.1705 F13.12
G2 X0.9728 Z-0.1772 I0.0067
G1 X0.9795 F39.37
G17 G3 X0.9862 Y0.0197 J0.0067
X-0.9469 I-0.9665
X0.9862 I0.9665
X0.9795 Y0.0264 I-0.0067
G1 X0.9728
G18 G3 X0.9661 Z-0.1705 K0.0067
G0 Z0.1969
Y0.013
G1 Z-0.1164 F39.37
Z-0.1803 F13.12
G2 X0.9728 Z-0.187 I0.0067
G1 X0.9795 F39.37
G17 G3 X0.9862 Y0.0197 J0.0067
X-0.9469 I-0.9665
X0.9862 I0.9665
X0.9795 Y0.0264 I-0.0067
G1 X0.9728
G18 G3 X0.9661 Z-0.1803 K0.0067
G0 Z0.1969
Y0.013
G1 Z-0.1263 F39.37
Z-0.1902 F13.12
G2 X0.9728 Z-0.1969 I0.0067
G1 X0.9795 F39.37
G17 G3 X0.9862 Y0.0197 J0.0067
X-0.9469 I-0.9665
X0.9862 I0.9665
X0.9795 Y0.0264 I-0.0067
G1 X0.9728
G18 G3 X0.9661 Z-0.1902 K0.0067
G0 Z0.1969
Y0.013
G1 Z-0.1361 F39.37
Z-0.2 F13.12
G2 X0.9728 Z-0.2067 I0.0067
G1 X0.9795 F39.37
G17 G3 X0.9862 Y0.0197 J0.0067
X-0.9469 I-0.9665
X0.9862 I0.9665
X0.9795 Y0.0264 I-0.0067
G1 X0.9728
G18 G3 X0.9661 Z-0.2 K0.0067
G0 Z0.1969
Y0.013
G1 Z-0.146 F39.37
Z-0.2098 F13.12
G2 X0.9728 Z-0.2165 I0.0067
G1 X0.9795 F39.37
G17 G3 X0.9862 Y0.0197 J0.0067
X-0.9469 I-0.9665
X0.9862 I0.9665
X0.9795 Y0.0264 I-0.0067
G1 X0.9728
G18 G3 X0.9661 Z-0.2098 K0.0067
G0 Z0.1969
Y0.013
G1 Z-0.1558 F39.37
Z-0.2197 F13.12
G2 X0.9728 Z-0.2264 I0.0067
G1 X0.9795 F39.37
G17 G3 X0.9862 Y0.0197 J0.0067
X-0.9469 I-0.9665
X0.9862 I0.9665
X0.9795 Y0.0264 I-0.0067
G1 X0.9728
G18 G3 X0.9661 Z-0.2197 K0.0067
G0 Z0.1969
Y0.013
G1 Z-0.1657 F39.37
Z-0.2295 F13.12
G2 X0.9728 Z-0.2362 I0.0067
G1 X0.9795 F39.37
G17 G3 X0.9862 Y0.0197 J0.0067
X-0.9469 I-0.9665
X0.9862 I0.9665
X0.9795 Y0.0264 I-0.0067
G1 X0.9728
G18 G3 X0.9661 Z-0.2295 K0.0067
G0 Z0.1969
Y0.013
G1 Z-0.1755 F39.37
Z-0.2394 F13.12
G2 X0.9728 Z-0.2461 I0.0067
G1 X0.9795 F39.37
G17 G3 X0.9862 Y0.0197 J0.0067
X-0.9469 I-0.9665
X0.9862 I0.9665
X0.9795 Y0.0264 I-0.0067
G1 X0.9728
G18 G3 X0.9661 Z-0.2394 K0.0067
G0 Z0.1969
Y0.013
G1 Z-0.1853 F39.37
Z-0.2492 F13.12
G2 X0.9728 Z-0.2559 I0.0067
G1 X0.9795 F39.37
G17 G3 X0.9862 Y0.0197 J0.0067
X-0.9469 I-0.9665
X0.9862 I0.9665
X0.9795 Y0.0264 I-0.0067
G1 X0.9728
G18 G3 X0.9661 Z-0.2492 K0.0067
G0 Z0.1969
Y0.013
G1 Z-0.1952 F39.37
Z-0.2591 F13.12
G2 X0.9728 Z-0.2657 I0.0067
G1 X0.9795 F39.37
G17 G3 X0.9862 Y0.0197 J0.0067
X-0.9469 I-0.9665
X0.9862 I0.9665
X0.9795 Y0.0264 I-0.0067
G1 X0.9728
G18 G3 X0.9661 Z-0.2591 K0.0067
G0 Z0.1969
Y0.013
G1 Z-0.205 F39.37
Z-0.2689 F13.12
G2 X0.9728 Z-0.2756 I0.0067
G1 X0.9795 F39.37
G17 G3 X0.9862 Y0.0197 J0.0067
X-0.9469 I-0.9665
X0.9862 I0.9665
X0.9795 Y0.0264 I-0.0067
G1 X0.9728
G18 G3 X0.9661 Z-0.2689 K0.0067
G0 Z0.1969
Y0.013
G1 Z-0.2149 F39.37
Z-0.2787 F13.12
G2 X0.9728 Z-0.2854 I0.0067
G1 X0.9795 F39.37
G17 G3 X0.9862 Y0.0197 J0.0067
X-0.9469 I-0.9665
X0.9862 I0.9665
X0.9795 Y0.0264 I-0.0067
G1 X0.9728
G18 G3 X0.9661 Z-0.2787 K0.0067
G0 Z0.1969
Y0.013
G1 Z-0.2247 F39.37
Z-0.2886 F13.12
G2 X0.9728 Z-0.2953 I0.0067
G1 X0.9795 F39.37
G17 G3 X0.9862 Y0.0197 J0.0067
X-0.9469 I-0.9665
X0.9862 I0.9665
X0.9795 Y0.0264 I-0.0067
G1 X0.9728
G18 G3 X0.9661 Z-0.2886 K0.0067
G0 Z0.1969
Y0.013
G1 Z-0.2346 F39.37
Z-0.2984 F13.12
G2 X0.9728 Z-0.3051 I0.0067
G1 X0.9795 F39.37
G17 G3 X0.9862 Y0.0197 J0.0067
X-0.9469 I-0.9665
X0.9862 I0.9665
X0.9795 Y0.0264 I-0.0067
G1 X0.9728
G18 G3 X0.9661 Z-0.2984 K0.0067
G0 Z0.1969
Y0.013
G1 Z-0.2444 F39.37
Z-0.3083 F13.12
G2 X0.9728 Z-0.315 I0.0067
G1 X0.9795 F39.37
G17 G3 X0.9862 Y0.0197 J0.0067
X-0.9469 I-0.9665
X0.9862 I0.9665
X0.9795 Y0.0264 I-0.0067
G1 X0.9728
G18 G3 X0.9661 Z-0.3083 K0.0067
G0 Z0.1969
Y0.013
G1 Z-0.2542 F39.37
Z-0.3181 F13.12
G2 X0.9728 Z-0.3248 I0.0067
G1 X0.9795 F39.37
G17 G3 X0.9862 Y0.0197 J0.0067
X-0.9469 I-0.9665
X0.9862 I0.9665
X0.9795 Y0.0264 I-0.0067
G1 X0.9728
G18 G3 X0.9661 Z-0.3181 K0.0067
G0 Z0.1969
Y0.013
G1 Z-0.2641 F39.37
Z-0.328 F13.12
G2 X0.9728 Z-0.3346 I0.0067
G1 X0.9795 F39.37
G17 G3 X0.9862 Y0.0197 J0.0067
X-0.9469 I-0.9665
X0.9862 I0.9665
X0.9795 Y0.0264 I-0.0067
G1 X0.9728
G18 G3 X0.9661 Z-0.328 K0.0067
G0 Z0.1969
Y0.013
G1 Z-0.2739 F39.37
Z-0.3378 F13.12
G2 X0.9728 Z-0.3445 I0.0067
G1 X0.9795 F39.37
G17 G3 X0.9862 Y0.0197 J0.0067
X-0.9469 I-0.9665
X0.9862 I0.9665
X0.9795 Y0.0264 I-0.0067
G1 X0.9728
G18 G3 X0.9661 Z-0.3378 K0.0067
G0 Z0.1969
Y0.013
G1 Z-0.2838 F39.37
Z-0.3476 F13.12
G2 X0.9728 Z-0.3543 I0.0067
G1 X0.9795 F39.37
G17 G3 X0.9862 Y0.0197 J0.0067
X-0.9469 I-0.9665
X0.9862 I0.9665
X0.9795 Y0.0264 I-0.0067
G1 X0.9728
G18 G3 X0.9661 Z-0.3476 K0.0067
G0 Z0.1969
Y0.013
G1 Z-0.2936 F39.37
Z-0.3575 F13.12
G2 X0.9728 Z-0.3642 I0.0067
G1 X0.9795 F39.37
G17 G3 X0.9862 Y0.0197 J0.0067
X-0.9469 I-0.9665
X0.9862 I0.9665
X0.9795 Y0.0264 I-0.0067
G1 X0.9728
G18 G3 X0.9661 Z-0.3575 K0.0067
G0 Z0.1969
Y0.013
G1 Z-0.3035 F39.37
Z-0.3673 F13.12
G2 X0.9728 Z-0.374 I0.0067
G1 X0.9795 F39.37
G17 G3 X0.9862 Y0.0197 J0.0067
X-0.9469 I-0.9665
X0.9862 I0.9665
X0.9795 Y0.0264 I-0.0067
G1 X0.9728
G18 G3 X0.9661 Z-0.3673 K0.0067
G0 Z0.5906
G17
M9
G28 G91 Z0
G28 X0 Y0
M30
%
