%
(test6 Tab Test)
(ahhhh!!!!)
(T1  D=1.798 CR=0.45 - ZMIN=-1.5 - bullnose end mill)
G90 G94
G17
G21
G28 G91 Z0
G90

(2D Contour1)
M9
T1 M6
S5000 M3
G54
M8
G0 X0.68 Y-30.268
Z15
Z5
G1 Z2 F1000
Z-0.82 F333.3
G19 G3 Y-30.088 Z-1 J0.18
G1 Y-29.908 F1000
G17 G3 X0.5 Y-29.728 I-0.18
G2 X0.05 Y-29.608 J0.899
G1 X-25.35 Y-14.943
G2 X-25.799 Y-14.165 I0.45 J0.779
G1 Y15.165
G2 X-25.35 Y15.943 I0.899
G1 X0.05 Y30.608
G2 X0.95 I0.45 J-0.779
G1 X26.35 Y15.943
G2 X26.799 Y15.165 I-0.45 J-0.779
G1 Y-14.165
G2 X26.35 Y-14.943 I-0.899
G1 X0.95 Y-29.608
G2 X0.5 Y-29.728 I-0.45 J0.779
G3 X0.32 Y-29.908 J-0.18
G1 Y-30.088
G19 G2 Y-30.268 Z-0.82 K0.18
G0 Z5
X0.68
G1 Z1.31 F1000
Z-1.32 F333.3
G3 Y-30.088 Z-1.5 J0.18
G1 Y-29.908 F1000
G17 G3 X0.5 Y-29.728 I-0.18
G2 X0.05 Y-29.608 J0.899
G1 X-4.655 Y-26.891
Z-1.051
X-7.944 Y-24.992
Z-1.5 F333.3
X-17.355 Y-19.559 F1000
Z-1.051
X-20.644 Y-17.66
Z-1.5 F333.3
X-25.35 Y-14.943 F1000
G2 X-25.799 Y-14.165 I0.45 J0.779
G1 Y-8.731
Z-1.051
Y-4.933
Z-1.5 F333.3
Y5.933 F1000
Z-1.051
Y9.731
Z-1.5 F333.3
Y15.165 F1000
G2 X-25.35 Y15.943 I0.899
G1 X-20.644 Y18.66
Z-1.051
X-17.355 Y20.559
Z-1.5 F333.3
X-7.944 Y25.992 F1000
Z-1.051
X-4.655 Y27.891
Z-1.5 F333.3
X0.05 Y30.608 F1000
G2 X0.95 I0.45 J-0.779
G1 X5.655 Y27.891
Z-1.051
X8.944 Y25.992
Z-1.5 F333.3
X18.355 Y20.559 F1000
Z-1.051
X21.644 Y18.66
Z-1.5 F333.3
X26.35 Y15.943 F1000
G2 X26.799 Y15.165 I-0.45 J-0.779
G1 Y9.731
Z-1.051
Y5.933
Z-1.5 F333.3
Y-4.933 F1000
Z-1.051
Y-8.731
Z-1.5 F333.3
Y-14.165 F1000
G2 X26.35 Y-14.943 I-0.899
G1 X21.644 Y-17.66
Z-1.051
X18.355 Y-19.559
Z-1.5 F333.3
X8.944 Y-24.992 F1000
Z-1.051
X5.655 Y-26.891
Z-1.5 F333.3
X0.95 Y-29.608 F1000
G2 X0.5 Y-29.728 I-0.45 J0.779
G3 X0.32 Y-29.908 J-0.18
G1 Y-30.088
G19 G2 Y-30.268 Z-1.32 K0.18
G0 Z15
G17
M9
G28 G91 Z0
G28 X0 Y0
M30
%
