%
(test5 modified)
(ahhhh!!!)
(T2  D=0.0669 CR=0.0167 - ZMIN=-0.1772 - bullnose end mill)
G90 G94
G17
G20
G28 G91 Z0
G90

(2D Contour2)
M9
T2 M6
S5000 M3
G54
M8
G0 X1.1194 Y-1.0585
Z0.5906
Z0.1969
G1 Z0.0394 F39.37
Z-0.1705 F13.12
X1.1196 Z-0.1722
X1.1203 Z-0.1738
X1.1214 Z-0.1752
X1.1228 Z-0.1763
X1.1244 Y-1.0586 Z-0.1769
X1.1261 Z-0.1772
X1.1328 Y-1.0587 F39.37
G3 X1.1396 Y-1.052 I0.0001 J0.0067
G1 X1.1425 Y-0.7827
X0.6789 Y-0.5083
X0.2095 Y-0.7725
X0.2036 Y-1.3112
X0.6672 Y-1.5856
X1.1366 Y-1.3214
X1.1396 Y-1.052
G3 X1.1329 Y-1.0453 I-0.0067 J0.0001
G1 X1.1262 Y-1.0452
X1.1245 Z-0.1769
X1.1229 Z-0.1763
X1.1215 Y-1.0451 Z-0.1752
X1.1205 Z-0.1738
X1.1198 Z-0.1722
X1.1196 Z-0.1705
G0 Z0.1969
X1.7592 Y0.0153
G1 Z0.0394 F39.37
Z-0.1705 F13.12
X1.7595 Z-0.1722
X1.7601 Z-0.1738
X1.7612 Z-0.1752
X1.7626 Z-0.1763
X1.7642 Z-0.1769
X1.7659 Z-0.1772
X1.7726 Y0.0152 F39.37
G3 X1.7794 Y0.0218 I0.0001 J0.0067
G1 X1.7823 Y0.2911
X1.3188 Y0.5656
X0.8493 Y0.3013
X0.8434 Y-0.2374
X1.307 Y-0.5118
X1.7764 Y-0.2475
X1.7794 Y0.0218
G3 X1.7728 Y0.0286 I-0.0067 J0.0001
G1 X1.7661
X1.7643 Y0.0287 Z-0.1769
X1.7627 Z-0.1763
X1.7613 Z-0.1752
X1.7603 Z-0.1738
X1.7596 Z-0.1722
X1.7594 Z-0.1705
G0 Z0.1969
X0.2424 Y0.4067
G1 Z0.0394 F39.37
Z-0.1705 F13.12
X0.2425 Y0.4069 Z-0.1722
X0.2428 Y0.4075 Z-0.1738
X0.2433 Y0.4084 Z-0.1752
X0.244 Y0.4096 Z-0.1763
X0.2448 Y0.411 Z-0.1769
X0.2456 Y0.4126 Z-0.1772
X0.2489 Y0.4184 F39.37
G3 X0.2463 Y0.4275 I-0.0059 J0.0033
G1 X0.0108 Y0.5583
X-0.4512 Y0.2813
X-0.4423 Y-0.2573
X0.0286 Y-0.519
X0.4906 Y-0.2419
X0.4817 Y0.2967
X0.2463 Y0.4275
G3 X0.2372 Y0.4249 I-0.0033 J-0.0059
G1 X0.2339 Y0.4191
X0.2331 Y0.4175 Z-0.1769
X0.2323 Y0.4161 Z-0.1763
X0.2316 Y0.4149 Z-0.1752
X0.2311 Y0.414 Z-0.1738
X0.2308 Y0.4134 Z-0.1722
X0.2307 Y0.4132 Z-0.1705
G0 Z0.5906
M9
G28 G91 Z0
G28 X0 Y0
M30
%
