%
(test7 Tab Test)
(ahhhh!!!!)
(T1  D=2 CR=0.45 - ZMIN=-4 - bullnose end mill)
G90 G94
G17
G21
G28 G91 Z0
G90

(2D Contour1)
M9
T1 M6
S5000 M3
G54
M8
G0 X0.7 Y-30.429
Z15
Z5
G1 Z2 F1000
Z-0.8 F333.3
G19 G3 Y-30.229 Z-1 J0.2
G1 Y-30.029 F1000
G17 G3 X0.5 Y-29.829 I-0.2
G2 X0 Y-29.695 J1 F800
G1 X-25.4 Y-15.031
G2 X-25.9 Y-14.165 I0.5 J0.866
G1 Y15.165
G2 X-25.4 Y16.031 I1
G1 X0 Y30.695
G2 X1 I0.5 J-0.866
G1 X26.4 Y16.031
G2 X26.9 Y15.165 I-0.5 J-0.866
G1 Y-14.165
G2 X26.4 Y-15.031 I-1
G1 X1 Y-29.695
G2 X0.5 Y-29.829 I-0.5 J0.866
G3 X0.3 Y-30.029 J-0.2 F1000
G1 Y-30.229
G19 G2 Y-30.429 Z-0.8 K0.2
G0 Z5
X0.7
G1 Z1.302 F1000
Z-1.8 F333.3
G3 Y-30.229 Z-2 J0.2
G1 Y-30.029 F1000
G17 G3 X0.5 Y-29.829 I-0.2
G2 X0 Y-29.695 J1 F800
G1 X-25.4 Y-15.031
G2 X-25.9 Y-14.165 I0.5 J0.866
G1 Y15.165
G2 X-25.4 Y16.031 I1
G1 X0 Y30.695
G2 X1 I0.5 J-0.866
G1 X26.4 Y16.031
G2 X26.9 Y15.165 I-0.5 J-0.866
G1 Y-14.165
G2 X26.4 Y-15.031 I-1
G1 X1 Y-29.695
G2 X0.5 Y-29.829 I-0.5 J0.866
G3 X0.3 Y-30.029 J-0.2 F1000
G1 Y-30.229
G19 G2 Y-30.429 Z-1.8 K0.2
G0 Z5
X0.7
G1 Z0.302 F1000
Z-2.8 F333.3
G3 Y-30.229 Z-3 J0.2
G1 Y-30.029 F1000
G17 G3 X0.5 Y-29.829 I-0.2
G2 X0 Y-29.695 J1 F800
G1 X-25.4 Y-15.031
G2 X-25.9 Y-14.165 I0.5 J0.866
G1 Y15.165
G2 X-25.4 Y16.031 I1
G1 X0 Y30.695
G2 X1 I0.5 J-0.866
G1 X26.4 Y16.031
G2 X26.9 Y15.165 I-0.5 J-0.866
G1 Y-14.165
G2 X26.4 Y-15.031 I-1
G1 X1 Y-29.695
G2 X0.5 Y-29.829 I-0.5 J0.866
G3 X0.3 Y-30.029 J-0.2 F1000
G1 Y-30.229
G19 G2 Y-30.429 Z-2.8 K0.2
G0 Z5
X0.7
G1 Z-0.698 F1000
Z-3.8 F333.3
G3 Y-30.229 Z-4 J0.2
G1 Y-30.029 F1000
G17 G3 X0.5 Y-29.829 I-0.2
G2 X0 Y-29.695 J1 F800
G1 X-10.968 Y-23.363
Z-3.5
X-14.432 Y-21.363
Z-4 F333.3
X-25.4 Y-15.031 F800
G2 X-25.9 Y-14.165 I0.5 J0.866
G1 Y-1.5
Z-3.5
Y2.5
Z-4 F333.3
Y15.165 F800
G2 X-25.4 Y16.031 I1
G1 X-14.432 Y22.363
Z-3.5
X-10.968 Y24.363
Z-4 F333.3
X0 Y30.695 F800
G2 X1 I0.5 J-0.866
G1 X11.968 Y24.363
Z-3.5
X15.432 Y22.363
Z-4 F333.3
X26.4 Y16.031 F800
G2 X26.9 Y15.165 I-0.5 J-0.866
G1 Y2.5
Z-3.5
Y-1.5
Z-4 F333.3
Y-14.165 F800
G2 X26.4 Y-15.031 I-1
G1 X15.432 Y-21.363
Z-3.5
X11.968 Y-23.363
Z-4 F333.3
X1 Y-29.695 F800
G2 X0.5 Y-29.829 I-0.5 J0.866
G3 X0.3 Y-30.029 J-0.2 F1000
G1 Y-30.229
G19 G2 Y-30.429 Z-3.8 K0.2
G0 Z15
G17
M9
G28 G91 Z0
G28 X0 Y0
M30
%
