%
(Token Grid)
(T4  D=0.01 CR=0 - ZMIN=0 - flat end mill)
G90 G94
G17
G20
G28 G91 Z0
G90

(2D Contour1)
M9
T4 M6
S5000 M3
G54
M8
G0 X-2.951 Y0.008
Z0.6
Z0.2
G1 Z0.0394 F13.33
Z0.001
G19 G2 Y0.007 Z0 J-0.001
G1 Y0.006 F40
G17 G3 X-2.95 Y0.005 I0.001
G1 X2.95
G3 X2.951 Y0.006 J0.001
G1 Y0.007
G19 G3 Y0.008 Z0.001 K0.001
G0 Z0.6
G17

(2D Contour2)
M8
G0 X0.008 Y0.551
Z0.6
Z0.2
G1 Z0.0394 F13.33
Z0.001
G18 G3 X0.007 Z0 I-0.001
G1 X0.006 F40
G17 G3 X0.005 Y0.55 J-0.001
G1 Y-0.55
G3 X0.006 Y-0.551 I0.001
G1 X0.007
G18 G2 X0.008 Z0.001 K0.001
G0 Z0.2
X1.208 Y0.551
G1 Z0.0394 F13.33
Z0.001
G3 X1.207 Z0 I-0.001
G1 X1.206 F40
G17 G3 X1.205 Y0.55 J-0.001
G1 Y-0.55
G3 X1.206 Y-0.551 I0.001
G1 X1.207
G18 G2 X1.208 Z0.001 K0.001
G0 Z0.2
X2.408 Y0.551
G1 Z0.0394 F13.33
Z0.001
G3 X2.407 Z0 I-0.001
G1 X2.406 F40
G17 G3 X2.405 Y0.55 J-0.001
G1 Y-0.55
G3 X2.406 Y-0.551 I0.001
G1 X2.407
G18 G2 X2.408 Z0.001 K0.001
G0 Z0.2
X-1.192 Y0.551
G1 Z0.0394 F13.33
Z0.001
G3 X-1.193 Z0 I-0.001
G1 X-1.194 F40
G17 G3 X-1.195 Y0.55 J-0.001
G1 Y-0.55
G3 X-1.194 Y-0.551 I0.001
G1 X-1.193
G18 G2 X-1.192 Z0.001 K0.001
G0 Z0.2
X-2.392 Y0.551
G1 Z0.0394 F13.33
Z0.001
G3 X-2.393 Z0 I-0.001
G1 X-2.394 F40
G17 G3 X-2.395 Y0.55 J-0.001
G1 Y-0.55
G3 X-2.394 Y-0.551 I0.001
G1 X-2.393
G18 G2 X-2.392 Z0.001 K0.001
G0 Z0.6
G17
M9
G28 G91 Z0
G28 X0 Y0
M30
%
