%
(Token Gride Circles)
(T4  D=0.01 CR=0 - ZMIN=0 - flat end mill)
G90 G94
G17
G20
G28 G91 Z0
G90

(2D Contour3)
M9
T4 M6
S5000 M3
G54
M8
G0 X0.492 Y-0.001
Z0.6
Z0.2
G1 Z0.0394 F13.33
Z0.001
G18 G2 X0.493 Z0 I0.001
G1 X0.494 F40
G17 G3 X0.495 Y0 J0.001
X-0.495 I-0.495
X0.495 I0.495
X0.494 Y0.001 I-0.001
G1 X0.493
G18 G3 X0.492 Z0.001 K0.001
G0 Z0.2
X1.692 Y-0.001
G1 Z0.0394 F13.33
Z0.001
G2 X1.693 Z0 I0.001
G1 X1.694 F40
G17 G3 X1.695 Y0 J0.001
X0.705 I-0.495
X1.695 I0.495
X1.694 Y0.001 I-0.001
G1 X1.693
G18 G3 X1.692 Z0.001 K0.001
G0 Z0.2
X2.8708 Y0.1429
G1 Z0.0394 F13.33
Z0.001
X2.8711 Y0.143 Z0.0003
X2.8718 Y0.1432 Z0
X2.8727 Y0.1435 F40
G17 G3 X2.8734 Y0.1447 I-0.0003 J0.001
X1.9266 Y-0.1447 I-0.4734 J-0.1447
X2.8734 Y0.1447 I0.4734 J0.1447
X2.8721 Y0.1454 I-0.001 J-0.0003
G1 X2.8712 Y0.1451
X2.8705 Y0.1449 Z0.0003
X2.8702 Y0.1448 Z0.001
G0 Z0.2
X-0.7292 Y0.1429
G1 Z0.0394 F13.33
Z0.001
X-0.7289 Y0.143 Z0.0003
X-0.7282 Y0.1432 Z0
X-0.7273 Y0.1435 F40
G3 X-0.7266 Y0.1447 I-0.0003 J0.001
X-1.6734 Y-0.1447 I-0.4734 J-0.1447
X-0.7266 Y0.1447 I0.4734 J0.1447
X-0.7279 Y0.1454 I-0.001 J-0.0003
G1 X-0.7288 Y0.1451
X-0.7295 Y0.1449 Z0.0003
X-0.7298 Y0.1448 Z0.001
G0 Z0.2
X-1.908 Y-0.001
G1 Z0.0394 F13.33
Z0.001
G18 G2 X-1.907 Z0 I0.001
G1 X-1.906 F40
G17 G3 X-1.905 Y0 J0.001
X-2.895 I-0.495
X-1.905 I0.495
X-1.906 Y0.001 I-0.001
G1 X-1.907
G18 G3 X-1.908 Z0.001 K0.001
G0 Z0.6
G17
M9
G28 G91 Z0
G28 X0 Y0
M30
%
