%
(WHEN CUTTING)
(T4  D=0.01 CR=0 - ZMIN=-0.0197 - flat end mill)
G90 G94
G17
G20
G28 G91 Z0
G90

(2D Contour2)
M9
T4 M6
S5000 M3
G54
M8
G0 X4.5918 Y0.2697
Z0.6
Z0.2
G1 Z0.0394 F13.33
Z-0.0187
X4.5921 Z-0.0194
X4.5928 Y0.2698 Z-0.0197
X4.5938 Y0.2699 F40
G3 X4.5947 Y0.271 I-0.0001 J0.001
G1 X4.5946 Y0.2723
X4.5945 Y0.2727
X4.5944 Y0.2775
Y0.2776
Y0.4478
X4.524
Y0.2775
X4.5243 Y0.2649
X4.5257 Y0.2524
X4.5279 Y0.2402
X4.5314 Y0.2283
X4.5351 Y0.2194
X4.5397 Y0.2111
X4.5452 Y0.2033
X4.5517 Y0.1963
X4.5591 Y0.1901
X4.5673 Y0.185
X4.5762 Y0.181
X4.5855 Y0.178
X4.5951 Y0.176
X4.605 Y0.1749
X4.615 Y0.1745
X4.625 Y0.1748
X4.635 Y0.176
X4.6447 Y0.178
X4.6542 Y0.1809
X4.6633 Y0.1848
X4.6717 Y0.1896
X4.6794 Y0.1954
X4.6866 Y0.202
X4.6929 Y0.2093
X4.6986 Y0.2174
X4.7033 Y0.2261
X4.7069 Y0.2353
X4.7097 Y0.2449
X4.7116 Y0.2547
X4.7127 Y0.2647
X4.713 Y0.2749
Y0.4478
X4.6426
Y0.2776
Y0.2775
X4.6425 Y0.2727
Y0.2723
X4.6419 Y0.2676
G2 Y0.2671 I-0.005 J0.0005
G1 X4.6408 Y0.2624
G2 X4.6406 Y0.2617 I-0.0049 J0.0011
G1 X4.6389 Y0.2573
G2 X4.6385 Y0.2565 I-0.0047 J0.0018
G1 X4.6369 Y0.2538
G2 X4.6364 Y0.2531 I-0.0043 J0.0026
G1 X4.6343 Y0.2507
G2 X4.6335 Y0.2499 I-0.0038 J0.0033
G1 X4.6309 Y0.2481
G2 X4.6298 Y0.2474 I-0.003 J0.004
G1 X4.6253 Y0.2457
G2 X4.624 Y0.2454 I-0.0018 J0.0047
G1 X4.6193 Y0.2449
G2 X4.6184 I-0.0005 J0.005
G1 X4.6153 Y0.2451
G2 X4.6146 Y0.2452 I0.0003 J0.005
G1 X4.6114 Y0.2459
G2 X4.6105 Y0.2462 I0.001 J0.0049
G1 X4.6075 Y0.2474
G2 X4.6064 Y0.2481 I0.002 J0.0046
G1 X4.6026 Y0.251
G2 X4.6016 Y0.2521 I0.0031 J0.004
G1 X4.5989 Y0.256
G2 X4.5983 Y0.257 I0.0041 J0.0029
G1 X4.5965 Y0.2615
G2 X4.5963 Y0.2622 I0.0046 J0.0019
G1 X4.5952 Y0.2669
G2 X4.5951 Y0.2675 I0.0049 J0.0011
G1 X4.5947 Y0.271
G3 X4.5936 Y0.2719 I-0.001 J-0.0001
G1 X4.5926 Y0.2718
X4.5919 Y0.2717 Z-0.0194
X4.5916 Z-0.0187
G0 Z0.2
X4.4631 Y0.2553
G1 Z0.0394 F13.33
Z-0.0187
X4.4634 Y0.2552 Z-0.0194
X4.464 Y0.2549 Z-0.0197
X4.4649 Y0.2545 F40
G3 X4.4663 Y0.255 I0.0004 J0.0009
G1 X4.4676 Y0.2581
X4.4722 Y0.2709
X4.4759 Y0.2842
X4.4787 Y0.2976
X4.4799 Y0.3058
X4.4044 Y0.3078
X4.404 Y0.3046
X4.4039 Y0.3042
X4.4024 Y0.2966
X4.4023 Y0.2963
X4.4003 Y0.2888
G2 X4.4002 Y0.2884 I-0.0048 J0.0013
G1 X4.3974 Y0.2811
G2 X4.3972 Y0.2806 I-0.0047 J0.0018
G1 X4.3936 Y0.2737
G2 X4.3933 Y0.2732 I-0.0044 J0.0023
G1 X4.3889 Y0.2668
G2 X4.3885 Y0.2663 I-0.0041 J0.0028
G1 X4.3833 Y0.2606
G2 X4.3827 Y0.26 I-0.0037 J0.0034
G1 X4.376 Y0.2548
G2 X4.3753 Y0.2543 I-0.0031 J0.0039
G1 X4.3678 Y0.2502
G2 X4.367 Y0.2499 I-0.0024 J0.0044
G1 X4.359 Y0.2471
G2 X4.3583 Y0.247 I-0.0016 J0.0047
G1 X4.3499 Y0.2454
G2 X4.3493 Y0.2453 I-0.0009 J0.0049
G1 X4.3408 Y0.2449
G2 X4.3402 I-0.0003 J0.005
G1 X4.3324 Y0.2454
G2 X4.3318 I0.0003 J0.005
G1 X4.3242 Y0.2469
G2 X4.3235 Y0.247 I0.0009 J0.0049
G1 X4.3161 Y0.2495
G2 X4.3154 Y0.2498 I0.0016 J0.0047
G1 X4.3085 Y0.2532
G2 X4.3078 Y0.2536 I0.0022 J0.0045
G1 X4.3015 Y0.2582
G2 X4.3009 Y0.2586 I0.0029 J0.0041
G1 X4.2953 Y0.2639
G2 X4.2948 Y0.2644 I0.0034 J0.0036
G1 X4.2899 Y0.2704
G2 X4.2895 Y0.2709 I0.0039 J0.0032
G1 X4.285 Y0.2782
G2 X4.2846 Y0.2788 I0.0042 J0.0026
G1 X4.2812 Y0.2867
G2 X4.281 Y0.2873 I0.0046 J0.002
G1 X4.2786 Y0.2955
G2 X4.2784 Y0.2961 I0.0048 J0.0014
G1 X4.2771 Y0.3046
G2 Y0.3052 I0.0049 J0.0008
G1 X4.2767 Y0.3137
G2 Y0.3142 I0.005 J0.0002
G1 X4.2771 Y0.3235
G2 X4.2772 Y0.3241 I0.005 J-0.0003
G1 X4.2787 Y0.3333
G2 X4.2789 Y0.3339 I0.0049 J-0.0008
G1 X4.2815 Y0.3428
G2 X4.2818 Y0.3435 I0.0048 J-0.0014
G1 X4.2857 Y0.352
G2 X4.2861 Y0.3526 I0.0045 J-0.0021
G1 X4.2913 Y0.3604
G2 X4.2917 Y0.361 I0.0042 J-0.0028
G1 X4.298 Y0.3679
G2 X4.2985 Y0.3684 I0.0037 J-0.0033
G1 X4.3041 Y0.3731
G2 X4.3046 Y0.3735 I0.0032 J-0.0038
G1 X4.3108 Y0.3774
G2 X4.3114 Y0.3777 I0.0027 J-0.0042
G1 X4.3181 Y0.3808
G2 X4.3187 Y0.3811 I0.0021 J-0.0045
G1 X4.3257 Y0.3832
G2 X4.3263 Y0.3834 I0.0015 J-0.0048
G1 X4.3335 Y0.3846
G2 X4.3341 I0.0008 J-0.0049
G1 X4.3414 Y0.385
G2 X4.342 I0.0003 J-0.005
G1 X4.3492 Y0.3846
G2 X4.3498 Y0.3845 I-0.0003 J-0.005
G1 X4.3569 Y0.3834
G2 X4.3576 Y0.3832 I-0.0008 J-0.0049
G1 X4.3645 Y0.381
G2 X4.3652 Y0.3808 I-0.0015 J-0.0048
G1 X4.3717 Y0.3777
G2 X4.3724 Y0.3773 I-0.0021 J-0.0045
G1 X4.3784 Y0.3732
G2 X4.379 Y0.3727 I-0.0028 J-0.0041
G1 X4.3843 Y0.3678
G2 X4.3848 Y0.3673 I-0.0034 J-0.0037
G1 X4.3902 Y0.3606
G2 X4.3905 Y0.3601 I-0.0039 J-0.0031
G1 X4.395 Y0.3529
G2 X4.3953 Y0.3523 I-0.0042 J-0.0026
G1 X4.3989 Y0.3446
G2 X4.3991 Y0.3442 I-0.0045 J-0.0021
G1 X4.4007 Y0.3397
X4.4788 Y0.345
X4.4772 Y0.3512
X4.4735 Y0.3628
X4.4691 Y0.3742
X4.4638 Y0.3852
X4.4591 Y0.3935
X4.4539 Y0.4014
X4.4481 Y0.4089
X4.4417 Y0.4158
X4.4327 Y0.4241
X4.4231 Y0.4316
X4.4129 Y0.4381
X4.4021 Y0.4436
X4.3908 Y0.4481
X4.3793 Y0.4514
X4.3676 Y0.4537
X4.3557 Y0.4549
X4.3437 Y0.4554
X4.332 Y0.455
X4.3204 Y0.4538
X4.3089 Y0.4516
X4.2977 Y0.4485
X4.2868 Y0.4445
X4.2764 Y0.4394
X4.2646 Y0.4324
X4.2536 Y0.4241
X4.2434 Y0.4149
X4.2341 Y0.4047
X4.2267 Y0.395
X4.2201 Y0.3846
X4.2146 Y0.3738
X4.2101 Y0.3624
X4.2067 Y0.3506
X4.2043 Y0.3386
X4.2029 Y0.3264
X4.2024 Y0.3141
X4.2029 Y0.3025
X4.204 Y0.291
X4.2061 Y0.2797
X4.2091 Y0.2686
X4.2131 Y0.2578
X4.218 Y0.2474
X4.2249 Y0.2358
X4.233 Y0.2249
X4.2421 Y0.2148
X4.2521 Y0.2056
X4.2617 Y0.1983
X4.2719 Y0.1918
X4.2827 Y0.1864
X4.294 Y0.182
X4.3056 Y0.1786
X4.3174 Y0.1763
X4.3295 Y0.175
X4.3417 Y0.1745
X4.3531 Y0.1749
X4.3644 Y0.1759
X4.3755 Y0.1778
X4.3864 Y0.1806
X4.3971 Y0.1843
X4.4073 Y0.189
X4.4187 Y0.1957
X4.4293 Y0.2036
X4.4389 Y0.2126
X4.4476 Y0.2227
X4.4554 Y0.2338
X4.462 Y0.2456
X4.4663 Y0.255
G3 X4.4658 Y0.2563 I-0.0009 J0.0004
G1 X4.4648 Y0.2567
X4.4642 Y0.257 Z-0.0194
X4.4639 Y0.2571 Z-0.0187
G0 Z0.2
X4.8784 Y0.3714
G1 Z0.0394 F13.33
Z-0.0187
G18 G2 X4.8794 Z-0.0197 I0.001
G1 X4.8804 F40
G17 G3 X4.8814 Y0.3724 J0.001
G2 X4.8864 Y0.3774 I0.005
G1 X4.9465
Y0.4478
X4.7498
Y0.3774
X4.8061
G2 X4.8111 Y0.3724 J-0.005
G1 Y0.1822
X4.8814
Y0.3724
G3 X4.8804 Y0.3734 I-0.001
G1 X4.8794
G18 G3 X4.8784 Z-0.0187 K0.001
G0 Z0.2
X5.0938 Y0.3764
G1 Z0.0394 F13.33
Z-0.0187
X5.094 Y0.3762 Z-0.0194
X5.0946 Y0.3758 Z-0.0197
X5.0954 Y0.3752 F40
G17 G3 X5.0968 Y0.3754 I0.0006 J0.0008
G2 X5.1008 Y0.3774 I0.004 J-0.003
G1 X5.1609
Y0.4478
X4.9642
Y0.3774
X5.0204
G2 X5.0254 Y0.3724 J-0.005
G1 Y0.1822
X5.0958
Y0.3724
G2 X5.0968 Y0.3754 I0.005
G3 X5.0966 Y0.3768 I-0.0008 J0.0006
G1 X5.0958 Y0.3774
X5.0952 Y0.3778 Z-0.0194
X5.095 Y0.378 Z-0.0187
G0 Z0.2
X5.2689 Y0.4116
G1 Z0.0394 F13.33
Z-0.0187
G18 G2 X5.2699 Z-0.0197 I0.001
G1 X5.2709 F40
G17 G3 X5.2719 Y0.4126 J0.001
G1 Y0.4478
X5.2015
Y0.1822
X5.2719
Y0.4126
G3 X5.2709 Y0.4136 I-0.001
G1 X5.2699
G18 G3 X5.2689 Z-0.0187 K0.001
G0 Z0.2
X5.4044 Y0.3683
G1 Z0.0394 F13.33
Z-0.0187
X5.4046 Y0.3682 Z-0.0194
X5.4053 Y0.368 Z-0.0197
X5.4063 Y0.3677 F40
G17 G3 X5.4075 Y0.3683 I0.0003 J0.0009
G1 X5.4089 Y0.3721
G2 X5.4093 Y0.373 I0.0047 J-0.0017
G1 X5.4114 Y0.3764
G2 X5.4121 Y0.3774 I0.0043 J-0.0026
G1 X5.4149 Y0.3802
G2 X5.416 Y0.381 I0.0035 J-0.0035
G1 X5.4194 Y0.383
G2 X5.4205 Y0.3834 I0.0025 J-0.0043
G1 X5.4244 Y0.3845
G2 X5.4253 Y0.3847 I0.0013 J-0.0048
G1 X5.4292 Y0.385
G2 X5.4301 I0.0004 J-0.005
G1 X5.4342 Y0.3847
G2 X5.4351 Y0.3845 I-0.0004 J-0.005
G1 X5.439 Y0.3834
G2 X5.4401 Y0.383 I-0.0013 J-0.0048
G1 X5.4437 Y0.381
G2 X5.4447 Y0.3802 I-0.0024 J-0.0044
G1 X5.4476 Y0.3774
G2 X5.4485 Y0.3764 I-0.0035 J-0.0036
G1 X5.4506 Y0.3728
G2 X5.451 Y0.3719 I-0.0043 J-0.0026
G1 X5.4527 Y0.3669
G2 X5.453 Y0.366 I-0.0047 J-0.0017
G1 X5.4538 Y0.3607
G2 X5.4539 Y0.3602 I-0.0049 J-0.0008
G1 X5.4541 Y0.3548
Y0.3546
Y0.1822
X5.5245
Y0.3545
X5.5241 Y0.367
X5.5228 Y0.3793
X5.5205 Y0.3914
X5.5169 Y0.4031
X5.5132 Y0.4118
X5.5085 Y0.42
X5.5029 Y0.4276
X5.4964 Y0.4344
X5.489 Y0.4404
X5.4808 Y0.4453
X5.4719 Y0.4493
X5.4627 Y0.4521
X5.4531 Y0.454
X5.4433 Y0.4551
X5.4335 Y0.4554
X5.4235 Y0.4551
X5.4137 Y0.454
X5.404 Y0.4521
X5.3946 Y0.4493
X5.3856 Y0.4455
X5.3772 Y0.4409
X5.3695 Y0.4353
X5.3623 Y0.4289
X5.3559 Y0.4218
X5.3501 Y0.4139
X5.3455 Y0.4054
X5.3416 Y0.3963
X5.3388 Y0.3869
X5.3368 Y0.3773
X5.3358 Y0.3674
X5.3354 Y0.3573
Y0.1822
X5.4058
Y0.3546
Y0.3548
X5.4059 Y0.3588
X5.406 Y0.3592
X5.4064 Y0.3632
G2 X5.4065 Y0.3637 I0.005 J-0.0005
G1 X5.4074 Y0.3677
G2 X5.4075 Y0.3683 I0.0049 J-0.0011
G3 X5.4069 Y0.3695 I-0.0009 J0.0003
G1 X5.406 Y0.3699
X5.4053 Y0.3701 Z-0.0194
X5.405 Y0.3702 Z-0.0187
G0 Z0.2
X5.6414 Y0.3293
G1 Z0.0394 F13.33
Z-0.0187
X5.6417 Z-0.0194
X5.6424 Y0.3292 Z-0.0197
X5.6434 Y0.329 F40
G3 X5.6445 Y0.3299 I0.0001 J0.001
G1 X5.6448 Y0.3316
G2 X5.6449 Y0.3322 I0.0049 J-0.0007
G1 X5.6471 Y0.3402
G2 X5.6473 Y0.3408 I0.0048 J-0.0013
G1 X5.6505 Y0.3484
G2 X5.6508 Y0.349 I0.0046 J-0.0019
G1 X5.6551 Y0.3561
G2 X5.6555 Y0.3567 I0.0043 J-0.0026
G1 X5.6606 Y0.3632
G2 X5.6611 Y0.3637 I0.0039 J-0.0031
G1 X5.6671 Y0.3694
G2 X5.6676 Y0.3698 I0.0035 J-0.0036
G1 X5.675 Y0.3751
G2 X5.6757 Y0.3755 I0.0029 J-0.0041
G1 X5.6838 Y0.3796
G2 X5.6845 Y0.3799 I0.0023 J-0.0045
G1 X5.6931 Y0.3827
G2 X5.6938 Y0.3829 I0.0015 J-0.0048
G1 X5.7028 Y0.3845
G2 X5.7033 I0.0009 J-0.0049
G1 X5.7124 Y0.385
G2 X5.713 I0.0003 J-0.005
G1 X5.7199 Y0.3846
G2 X5.7204 Y0.3845 I-0.0003 J-0.005
G1 X5.7271 Y0.3834
G2 X5.7276 Y0.3832 I-0.0008 J-0.0049
G1 X5.7342 Y0.3814
G2 X5.7346 Y0.3813 I-0.0014 J-0.0048
G1 X5.7421 Y0.3784
X5.7425 Y0.3783
X5.7426 Y0.3782
Y0.4478
X5.734 Y0.4506
X5.7219 Y0.4535
X5.7123 Y0.4549
X5.7026 Y0.4554
X5.6914 Y0.455
X5.6801 Y0.4538
X5.6691 Y0.4517
X5.6583 Y0.4486
X5.6478 Y0.4446
X5.6378 Y0.4396
X5.6266 Y0.4326
X5.6161 Y0.4244
X5.6065 Y0.4152
X5.5978 Y0.4052
X5.5909 Y0.3956
X5.5849 Y0.3854
X5.5799 Y0.3747
X5.5758 Y0.3636
X5.5727 Y0.3522
X5.5705 Y0.3405
X5.5693 Y0.3286
X5.5689 Y0.3167
X5.5694 Y0.3032
X5.571 Y0.2897
X5.5737 Y0.2765
X5.5777 Y0.2637
X5.5828 Y0.2512
X5.589 Y0.2396
X5.5963 Y0.2286
X5.6046 Y0.2182
X5.6137 Y0.2087
X5.6216 Y0.2017
X5.63 Y0.1953
X5.639 Y0.1898
X5.6483 Y0.185
X5.6581 Y0.1811
X5.668 Y0.1782
X5.678 Y0.1761
X5.6883 Y0.1749
X5.6987 Y0.1745
X5.7091 Y0.1749
X5.7195 Y0.1763
X5.7296 Y0.1786
X5.7394 Y0.1821
X5.7488 Y0.1865
X5.7576 Y0.192
X5.7658 Y0.1984
X5.7732 Y0.2056
X5.7793 Y0.2126
X5.7845 Y0.2203
X5.7888 Y0.2285
X5.7921 Y0.2371
X5.7944 Y0.246
X5.7958 Y0.2552
X5.7962 Y0.2645
X5.7957 Y0.2741
X5.794 Y0.2835
X5.7913 Y0.2927
X5.7876 Y0.3016
X5.7828 Y0.3105
X5.7771 Y0.319
X5.7721 Y0.3253
X5.7029
Y0.274
X5.7169
X5.7171
X5.7198 Y0.2739
G2 X5.7205 Y0.2738 I-0.0002 J-0.005
G1 X5.7231 Y0.2733
G2 X5.7239 Y0.2731 I-0.0009 J-0.0049
G1 X5.7265 Y0.2722
G2 X5.7278 Y0.2715 I-0.0017 J-0.0047
G1 X5.7294 Y0.2703
G2 X5.7304 Y0.2693 I-0.003 J-0.004
G1 X5.7316 Y0.2677
G2 X5.7324 Y0.2664 I-0.004 J-0.003
G1 X5.733 Y0.2644
G2 X5.7333 Y0.2633 I-0.0047 J-0.0017
G1 X5.7335 Y0.2613
G2 Y0.2601 I-0.005 J-0.0005
G1 X5.7331 Y0.2572
G2 X5.7326 Y0.2556 I-0.005 J0.0007
G1 X5.7313 Y0.253
G2 X5.7303 Y0.2516 I-0.0045 J0.0022
G1 X5.7282 Y0.2495
G2 X5.727 Y0.2487 I-0.0035 J0.0036
G1 X5.7244 Y0.2473
G2 X5.7235 Y0.2469 I-0.0023 J0.0044
G1 X5.7197 Y0.2458
G2 X5.7188 Y0.2456 I-0.0015 J0.0048
G1 X5.7149 Y0.2451
G2 X5.7145 I-0.0006 J0.005
G1 X5.7105 Y0.2449
G2 X5.7101 I-0.0002 J0.005
G1 X5.702 Y0.2453
G2 X5.7015 I0.0002 J0.005
G1 X5.6935 Y0.2465
G2 X5.6929 Y0.2466 I0.0007 J0.0049
G1 X5.6851 Y0.2488
G2 X5.6844 Y0.249 I0.0013 J0.0048
G1 X5.677 Y0.2522
G2 X5.6763 Y0.2526 I0.002 J0.0046
G1 X5.6695 Y0.2568
G2 X5.6689 Y0.2573 I0.0026 J0.0043
G1 X5.6627 Y0.2625
G2 X5.6622 Y0.263 I0.0032 J0.0038
G1 X5.6568 Y0.2691
G2 X5.6563 Y0.2697 I0.0038 J0.0033
G1 X5.6516 Y0.2773
G2 X5.6512 Y0.2779 I0.0042 J0.0027
G1 X5.6476 Y0.2861
G2 X5.6474 Y0.2868 I0.0046 J0.002
G1 X5.6451 Y0.2954
G2 X5.6449 Y0.2959 I0.0048 J0.0013
G1 X5.6436 Y0.3047
G2 X5.6435 Y0.3053 I0.0049 J0.0008
G1 X5.6432 Y0.3142
G2 Y0.3147 I0.005 J0.0002
G1 X5.6435 Y0.3229
G2 X5.6436 Y0.3234 I0.005 J-0.0002
G1 X5.6445 Y0.3299
G3 X5.6437 Y0.331 I-0.001 J0.0001
G1 X5.6427 Y0.3311
X5.642 Y0.3312 Z-0.0194
X5.6417 Y0.3313 Z-0.0187
G0 Z0.2
X5.9247 Y0.4135
G1 Z0.0394 F13.33
Z-0.0187
X5.925 Z-0.0194
X5.9257 Z-0.0197
X5.9267 F40
G3 X5.9277 Y0.4145 J0.001
G1 X5.928 Y0.4478
X5.8608
X5.8648 Y0.2855
X5.9267
X5.9277 Y0.4145
G3 X5.9267 Y0.4155 I-0.001
G1 X5.9257
X5.925 Z-0.0194
X5.9247 Z-0.0187
G0 Z0.2
X5.9231 Y0.2488
G1 Z0.0394 F13.33
Z-0.0187
X5.9233 Y0.249 Z-0.0194
X5.9238 Y0.2495 Z-0.0197
X5.9245 Y0.2503 F40
G3 Y0.2517 I-0.0007 J0.0007
G1 X5.9221 Y0.254
X5.9173 Y0.2576
X5.9121 Y0.2604
X5.9065 Y0.2624
X5.9007 Y0.2636
X5.8947 Y0.264
X5.8884 Y0.2636
X5.8822 Y0.2623
X5.8764 Y0.2601
X5.8711 Y0.2569
X5.8661 Y0.253
X5.8617 Y0.2483
X5.8583 Y0.2435
X5.8556 Y0.2383
X5.8537 Y0.2327
X5.8526 Y0.2269
X5.8522 Y0.2209
X5.8526 Y0.2145
X5.8537 Y0.2083
X5.8558 Y0.2023
X5.8588 Y0.1969
X5.8626 Y0.1919
X5.8671 Y0.1876
X5.8719 Y0.1842
X5.8772 Y0.1816
X5.8828 Y0.1797
X5.8887 Y0.1787
X5.8947 Y0.1783
X5.9011 Y0.1788
X5.9072 Y0.18
X5.9131 Y0.1822
X5.9185 Y0.1852
X5.9235 Y0.1891
X5.928 Y0.1936
X5.9315 Y0.1983
X5.9343 Y0.2035
X5.9363 Y0.209
X5.9375 Y0.2148
X5.9379 Y0.2207
X5.9374 Y0.2271
X5.9361 Y0.2332
X5.9338 Y0.2391
X5.9307 Y0.2445
X5.9267 Y0.2495
X5.9245 Y0.2517
G3 X5.923 Y0.2516 I-0.0007 J-0.0007
G1 X5.9223 Y0.2509
X5.9219 Y0.2504 Z-0.0194
X5.9217 Y0.2502 Z-0.0187
G0 Z0.2
X4.0514 Y0.3645
G1 Z0.0394 F13.33
Z-0.0187
X4.0517 Z-0.0194
X4.0524 Y0.3646 Z-0.0197
X4.0534 F40
G3 X4.0543 Y0.3656 J0.001
G1 Y0.367
X4.053 Y0.3793
X4.0507 Y0.3914
X4.0471 Y0.4031
X4.0434 Y0.4118
X4.0387 Y0.42
X4.0331 Y0.4276
X4.0266 Y0.4344
X4.0192 Y0.4404
X4.0109 Y0.4453
X4.0021 Y0.4493
X3.9929 Y0.4521
X3.9833 Y0.454
X3.9735 Y0.4551
X3.9637 Y0.4554
X3.9537 Y0.4551
X3.9439 Y0.454
X3.9342 Y0.4521
X3.9248 Y0.4493
X3.9158 Y0.4455
X3.9074 Y0.4409
X3.8996 Y0.4353
X3.8925 Y0.4289
X3.886 Y0.4218
X3.8803 Y0.4139
X3.8756 Y0.4054
X3.8718 Y0.3963
X3.869 Y0.3869
X3.867 Y0.3773
X3.866 Y0.3674
X3.8656 Y0.3573
Y0.1822
X3.936
Y0.3546
Y0.3548
X3.9361 Y0.3588
X3.9362 Y0.3592
X3.9366 Y0.3632
G2 X3.9367 Y0.3637 I0.005 J-0.0005
G1 X3.9375 Y0.3676
G2 X3.9377 Y0.3683 I0.0049 J-0.001
G1 X3.9391 Y0.3721
G2 X3.9395 Y0.373 I0.0047 J-0.0017
G1 X3.9416 Y0.3764
G2 X3.9423 Y0.3774 I0.0043 J-0.0026
G1 X3.9451 Y0.3802
G2 X3.9462 Y0.381 I0.0036 J-0.0035
G1 X3.9496 Y0.383
G2 X3.9507 Y0.3834 I0.0025 J-0.0043
G1 X3.9546 Y0.3845
G2 X3.9555 Y0.3847 I0.0013 J-0.0048
G1 X3.9594 Y0.385
G2 X3.9603 I0.0004 J-0.005
G1 X3.9643 Y0.3847
G2 X3.9652 Y0.3845 I-0.0004 J-0.005
G1 X3.9691 Y0.3834
G2 X3.9703 Y0.383 I-0.0013 J-0.0048
G1 X3.9738 Y0.381
G2 X3.9749 Y0.3802 I-0.0024 J-0.0044
G1 X3.9778 Y0.3774
G2 X3.9787 Y0.3764 I-0.0035 J-0.0036
G1 X3.9808 Y0.3728
G2 X3.9812 Y0.3719 I-0.0043 J-0.0026
G1 X3.9829 Y0.3669
G2 X3.9831 Y0.366 I-0.0047 J-0.0016
G1 X3.984 Y0.3608
G2 X3.9841 Y0.3602 I-0.0049 J-0.0008
G1 X3.9843 Y0.3548
Y0.3546
Y0.1822
X4.0546
Y0.3545
X4.0543 Y0.3656
G3 X4.0533 Y0.3666 I-0.001
G1 X4.0523
X4.0516 Y0.3665 Z-0.0194
X4.0513 Z-0.0187
G0 Z0.2
X3.7708 Y0.3376
G1 Z0.0394 F13.33
Z-0.0187
Y0.3379 Z-0.0194
Y0.3386 Z-0.0197
Y0.3396 F40
G3 X3.7698 Y0.3406 I-0.001
G1 X3.7645 Y0.3407
X3.7642
X3.7589 Y0.3412
G2 X3.7584 Y0.3413 I0.0005 J0.005
G1 X3.7532 Y0.3424
G2 X3.7524 Y0.3426 I0.001 J0.0049
G1 X3.7499 Y0.3436
G2 X3.7489 Y0.344 I0.0018 J0.0047
G1 X3.7467 Y0.3455
G2 X3.7458 Y0.3464 I0.0028 J0.0042
G1 X3.744 Y0.3483
G2 X3.7432 Y0.3495 I0.0037 J0.0033
G1 X3.7421 Y0.3518
G2 X3.7417 Y0.353 I0.0045 J0.0022
G1 X3.7411 Y0.3556
G2 X3.741 Y0.3562 I0.0049 J0.0011
G1 X3.7408 Y0.3589
G2 Y0.36 I0.005 J0.0004
G1 X3.7413 Y0.3636
G2 X3.7418 Y0.3651 I0.005 J-0.0007
G1 X3.7435 Y0.3684
G2 X3.7445 Y0.3698 I0.0045 J-0.0023
G1 X3.7472 Y0.3723
G2 X3.7483 Y0.373 I0.0034 J-0.0037
G1 X3.7515 Y0.3747
G2 X3.7525 Y0.3751 I0.0023 J-0.0044
G1 X3.7572 Y0.3764
G2 X3.7578 Y0.3765 I0.0013 J-0.0048
G1 X3.7626 Y0.3772
G2 X3.7632 I0.0007 J-0.005
G1 X3.768 Y0.3774
X3.7682
X3.8135
Y0.4478
X3.7495
X3.741 Y0.4475
X3.7327 Y0.4467
X3.7245 Y0.4454
X3.7166 Y0.4434
X3.7089 Y0.4406
X3.7017 Y0.4371
X3.695 Y0.4328
X3.6889 Y0.4278
X3.6835 Y0.4221
X3.6779 Y0.4145
X3.6735 Y0.4062
X3.6703 Y0.3972
X3.6682 Y0.3879
X3.667 Y0.3783
X3.6666 Y0.3685
Y0.263
X3.6669 Y0.2541
X3.6678 Y0.2455
X3.6695 Y0.237
X3.6721 Y0.2288
X3.6755 Y0.221
X3.6797 Y0.2138
X3.6849 Y0.2073
X3.6908 Y0.2015
X3.6975 Y0.1966
X3.7063 Y0.1917
X3.7156 Y0.1879
X3.7254 Y0.1852
X3.7355 Y0.1835
X3.7458 Y0.1825
X3.7562 Y0.1822
X3.8135
Y0.2525
X3.7653
X3.7652
X3.76 Y0.2527
X3.7598
X3.7545 Y0.2531
G2 X3.7541 I0.0004 J0.005
G1 X3.7489 Y0.254
G2 X3.7481 Y0.2542 I0.0008 J0.0049
G1 X3.7456 Y0.255
G2 X3.7445 Y0.2556 I0.0016 J0.0047
G1 X3.7423 Y0.257
G2 X3.7411 Y0.2582 I0.0027 J0.0042
G1 X3.7395 Y0.2603
G2 X3.7387 Y0.2618 I0.004 J0.003
G1 X3.7375 Y0.2655
G2 X3.7373 Y0.2666 I0.0048 J0.0015
G1 X3.737 Y0.2705
G2 Y0.2714 I0.005 J0.0004
G1 X3.7373 Y0.2748
G2 X3.7375 Y0.2759 I0.005 J-0.0004
G1 X3.7386 Y0.2792
G2 X3.7393 Y0.2806 I0.0048 J-0.0015
G1 X3.7413 Y0.2834
G2 X3.7426 Y0.2846 I0.004 J-0.0029
G1 X3.7455 Y0.2865
G2 X3.7468 Y0.2871 I0.0027 J-0.0042
G1 X3.7512 Y0.2884
G2 X3.752 Y0.2885 I0.0014 J-0.0048
G1 X3.7565 Y0.2891
G2 X3.757 Y0.2892 I0.0007 J-0.005
G1 X3.7616 Y0.2893
X3.7618
X3.8097
Y0.3406
X3.77
X3.7698
G3 X3.7688 Y0.3396 J-0.001
G1 Y0.3386
Y0.3379 Z-0.0194
Y0.3376 Z-0.0187
G0 Z0.2
X3.6038 Y0.4116
G1 Z0.0394 F13.33
Z-0.0187
G18 G2 X3.6048 Z-0.0197 I0.001
G1 X3.6058 F40
G17 G3 X3.6068 Y0.4126 J0.001
G1 Y0.4478
X3.5364
Y0.1822
X3.6068
Y0.4126
G3 X3.6058 Y0.4136 I-0.001
G1 X3.6048
G18 G3 X3.6038 Z-0.0187 K0.001
G0 Z0.2
X3.4851 Y0.3464
G1 Z0.0394 F13.33
Z-0.0187
X3.4853 Y0.3466 Z-0.0194
X3.4857 Y0.3472 Z-0.0197
X3.4863 Y0.3479 F40
G17 G3 X3.4862 Y0.3494 I-0.0008 J0.0006
G2 X3.4843 Y0.3532 I0.0032 J0.0039
G1 Y0.4478
X3.414
Y0.1822
X3.4843
Y0.2767
G2 X3.4893 Y0.2817 I0.005
G1 X3.5073
Y0.3482
X3.4893
G2 X3.4862 Y0.3494 J0.005
G3 X3.4848 Y0.3492 I-0.0006 J-0.0008
G1 X3.4841 Y0.3484
X3.4837 Y0.3479 Z-0.0194
X3.4835 Y0.3477 Z-0.0187
G0 Z0.2
X3.3512 Y0.2716
G1 Z0.0394 F13.33
Z-0.0187
G18 G2 X3.3522 Z-0.0197 I0.001
G1 X3.3532 F40
G17 G3 X3.3542 Y0.2726 J0.001
G1 Y0.4478
X3.2838
Y0.2742
Y0.274
X3.2836 Y0.2688
G2 Y0.2683 I-0.005 J0.0002
G1 X3.2829 Y0.2631
G2 X3.2828 Y0.2624 I-0.005 J0.0006
G1 X3.2814 Y0.2574
G2 X3.281 Y0.2564 I-0.0048 J0.0013
G1 X3.2792 Y0.2529
G2 X3.2785 Y0.2518 I-0.0044 J0.0023
G1 X3.2758 Y0.2489
G2 X3.2747 Y0.2479 I-0.0037 J0.0034
G1 X3.2724 Y0.2466
G2 X3.2713 Y0.2461 I-0.0026 J0.0043
G1 X3.2688 Y0.2453
G2 X3.2678 Y0.2451 I-0.0014 J0.0048
G1 X3.2651 Y0.2449
G2 X3.2644 I-0.0004 J0.005
G1 X3.2618 Y0.2451
G2 X3.2609 Y0.2452 I0.0003 J0.005
G1 X3.2584 Y0.2458
G2 X3.2572 Y0.2462 I0.0012 J0.0049
G1 X3.2549 Y0.2475
G2 X3.2537 Y0.2483 I0.0023 J0.0044
G1 X3.2518 Y0.2501
G2 X3.2509 Y0.2513 I0.0035 J0.0036
G1 X3.2497 Y0.2536
G2 X3.2493 Y0.2546 I0.0044 J0.0024
G1 X3.2485 Y0.2571
G2 X3.2484 Y0.2578 I0.0048 J0.0014
G1 X3.2476 Y0.263
G2 X3.2475 Y0.2634 I0.0049 J0.0008
G1 X3.2471 Y0.2686
Y0.2689
X3.247 Y0.2741
Y0.2742
Y0.4478
X3.1766
Y0.2742
Y0.2728
Y0.2727
X3.1765 Y0.2678
G2 Y0.2674 I-0.005 J0.0001
G1 X3.1759 Y0.2626
G2 X3.1758 Y0.262 I-0.005 J0.0006
G1 X3.1746 Y0.2573
G2 X3.1744 Y0.2565 I-0.0049 J0.0012
G1 X3.1729 Y0.2532
G2 X3.1723 Y0.2521 I-0.0046 J0.002
G1 X3.17 Y0.2492
G2 X3.169 Y0.2483 I-0.0039 J0.0031
G1 X3.167 Y0.2469
G2 X3.1658 Y0.2462 I-0.0029 J0.0041
G1 X3.1635 Y0.2454
G2 X3.1624 Y0.2452 I-0.0017 J0.0047
G1 X3.16 Y0.2449
G2 X3.159 I-0.0005 J0.005
G1 X3.1565 Y0.2451
G2 X3.1555 Y0.2453 I0.0004 J0.005
G1 X3.1531 Y0.246
G2 X3.1517 Y0.2467 I0.0014 J0.0048
G1 X3.1496 Y0.2481
G2 X3.1484 Y0.2493 I0.0028 J0.0041
G1 X3.1469 Y0.2513
G2 X3.1462 Y0.2526 I0.004 J0.003
G1 X3.1454 Y0.255
G2 X3.1452 Y0.2557 I0.0047 J0.0017
G1 X3.1447 Y0.2582
G2 X3.1446 Y0.2586 I0.0049 J0.001
G1 X3.1439 Y0.2662
G2 X3.1438 Y0.2666 I0.005 J0.0005
G1 X3.1437 Y0.2741
Y0.2742
Y0.4478
X3.0733
Y0.2619
X3.0736 Y0.2514
X3.0745 Y0.2412
X3.0762 Y0.2311
X3.0787 Y0.2213
X3.0814 Y0.2139
X3.0848 Y0.2068
X3.0888 Y0.2002
X3.0937 Y0.1941
X3.0993 Y0.1887
X3.1057 Y0.1841
X3.1126 Y0.1805
X3.12 Y0.1777
X3.1278 Y0.1759
X3.1357 Y0.1748
X3.1438 Y0.1745
X3.1527 Y0.1749
X3.1614 Y0.1762
X3.1698 Y0.1784
X3.1777 Y0.1817
X3.1849 Y0.1863
X3.1915 Y0.1918
X3.1974 Y0.198
X3.2028 Y0.2049
X3.2079 Y0.2124
G2 X3.2162 Y0.2122 I0.0041 J-0.0028
G1 X3.221 Y0.2047
X3.2262 Y0.1978
X3.2321 Y0.1917
X3.2386 Y0.1863
X3.2458 Y0.1819
X3.2534 Y0.1786
X3.2614 Y0.1763
X3.2696 Y0.1749
X3.2781 Y0.1745
X3.2868 Y0.1749
X3.2955 Y0.1762
X3.3039 Y0.1783
X3.3119 Y0.1815
X3.3195 Y0.1856
X3.3264 Y0.1907
X3.3328 Y0.1966
X3.3384 Y0.2032
X3.3434 Y0.2108
X3.3475 Y0.2189
X3.3505 Y0.2275
X3.3526 Y0.2364
X3.3538 Y0.2456
X3.3542 Y0.255
Y0.2726
G3 X3.3532 Y0.2736 I-0.001
G1 X3.3522
G18 G3 X3.3512 Z-0.0187 K0.001
G0 Z0.6
G17
M9
G28 G91 Z0
G28 X0 Y0
M30
%
